/* XPM */
static char *tile015[] = {
/* columns rows colors chars-per-pixel */
"32 32 6 1",
/* colors */
"! c #000000",
"# c #2E2533",
"$ c #322125",
"% c #A884F3",
"& c #EAADED",
"' c #FFFFFF",
/* pixels */
"!!!!!!!!!!!!!!!!!!!!!!!!!!!!!!!!",
"!!!!!!!!!!!!!!!!!!!!!!!!!!!!!!!!",
"!!!!!!!!!!!!!!!!!!!!!!!!!!!!!!!!",
"!!!!!!!!!!!!!!####!!!!!!!!!!!!!!",
"!!!!!!!!!!!!!#&&&&#!!!!!!!!!!!!!",
"!!!!!!!!!!!!!#&&&&#!!!!!!!!!!!!!",
"!!!!!!!!!!!!!#''''#!!!!!!!!!!!!!",
"!!!!!!!!!!!!!#''''#!!!!!!!!!!!!!",
"!!!!!!!!!!!!!#''''#!!!!!!!!!!!!!",
"!!!!!!!!!!!!!#''''#!!!!!!!!!!!!!",
"!!!!!!!!!!!!!#''''#!!!!!!!!!!!!!",
"!!!!!!!!!!!!!#''''#!!!!!!!!!!!!!",
"!!!!!!!!!!!!!#''''#!!!!!!!!!!!!!",
"!!!!!!!!!!!!!#%%%%#!!!!!!!!!!!!!",
"!!!!!!!!!!!!!#%%%%#!!!!!!!!!!!!!",
"!!!!!!!!!!!!!#&&&&#!!!!!!!!!!!!!",
"!!!!!!!!!!!!!#&&&&#!!!!!!!!!!!!!",
"!!!!!!!!!!!!!#&&&&#!!!!!!!!!!!!!",
"!!!!!!!!!!!!!#&&&&#!!!!!!!!!!!!!",
"!!!!!!!!!!!!!#%%%%#!!!!!!!!!!!!!",
"!!!!!!!!!!!!!!####!!!!!!!!!!!!!!",
"!!!!!!!!!!!!!!!!!!!!!!!!!!!!!!!!",
"!!!!!!!!!!!!!!!!!!!!!!!!!!!!!!!!",
"!!!!!!!!!!!!!!!!!!!!!!!!!!!!!!!!",
"!!!!!!!!!!!!!!!!!!!!!!!!!!!!!!!!",
"!!!!!!!!!!!!!!!!!!!!!!!!!!!!!!!!",
"!!!!!!!!!!!!!$$$$$$!!!!!!!!!!!!!",
"!!!!!!!!!!!$$$$$$$$$$!!!!!!!!!!!",
"!!!!!!!!!!$$$$$$$$$$$$!!!!!!!!!!",
"!!!!!!!!!!!$$$$$$$$$$!!!!!!!!!!!",
"!!!!!!!!!!!!!$$$$$$!!!!!!!!!!!!!",
"!!!!!!!!!!!!!!!!!!!!!!!!!!!!!!!!"
};
