/* XPM */
static char *tile027[] = {
/* columns rows colors chars-per-pixel */
"32 32 6 1",
/* colors */
"! c #000000",
"# c #2E2533",
"$ c #322125",
"% c #9BABB2",
"& c #C7DCD0",
"' c #FFFFFF",
/* pixels */
"!!!!!!!!!!!!!!####!!!!!!!!!!!!!!",
"!!!!!!!!!!!!##&&&&##!!!!!!!!!!!!",
"!!!!!!!!!!##&&&&&&&&##!!!!!!!!!!",
"!!!!!!!!!#&&&&&&&&&&&%#!!!!!!!!!",
"!!!!!!!!#&&&%''''%%%&%%#!!!!!!!!",
"!!!!!!!!#&&%''''%%%%%%%#!!!!!!!!",
"!!!!!!!!#&%''''%%%%%%%%#!!!!!!!!",
"!!!!!!!#'%''''%%%%%%%%%%#!!!!!!!",
"!!!!!!!#'''''%%%%%%%%%%%#!!!!!!!",
"!!!!!!!#%'''&%%%%%%%%%%%#!!!!!!!",
"!!!!!!!#'''%%%%%%%%%%%%%#!!!!!!!",
"!!!!!!!!#'%%%%%%%%%%%%%#!!!!!!!!",
"!!!!!!!!#%%%#%%%%%%%%%%#!!!!!!!!",
"!!!!!!!!!#%%%##%%%%%%%#!!!!!!!!!",
"!!!!!!!!!#%%%%%%%%%%%%#!!!!!!!!!",
"!!!!!!!!!!##%%%%%%%%##!!!!!!!!!!",
"!!!!!!!!!!!!##%%%%##!!!!!!!!!!!!",
"!!!!!!!!!!!!!!####!!!!!!!!!!!!!!",
"!!!!!!!!!!!!!!!!!!!!!!!!!!!!!!!!",
"!!!!!!!!!!!!!!!!!!!!!!!!!!!!!!!!",
"!!!!!!!!!!!!!!!!!!!!!!!!!!!!!!!!",
"!!!!!!!!!!!!!!!!!!!!!!!!!!!!!!!!",
"!!!!!!!!!!!!!!!!!!!!!!!!!!!!!!!!",
"!!!!!!!!!!!!!!!!!!!!!!!!!!!!!!!!",
"!!!!!!!!!!!!!!!!!!!!!!!!!!!!!!!!",
"!!!!!!!!!!!!!!!!!!!!!!!!!!!!!!!!",
"!!!!!!!!!!!!!!$$$$!!!!!!!!!!!!!!",
"!!!!!!!!!!!!$$$$$$$$!!!!!!!!!!!!",
"!!!!!!!!!!!$$$$$$$$$$!!!!!!!!!!!",
"!!!!!!!!!!!!$$$$$$$$!!!!!!!!!!!!",
"!!!!!!!!!!!!!!$$$$!!!!!!!!!!!!!!",
"!!!!!!!!!!!!!!!!!!!!!!!!!!!!!!!!"
};
