/* XPM */
static char *tile004[] = {
/* columns rows colors chars-per-pixel */
"32 32 6 1",
/* colors */
"! c #000000",
"# c #1EBC73",
"$ c #2E2533",
"% c #322125",
"& c #CDDF6C",
"' c #FFFFFF",
/* pixels */
"!!!!!!!!!!!!!$$$$$!!!!!!!!!!!!!!",
"!!!!!!!!!!!!$&&&&&$$!!!!!!!!!!!!",
"!!!!!!!!!!!$&&&&&&&&$!!!!!!!!!!!",
"!!!!!!!!!!$&&&&&&&&&&$!!!!!!!!!!",
"!!!!!!!!!$&&&&&&&'&&&&$!!!!!!!!!",
"!!!!!!!!$&&&&&&&'''&&##$!!!!!!!!",
"!!!!!!!!$&&&#&&'''''###$!!!!!!!!",
"!!!!!!!$&&&#&&''''''&###$!!!!!!!",
"!!!!!!!$&&&#&''''''&&###$!!!!!!!",
"!!!!!!!$&&&#''''''&&&&##$!!!!!!!",
"!!!!!!!$&&&$'''''&&#&&##$!!!!!!!",
"!!!!!!!!$&'$#'''&&&&&&#$!!!!!!!!",
"!!!!!!!!$'''&#'&&&#&&&#$!!!!!!!!",
"!!!!!!!!!$''''&###&&&&$!!!!!!!!!",
"!!!!!!!!!!$''&&&&&&&&$!!!!!!!!!!",
"!!!!!!!!!!!$&&&&&&&&$!!!!!!!!!!!",
"!!!!!!!!!!!!$$$&&&$$!!!!!!!!!!!!",
"!!!!!!!!!!!!!!!$$$!!!!!!!!!!!!!!",
"!!!!!!!!!!!!!!!!!!!!!!!!!!!!!!!!",
"!!!!!!!!!!!!!!!!!!!!!!!!!!!!!!!!",
"!!!!!!!!!!!!!!!!!!!!!!!!!!!!!!!!",
"!!!!!!!!!!!!!!!!!!!!!!!!!!!!!!!!",
"!!!!!!!!!!!!!!!!!!!!!!!!!!!!!!!!",
"!!!!!!!!!!!!!!!!!!!!!!!!!!!!!!!!",
"!!!!!!!!!!!!!!!!!!!!!!!!!!!!!!!!",
"!!!!!!!!!!!!!!!!!!!!!!!!!!!!!!!!",
"!!!!!!!!!!!!!!%%%%!!!!!!!!!!!!!!",
"!!!!!!!!!!!!%%%%%%%%!!!!!!!!!!!!",
"!!!!!!!!!!!%%%%%%%%%%!!!!!!!!!!!",
"!!!!!!!!!!!!%%%%%%%%!!!!!!!!!!!!",
"!!!!!!!!!!!!!!%%%%!!!!!!!!!!!!!!",
"!!!!!!!!!!!!!!!!!!!!!!!!!!!!!!!!"
};
