/* XPM */
static char *tile020[] = {
/* columns rows colors chars-per-pixel */
"32 32 6 1",
/* colors */
"! c #000000",
"# c #2E2533",
"$ c #322125",
"% c #F9C22B",
"& c #FB6B1D",
"' c #FFFFFF",
/* pixels */
"!!!!!!!!!!!!!#####!!!!!!!!!!!!!!",
"!!!!!!!!!!!!#%%%%%##!!!!!!!!!!!!",
"!!!!!!!!!!!#%%%%%%%%#!!!!!!!!!!!",
"!!!!!!!!!!#%%%%%%%%%%#!!!!!!!!!!",
"!!!!!!!!!#%%%%%%%'%%%%#!!!!!!!!!",
"!!!!!!!!#%%%%%%%'''%%&&#!!!!!!!!",
"!!!!!!!!#%%%&%%'''''&&&#!!!!!!!!",
"!!!!!!!#%%%&%%''''''%&&&#!!!!!!!",
"!!!!!!!#%%%&%''''''%%&&&#!!!!!!!",
"!!!!!!!#%%%&''''''%%%%&&#!!!!!!!",
"!!!!!!!#%%%#'''''%%&%%&&#!!!!!!!",
"!!!!!!!!#%'#&'''%%%%%%&#!!!!!!!!",
"!!!!!!!!#'''%&'%%%&%%%&#!!!!!!!!",
"!!!!!!!!!#''''%&&&%%%%#!!!!!!!!!",
"!!!!!!!!!!#''%%%%%%%%#!!!!!!!!!!",
"!!!!!!!!!!!#%%%%%%%%#!!!!!!!!!!!",
"!!!!!!!!!!!!###%%%##!!!!!!!!!!!!",
"!!!!!!!!!!!!!!!###!!!!!!!!!!!!!!",
"!!!!!!!!!!!!!!!!!!!!!!!!!!!!!!!!",
"!!!!!!!!!!!!!!!!!!!!!!!!!!!!!!!!",
"!!!!!!!!!!!!!!!!!!!!!!!!!!!!!!!!",
"!!!!!!!!!!!!!!!!!!!!!!!!!!!!!!!!",
"!!!!!!!!!!!!!!!!!!!!!!!!!!!!!!!!",
"!!!!!!!!!!!!!!!!!!!!!!!!!!!!!!!!",
"!!!!!!!!!!!!!!!!!!!!!!!!!!!!!!!!",
"!!!!!!!!!!!!!!!!!!!!!!!!!!!!!!!!",
"!!!!!!!!!!!!!!$$$$!!!!!!!!!!!!!!",
"!!!!!!!!!!!!$$$$$$$$!!!!!!!!!!!!",
"!!!!!!!!!!!$$$$$$$$$$!!!!!!!!!!!",
"!!!!!!!!!!!!$$$$$$$$!!!!!!!!!!!!",
"!!!!!!!!!!!!!!$$$$!!!!!!!!!!!!!!",
"!!!!!!!!!!!!!!!!!!!!!!!!!!!!!!!!"
};
