/* XPM */
static char *tile044[] = {
/* columns rows colors chars-per-pixel */
"32 32 6 1",
/* colors */
"! c #000000",
"# c #2E2533",
"$ c #322125",
"% c #CD683D",
"& c #E6904E",
"' c #FFFFFF",
/* pixels */
"!!!!!!!!!!!!!#####!!!!!!!!!!!!!!",
"!!!!!!!!!!!!#&&&&&##!!!!!!!!!!!!",
"!!!!!!!!!!!#&&&&&&&&#!!!!!!!!!!!",
"!!!!!!!!!!#&&&&&&&&&&#!!!!!!!!!!",
"!!!!!!!!!#&&&&&&&'&&&&#!!!!!!!!!",
"!!!!!!!!#&&&&&&&'''&&%%#!!!!!!!!",
"!!!!!!!!#&&&%&&'''''%%%#!!!!!!!!",
"!!!!!!!#&&&%&&''''''&%%%#!!!!!!!",
"!!!!!!!#&&&%&''''''&&%%%#!!!!!!!",
"!!!!!!!#&&&%''''''&&&&%%#!!!!!!!",
"!!!!!!!#&&&#'''''&&%&&%%#!!!!!!!",
"!!!!!!!!#&'#%'''&&&&&&%#!!!!!!!!",
"!!!!!!!!#'''&%'&&&%&&&%#!!!!!!!!",
"!!!!!!!!!#''''&%%%&&&&#!!!!!!!!!",
"!!!!!!!!!!#''&&&&&&&&#!!!!!!!!!!",
"!!!!!!!!!!!#&&&&&&&&#!!!!!!!!!!!",
"!!!!!!!!!!!!###&&&##!!!!!!!!!!!!",
"!!!!!!!!!!!!!!!###!!!!!!!!!!!!!!",
"!!!!!!!!!!!!!!!!!!!!!!!!!!!!!!!!",
"!!!!!!!!!!!!!!!!!!!!!!!!!!!!!!!!",
"!!!!!!!!!!!!!!!!!!!!!!!!!!!!!!!!",
"!!!!!!!!!!!!!!!!!!!!!!!!!!!!!!!!",
"!!!!!!!!!!!!!!!!!!!!!!!!!!!!!!!!",
"!!!!!!!!!!!!!!!!!!!!!!!!!!!!!!!!",
"!!!!!!!!!!!!!!!!!!!!!!!!!!!!!!!!",
"!!!!!!!!!!!!!!!!!!!!!!!!!!!!!!!!",
"!!!!!!!!!!!!!!$$$$!!!!!!!!!!!!!!",
"!!!!!!!!!!!!$$$$$$$$!!!!!!!!!!!!",
"!!!!!!!!!!!$$$$$$$$$$!!!!!!!!!!!",
"!!!!!!!!!!!!$$$$$$$$!!!!!!!!!!!!",
"!!!!!!!!!!!!!!$$$$!!!!!!!!!!!!!!",
"!!!!!!!!!!!!!!!!!!!!!!!!!!!!!!!!"
};
