/* XPM */
static char *tile032[] = {
/* columns rows colors chars-per-pixel */
"32 32 6 1",
/* colors */
"! c #000000",
"# c #2E2533",
"$ c #322125",
"% c #C32454",
"& c #EA4F36",
"' c #FFFFFF",
/* pixels */
"!!!!!!!!!!!!!!!!!!!!!!!!!!!!!!!!",
"!!!!!!!!!!!!!!!!!!!!!!!!!!!!!!!!",
"!!!!!!!!!!!!!!!!!!!!!!!!!!!!!!!!",
"!!!!!!!!!!!!!!####!!!!!!!!!!!!!!",
"!!!!!!!!!!!!!#&&&&#!!!!!!!!!!!!!",
"!!!!!!!!!!!!!#&&&&%#!!!!!!!!!!!!",
"!!!!!!!!!!!!#'''''%#!!!!!!!!!!!!",
"!!!!!!!!!!!!#'''''##!!!!!!!!!!!!",
"!!!!!!!!!!!!#'''''##!!!!!!!!!!!!",
"!!!!!!!!!!!!#'''''##!!!!!!!!!!!!",
"!!!!!!!!!!!!#''''%##!!!!!!!!!!!!",
"!!!!!!!!!!!!#''''%&#!!!!!!!!!!!!",
"!!!!!!!!!!!!#''''%'#!!!!!!!!!!!!",
"!!!!!!!!!!!!#%'''%'#!!!!!!!!!!!!",
"!!!!!!!!!!!!#%%%%%'#!!!!!!!!!!!!",
"!!!!!!!!!!!!#&&&&%%#!!!!!!!!!!!!",
"!!!!!!!!!!!!#&&&&%%#!!!!!!!!!!!!",
"!!!!!!!!!!!!#&&&&%%#!!!!!!!!!!!!",
"!!!!!!!!!!!!#&&&&%#!!!!!!!!!!!!!",
"!!!!!!!!!!!!!##%%%#!!!!!!!!!!!!!",
"!!!!!!!!!!!!!!!###!!!!!!!!!!!!!!",
"!!!!!!!!!!!!!!!!!!!!!!!!!!!!!!!!",
"!!!!!!!!!!!!!!!!!!!!!!!!!!!!!!!!",
"!!!!!!!!!!!!!!!!!!!!!!!!!!!!!!!!",
"!!!!!!!!!!!!!!!!!!!!!!!!!!!!!!!!",
"!!!!!!!!!!!!!!!!!!!!!!!!!!!!!!!!",
"!!!!!!!!!!!!!$$$$$$!!!!!!!!!!!!!",
"!!!!!!!!!!!$$$$$$$$$$!!!!!!!!!!!",
"!!!!!!!!!!$$$$$$$$$$$$!!!!!!!!!!",
"!!!!!!!!!!!$$$$$$$$$$!!!!!!!!!!!",
"!!!!!!!!!!!!!$$$$$$!!!!!!!!!!!!!",
"!!!!!!!!!!!!!!!!!!!!!!!!!!!!!!!!"
};
