/* XPM */
static char *dirt_09[] = {
/* columns rows colors chars-per-pixel */
"64 64 1663 2",
/* colors */
"!! c #261C1B",
"!# c #261D1B",
"!$ c #261D1D",
"!% c #271E1C",
"!& c #27201D",
"!' c #281E1C",
"!( c #291D1C",
"!) c #291D1E",
"!* c #291E1C",
"!+ c #291F1D",
"!, c #292222",
"!- c #2A1D1D",
"!. c #2A1E1C",
"!/ c #2A1F1D",
"!0 c #2A2220",
"!1 c #2B1D1D",
"!2 c #2B1E1D",
"!3 c #2B1E1F",
"!4 c #2B1F1E",
"!5 c #2B201E",
"!6 c #2B201F",
"!7 c #2B2222",
"!8 c #2B2320",
"!9 c #2B2322",
"!: c #2C1E1D",
"!; c #2C1F1F",
"!< c #2C201D",
"!= c #2C2020",
"!> c #2C211E",
"!? c #2C211F",
"!@ c #2C2221",
"!A c #2D1F1E",
"!B c #2D201E",
"!C c #2D2020",
"!D c #2D211E",
"!E c #2D211F",
"!F c #2D221E",
"!G c #2D2222",
"!H c #2D2223",
"!I c #2D231D",
"!J c #2D2321",
"!K c #2D2322",
"!L c #2D2323",
"!M c #2D2421",
"!N c #2D2422",
"!O c #2D2524",
"!P c #2E1D1D",
"!Q c #2E1F20",
"!R c #2E201D",
"!S c #2E201E",
"!T c #2E201F",
"!U c #2E2021",
"!V c #2E211D",
"!W c #2E211F",
"!X c #2E2120",
"!Y c #2E2122",
"!Z c #2E221F",
"![ c #2E2220",
"!] c #2E2221",
"!^ c #2E231F",
"!_ c #2E2320",
"!` c #2E2321",
"!a c #2E2322",
"!b c #2E2323",
"!c c #2E2420",
"!d c #2E2421",
"!e c #2E2423",
"!f c #2E2522",
"!g c #2E2523",
"!h c #2E2524",
"!i c #2E2525",
"!j c #2E2622",
"!k c #2F201D",
"!l c #2F201E",
"!m c #2F211F",
"!n c #2F221F",
"!o c #2F2220",
"!p c #2F2221",
"!q c #2F2223",
"!r c #2F2320",
"!s c #2F2321",
"!t c #2F2322",
"!u c #2F2323",
"!v c #2F2324",
"!w c #2F2422",
"!x c #2F2423",
"!y c #2F2424",
"!z c #2F2522",
"!{ c #2F2523",
"!| c #2F2524",
"!} c #2F2525",
"!~ c #2F2526",
"#! c #2F2625",
"## c #2F2726",
"#$ c #30221F",
"#% c #302222",
"#& c #302321",
"#' c #302322",
"#( c #302323",
"#) c #302420",
"#* c #302423",
"#+ c #302523",
"#, c #302524",
"#- c #302625",
"#. c #31211F",
"#/ c #31221F",
"#0 c #312220",
"#1 c #312321",
"#2 c #312322",
"#3 c #312323",
"#4 c #312420",
"#5 c #312421",
"#6 c #312422",
"#7 c #312423",
"#8 c #312424",
"#9 c #312521",
"#: c #312522",
"#; c #312523",
"#< c #312524",
"#= c #312525",
"#> c #312624",
"#? c #312625",
"#@ c #312725",
"#A c #312726",
"#B c #312823",
"#C c #312825",
"#D c #312826",
"#E c #32211D",
"#F c #322321",
"#G c #322323",
"#H c #322421",
"#I c #322422",
"#J c #322423",
"#K c #322424",
"#L c #322522",
"#M c #322523",
"#N c #322524",
"#O c #322525",
"#P c #322623",
"#Q c #322624",
"#R c #322625",
"#S c #322626",
"#T c #322627",
"#U c #322628",
"#V c #322725",
"#W c #322726",
"#X c #322824",
"#Y c #322825",
"#Z c #322826",
"#[ c #322827",
"#] c #332120",
"#^ c #33221F",
"#_ c #332321",
"#` c #332322",
"#a c #332323",
"#b c #332324",
"#c c #332423",
"#d c #332523",
"#e c #332524",
"#f c #332525",
"#g c #332623",
"#h c #332624",
"#i c #332625",
"#j c #332724",
"#k c #332725",
"#l c #332726",
"#m c #332727",
"#n c #332825",
"#o c #332826",
"#p c #332827",
"#q c #332828",
"#r c #332925",
"#s c #332A26",
"#t c #332B28",
"#u c #342020",
"#v c #342321",
"#w c #342322",
"#x c #342323",
"#y c #342421",
"#z c #342423",
"#{ c #342425",
"#| c #342523",
"#} c #342524",
"#~ c #342525",
"$! c #342623",
"$# c #342624",
"$$ c #342625",
"$% c #342626",
"$& c #342627",
"$' c #342724",
"$( c #342725",
"$) c #342726",
"$* c #342825",
"$+ c #342826",
"$, c #342827",
"$- c #342828",
"$. c #342925",
"$/ c #342926",
"$0 c #342927",
"$1 c #342928",
"$2 c #342929",
"$3 c #342A25",
"$4 c #342A27",
"$5 c #342A28",
"$6 c #342A2A",
"$7 c #342B27",
"$8 c #342B29",
"$9 c #342C29",
"$: c #352321",
"$; c #352322",
"$< c #352323",
"$= c #352424",
"$> c #352521",
"$? c #352523",
"$@ c #352524",
"$A c #352525",
"$B c #352526",
"$C c #352623",
"$D c #352624",
"$E c #352625",
"$F c #352626",
"$G c #352725",
"$H c #352726",
"$I c #352727",
"$J c #352728",
"$K c #352824",
"$L c #352825",
"$M c #352826",
"$N c #352827",
"$O c #352924",
"$P c #352925",
"$Q c #352927",
"$R c #352928",
"$S c #352929",
"$T c #352A27",
"$U c #352A28",
"$V c #352A2A",
"$W c #352B27",
"$X c #352B29",
"$Y c #352C2B",
"$Z c #352D27",
"$[ c #352D28",
"$] c #352E2A",
"$^ c #362322",
"$_ c #362423",
"$` c #362424",
"$a c #362522",
"$b c #362523",
"$c c #362524",
"$d c #362525",
"$e c #362624",
"$f c #362625",
"$g c #362626",
"$h c #362724",
"$i c #362725",
"$j c #362726",
"$k c #362727",
"$l c #362728",
"$m c #362824",
"$n c #362825",
"$o c #362826",
"$p c #362827",
"$q c #362828",
"$r c #362829",
"$s c #362925",
"$t c #362926",
"$u c #362927",
"$v c #362928",
"$w c #362929",
"$x c #362A25",
"$y c #362A26",
"$z c #362A27",
"${ c #362A28",
"$| c #362A29",
"$} c #362A2A",
"$~ c #362A2C",
"%! c #362A2D",
"%# c #362B25",
"%$ c #362B26",
"%% c #362B27",
"%& c #362B28",
"%' c #362B29",
"%( c #362B2A",
"%) c #362B2B",
"%* c #362C28",
"%+ c #362C29",
"%, c #362C2A",
"%- c #362D29",
"%. c #362D2A",
"%/ c #362E2D",
"%0 c #362E2E",
"%1 c #372321",
"%2 c #372422",
"%3 c #372423",
"%4 c #372525",
"%5 c #372624",
"%6 c #372625",
"%7 c #372724",
"%8 c #372725",
"%9 c #372726",
"%: c #372728",
"%; c #372825",
"%< c #372826",
"%= c #372827",
"%> c #372829",
"%? c #372925",
"%@ c #372926",
"%A c #372927",
"%B c #372928",
"%C c #372929",
"%D c #37292A",
"%E c #372A26",
"%F c #372A27",
"%G c #372A28",
"%H c #372A29",
"%I c #372A2A",
"%J c #372B26",
"%K c #372B27",
"%L c #372B28",
"%M c #372B29",
"%N c #372B2A",
"%O c #372B2B",
"%P c #372C27",
"%Q c #372C28",
"%R c #372C29",
"%S c #372C2A",
"%T c #372C2C",
"%U c #372D29",
"%V c #372D2A",
"%W c #372D2B",
"%X c #372D2C",
"%Y c #372D2D",
"%Z c #372D2E",
"%[ c #372E2A",
"%] c #372E2B",
"%^ c #372E2D",
"%_ c #372E2E",
"%` c #37312A",
"%a c #382524",
"%b c #382623",
"%c c #382624",
"%d c #382625",
"%e c #382627",
"%f c #382723",
"%g c #382724",
"%h c #382725",
"%i c #382726",
"%j c #382727",
"%k c #382823",
"%l c #382824",
"%m c #382825",
"%n c #382826",
"%o c #382827",
"%p c #382828",
"%q c #382925",
"%r c #382926",
"%s c #382927",
"%t c #382928",
"%u c #382929",
"%v c #382A25",
"%w c #382A26",
"%x c #382A27",
"%y c #382A28",
"%z c #382A29",
"%{ c #382A2A",
"%| c #382A2B",
"%} c #382B27",
"%~ c #382B28",
"&! c #382B29",
"&# c #382B2A",
"&$ c #382B2C",
"&% c #382C27",
"&& c #382C28",
"&' c #382C29",
"&( c #382C2A",
"&) c #382C2B",
"&* c #382C2C",
"&+ c #382C2D",
"&, c #382D28",
"&- c #382D29",
"&. c #382D2A",
"&/ c #382D2B",
"&0 c #382D2C",
"&1 c #382D2D",
"&2 c #382D2E",
"&3 c #382E29",
"&4 c #382E2C",
"&5 c #382E2D",
"&6 c #382E2E",
"&7 c #392624",
"&8 c #392825",
"&9 c #392826",
"&: c #392827",
"&; c #392828",
"&< c #392829",
"&= c #392926",
"&> c #392927",
"&? c #392928",
"&@ c #39292A",
"&A c #392A25",
"&B c #392A26",
"&C c #392A27",
"&D c #392A28",
"&E c #392A2A",
"&F c #392B27",
"&G c #392B28",
"&H c #392B29",
"&I c #392B2A",
"&J c #392B2C",
"&K c #392C28",
"&L c #392C29",
"&M c #392C2A",
"&N c #392C2C",
"&O c #392D28",
"&P c #392D29",
"&Q c #392D2A",
"&R c #392D2B",
"&S c #392D2C",
"&T c #392D2D",
"&U c #392E2B",
"&V c #392E2C",
"&W c #392E2D",
"&X c #392F2C",
"&Y c #392F2D",
"&Z c #392F30",
"&[ c #39332B",
"&] c #3A2725",
"&^ c #3A2726",
"&_ c #3A2825",
"&` c #3A2826",
"&a c #3A2827",
"&b c #3A2926",
"&c c #3A2927",
"&d c #3A2928",
"&e c #3A2A29",
"&f c #3A2A2B",
"&g c #3A2B28",
"&h c #3A2B29",
"&i c #3A2B2A",
"&j c #3A2B2B",
"&k c #3A2C28",
"&l c #3A2C29",
"&m c #3A2C2A",
"&n c #3A2C2B",
"&o c #3A2C2C",
"&p c #3A2D28",
"&q c #3A2D2A",
"&r c #3A2D2B",
"&s c #3A2D2C",
"&t c #3A2D2D",
"&u c #3A2E2A",
"&v c #3A2E2B",
"&w c #3A2E2C",
"&x c #3A2E2D",
"&y c #3A2E2E",
"&z c #3A2E2F",
"&{ c #3A2F2E",
"&| c #3A302E",
"&} c #3B2624",
"&~ c #3B2925",
"'! c #3B2929",
"'# c #3B2A26",
"'$ c #3B2A27",
"'% c #3B2A28",
"'& c #3B2A29",
"'' c #3B2B28",
"'( c #3B2B29",
"') c #3B2B2A",
"'* c #3B2C28",
"'+ c #3B2C29",
"', c #3B2C2A",
"'- c #3B2C2B",
"'. c #3B2D26",
"'/ c #3B2D27",
"'0 c #3B2D29",
"'1 c #3B2D2A",
"'2 c #3B2D2B",
"'3 c #3B2D2C",
"'4 c #3B2D2D",
"'5 c #3B2E29",
"'6 c #3B2E2A",
"'7 c #3B2E2B",
"'8 c #3B2E2C",
"'9 c #3B2E2D",
"': c #3B2E2E",
"'; c #3B2F29",
"'< c #3B2F2C",
"'= c #3B2F2D",
"'> c #3B2F2E",
"'? c #3B2F2F",
"'@ c #3B2F30",
"'A c #3B302E",
"'B c #3B312E",
"'C c #3B312F",
"'D c #3B3330",
"'E c #3C2523",
"'F c #3C2525",
"'G c #3C2725",
"'H c #3C2825",
"'I c #3C2925",
"'J c #3C2927",
"'K c #3C2A25",
"'L c #3C2A27",
"'M c #3C2A29",
"'N c #3C2B28",
"'O c #3C2B29",
"'P c #3C2B2A",
"'Q c #3C2B2B",
"'R c #3C2C28",
"'S c #3C2C29",
"'T c #3C2C2A",
"'U c #3C2C2B",
"'V c #3C2D29",
"'W c #3C2D2A",
"'X c #3C2D2B",
"'Y c #3C2D2D",
"'Z c #3C2D2E",
"'[ c #3C2E29",
"'] c #3C2E2A",
"'^ c #3C2E2C",
"'_ c #3C2E2D",
"'` c #3C2E2E",
"'a c #3C2F2B",
"'b c #3C2F2D",
"'c c #3C2F2E",
"'d c #3C2F2F",
"'e c #3C302E",
"'f c #3C302F",
"'g c #3C312E",
"'h c #3C312F",
"'i c #3C3130",
"'j c #3C322F",
"'k c #3C3230",
"'l c #3D2927",
"'m c #3D2929",
"'n c #3D2A29",
"'o c #3D2A2A",
"'p c #3D2B28",
"'q c #3D2C28",
"'r c #3D2C29",
"'s c #3D2C2A",
"'t c #3D2D28",
"'u c #3D2D29",
"'v c #3D2D2A",
"'w c #3D2D2B",
"'x c #3D2D2C",
"'y c #3D2D2D",
"'z c #3D2E2B",
"'{ c #3D2E2C",
"'| c #3D2E2D",
"'} c #3D2F2C",
"'~ c #3D2F2D",
"(! c #3D2F2E",
"(# c #3D2F2F",
"($ c #3D302A",
"(% c #3D302D",
"(& c #3D302E",
"(' c #3D302F",
"(( c #3D312D",
"() c #3D312E",
"(* c #3D312F",
"(+ c #3D3130",
"(, c #3D322D",
"(- c #3D322E",
"(. c #3D3230",
"(/ c #3D332F",
"(0 c #3D3330",
"(1 c #3D3332",
"(2 c #3D3532",
"(3 c #3D3636",
"(4 c #3E2829",
"(5 c #3E2A27",
"(6 c #3E2B26",
"(7 c #3E2B2A",
"(8 c #3E2C2B",
"(9 c #3E2C2D",
"(: c #3E2D2A",
"(; c #3E2D2B",
"(< c #3E2D2D",
"(= c #3E2E2A",
"(> c #3E2E2B",
"(? c #3E2E2C",
"(@ c #3E2E2D",
"(A c #3E2E2E",
"(B c #3E2E2F",
"(C c #3E2F2C",
"(D c #3E2F2D",
"(E c #3E2F2E",
"(F c #3E2F2F",
"(G c #3E2F30",
"(H c #3E302C",
"(I c #3E302D",
"(J c #3E302E",
"(K c #3E302F",
"(L c #3E312D",
"(M c #3E312E",
"(N c #3E312F",
"(O c #3E3130",
"(P c #3E3131",
"(Q c #3E322E",
"(R c #3E322F",
"(S c #3E3230",
"(T c #3E332F",
"(U c #3E3330",
"(V c #3E3332",
"(W c #3E3333",
"(X c #3E3335",
"(Y c #3E342F",
"(Z c #3E3430",
"([ c #3E3431",
"(] c #3E3433",
"(^ c #3E3531",
"(_ c #3E3532",
"(` c #3E3533",
"(a c #3E3535",
"(b c #3F2A27",
"(c c #3F2B2A",
"(d c #3F2D29",
"(e c #3F2D2B",
"(f c #3F2D2C",
"(g c #3F2E2B",
"(h c #3F2E2C",
"(i c #3F2E2D",
"(j c #3F2E2E",
"(k c #3F2F2C",
"(l c #3F2F2E",
"(m c #3F2F2F",
"(n c #3F2F31",
"(o c #3F302D",
"(p c #3F302E",
"(q c #3F302F",
"(r c #3F312E",
"(s c #3F312F",
"(t c #3F3130",
"(u c #3F3131",
"(v c #3F3132",
"(w c #3F322E",
"(x c #3F322F",
"(y c #3F3230",
"(z c #3F332F",
"({ c #3F3330",
"(| c #3F3331",
"(} c #3F3332",
"(~ c #3F3333",
")! c #3F342F",
")# c #3F3431",
")$ c #3F3432",
")% c #3F3433",
")& c #3F3530",
")' c #3F3531",
")( c #3F3532",
")) c #3F3533",
")* c #3F3534",
")+ c #3F3632",
"), c #402A26",
")- c #402D29",
"). c #402D2B",
")/ c #402D2C",
")0 c #402E2A",
")1 c #402E2C",
")2 c #402E2D",
")3 c #402E2E",
")4 c #402F2C",
")5 c #402F2E",
")6 c #402F2F",
")7 c #40302C",
")8 c #40302E",
")9 c #40302F",
"): c #40312D",
"); c #40312E",
")< c #40312F",
")= c #403130",
")> c #403131",
")? c #40322E",
")@ c #40322F",
")A c #403230",
")B c #403232",
")C c #40332E",
")D c #40332F",
")E c #403330",
")F c #403331",
")G c #403332",
")H c #40342F",
")I c #403430",
")J c #403431",
")K c #403432",
")L c #403433",
")M c #403434",
")N c #40352F",
")O c #403530",
")P c #403531",
")Q c #403532",
")R c #403533",
")S c #403534",
")T c #403535",
")U c #403633",
")V c #403634",
")W c #403635",
")X c #412C29",
")Y c #412E2B",
")Z c #412E2C",
")[ c #412E2D",
")] c #412E2E",
")^ c #412F2C",
")_ c #412F2E",
")` c #41302D",
")a c #41302E",
")b c #41302F",
")c c #41312E",
")d c #41312F",
")e c #413130",
")f c #413134",
")g c #41322E",
")h c #41322F",
")i c #413230",
")j c #413231",
")k c #413232",
")l c #413233",
")m c #41332E",
")n c #41332F",
")o c #413330",
")p c #413331",
")q c #413332",
")r c #41342E",
")s c #413430",
")t c #413431",
")u c #413432",
")v c #413433",
")w c #413434",
")x c #413531",
")y c #413532",
")z c #413533",
"){ c #413534",
")| c #413535",
")} c #413632",
")~ c #413634",
"*! c #413635",
"*# c #422C2A",
"*$ c #422C2C",
"*% c #422D2B",
"*& c #422E26",
"*' c #422E2C",
"*( c #422E2D",
"*) c #422E2E",
"** c #422F2D",
"*+ c #422F2E",
"*, c #42302E",
"*- c #42302F",
"*. c #423030",
"*/ c #42312E",
"*0 c #42312F",
"*1 c #42322E",
"*2 c #42322F",
"*3 c #423230",
"*4 c #423231",
"*5 c #423233",
"*6 c #42332E",
"*7 c #42332F",
"*8 c #423330",
"*9 c #423331",
"*: c #423332",
"*; c #423336",
"*< c #42342F",
"*= c #423430",
"*> c #423431",
"*? c #423432",
"*@ c #423433",
"*A c #423434",
"*B c #423530",
"*C c #423531",
"*D c #423532",
"*E c #423533",
"*F c #423534",
"*G c #423535",
"*H c #423631",
"*I c #423632",
"*J c #423633",
"*K c #423634",
"*L c #423635",
"*M c #423636",
"*N c #423637",
"*O c #423734",
"*P c #423735",
"*Q c #423736",
"*R c #423737",
"*S c #423834",
"*T c #423835",
"*U c #423836",
"*V c #423837",
"*W c #432B2A",
"*X c #432E2E",
"*Y c #432F2E",
"*Z c #43312E",
"*[ c #43312F",
"*] c #43322F",
"*^ c #433230",
"*_ c #43332D",
"*` c #433330",
"*a c #433331",
"*b c #433332",
"*c c #43342E",
"*d c #43342F",
"*e c #433430",
"*f c #433431",
"*g c #433432",
"*h c #43352E",
"*i c #433530",
"*j c #433531",
"*k c #433532",
"*l c #433533",
"*m c #433534",
"*n c #433535",
"*o c #433632",
"*p c #433633",
"*q c #433634",
"*r c #433635",
"*s c #433636",
"*t c #433731",
"*u c #433733",
"*v c #433734",
"*w c #433735",
"*x c #433736",
"*y c #433737",
"*z c #433832",
"*{ c #433834",
"*| c #433835",
"*} c #433836",
"*~ c #433837",
"+! c #433838",
"+# c #433936",
"+$ c #433937",
"+% c #433B38",
"+& c #442E2D",
"+' c #442F2E",
"+( c #44312E",
"+) c #44312F",
"+* c #44322E",
"++ c #44322F",
"+, c #443230",
"+- c #443231",
"+. c #443232",
"+/ c #44332F",
"+0 c #443330",
"+1 c #443331",
"+2 c #443332",
"+3 c #443333",
"+4 c #443431",
"+5 c #443432",
"+6 c #443433",
"+7 c #443531",
"+8 c #443532",
"+9 c #443533",
"+: c #443534",
"+; c #443535",
"+< c #443536",
"+= c #443631",
"+> c #443632",
"+? c #443633",
"+@ c #443634",
"+A c #443635",
"+B c #443636",
"+C c #443637",
"+D c #443733",
"+E c #443734",
"+F c #443735",
"+G c #443736",
"+H c #443834",
"+I c #443836",
"+J c #443837",
"+K c #443838",
"+L c #443937",
"+M c #443938",
"+N c #443939",
"+O c #443A37",
"+P c #443B39",
"+Q c #452E2E",
"+R c #45302E",
"+S c #45322E",
"+T c #453230",
"+U c #45332E",
"+V c #453331",
"+W c #453332",
"+X c #45342F",
"+Y c #453430",
"+Z c #453431",
"+[ c #453432",
"+] c #453434",
"+^ c #453530",
"+_ c #453531",
"+` c #453532",
"+a c #453533",
"+b c #453534",
"+c c #453631",
"+d c #453633",
"+e c #453634",
"+f c #453635",
"+g c #453636",
"+h c #453733",
"+i c #453734",
"+j c #453735",
"+k c #453736",
"+l c #453737",
"+m c #453831",
"+n c #453833",
"+o c #453834",
"+p c #453835",
"+q c #453836",
"+r c #453837",
"+s c #453839",
"+t c #453936",
"+u c #453937",
"+v c #453A36",
"+w c #453A38",
"+x c #462E2A",
"+y c #462F2C",
"+z c #46302E",
"+{ c #46312E",
"+| c #463130",
"+} c #46322E",
"+~ c #46322F",
",! c #463332",
",# c #463336",
",$ c #463431",
",% c #463432",
",& c #463530",
",' c #463531",
",( c #463532",
",) c #463533",
",* c #463534",
",+ c #463535",
",, c #46362F",
",- c #463632",
",. c #463633",
",/ c #463634",
",0 c #463635",
",1 c #463636",
",2 c #463638",
",3 c #463734",
",4 c #463735",
",5 c #463736",
",6 c #463737",
",7 c #463834",
",8 c #463835",
",9 c #463836",
",: c #463837",
",; c #463838",
",< c #463935",
",= c #463936",
",> c #463937",
",? c #463938",
",@ c #46393C",
",A c #463A36",
",B c #463A37",
",C c #463A38",
",D c #463A39",
",E c #463A3B",
",F c #463B38",
",G c #463B39",
",H c #463B3A",
",I c #463B3C",
",J c #463C39",
",K c #463C3A",
",L c #463C3B",
",M c #463E3A",
",N c #47312E",
",O c #473330",
",P c #473331",
",Q c #473432",
",R c #473531",
",S c #473532",
",T c #473533",
",U c #473534",
",V c #473631",
",W c #473633",
",X c #473634",
",Y c #473635",
",Z c #473733",
",[ c #473735",
",] c #473736",
",^ c #473833",
",_ c #473834",
",` c #473835",
",a c #473836",
",b c #473837",
",c c #473838",
",d c #473935",
",e c #473936",
",f c #473937",
",g c #473938",
",h c #47393A",
",i c #473A36",
",j c #473A37",
",k c #473A38",
",l c #473A3A",
",m c #473B38",
",n c #473B39",
",o c #473B3A",
",p c #473C37",
",q c #473C39",
",r c #473D3A",
",s c #473E3C",
",t c #473F3E",
",u c #48312E",
",v c #48322E",
",w c #48332F",
",x c #483432",
",y c #483433",
",z c #483532",
",{ c #483632",
",| c #483633",
",} c #483635",
",~ c #483636",
"-! c #483735",
"-# c #483736",
"-$ c #483833",
"-% c #483835",
"-& c #483836",
"-' c #483837",
"-( c #483838",
"-) c #483839",
"-* c #483936",
"-+ c #483937",
"-, c #483938",
"-- c #483A36",
"-. c #483A37",
"-/ c #483A38",
"-0 c #483A39",
"-1 c #483A3C",
"-2 c #483B38",
"-3 c #483B39",
"-4 c #483B3A",
"-5 c #483C38",
"-6 c #483C39",
"-7 c #483C3A",
"-8 c #483C3C",
"-9 c #483D3B",
"-: c #483E3A",
"-; c #483E3B",
"-< c #49312E",
"-= c #49322F",
"-> c #493432",
"-? c #493433",
"-@ c #493530",
"-A c #493534",
"-B c #493632",
"-C c #493633",
"-D c #493635",
"-E c #493733",
"-F c #493734",
"-G c #493735",
"-H c #493736",
"-I c #493835",
"-J c #493836",
"-K c #493837",
"-L c #493838",
"-M c #493936",
"-N c #493938",
"-O c #493A37",
"-P c #493A38",
"-Q c #493A39",
"-R c #493A3A",
"-S c #493B37",
"-T c #493B38",
"-U c #493B39",
"-V c #493B3A",
"-W c #493B3B",
"-X c #493C38",
"-Y c #493C39",
"-Z c #493C3A",
"-[ c #493D38",
"-] c #493D39",
"-^ c #493D3B",
"-_ c #493D3C",
"-` c #493E38",
"-a c #493E3A",
"-b c #493F3A",
"-c c #4A3330",
"-d c #4A3633",
"-e c #4A3635",
"-f c #4A3733",
"-g c #4A3835",
"-h c #4A3836",
"-i c #4A3837",
"-j c #4A3838",
"-k c #4A3934",
"-l c #4A3935",
"-m c #4A3936",
"-n c #4A3937",
"-o c #4A3938",
"-p c #4A3939",
"-q c #4A3A36",
"-r c #4A3A37",
"-s c #4A3A38",
"-t c #4A3A39",
"-u c #4A3A3A",
"-v c #4A3B37",
"-w c #4A3B38",
"-x c #4A3B3A",
"-y c #4A3C38",
"-z c #4A3C39",
"-{ c #4A3C3A",
"-| c #4A3C3C",
"-} c #4A3D38",
"-~ c #4A3D39",
".! c #4A3D3A",
".# c #4A3E38",
".$ c #4A3E39",
".% c #4A3E3A",
".& c #4A3E3B",
".' c #4A3E3C",
".( c #4A3E3D",
".) c #4A3E3E",
".* c #4A3F3D",
".+ c #4A3F3F",
"., c #4B332F",
".- c #4B3431",
".. c #4B3633",
"./ c #4B3634",
".0 c #4B3732",
".1 c #4B3834",
".2 c #4B3836",
".3 c #4B3837",
".4 c #4B3936",
".5 c #4B3937",
".6 c #4B3A35",
".7 c #4B3A36",
".8 c #4B3A37",
".9 c #4B3A38",
".: c #4B3A39",
".; c #4B3A3B",
".< c #4B3B37",
".= c #4B3B38",
".> c #4B3B3A",
".? c #4B3C38",
".@ c #4B3C39",
".A c #4B3C3A",
".B c #4B3C3B",
".C c #4B3D38",
".D c #4B3D39",
".E c #4B3D3A",
".F c #4B3D3C",
".G c #4B3E38",
".H c #4B3E3A",
".I c #4B3E3B",
".J c #4B3E3C",
".K c #4B3E3D",
".L c #4B3F3E",
".M c #4B4241",
".N c #4C332F",
".O c #4C342F",
".P c #4C3430",
".Q c #4C3533",
".R c #4C3632",
".S c #4C3635",
".T c #4C3636",
".U c #4C3734",
".V c #4C3736",
".W c #4C3836",
".X c #4C3838",
".Y c #4C3935",
".Z c #4C3936",
".[ c #4C3937",
".] c #4C3938",
".^ c #4C3A36",
"._ c #4C3A37",
".` c #4C3A38",
".a c #4C3A39",
".b c #4C3A3B",
".c c #4C3B37",
".d c #4C3B38",
".e c #4C3B39",
".f c #4C3B3A",
".g c #4C3B3C",
".h c #4C3C37",
".i c #4C3C38",
".j c #4C3C39",
".k c #4C3C3A",
".l c #4C3C3B",
".m c #4C3C3C",
".n c #4C3D37",
".o c #4C3D38",
".p c #4C3D39",
".q c #4C3D3A",
".r c #4C3D3B",
".s c #4C3D3C",
".t c #4C3D3D",
".u c #4C3E38",
".v c #4C3E39",
".w c #4C3E3A",
".x c #4C3E3B",
".y c #4C3E3C",
".z c #4C3E3D",
".{ c #4C3E3E",
".| c #4C3E3F",
".} c #4C3F3A",
".~ c #4C3F3B",
"/! c #4C3F3C",
"/# c #4C3F3D",
"/$ c #4C3F3E",
"/% c #4C403B",
"/& c #4C403C",
"/' c #4C403E",
"/( c #4C413F",
"/) c #4C423D",
"/* c #4C4240",
"/+ c #4C4241",
"/, c #4C4341",
"/- c #4D3230",
"/. c #4D3533",
"// c #4D3734",
"/0 c #4D3835",
"/1 c #4D3836",
"/2 c #4D3838",
"/3 c #4D3938",
"/4 c #4D3939",
"/5 c #4D3A37",
"/6 c #4D3A38",
"/7 c #4D3B38",
"/8 c #4D3B39",
"/9 c #4D3B3A",
"/: c #4D3B3B",
"/; c #4D3C37",
"/< c #4D3C38",
"/= c #4D3C39",
"/> c #4D3D38",
"/? c #4D3D39",
"/@ c #4D3D3A",
"/A c #4D3E38",
"/B c #4D3E3A",
"/C c #4D3E3B",
"/D c #4D3E3C",
"/E c #4D3F3B",
"/F c #4D3F3D",
"/G c #4D3F3E",
"/H c #4D3F3F",
"/I c #4D403C",
"/J c #4D403D",
"/K c #4D403E",
"/L c #4D403F",
"/M c #4D413C",
"/N c #4D413E",
"/O c #4D413F",
"/P c #4D423C",
"/Q c #4D423D",
"/R c #4E3733",
"/S c #4E3836",
"/T c #4E3936",
"/U c #4E3938",
"/V c #4E3A37",
"/W c #4E3A38",
"/X c #4E3B37",
"/Y c #4E3B38",
"/Z c #4E3B39",
"/[ c #4E3C36",
"/] c #4E3C37",
"/^ c #4E3C38",
"/_ c #4E3C39",
"/` c #4E3C3A",
"/a c #4E3C3D",
"/b c #4E3D38",
"/c c #4E3D39",
"/d c #4E3D3A",
"/e c #4E3D3B",
"/f c #4E3D3C",
"/g c #4E3E39",
"/h c #4E3E3A",
"/i c #4E3E3B",
"/j c #4E3E3C",
"/k c #4E3E3D",
"/l c #4E3F3A",
"/m c #4E3F3C",
"/n c #4E3F3D",
"/o c #4E3F3E",
"/p c #4E3F3F",
"/q c #4E403D",
"/r c #4E403E",
"/s c #4E403F",
"/t c #4E4040",
"/u c #4E413D",
"/v c #4E413E",
"/w c #4E413F",
"/x c #4E4140",
"/y c #4E423D",
"/z c #4E423E",
"/{ c #4E423F",
"/| c #4E4240",
"/} c #4E4241",
"/~ c #4E4441",
"0! c #4E4443",
"0# c #4F3936",
"0$ c #4F3937",
"0% c #4F3C38",
"0& c #4F3D38",
"0' c #4F3E38",
"0( c #4F3E3A",
"0) c #4F3E3C",
"0* c #4F3E3E",
"0+ c #4F3F3C",
"0, c #4F3F3D",
"0- c #4F3F3E",
"0. c #4F403E",
"0/ c #4F413D",
"00 c #4F413E",
"01 c #4F413F",
"02 c #4F4140",
"03 c #4F423D",
"04 c #4F423E",
"05 c #4F423F",
"06 c #4F4240",
"07 c #4F4241",
"08 c #4F433F",
"09 c #4F4340",
"0: c #4F4342",
"0; c #4F4442",
"0< c #4F4541",
"0= c #4F4542",
"0> c #4F4644",
"0? c #503A36",
"0@ c #503B37",
"0A c #503D39",
"0B c #503D3A",
"0C c #503E3B",
"0D c #503E3C",
"0E c #503E3D",
"0F c #503F3C",
"0G c #503F3D",
"0H c #503F3E",
"0I c #50403E",
"0J c #50413D",
"0K c #50413F",
"0L c #50423D",
"0M c #50423E",
"0N c #50423F",
"0O c #504240",
"0P c #504241",
"0Q c #50433F",
"0R c #504340",
"0S c #504341",
"0T c #504342",
"0U c #504442",
"0V c #504542",
"0W c #513A37",
"0X c #513B3A",
"0Y c #513C3B",
"0Z c #513D3B",
"0[ c #513E38",
"0] c #513E39",
"0^ c #513E3B",
"0_ c #513E3C",
"0` c #513E3D",
"0a c #513F3D",
"0b c #513F3E",
"0c c #51403D",
"0d c #51403E",
"0e c #51403F",
"0f c #51413C",
"0g c #51413D",
"0h c #51413E",
"0i c #51423E",
"0j c #51423F",
"0k c #514240",
"0l c #514241",
"0m c #514340",
"0n c #514341",
"0o c #514342",
"0p c #514441",
"0q c #514442",
"0r c #51453F",
"0s c #514542",
"0t c #514543",
"0u c #514642",
"0v c #514643",
"0w c #523936",
"0x c #523C38",
"0y c #523D38",
"0z c #523D3A",
"0{ c #523E3C",
"0| c #523F3B",
"0} c #523F3C",
"0~ c #523F3D",
"1! c #52403E",
"1# c #52403F",
"1$ c #52413E",
"1% c #52423E",
"1& c #52423F",
"1' c #524240",
"1( c #524241",
"1) c #524242",
"1* c #524340",
"1+ c #524342",
"1, c #524440",
"1- c #524441",
"1. c #524442",
"1/ c #524444",
"10 c #524541",
"11 c #524542",
"12 c #524543",
"13 c #524544",
"14 c #524642",
"15 c #524643",
"16 c #533A38",
"17 c #533B36",
"18 c #533C38",
"19 c #533C39",
"1: c #533E3B",
"1; c #533E3C",
"1< c #533E3D",
"1= c #53403D",
"1> c #53403E",
"1? c #53423E",
"1@ c #53423F",
"1A c #534240",
"1B c #534241",
"1C c #534242",
"1D c #53433F",
"1E c #534340",
"1F c #534341",
"1G c #534342",
"1H c #534442",
"1I c #53453E",
"1J c #53453F",
"1K c #534542",
"1L c #534544",
"1M c #534644",
"1N c #534748",
"1O c #534846",
"1P c #543D3D",
"1Q c #543E38",
"1R c #543E3E",
"1S c #543F3C",
"1T c #543F3E",
"1U c #54413E",
"1V c #54413F",
"1W c #54423E",
"1X c #54423F",
"1Y c #544241",
"1Z c #544242",
"1[ c #54433E",
"1] c #544340",
"1^ c #544341",
"1_ c #544440",
"1` c #544441",
"1a c #544442",
"1b c #544542",
"1c c #544544",
"1d c #544642",
"1e c #544643",
"1f c #544644",
"1g c #544645",
"1h c #544742",
"1i c #544743",
"1j c #544843",
"1k c #544845",
"1l c #553F3D",
"1m c #55413E",
"1n c #55423D",
"1o c #554240",
"1p c #554342",
"1q c #554442",
"1r c #554541",
"1s c #554542",
"1t c #554643",
"1u c #554644",
"1v c #554945",
"1w c #554A46",
"1x c #563B37",
"1y c #563D3E",
"1z c #56403C",
"1{ c #56413C",
"1| c #56413E",
"1} c #56423D",
"1~ c #56423E",
"2! c #56423F",
"2# c #564240",
"2$ c #564242",
"2% c #564340",
"2& c #564341",
"2' c #564342",
"2( c #564343",
"2) c #56443E",
"2* c #564440",
"2+ c #564442",
"2, c #564540",
"2- c #564541",
"2. c #564542",
"2/ c #564543",
"20 c #564642",
"21 c #564643",
"22 c #564644",
"23 c #564645",
"24 c #564742",
"25 c #564743",
"26 c #564744",
"27 c #564745",
"28 c #564746",
"29 c #564844",
"2: c #564845",
"2; c #564846",
"2< c #564944",
"2= c #564945",
"2> c #564946",
"2? c #564A46",
"2@ c #564A47",
"2A c #564A48",
"2B c #564B46",
"2C c #57443E",
"2D c #574542",
"2E c #574642",
"2F c #574643",
"2G c #574645",
"2H c #574746",
"2I c #574748",
"2J c #574846",
"2K c #574848",
"2L c #574943",
"2M c #574946",
"2N c #574A44",
"2O c #574A47",
"2P c #574B47",
"2Q c #574C49",
"2R c #583A38",
"2S c #584642",
"2T c #584643",
"2U c #584745",
"2V c #584946",
"2W c #584A45",
"2X c #584A46",
"2Y c #584B46",
"2Z c #584B49",
"2[ c #584C47",
"2] c #584C48",
"2^ c #594542",
"2_ c #594642",
"2` c #594744",
"2a c #594844",
"2b c #594846",
"2c c #594948",
"2d c #594A46",
"2e c #594A48",
"2f c #594C47",
"2g c #594C4A",
"2h c #5A4643",
"2i c #5A4846",
"2j c #5A4946",
"2k c #5A4A44",
"2l c #5A4A46",
"2m c #5A4A47",
"2n c #5A4B48",
"2o c #5A4B49",
"2p c #5A4C48",
"2q c #5A4C49",
"2r c #5A4C4A",
"2s c #5A4D4C",
"2t c #5A4E4C",
"2u c #5B4340",
"2v c #5B4342",
"2w c #5B4946",
"2x c #5B4A46",
"2y c #5B4B4A",
"2z c #5B4C4A",
"2{ c #5B4D49",
"2| c #5B4E4C",
"2} c #5C4541",
"2~ c #5C4642",
"3! c #5C4947",
"3# c #5C4A45",
"3$ c #5C4A46",
"3% c #5C4B46",
"3& c #5C4B47",
"3' c #5C4B48",
"3( c #5C4C46",
"3) c #5C4C47",
"3* c #5C4C48",
"3+ c #5C4D4A",
"3, c #5C4E4C",
"3- c #5D4742",
"3. c #5D4948",
"3/ c #5D4B46",
"30 c #5D4B48",
"31 c #5D4B4A",
"32 c #5D4C47",
"33 c #5D4C48",
"34 c #5D4C4C",
"35 c #5D4E4B",
"36 c #5E453F",
"37 c #5E4A45",
"38 c #5E4A47",
"39 c #5E4B46",
"3: c #5E4B47",
"3; c #5E4B48",
"3< c #5E4C47",
"3= c #5E4C48",
"3> c #5E4D48",
"3? c #5E4E4C",
"3@ c #5E4E4D",
"3A c #5E4F4C",
"3B c #5E524C",
"3C c #5F4742",
"3D c #5F4C47",
"3E c #5F4C4C",
"3F c #5F4D4A",
"3G c #5F4D4B",
"3H c #5F4E49",
"3I c #5F4E4A",
"3J c #5F4F4D",
"3K c #5F4F4E",
"3L c #5F504C",
"3M c #5F504D",
"3N c #5F504E",
"3O c #5F524E",
"3P c #5F534F",
"3Q c #604C48",
"3R c #604C49",
"3S c #604E4B",
"3T c #604E4C",
"3U c #604F4C",
"3V c #60514C",
"3W c #60514E",
"3X c #60534E",
"3Y c #614E4A",
"3Z c #614E4C",
"3[ c #61514B",
"3] c #61524E",
"3^ c #615451",
"3_ c #624E4C",
"3` c #62504C",
"3a c #625452",
"3b c #625553",
"3c c #634C47",
"3d c #63504D",
"3e c #63514D",
"3f c #63524E",
"3g c #635350",
"3h c #644E4A",
"3i c #644E4B",
"3j c #64514D",
"3k c #64514E",
"3l c #64544F",
"3m c #645651",
"3n c #655250",
"3o c #655453",
"3p c #655552",
"3q c #655651",
"3r c #655654",
"3s c #66504C",
"3t c #665352",
"3u c #665652",
"3v c #665654",
"3w c #674B46",
"3x c #674E4D",
"3y c #675556",
"3z c #675654",
"3{ c #675655",
"3| c #675754",
"3} c #685654",
"3~ c #695652",
"4! c #695A58",
"4# c #6A5C58",
"4$ c #6D5B58",
"4% c #6D605D",
"4& c #6E5953",
"4' c #705D59",
"4( c #74605F",
/* pixels */
"$Y!i&#)O+F!}(%)t#[%/!G#W#3'`)=+b#J0I-s*k(p%r2D)g(E&/#e'`$g1R)b)_3/23*r&!!5!{!f&/(_&1!@+a&.&J'_,>(D#>#M,;#?*F+@,90J(-&.09,0$+,F0V",
"+j&V.J$Q+L'i$r,~&*#V)|%Y'~#+'^,9+83i,|'1-*.e0~/4+5#2#k':#F-h$j$t(B*k/k!X#j#+!|-I3p!,!L%}&()~&),5-s&W%G'|'*.E*J,9,1-P3f'|3v.l.'*r",
"$$/</m/b+)+N&S)T,D02/$2r&5&s&r#}*e*c%5!a%'1$1a)5+f#d#7'W#g/S,x!z#<'U0F!*!]#Z)V1N/{%N!B,T*w#*#e!O$G#F*9$n#./j-G.g23,C-L2+.x/q-6${",
"-&4(-D1]!_!b-4/((`*L+k%|%o/r&[.b2).4+_!e0n*}(y*r(&&'%t#m(N1u)Y3),9*C%{${&W*K$W+k!x&H&W3;(('|'{!K(P-Z+I%,%W.x$z$(*Q(R)#*J/{3M'c*J",
".>*?'|*L$~/:-)*9,1!N!$!M!d(%)B-10S/C&U0S,?+w*U)++#%T#5*T2]3M,C-b1k.*$7+I0U0<)~'k)U+:-s-/,=*3*(,9*D(P+1,5!9'c#Y%,%)*L.A.:*E*J&4)%",
"(Q2W+I,@'(-;*w#_%m#J#d#f)l1.%y.#/~'7%<&e-g+I'k1/(Z&X(%)P.H-/,9*z'`'='C)I2S2P*C+J%S(Z-w.d&4$R'W*J*9*E.r.x$Z%&'4$h$-':)G'v%-.~$h,>",
"((0j!a#='|*G*6+X1m03*g)<-Z*U2d.@*s!`&T'D*p1**S(%$1-O*i,<3B/P,9(<*-#@,C!b/M22)@(]*s(%0J$u!x((%~.9%t*{'2$u&v/%/N%_$8-~*p'j1'20(%,8",
"(&15/*,J%V(`&(&Q*80Q2o'i(@,a3X3&(j$$'h&4(P%:(B&E'_...o2=2f1W#{(A*;%8,=1u/{2[/D&*(K0k1q(U#Y)A,;0I*w21,@%Y(*-^)$!e$0,9!e!i.r/r'3!u",
"+.3E1-*A.J.+,<'_*2,30L)E'12X-m2*$E$`/j*x#a'O&*1));*@2`-6292=#@+j&+%y,90,-M%N(J*J-x,a.4.x&./q/Z.V0E3y,a(Q-t2e,9&4#S111E,l)5'`&=!P",
"0-/d'f&q+k&##d$k(@+f0)0K*=.%/r0I&r)6281A'P-o+53A%x(M+4,3/k);05*B1a!a(j'|-w-%)w-v*G.0,}2E-K/Y//'r)_)_+l(z(|1i3@&'$-(N(N$?$?-g'p.2",
"'H.]':+:$j!e-&&F,w1F+h3r0R.}/q0i'y0K,?2z%p&I!u+)(h&Q&s(l-!$,#l+l.A$S#d(>.a*[&5.r/D'&-w,a.y,(1l.p1(,>'|%X.'.p-n#(!b%z&4-&(8)_'(-=",
".@.9$z+@-U-s-I*?*,2-0,2233.r2q1f#=,B-6&h+-)5'$-c)5'W*8)a,3'|$(%O$O.'%t+q'v#|$F+=(<,P22,$)5/3.T(d*:-P(E!&*U)L#3!o!?.x-U%u$E*]%a#x",
"-P.o)8&j(m310_0i3_3j3I1%3R/i#%2%(D'`+B)80e0b0B+_/F/F,=*?1B#T*M$}'`,1(Q(J%m#N/G)p$n/e)]/1#2/1*#&?%r%>&u*D-5*J)8.?,;/$*0!X#c/D+z*/",
".^*h-f,!*p/}&q,9203q-~2{/h&R-`*k$K+1&,0}*D&#-'&t%F/D'|(E$z&W$w#f&U#(.&()$N&S/w(|*K/H$q!1'^/h+T,0!Z*e$y,a+j*8!V%~/o002/-]'{*J&Q*K",
"-M%q0M#;0}1q-T-w2B,9-&(w&F)5(m(i'+$,.n/A'v'^1s'9(J(p,,%b);&{%G/n,a#M.i!.+c)D**%~.J,C*)#v+D1a+Y&m'Q,.%;%~'1!r'z,a.y-&*C&/%s%K#)!R",
",=*r#o#!-|&T-W/x/{*@0>)W(.$(#~*M,C+@05(2)=-,3K){+P-W&t(c(E-x$2#~*F*K1&-2,4#V,L*U&6,L!X${(X.s'Z'`'w$d('#S%9'20N.J1L*~,B&6'c#(':${",
"*L%<!c#s-J,a,:2O(*.m+C(a'h(+${&*)n*@%y#4((3(%F13*F%|'X$?1r$*)p3k3G'{.6.$%J&%%7(J)f$./7!k!>'c(T*~!W'|(@*7$f*_,Q3U)s(K*U(r-m,9+@#W",
"!g#n)R&V$p'7.q1j)!$()?.}'|&m&$)R&//r$u(C*~1t2|*}-Q$)(A(l0C26(P2n,g-()?'~'`&53o,m-]#o'e')'_-z#=*m&Z,:*2.O16.a+m26.!'|,r'`,_3m4!/'",
"!a%L&W)}$p(N1]/y#M%L-y/w(i.s3?&)%R%V(q&Q,a*>0h'e&/(O0M)g+91h3W1H'|)]&O$+!0%`+;-I&R&M.j$M([-6,?.y'@!u'I/-.,2u+S0_+:!T*D'|)5.z3U!-",
"(u$L,5$z&)%z*D+p(r/N2>-Z*l.{/J$i#O$t$*';'Y(Q0q$5,20:12/w-N.I,b)8*=$B.8'^$u*N1^.f*+1~*2&b%q,Y#J.w$5&Q'|*$1x2R,Z,O$a.[/c$G!n,4/E*F",
"&y*k$f0a$n(J's+j+?/{+t,b-C%9$i'91o'S,k0X1:,S+W+B0H*U+8'|(=.j);.I(%#C)8'b%s*0.!'|1<0Z'S*=$G2/.D1'(|!1'|3~/T),#v'n'5/B(N$i&s/n3z*>",
"#i-!+9'P$j'2+i$x+F%F2m(~#7&'${)$20/=3>/51[*&2_,d$&+I/Z*I-&1F001_,1#+#,!z&#3G!J/}+:0@+{'t/e2a/r&w!x#O/g':,41}&_'H0`3&,0!2%~1e,i)E",
".<3K&r*K.k*D0h*z%}*i+9!J&/,F+e$i/,'8)A,C'A'~1N#H.z.;/7'x%z*i+d'0(B(l$,$##Q-P&X+[)n'E0%-k*e&G,-/r,n$(&{/@+`)a,]#d1W,)#|!`251%-%/u",
"3]'9#-(O*E#R'A+I$s+@%q!`'a&(*n$R*G$L*a3g/!1$3{2i,5&;(D+@,)-I(l!X#m220!#<$L/v+t.D,>05'+(E'{'80Q)a)z*4.D.;-/%r*/1!'z&/$|#J*L-9)t$J",
")k,h3N*)0v&y+p#I(>,<.o'<-X0r&('e#'(++6-&%B,90u+M,>,/)h$D$m3Q/l(p#M/z0I*3&.&)'{%$$t(M&U'z#d':-r0_%j&o*U-l'[$G,X(r*0(s#R(N*K-6!F+7",
".i/|+O-*-L$q&t&U.C((1?0m2>*J([%W$z,C/n.q,~(R([&z!a&.+q&i#J0o,k$P-_'c1,&N%s3.'T,;'`+a(+(O+I*n0x+y)X(<0o.M)'0/(K061Z&Q&4':&{+F-6!f",
".D02,c!}#G$)(l'|'7'3.i0c0n&T&6*0#?*D)q&(#O${#Q%.)m-[$G'^$p1F/o#<&W+<2$%o,$/`.D02,c!}#G/!-/*~&^)Z$_*`3T/O2h-N,4'|%d%6&G09'W)>'`$!",
"'T,;'`+a(+-227'~+@$.3|0D/F)J$7)(,>*P(&%%*q!`&q(r'e'~!a$v#:,G-}#;)Q-{+d-E&q.1.i/|+O-*-L+&(%(Y(M$a2T3Z26&v.p,g+q#;/f+}.5!Q*,',!G#r",
"'{%$$t(M&U,C(A-..51+3t3,.d-P&#'90=&5)F+9!C%%(Q.v$?0s!+(#-D&a'M!u!v1]2J0w(%,c)k,h3N*)0v*l!%'_,U1F,W,0)j/`#z(M*C/n,+-D/80G$@)<!E#3",
"+t.D,>05'+.A(F.t&y.y$$%M2q#}')%t)P-/0t05#p)P/Q!I%}+o#:-:4$+U*>$L$x0p(w-F/h/|3]'9#-(O*E*r*?.w)c.['%&r#e%s$M!W(O*y&01#/p2U*x1F$!%E",
"&X+[)n'E0%0V2>&!*I*@*9!-+i'~#i2<'`&51M/J!b%S,o&k-!(?+`'e(h+o$L'X(g'|-S'#+d)x.<3K&r*K.k-/'`#R(J+T'x%r(K(J)G&(4%+u!e/o0t&(3L,>+,$i",
"!J/}+:0@+{,K1k&6!h(x(J%G%I!(#V$s%Y0l-7&y-P#*.|$G*)&G(l*5+`0{)^+c370&'`(L(C)L*J,6!=!q)c-H&]#D+w)W(R*K'j(v(&%)2:)*#U*V!g%H-P%S.~)<",
".!'|1<0Z'S+E%'&#({(R!b$++f%.3'2./C27*:'>/w%)-Y$(*/)c-I(o(o360%3#3s3$2`.j'|)N(*+9*R$I$v*4'/+q+%2@140u+v*^!L$,+o#1&!*g${$($M&5%~1D",
"0;#6%r(D3:&A)-1E,81v$$)@$p,C(D#V0d,?'B$*(O(%'|#N$?-@%1%o$C.R,R3C+*+H+I.$$@2>%%*p1k#k$e-m-e1`'m+G2I*.$=%e19/U1?%~%r'_(t1c*d'2$n-2",
"%/*U!t!b28,)&K$z/{&2(1,t$](.)(#~&C'r)g$M-G#`$z$u0:+`'|)r$>3S201z/.$d#]*'$*.d-o+:(])v'G1T/21G(n,9/L.F)K%M+82!'|%'%C$b*k%Z-x%P)M##",
"/L*x$l&(*>-o*p,>2N2;*=)#2A$o,e'|#M&K'|(J);'l%;$d%M&M1.27'p3x/W)<$b#^(e'^);)p!f(R!7%''F!W(,&J%k/q2V.k'8%z+R0],a,k/F.p-D&W,9.f+q'A",
"07(v&(,9)7/k,y0B3V.j)_)c&()R)W*M*}+w,93O#1&`&:.&)$-h,f#j/j1S,V!a(</B-&'.#G&L)[#7'`,%'p&9*E(%/6,g2H%C$p)d/S)13;2./w3%)]$q*p!x-u)@",
"#}(E(&'`$s(x'I0~2**9,.'z(J$%#b2K0O-V&u,0-G%y'z-N0f!h*E'|)13w0W1P*3.W.].G*<+d*g+)1g-j,9'^,0-j&~1]':,9'X1@*+/U&d+Y+d3*(j#~!U*P)),E",
"&V#f$4&h'o$c.N1Q.U#/,_$H(A!;(G#~)@3a$R&t,Y$:'q%o$E*>-d+q':0''}*Y+|+]2m)d$g*J,(,9/w.i(r&(&v,`1d)i%'*P$}34).#.*3+Z2X,g)5*4(j.y(.$k",
"#q&<(|$$)@,;!A*?(?(?-&-p1-'>2Q!b/?&m'>*K'e#}#}-,*^*4(f!|(z(V*U)A232+3b,f'X*r$/,m0P2G.y$?({(Q*t)'#-(V0g,z*,*%+61>*8-y,9/@1p0;,9!~",
"&M$c)j,5-8(}(q'{${/F${(R%0*!*J$q1C2&*j'v-6&()x$q1@/{-&(J-/$T#i&)&/'9)u'~(A(}#=&@1F+A%u,0'~#t(Q(3#?-7)t.V)[$u-L)5)2(D&n->#~.)&0!a",
"'O)0)9*>+q'|):!`!s#2$u(N&/':'X#0+Y-I&i$f$u(z'R*k-,*u)!24+`,9,4)p#8'c'9*/&g&(!_/h2F.C/0&_%l/^1W+q%W!J$o/V.-*)(;/9);%o$E'v+F*s)8%9",
"$@0Z#K+g(N#;-L-*.z#N&4$o,k*m&(+~1;,%+2+('u$a0A$c'(&r&,(I3Y*+*e+V(:+^'c/I%@*/.`.f,:3H#v$?%w3`*C&l'^$P'|,0/`$<'*#P)C#h!e)V-p+)+_!m",
"*7/B.y)A!W)u+0#d(E&t&{,e0j-x.&.w&g*J+a)3(j)31>0*#?,C.y$X%W'`#h!s*-*D(S!3$G-T-++@2(1a-$&g.z-I1H.X)=+!!K%G.u-O&V&&+w&V!j1K2s*Q)O'u",
"/m-J,b-%!D,>/s%P%(+q&Y*U+I1=3N/{)}%C,**:%c+|'s.z(F(U*@%,/@3h+x&c3d*8*8%m)4.S$f,9-R-U(($G)8(k2D/Y$h#F&Q#7&e-o*X'|%<!p)o,f3A+I*s(p",
"&?.q*>+d$e(t(p&6.~1w#A.y2g$},4.x)8$p,--O&}3_1%+q)L/!'{&q)`+}.P,N/R$^/Y#F%s&d#'&?'Y(R(J/F#|%q(='p)5-2'e(%'~'V(:0k&/%M*L-/*=!8$f'3",
"(J%r!b%h.]!b)8'93P2M,?121.-s%;#d'|!X(>'v+z-A'_%L%),I/t'2#3/Y!W*Z(b.//[%f,.-I,|(o,u(A-z-{'=,.%g-J(D/z'8.C0F3D3F1s*1$'*:/C(L'~%y'`",
"(N)t.3-o)F+u#M/j2:#V/v+q)x&o+=,X&L':*60+2~0?*3%).k)F$v#S*o*D$i,v+&18/V%;0[1I.Y171y*22L'c(z)n!<&m$n%M.q,..`330^0c2l+d&x!`!/&I*>!E",
"&v/z*})x0T%u/c3!'|-I'^%''4*R+j)h.d#f.?-&)<'w)c/r*@*G#3&/$#-0+s'^&m/@0y0|3l&p0./I(J&0&!%V!)%X-s'z!Z#*%#*=.`,j,82Y/_*<#k#V!'&5,i#&",
"(/#!'g!s)c&m'`0R${-*(A21/n*E%z%z*x+d%@1b$R#k$Q+$'>!y#2.j(>+o.='X'+1X+*/73[%K%v.r'`&s,#*Z()/v,12X&W'~*>$d#y&g.c3c32/c'c!e'~$|())x",
"*K'!%i,6%3%o/a(5*^*i'L2^2#1V%x${!x)p$t(E)b&t)h*K,k!e(7%P(92v'x$E#e#}']'1'9/e$a+b(s%},D0Y.=%n#$+7+q+`.H#9#E-q+>-</<,&/z*E#i%'#i$7",
"(l/K.d!r(A*939(4!^(l$j-?0(/8$d$t(-!##X$M'`+@,8+@)E._1l*b1Y)/$v!`!J.@&c(z*x!w$(+f#l&Y&H,C0C,z&/-z'?-o*j#L%o%1-@$?#N'|(%(O$*'B,?0d",
"&|&W2?#o'|+B2b%=#''J0#2^1?(6#_$u*O+t0N&5&-2;.D-!%c&B,$/]4&$a#u#G)I&V01)&(r20(M2?&W*O,M'64'/y2+3<.!%x&W$j(o-I)c*/$(-Y%)/w'>*:27/C",
"*n38(M!b07*L%A%x#$.Q*W.S2}1o(E3X.L/&*=,**=2x/>(p($*,-B1{3-'#/11r%R)#'~.^0N.w+n2'$o.@*M+/3n2C/i0N.q+9!_)S*5(l&G*)$G.|#*-P&y-70l%Y",
"+k2G*E-~,:21-g1q'|&>0z0A/<%h%q'N.B1t/v(U#;(j/i0~*)(|/3'R+'(@,[,7(R1M!5(i-&0/040,&L$@#w.W1^2k272Z00(N$((M'e+`(?-!&k,o%S!b/J1M&5'`",
"*8/K$A,9*L&t+U/>)10$1U1|3e+_2w3u/X0j-#!|'e/F,7%~/;,{0y*6(?-y/h)c-P2t$9/T(H1n-B%?%Q$C*<.^1?1?303&.7#B%]2p-:#:+o%}!I/Q)P#p050t-/)P",
",s&#%[-0%^(135/5#e)a+b-D+3&'/r4#2y)e'y(W$S$-,3'~!|(0-Y--*71J,[11+f*n/#'),W20)D&P%$%}.G%H&n/C/D/z.p$f&3,?(#!+0s$?.v(Q%%!C+9)F&50=",
"(!)_*Q#e!e#m$n+A*e(l*J,['W'|'911,:%D(:/8!Y&D's,7)80^.=3^,A/).h/g.o-K+d(g&7,'*6#}(r,.$_%4*p);&V%x1$&s.w.9$v!a'~'e(r&q!`*q%%(&*P,>",
"#<$),4,;,H&y#?#33J%{!f%U,m/G223+%y)F,:,F(E#N(l*k10'$$c25,p*H)H&Q!l.z&8%a%r%F*B*U1O(?$;+Q/7'_&x.~,1,S#|&>'^$G-[)m%.#Q${#O&()q*D#?",
"%N!u-Z$p+q$6#?#N*v$[*r'B&0.J,a*!!4&3,q%B(N':!t04.w+r$P$t&,%9&.$s$D(J%s.Y(l,e)&!J)'*I$f)]%~+_'6$i/6&?+?'|&i+q&.!a&z([(R,~.q/n,C$z",
"(N(Q2j,[%'%|$V.I(](N$U${'d*E$E#l#M)3':(z(K&0#V!x.Z%2(<211b)8(r&W(s-3)d!H-n(U#<&-'e#|(^1s)h3@++)@!b!K+I$f$D)h,/,>+M0u,9%B-&+6(+#'",
"*2$e$;.U#|%!$Y.J-X.d*L#<(r).!:&#-+$j/{.r00+I'f-T#N'T-G)c)u&K)d#}%+%*)y&-,q(x)o'Q'-'',^3=,0+@.x*D%<&($v'|+@(D&;,52i3{1$/!3g*a$L*G",
"#P!S$)/{*|+K(R/+!b/$01#Z-P&f%t*0!6'`&W&R/i1@/?3?#>*J/{-i*92c'X)R$z$})n#+-7-2$v.K!b#7-a3}+>06)<.s*f!}#V08'x/7.;.z#H1N'~'A,C)A'8/,",
")L)x(U1b(x!e*b(u/v+q,c,f.9!!#'%y%r.`+*$z-I-m2,%~$o*D&*%M'^2;$3%&#,'A'i!x10%U&4%o#!'9,>0,-/)c+p![#p(%#@&!$G*+2x'K#e'g()*}(R)R(E.("
};
