/* XPM */
static char *dirt_01[] = {
/* columns rows colors chars-per-pixel */
"64 64 1912 2",
/* colors */
"!! c #191412",
"!# c #1A1413",
"!$ c #1A1513",
"!% c #1A1615",
"!& c #1B1512",
"!' c #1B1515",
"!( c #1B1614",
"!) c #1B1715",
"!* c #1C1513",
"!+ c #1C1514",
"!, c #1C1515",
"!- c #1C1613",
"!. c #1C1615",
"!/ c #1C1616",
"!0 c #1C1713",
"!1 c #1C1714",
"!2 c #1C1715",
"!3 c #1C1716",
"!4 c #1D1613",
"!5 c #1D1614",
"!6 c #1D1615",
"!7 c #1D1714",
"!8 c #1D1715",
"!9 c #1D1716",
"!: c #1D1717",
"!; c #1D1814",
"!< c #1D1815",
"!= c #1D1816",
"!> c #1D1817",
"!? c #1D1818",
"!@ c #1D1916",
"!A c #1D1A18",
"!B c #1D1B1B",
"!C c #1E1613",
"!D c #1E1616",
"!E c #1E1713",
"!F c #1E1714",
"!G c #1E1715",
"!H c #1E1716",
"!I c #1E1717",
"!J c #1E1719",
"!K c #1E1815",
"!L c #1E1816",
"!M c #1E1817",
"!N c #1E1818",
"!O c #1E1914",
"!P c #1E1915",
"!Q c #1E1916",
"!R c #1E1917",
"!S c #1E1918",
"!T c #1E1A15",
"!U c #1E1A16",
"!V c #1E1A17",
"!W c #1E1A19",
"!X c #1E1A1B",
"!Y c #1E1B18",
"!Z c #1E1B19",
"![ c #1F1714",
"!] c #1F1715",
"!^ c #1F1716",
"!_ c #1F1815",
"!` c #1F1816",
"!a c #1F1817",
"!b c #1F1818",
"!c c #1F1915",
"!d c #1F1916",
"!e c #1F1917",
"!f c #1F1918",
"!g c #1F1A15",
"!h c #1F1A16",
"!i c #1F1A17",
"!j c #1F1A18",
"!k c #1F1B17",
"!l c #1F1B18",
"!m c #1F1B19",
"!n c #1F1B1A",
"!o c #1F1B1B",
"!p c #1F1C1A",
"!q c #201716",
"!r c #201813",
"!s c #201815",
"!t c #201816",
"!u c #201817",
"!v c #201818",
"!w c #201914",
"!x c #201915",
"!y c #201916",
"!z c #201917",
"!{ c #201918",
"!| c #201919",
"!} c #201A16",
"!~ c #201A17",
"#! c #201A18",
"## c #201A19",
"#$ c #201B16",
"#% c #201B17",
"#& c #201B18",
"#' c #201B19",
"#( c #201B1A",
"#) c #201C18",
"#* c #201C19",
"#+ c #201C1A",
"#, c #211915",
"#- c #211916",
"#. c #211917",
"#/ c #211918",
"#0 c #211919",
"#1 c #211A15",
"#2 c #211A16",
"#3 c #211A17",
"#4 c #211A18",
"#5 c #211A19",
"#6 c #211A1A",
"#7 c #211A1B",
"#8 c #211B16",
"#9 c #211B17",
"#: c #211B18",
"#; c #211B19",
"#< c #211B1A",
"#= c #211B1B",
"#> c #211B1C",
"#? c #211C17",
"#@ c #211C18",
"#A c #211C19",
"#B c #211C1A",
"#C c #211C1B",
"#D c #211D18",
"#E c #211D1A",
"#F c #211D1B",
"#G c #211D1C",
"#H c #221A14",
"#I c #221A16",
"#J c #221A17",
"#K c #221A18",
"#L c #221A19",
"#M c #221A1A",
"#N c #221B15",
"#O c #221B16",
"#P c #221B17",
"#Q c #221B18",
"#R c #221B19",
"#S c #221B1A",
"#T c #221B1B",
"#U c #221C15",
"#V c #221C16",
"#W c #221C18",
"#X c #221C19",
"#Y c #221C1A",
"#Z c #221C1B",
"#[ c #221D17",
"#] c #221D18",
"#^ c #221D19",
"#_ c #221D1A",
"#` c #221D1B",
"#a c #221D1C",
"#b c #221E1B",
"#c c #221E1E",
"#d c #221F19",
"#e c #221F1F",
"#f c #22211A",
"#g c #231913",
"#h c #231A16",
"#i c #231A17",
"#j c #231A18",
"#k c #231A19",
"#l c #231B16",
"#m c #231B17",
"#n c #231B18",
"#o c #231B19",
"#p c #231B1A",
"#q c #231C17",
"#r c #231C18",
"#s c #231C19",
"#t c #231C1A",
"#u c #231C1B",
"#v c #231C1C",
"#w c #231D17",
"#x c #231D18",
"#y c #231D19",
"#z c #231D1A",
"#{ c #231D1B",
"#| c #231D1C",
"#} c #231D1E",
"#~ c #231E17",
"$! c #231E18",
"$# c #231E19",
"$$ c #231E1A",
"$% c #231E1B",
"$& c #231E1C",
"$' c #231E1D",
"$( c #231E1E",
"$) c #231E20",
"$* c #231F1A",
"$+ c #231F1C",
"$, c #231F1D",
"$- c #231F1E",
"$. c #241A16",
"$/ c #241A17",
"$0 c #241B16",
"$1 c #241B17",
"$2 c #241B18",
"$3 c #241B19",
"$4 c #241B1B",
"$5 c #241B1C",
"$6 c #241C16",
"$7 c #241C17",
"$8 c #241C18",
"$9 c #241C19",
"$: c #241C1A",
"$; c #241C1B",
"$< c #241D16",
"$= c #241D17",
"$> c #241D18",
"$? c #241D19",
"$@ c #241D1A",
"$A c #241D1B",
"$B c #241D1C",
"$C c #241D1E",
"$D c #241E17",
"$E c #241E18",
"$F c #241E19",
"$G c #241E1A",
"$H c #241E1B",
"$I c #241E1C",
"$J c #241E1D",
"$K c #241E1E",
"$L c #241F1A",
"$M c #241F1B",
"$N c #241F1C",
"$O c #241F1D",
"$P c #241F1E",
"$Q c #24201B",
"$R c #24201C",
"$S c #24201D",
"$T c #24201E",
"$U c #242020",
"$V c #24211E",
"$W c #242221",
"$X c #251B15",
"$Y c #251C18",
"$Z c #251C19",
"$[ c #251C1A",
"$] c #251C1B",
"$^ c #251D16",
"$_ c #251D17",
"$` c #251D18",
"$a c #251D19",
"$b c #251D1A",
"$c c #251D1B",
"$d c #251D1C",
"$e c #251D1D",
"$f c #251E18",
"$g c #251E19",
"$h c #251E1A",
"$i c #251E1B",
"$j c #251E1C",
"$k c #251E1D",
"$l c #251E1E",
"$m c #251E1F",
"$n c #251F19",
"$o c #251F1A",
"$p c #251F1B",
"$q c #251F1C",
"$r c #251F1D",
"$s c #251F1E",
"$t c #25201B",
"$u c #25201C",
"$v c #25201D",
"$w c #25201E",
"$x c #25201F",
"$y c #25211C",
"$z c #25211D",
"${ c #25211E",
"$| c #25211F",
"$} c #252120",
"$~ c #25221F",
"%! c #252220",
"%# c #261B15",
"%$ c #261C16",
"%% c #261C18",
"%& c #261C1A",
"%' c #261D18",
"%( c #261D19",
"%) c #261D1A",
"%* c #261D1B",
"%+ c #261E19",
"%, c #261E1A",
"%- c #261E1B",
"%. c #261E1C",
"%/ c #261E1D",
"%0 c #261F19",
"%1 c #261F1A",
"%2 c #261F1B",
"%3 c #261F1C",
"%4 c #261F1D",
"%5 c #261F1E",
"%6 c #261F1F",
"%7 c #262018",
"%8 c #262019",
"%9 c #26201A",
"%: c #26201B",
"%; c #26201C",
"%< c #26201D",
"%= c #26201E",
"%> c #26201F",
"%? c #26211A",
"%@ c #26211B",
"%A c #26211C",
"%B c #26211D",
"%C c #26211E",
"%D c #26211F",
"%E c #26221E",
"%F c #262220",
"%G c #271D18",
"%H c #271D1B",
"%I c #271E17",
"%J c #271E18",
"%K c #271E19",
"%L c #271E1A",
"%M c #271E1B",
"%N c #271E1C",
"%O c #271F18",
"%P c #271F19",
"%Q c #271F1A",
"%R c #271F1B",
"%S c #271F1C",
"%T c #271F1D",
"%U c #271F1E",
"%V c #272019",
"%W c #27201A",
"%X c #27201B",
"%Y c #27201C",
"%Z c #27201D",
"%[ c #27201E",
"%] c #27201F",
"%^ c #27211B",
"%_ c #27211C",
"%` c #27211D",
"%a c #27211E",
"%b c #27211F",
"%c c #272120",
"%d c #27221A",
"%e c #27221C",
"%f c #27221E",
"%g c #272220",
"%h c #272221",
"%i c #27231E",
"%j c #272320",
"%k c #272321",
"%l c #281E16",
"%m c #281E17",
"%n c #281E19",
"%o c #281E1C",
"%p c #281F16",
"%q c #281F18",
"%r c #281F1A",
"%s c #281F1B",
"%t c #281F1C",
"%u c #281F1D",
"%v c #282019",
"%w c #28201A",
"%x c #28201B",
"%y c #28201C",
"%z c #28201D",
"%{ c #28201E",
"%| c #282119",
"%} c #28211A",
"%~ c #28211B",
"&! c #28211C",
"&# c #28211D",
"&$ c #28211E",
"&% c #28211F",
"&& c #282120",
"&' c #28221B",
"&( c #28221C",
"&) c #28221D",
"&* c #28221E",
"&+ c #28221F",
"&, c #282220",
"&- c #282221",
"&. c #28231D",
"&/ c #28231E",
"&0 c #28231F",
"&1 c #282321",
"&2 c #282322",
"&3 c #282422",
"&4 c #28251F",
"&5 c #291E18",
"&6 c #291E1A",
"&7 c #291F19",
"&8 c #291F1A",
"&9 c #291F1B",
"&: c #292019",
"&; c #29201A",
"&< c #29201B",
"&= c #29201C",
"&> c #29201D",
"&? c #292119",
"&@ c #29211B",
"&A c #29211C",
"&B c #29211D",
"&C c #29211E",
"&D c #29211F",
"&E c #292120",
"&F c #292219",
"&G c #29221B",
"&H c #29221C",
"&I c #29221D",
"&J c #29221E",
"&K c #29221F",
"&L c #292220",
"&M c #292222",
"&N c #29231B",
"&O c #29231C",
"&P c #29231D",
"&Q c #29231E",
"&R c #29231F",
"&S c #292320",
"&T c #292321",
"&U c #292322",
"&V c #29241E",
"&W c #29241F",
"&X c #292420",
"&Y c #292421",
"&Z c #292422",
"&[ c #29251E",
"&] c #292522",
"&^ c #2A1F1A",
"&_ c #2A201A",
"&` c #2A201B",
"&a c #2A201E",
"&b c #2A201F",
"&c c #2A211A",
"&d c #2A211B",
"&e c #2A211C",
"&f c #2A211D",
"&g c #2A211E",
"&h c #2A211F",
"&i c #2A221A",
"&j c #2A221B",
"&k c #2A221C",
"&l c #2A221D",
"&m c #2A221E",
"&n c #2A221F",
"&o c #2A2220",
"&p c #2A231B",
"&q c #2A231D",
"&r c #2A231E",
"&s c #2A231F",
"&t c #2A2320",
"&u c #2A2321",
"&v c #2A241D",
"&w c #2A241E",
"&x c #2A241F",
"&y c #2A2420",
"&z c #2A2421",
"&{ c #2A2423",
"&| c #2A251F",
"&} c #2A2520",
"&~ c #2A2521",
"'! c #2A2522",
"'# c #2A2524",
"'$ c #2A2621",
"'% c #2A2624",
"'& c #2A2724",
"'' c #2B201B",
"'( c #2B201C",
"') c #2B2119",
"'* c #2B211B",
"'+ c #2B211C",
"', c #2B211F",
"'- c #2B221B",
"'. c #2B221C",
"'/ c #2B221D",
"'0 c #2B221E",
"'1 c #2B221F",
"'2 c #2B231B",
"'3 c #2B231D",
"'4 c #2B231E",
"'5 c #2B231F",
"'6 c #2B2320",
"'7 c #2B2321",
"'8 c #2B241C",
"'9 c #2B241D",
"': c #2B241E",
"'; c #2B241F",
"'< c #2B2420",
"'= c #2B2421",
"'> c #2B2422",
"'? c #2B251D",
"'@ c #2B2520",
"'A c #2B2521",
"'B c #2B2522",
"'C c #2B2523",
"'D c #2B2524",
"'E c #2B261E",
"'F c #2B2620",
"'G c #2B2621",
"'H c #2B2622",
"'I c #2B2721",
"'J c #2B2723",
"'K c #2C211A",
"'L c #2C2219",
"'M c #2C221A",
"'N c #2C221C",
"'O c #2C221D",
"'P c #2C221E",
"'Q c #2C2220",
"'R c #2C231B",
"'S c #2C231C",
"'T c #2C231D",
"'U c #2C231E",
"'V c #2C231F",
"'W c #2C2320",
"'X c #2C2321",
"'Y c #2C241A",
"'Z c #2C241B",
"'[ c #2C241C",
"'] c #2C241D",
"'^ c #2C241E",
"'_ c #2C241F",
"'` c #2C2420",
"'a c #2C2421",
"'b c #2C251E",
"'c c #2C251F",
"'d c #2C2520",
"'e c #2C2521",
"'f c #2C2522",
"'g c #2C2523",
"'h c #2C2524",
"'i c #2C261E",
"'j c #2C2620",
"'k c #2C2621",
"'l c #2C2622",
"'m c #2C2623",
"'n c #2C2624",
"'o c #2C2720",
"'p c #2C2724",
"'q c #2C2725",
"'r c #2C2924",
"'s c #2D201A",
"'t c #2D211C",
"'u c #2D221A",
"'v c #2D231A",
"'w c #2D231C",
"'x c #2D231D",
"'y c #2D231E",
"'z c #2D231F",
"'{ c #2D2320",
"'| c #2D241C",
"'} c #2D241D",
"'~ c #2D241E",
"(! c #2D241F",
"(# c #2D2420",
"($ c #2D2421",
"(% c #2D251D",
"(& c #2D251E",
"(' c #2D251F",
"(( c #2D2520",
"() c #2D2521",
"(* c #2D2522",
"(+ c #2D2523",
"(, c #2D2524",
"(- c #2D2620",
"(. c #2D2621",
"(/ c #2D2622",
"(0 c #2D2623",
"(1 c #2D2720",
"(2 c #2D2721",
"(3 c #2D2722",
"(4 c #2D2723",
"(5 c #2D2724",
"(6 c #2D2725",
"(7 c #2D2822",
"(8 c #2D2825",
"(9 c #2D2924",
"(: c #2D2925",
"(; c #2E221B",
"(< c #2E221C",
"(= c #2E231C",
"(> c #2E231D",
"(? c #2E231E",
"(@ c #2E2321",
"(A c #2E241D",
"(B c #2E241E",
"(C c #2E241F",
"(D c #2E2420",
"(E c #2E2422",
"(F c #2E251D",
"(G c #2E251E",
"(H c #2E251F",
"(I c #2E2520",
"(J c #2E2521",
"(K c #2E2522",
"(L c #2E2523",
"(M c #2E261C",
"(N c #2E261E",
"(O c #2E261F",
"(P c #2E2620",
"(Q c #2E2621",
"(R c #2E2622",
"(S c #2E2623",
"(T c #2E2624",
"(U c #2E2720",
"(V c #2E2721",
"(W c #2E2722",
"(X c #2E2723",
"(Y c #2E2724",
"(Z c #2E2820",
"([ c #2E2823",
"(] c #2E2824",
"(^ c #2E2825",
"(_ c #2E2925",
"(` c #2F231D",
"(a c #2F241E",
"(b c #2F241F",
"(c c #2F251D",
"(d c #2F251E",
"(e c #2F251F",
"(f c #2F2520",
"(g c #2F261E",
"(h c #2F261F",
"(i c #2F2620",
"(j c #2F2621",
"(k c #2F2622",
"(l c #2F2624",
"(m c #2F2628",
"(n c #2F271E",
"(o c #2F271F",
"(p c #2F2720",
"(q c #2F2721",
"(r c #2F2722",
"(s c #2F2723",
"(t c #2F2724",
"(u c #2F2725",
"(v c #2F281E",
"(w c #2F2822",
"(x c #2F2823",
"(y c #2F2824",
"(z c #2F2826",
"({ c #2F2921",
"(| c #2F2923",
"(} c #2F2924",
"(~ c #2F2A25",
")! c #2F2A26",
")# c #30241E",
")$ c #30241F",
")% c #30251D",
")& c #30251E",
")' c #30251F",
")( c #302520",
")) c #30261D",
")* c #30261E",
")+ c #30261F",
"), c #302620",
")- c #302621",
"). c #302622",
")/ c #302623",
")0 c #30271E",
")1 c #30271F",
")2 c #302720",
")3 c #302721",
")4 c #302722",
")5 c #302723",
")6 c #302724",
")7 c #30281E",
")8 c #302820",
")9 c #302821",
"): c #302822",
"); c #302823",
")< c #302824",
")= c #302826",
")> c #30291F",
")? c #302920",
")@ c #302921",
")A c #302922",
")B c #302923",
")C c #302924",
")D c #302A25",
")E c #302B24",
")F c #31241B",
")G c #31241E",
")H c #31251D",
")I c #312520",
")J c #31261D",
")K c #31261F",
")L c #312620",
")M c #312621",
")N c #31271E",
")O c #31271F",
")P c #312720",
")Q c #312721",
")R c #312722",
")S c #312723",
")T c #31281E",
")U c #312820",
")V c #312821",
")W c #312822",
")X c #312823",
")Y c #312824",
")Z c #312825",
")[ c #312826",
")] c #31291F",
")^ c #312921",
")_ c #312922",
")` c #312923",
")a c #312924",
")b c #312925",
")c c #312926",
")d c #312A23",
")e c #312A24",
")f c #312A25",
")g c #312A26",
")h c #312A27",
")i c #312B23",
")j c #312B24",
")k c #312B25",
")l c #312C29",
")m c #32261E",
")n c #32271D",
")o c #32271F",
")p c #322720",
")q c #322721",
")r c #32281E",
")s c #32281F",
")t c #322820",
")u c #322821",
")v c #322822",
")w c #322823",
")x c #322825",
")y c #322920",
")z c #322921",
"){ c #322922",
")| c #322923",
")} c #322925",
")~ c #322926",
"*! c #322A21",
"*# c #322A23",
"*$ c #322A24",
"*% c #322A25",
"*& c #322A26",
"*' c #322B23",
"*( c #322B24",
"*) c #322B25",
"** c #322B27",
"*+ c #322B2A",
"*, c #322C25",
"*- c #322C27",
"*. c #322C28",
"*/ c #322D27",
"*0 c #33261D",
"*1 c #332620",
"*2 c #33271F",
"*3 c #332720",
"*4 c #332724",
"*5 c #33281E",
"*6 c #33281F",
"*7 c #332820",
"*8 c #332821",
"*9 c #332822",
"*: c #332823",
"*; c #332920",
"*< c #332921",
"*= c #332922",
"*> c #332923",
"*? c #332924",
"*@ c #332925",
"*A c #332A21",
"*B c #332A22",
"*C c #332A23",
"*D c #332A24",
"*E c #332A25",
"*F c #332A26",
"*G c #332A27",
"*H c #332B22",
"*I c #332B23",
"*J c #332B24",
"*K c #332B25",
"*L c #332B26",
"*M c #332B28",
"*N c #332C24",
"*O c #332C27",
"*P c #332C2B",
"*Q c #332D26",
"*R c #332D29",
"*S c #332E27",
"*T c #332E2A",
"*U c #34271E",
"*V c #34281E",
"*W c #342820",
"*X c #342822",
"*Y c #342920",
"*Z c #342921",
"*[ c #342922",
"*] c #342923",
"*^ c #342924",
"*_ c #342925",
"*` c #342A1E",
"*a c #342A20",
"*b c #342A21",
"*c c #342A22",
"*d c #342A23",
"*e c #342A24",
"*f c #342A25",
"*g c #342A26",
"*h c #342B21",
"*i c #342B22",
"*j c #342B23",
"*k c #342B24",
"*l c #342B25",
"*m c #342C21",
"*n c #342C24",
"*o c #342C25",
"*p c #342C26",
"*q c #342C27",
"*r c #342C28",
"*s c #342D24",
"*t c #342D25",
"*u c #342D26",
"*v c #342D28",
"*w c #342D29",
"*x c #352620",
"*y c #35271F",
"*z c #352723",
"*{ c #352820",
"*| c #352821",
"*} c #35291E",
"*~ c #352923",
"+! c #352925",
"+# c #352A20",
"+$ c #352A21",
"+% c #352A22",
"+& c #352A23",
"+' c #352A24",
"+( c #352A25",
"+) c #352A26",
"+* c #352B21",
"++ c #352B22",
"+, c #352B23",
"+- c #352B24",
"+. c #352B25",
"+/ c #352B26",
"+0 c #352B27",
"+1 c #352C22",
"+2 c #352C23",
"+3 c #352C25",
"+4 c #352C26",
"+5 c #352D21",
"+6 c #352D23",
"+7 c #352D24",
"+8 c #352D25",
"+9 c #352D26",
"+: c #352D28",
"+; c #352E26",
"+< c #352E27",
"+= c #352E28",
"+> c #353027",
"+? c #362A20",
"+@ c #362A21",
"+A c #362A22",
"+B c #362A23",
"+C c #362B1F",
"+D c #362B21",
"+E c #362B22",
"+F c #362B23",
"+G c #362B24",
"+H c #362B25",
"+I c #362C21",
"+J c #362C22",
"+K c #362C23",
"+L c #362C24",
"+M c #362C25",
"+N c #362C26",
"+O c #362C27",
"+P c #362C2A",
"+Q c #362D24",
"+R c #362D25",
"+S c #362D26",
"+T c #362D27",
"+U c #362E26",
"+V c #362E27",
"+W c #362E29",
"+X c #362E2A",
"+Y c #362F25",
"+Z c #362F26",
"+[ c #372921",
"+] c #372A21",
"+^ c #372A22",
"+_ c #372B20",
"+` c #372B21",
"+a c #372B22",
"+b c #372B23",
"+c c #372B24",
"+d c #372B25",
"+e c #372B26",
"+f c #372C22",
"+g c #372C23",
"+h c #372C24",
"+i c #372C25",
"+j c #372C26",
"+k c #372C27",
"+l c #372C28",
"+m c #372D23",
"+n c #372D24",
"+o c #372D25",
"+p c #372D26",
"+q c #372D27",
"+r c #372D28",
"+s c #372E24",
"+t c #372E25",
"+u c #372E26",
"+v c #372E27",
"+w c #372E28",
"+x c #372E29",
"+y c #372E2B",
"+z c #372F24",
"+{ c #372F26",
"+| c #372F27",
"+} c #372F28",
"+~ c #372F2A",
",! c #373028",
",# c #37302A",
",$ c #373128",
",% c #37312A",
",& c #382A20",
",' c #382A23",
",( c #382A24",
",) c #382A26",
",* c #382C20",
",+ c #382C23",
",, c #382C24",
",- c #382C25",
",. c #382C26",
",/ c #382D21",
",0 c #382D23",
",1 c #382D25",
",2 c #382D26",
",3 c #382E22",
",4 c #382E23",
",5 c #382E24",
",6 c #382E25",
",7 c #382E26",
",8 c #382E27",
",9 c #382E28",
",: c #382E29",
",; c #382E2A",
",< c #382F23",
",= c #382F25",
",> c #382F26",
",? c #382F27",
",@ c #382F28",
",A c #382F29",
",B c #382F2A",
",C c #383026",
",D c #383028",
",E c #383029",
",F c #38302A",
",G c #383129",
",H c #392C22",
",I c #392C23",
",J c #392C24",
",K c #392C25",
",L c #392C26",
",M c #392D24",
",N c #392D25",
",O c #392D26",
",P c #392D27",
",Q c #392E21",
",R c #392E23",
",S c #392E24",
",T c #392E25",
",U c #392E26",
",V c #392E27",
",W c #392E28",
",X c #392E29",
",Y c #392F24",
",Z c #392F25",
",[ c #392F26",
",] c #392F27",
",^ c #392F29",
",_ c #392F2A",
",` c #393026",
",a c #393027",
",b c #393028",
",c c #393029",
",d c #39302A",
",e c #39302B",
",f c #393127",
",g c #393129",
",h c #39312A",
",i c #39312B",
",j c #393228",
",k c #39322C",
",l c #3A2B24",
",m c #3A2C23",
",n c #3A2C25",
",o c #3A2C26",
",p c #3A2C27",
",q c #3A2D22",
",r c #3A2D23",
",s c #3A2D24",
",t c #3A2D25",
",u c #3A2D28",
",v c #3A2E22",
",w c #3A2E24",
",x c #3A2E25",
",y c #3A2E26",
",z c #3A2E27",
",{ c #3A2E29",
",| c #3A2F21",
",} c #3A2F26",
",~ c #3A2F27",
"-! c #3A2F28",
"-# c #3A2F29",
"-$ c #3A3025",
"-% c #3A3026",
"-& c #3A3028",
"-' c #3A302A",
"-( c #3A302C",
"-) c #3A3127",
"-* c #3A3128",
"-+ c #3A3129",
"-, c #3A312A",
"-- c #3A312B",
"-. c #3A3229",
"-/ c #3A322A",
"-0 c #3A322B",
"-1 c #3A3328",
"-2 c #3A3329",
"-3 c #3A332A",
"-4 c #3A342D",
"-5 c #3B2E22",
"-6 c #3B2E23",
"-7 c #3B2E24",
"-8 c #3B2E26",
"-9 c #3B2E27",
"-: c #3B2E29",
"-; c #3B2F24",
"-< c #3B2F25",
"-= c #3B2F26",
"-> c #3B2F27",
"-? c #3B2F28",
"-@ c #3B3024",
"-A c #3B3026",
"-B c #3B3027",
"-C c #3B3028",
"-D c #3B3029",
"-E c #3B302A",
"-F c #3B302B",
"-G c #3B3127",
"-H c #3B3128",
"-I c #3B3129",
"-J c #3B312A",
"-K c #3B312B",
"-L c #3B3225",
"-M c #3B3227",
"-N c #3B3228",
"-O c #3B3229",
"-P c #3B322A",
"-Q c #3B3328",
"-R c #3B332A",
"-S c #3B332B",
"-T c #3B332C",
"-U c #3B3528",
"-V c #3C2D24",
"-W c #3C2D25",
"-X c #3C2E22",
"-Y c #3C2E23",
"-Z c #3C2E24",
"-[ c #3C2F23",
"-] c #3C2F24",
"-^ c #3C2F25",
"-_ c #3C2F26",
"-` c #3C2F29",
"-a c #3C3023",
"-b c #3C3024",
"-c c #3C3025",
"-d c #3C3026",
"-e c #3C3027",
"-f c #3C3028",
"-g c #3C3029",
"-h c #3C302A",
"-i c #3C302B",
"-j c #3C3124",
"-k c #3C3125",
"-l c #3C3126",
"-m c #3C3127",
"-n c #3C3128",
"-o c #3C3129",
"-p c #3C312A",
"-q c #3C312B",
"-r c #3C312C",
"-s c #3C3227",
"-t c #3C3228",
"-u c #3C3229",
"-v c #3C322A",
"-w c #3C322C",
"-x c #3C3329",
"-y c #3C332A",
"-z c #3C332B",
"-{ c #3C332C",
"-| c #3C332F",
"-} c #3C3429",
"-~ c #3C342C",
".! c #3C342D",
".# c #3D2E25",
".$ c #3D2E27",
".% c #3D2E28",
".& c #3D2F23",
".' c #3D2F24",
".( c #3D2F25",
".) c #3D3023",
".* c #3D3024",
".+ c #3D3025",
"., c #3D3026",
".- c #3D3027",
".. c #3D3028",
"./ c #3D3029",
".0 c #3D3124",
".1 c #3D3125",
".2 c #3D3126",
".3 c #3D3127",
".4 c #3D3128",
".5 c #3D3129",
".6 c #3D312A",
".7 c #3D3225",
".8 c #3D3226",
".9 c #3D3227",
".: c #3D3228",
".; c #3D3229",
".< c #3D322A",
".= c #3D3328",
".> c #3D332A",
".? c #3D332B",
".@ c #3D332C",
".A c #3D342B",
".B c #3D342F",
".C c #3D352A",
".D c #3D352B",
".E c #3D352C",
".F c #3D352F",
".G c #3D3530",
".H c #3D372E",
".I c #3E2E23",
".J c #3E2F24",
".K c #3E3023",
".L c #3E3026",
".M c #3E3028",
".N c #3E3029",
".O c #3E3123",
".P c #3E3124",
".Q c #3E3125",
".R c #3E3127",
".S c #3E3128",
".T c #3E312A",
".U c #3E312B",
".V c #3E3225",
".W c #3E3226",
".X c #3E3227",
".Y c #3E3228",
".Z c #3E3229",
".[ c #3E322A",
".] c #3E322B",
".^ c #3E3326",
"._ c #3E3327",
".` c #3E3328",
".a c #3E3329",
".b c #3E332A",
".c c #3E332B",
".d c #3E3428",
".e c #3E3429",
".f c #3E342A",
".g c #3E342B",
".h c #3E342C",
".i c #3E3529",
".j c #3E352B",
".k c #3E352C",
".l c #3E352E",
".m c #3E3530",
".n c #3E372B",
".o c #3E372F",
".p c #3F2E23",
".q c #3F2F27",
".r c #3F3026",
".s c #3F3027",
".t c #3F3029",
".u c #3F3126",
".v c #3F3128",
".w c #3F3226",
".x c #3F3227",
".y c #3F322B",
".z c #3F3326",
".{ c #3F3327",
".| c #3F3329",
".} c #3F332A",
".~ c #3F332B",
"/! c #3F3427",
"/# c #3F3428",
"/$ c #3F3429",
"/% c #3F342A",
"/& c #3F342B",
"/' c #3F342C",
"/( c #3F342D",
"/) c #3F3528",
"/* c #3F3529",
"/+ c #3F352A",
"/, c #3F352B",
"/- c #3F352C",
"/. c #3F352E",
"// c #3F3530",
"/0 c #3F362A",
"/1 c #3F362B",
"/2 c #3F362C",
"/3 c #3F362E",
"/4 c #3F372A",
"/5 c #3F372C",
"/6 c #3F3730",
"/7 c #3F3A2B",
"/8 c #403125",
"/9 c #403128",
"/: c #403225",
"/; c #403226",
"/< c #403227",
"/= c #403228",
"/> c #403229",
"/? c #40322A",
"/@ c #40322B",
"/A c #403324",
"/B c #403326",
"/C c #403327",
"/D c #403328",
"/E c #403329",
"/F c #40332C",
"/G c #403426",
"/H c #403428",
"/I c #403429",
"/J c #40342A",
"/K c #40342B",
"/L c #40342D",
"/M c #403528",
"/N c #403529",
"/O c #40352A",
"/P c #40352B",
"/Q c #40352C",
"/R c #40352D",
"/S c #40352E",
"/T c #40352F",
"/U c #403629",
"/V c #40362B",
"/W c #40362C",
"/X c #40362E",
"/Y c #40372C",
"/Z c #40372E",
"/[ c #403730",
"/] c #40382D",
"/^ c #413223",
"/_ c #413224",
"/` c #413226",
"/a c #413227",
"/b c #413229",
"/c c #413323",
"/d c #413324",
"/e c #413326",
"/f c #413327",
"/g c #413329",
"/h c #41332A",
"/i c #41332B",
"/j c #41332D",
"/k c #413425",
"/l c #413426",
"/m c #413429",
"/n c #41342A",
"/o c #41342B",
"/p c #41342C",
"/q c #413529",
"/r c #41352A",
"/s c #41352B",
"/t c #41352C",
"/u c #41352D",
"/v c #413629",
"/w c #41362A",
"/x c #41362C",
"/y c #41362D",
"/z c #41362E",
"/{ c #41372C",
"/| c #41372D",
"/} c #41372E",
"/~ c #413830",
"0! c #41392E",
"0# c #41392F",
"0$ c #423227",
"0% c #423228",
"0& c #423229",
"0' c #42322A",
"0( c #423325",
"0) c #423327",
"0* c #423328",
"0+ c #423427",
"0, c #423429",
"0- c #42342C",
"0. c #42342D",
"0/ c #42342F",
"00 c #423526",
"01 c #423529",
"02 c #42352A",
"03 c #42352B",
"04 c #42352C",
"05 c #42352E",
"06 c #423629",
"07 c #42362B",
"08 c #42362C",
"09 c #42362D",
"0: c #42372B",
"0; c #42372C",
"0< c #42372D",
"0= c #42372E",
"0> c #42372F",
"0? c #423730",
"0@ c #423731",
"0A c #42382A",
"0B c #42382C",
"0C c #42382D",
"0D c #42382E",
"0E c #42382F",
"0F c #423A2E",
"0G c #433327",
"0H c #43332A",
"0I c #433426",
"0J c #433428",
"0K c #433429",
"0L c #433525",
"0M c #433527",
"0N c #433528",
"0O c #433529",
"0P c #43352C",
"0Q c #43352E",
"0R c #433629",
"0S c #43362A",
"0T c #43362C",
"0U c #43362D",
"0V c #43362E",
"0W c #43372A",
"0X c #43372B",
"0Y c #43372C",
"0Z c #43372D",
"0[ c #43372E",
"0] c #433730",
"0^ c #433829",
"0_ c #43382B",
"0` c #43382D",
"0a c #43382E",
"0b c #43382F",
"0c c #433830",
"0d c #433831",
"0e c #43392B",
"0f c #43392C",
"0g c #43392F",
"0h c #433931",
"0i c #433A2F",
"0j c #433B2E",
"0k c #433B2F",
"0l c #443328",
"0m c #443429",
"0n c #443528",
"0o c #44352B",
"0p c #443626",
"0q c #443628",
"0r c #443629",
"0s c #44362B",
"0t c #44362C",
"0u c #443728",
"0v c #443729",
"0w c #44372B",
"0x c #44372C",
"0y c #44372D",
"0z c #44372E",
"0{ c #443731",
"0| c #44382A",
"0} c #44382C",
"0~ c #44382D",
"1! c #44382E",
"1# c #44382F",
"1$ c #44392B",
"1% c #44392C",
"1& c #44392E",
"1' c #44392F",
"1( c #443931",
"1) c #443A30",
"1* c #443A34",
"1+ c #45342A",
"1, c #45352C",
"1- c #453627",
"1. c #453628",
"1/ c #453629",
"10 c #45362B",
"11 c #45362C",
"12 c #45362D",
"13 c #45362E",
"14 c #453727",
"15 c #453729",
"16 c #45372A",
"17 c #45372B",
"18 c #45372C",
"19 c #45372D",
"1: c #45382C",
"1; c #45382D",
"1< c #45382E",
"1= c #45382F",
"1> c #453830",
"1? c #45392B",
"1@ c #45392C",
"1A c #45392D",
"1B c #45392E",
"1C c #45392F",
"1D c #453932",
"1E c #453934",
"1F c #453A2B",
"1G c #453A2C",
"1H c #453A2F",
"1I c #453B2D",
"1J c #453B2E",
"1K c #453B30",
"1L c #453B31",
"1M c #453B32",
"1N c #453B33",
"1O c #453B34",
"1P c #453C2D",
"1Q c #453C2F",
"1R c #453C31",
"1S c #453C35",
"1T c #453D2D",
"1U c #453D32",
"1V c #453D33",
"1W c #453F33",
"1X c #463627",
"1Y c #463628",
"1Z c #46362B",
"1[ c #463729",
"1] c #46372D",
"1^ c #46372E",
"1_ c #463827",
"1` c #46382A",
"1a c #46382B",
"1b c #46382C",
"1c c #46382D",
"1d c #463929",
"1e c #46392B",
"1f c #46392E",
"1g c #463A2C",
"1h c #463A2D",
"1i c #463A2E",
"1j c #463A30",
"1k c #463B2E",
"1l c #463B2F",
"1m c #463B30",
"1n c #463B31",
"1o c #463B34",
"1p c #463C2B",
"1q c #463C2E",
"1r c #463C31",
"1s c #463D31",
"1t c #463D32",
"1u c #463D34",
"1v c #463E33",
"1w c #473628",
"1x c #47362C",
"1y c #473729",
"1z c #47372A",
"1{ c #47372B",
"1| c #47372C",
"1} c #473829",
"1~ c #47382A",
"2! c #47382B",
"2# c #47382D",
"2$ c #47382E",
"2% c #47392D",
"2& c #47392F",
"2' c #473A2C",
"2( c #473A2D",
"2) c #473A2E",
"2* c #473A2F",
"2+ c #473A32",
"2, c #473B2B",
"2- c #473B2C",
"2. c #473B2E",
"2/ c #473B2F",
"20 c #473B30",
"21 c #473B32",
"22 c #473B34",
"23 c #473B35",
"24 c #473C2F",
"25 c #473C30",
"26 c #473C33",
"27 c #473D2E",
"28 c #473D2F",
"29 c #473D30",
"2: c #473E34",
"2; c #47402E",
"2< c #474032",
"2= c #474033",
"2> c #474132",
"2? c #474232",
"2@ c #483628",
"2A c #48372A",
"2B c #48372B",
"2C c #483828",
"2D c #48382B",
"2E c #48382C",
"2F c #48382D",
"2G c #483929",
"2H c #48392A",
"2I c #48392C",
"2J c #48392D",
"2K c #483A2A",
"2L c #483A2B",
"2M c #483A2C",
"2N c #483A2D",
"2O c #483A2E",
"2P c #483A2F",
"2Q c #483A31",
"2R c #483B2B",
"2S c #483B2D",
"2T c #483B2E",
"2U c #483B30",
"2V c #483C2C",
"2W c #483C2F",
"2X c #483C30",
"2Y c #483C31",
"2Z c #483D32",
"2[ c #483D34",
"2] c #483F31",
"2^ c #483F33",
"2_ c #493727",
"2` c #49372B",
"2a c #49372D",
"2b c #49382A",
"2c c #49382B",
"2d c #49382F",
"2e c #49392B",
"2f c #49392E",
"2g c #493A2C",
"2h c #493A2D",
"2i c #493A2E",
"2j c #493A2F",
"2k c #493A30",
"2l c #493B2B",
"2m c #493B2C",
"2n c #493B2D",
"2o c #493B2E",
"2p c #493C2F",
"2q c #493C36",
"2r c #493D2E",
"2s c #493D2F",
"2t c #493D30",
"2u c #493D31",
"2v c #493D32",
"2w c #493D35",
"2x c #493E33",
"2y c #493F33",
"2z c #493F34",
"2{ c #493F35",
"2| c #494034",
"2} c #494132",
"2~ c #4A392A",
"3! c #4A392B",
"3# c #4A3A2F",
"3$ c #4A3B28",
"3% c #4A3B2D",
"3& c #4A3B2E",
"3' c #4A3B2F",
"3( c #4A3B30",
"3) c #4A3B32",
"3* c #4A3C2B",
"3+ c #4A3C2C",
"3, c #4A3C2D",
"3- c #4A3C2E",
"3. c #4A3C31",
"3/ c #4A3C32",
"30 c #4A3D2E",
"31 c #4A3D30",
"32 c #4A3D32",
"33 c #4A3E2F",
"34 c #4A3E30",
"35 c #4A3E31",
"36 c #4A3E32",
"37 c #4A3E34",
"38 c #4A3F2F",
"39 c #4A3F31",
"3: c #4A3F32",
"3; c #4A3F34",
"3< c #4A3F37",
"3= c #4A4034",
"3> c #4A4134",
"3? c #4B3927",
"3@ c #4B3A29",
"3A c #4B3B2D",
"3B c #4B3C2D",
"3C c #4B3C2E",
"3D c #4B3D2F",
"3E c #4B3D31",
"3F c #4B3E31",
"3G c #4B3F30",
"3H c #4B402C",
"3I c #4B4030",
"3J c #4B4033",
"3K c #4B4035",
"3L c #4B412E",
"3M c #4B412F",
"3N c #4B4132",
"3O c #4B4232",
"3P c #4B4338",
"3Q c #4C392D",
"3R c #4C3B2C",
"3S c #4C3C2C",
"3T c #4C3C2D",
"3U c #4C3C2E",
"3V c #4C3C31",
"3W c #4C3C32",
"3X c #4C3D2E",
"3Y c #4C3E2E",
"3Z c #4C3E2F",
"3[ c #4C3E30",
"3] c #4C3E33",
"3^ c #4C3E34",
"3_ c #4C3F2D",
"3` c #4C3F2F",
"3a c #4C402C",
"3b c #4C4032",
"3c c #4C412F",
"3d c #4C4132",
"3e c #4C4135",
"3f c #4C4138",
"3g c #4C4237",
"3h c #4C4532",
"3i c #4D3A2C",
"3j c #4D3A2D",
"3k c #4D3B2E",
"3l c #4D3C2C",
"3m c #4D3C2E",
"3n c #4D3C2F",
"3o c #4D3D2C",
"3p c #4D3D2E",
"3q c #4D3D30",
"3r c #4D3D31",
"3s c #4D3E2A",
"3t c #4D3E2F",
"3u c #4D3E32",
"3v c #4D3F2E",
"3w c #4D3F30",
"3x c #4D3F31",
"3y c #4D3F32",
"3z c #4D4032",
"3{ c #4D4130",
"3| c #4D4134",
"3} c #4D4238",
"3~ c #4D4433",
"4! c #4D4438",
"4# c #4E392A",
"4$ c #4E3C2C",
"4% c #4E3C2F",
"4& c #4E3C30",
"4' c #4E3D2E",
"4( c #4E3E30",
"4) c #4E3E32",
"4* c #4E3F2E",
"4+ c #4E3F2F",
"4, c #4E3F31",
"4- c #4E402E",
"4. c #4E4030",
"4/ c #4E4031",
"40 c #4E4032",
"41 c #4E4130",
"42 c #4E4132",
"43 c #4E4233",
"44 c #4E4433",
"45 c #4E4536",
"46 c #4E4637",
"47 c #4E4739",
"48 c #4E4935",
"49 c #4F3C2B",
"4: c #4F3C2C",
"4; c #4F3E2D",
"4< c #4F3F30",
"4= c #4F3F31",
"4> c #4F3F33",
"4? c #4F4031",
"4@ c #4F4033",
"4A c #4F4131",
"4B c #4F4132",
"4C c #4F4134",
"4D c #4F4239",
"4E c #4F4439",
"4F c #4F4639",
"4G c #503E32",
"4H c #503F2F",
"4I c #503F30",
"4J c #503F32",
"4K c #50402F",
"4L c #504030",
"4M c #50412F",
"4N c #504132",
"4O c #504133",
"4P c #504334",
"4Q c #504432",
"4R c #504536",
"4S c #504634",
"4T c #513E2F",
"4U c #51402B",
"4V c #51412D",
"4W c #514132",
"4X c #514234",
"4Y c #514330",
"4Z c #514531",
"4[ c #514532",
"4] c #514533",
"4^ c #51453B",
"4_ c #514634",
"4` c #514A34",
"4a c #524130",
"4b c #524230",
"4c c #524234",
"4d c #524330",
"4e c #524332",
"4f c #524430",
"4g c #524431",
"4h c #524438",
"4i c #524535",
"4j c #524731",
"4k c #52473A",
"4l c #524A3D",
"4m c #533F32",
"4n c #534132",
"4o c #53432C",
"4p c #534334",
"4q c #534430",
"4r c #534433",
"4s c #534436",
"4t c #534630",
"4u c #534632",
"4v c #534639",
"4w c #534735",
"4x c #534736",
"4y c #534832",
"4z c #534834",
"4{ c #534839",
"4| c #53493D",
"4} c #534C37",
"4~ c #54402E",
"5! c #544031",
"5# c #54412E",
"5$ c #544131",
"5% c #544231",
"5& c #544331",
"5' c #544633",
"5( c #544737",
"5) c #544836",
"5* c #544A35",
"5+ c #544A3A",
"5, c #544B36",
"5- c #554032",
"5. c #554232",
"5/ c #55432E",
"50 c #554331",
"51 c #554332",
"52 c #554334",
"53 c #554336",
"54 c #554432",
"55 c #554632",
"56 c #554633",
"57 c #554734",
"58 c #554933",
"59 c #554936",
"5: c #554A34",
"5; c #554A3C",
"5< c #554B39",
"5= c #554C3B",
"5> c #564031",
"5? c #564332",
"5@ c #564434",
"5A c #564530",
"5B c #564535",
"5C c #564631",
"5D c #564734",
"5E c #574330",
"5F c #574433",
"5G c #574436",
"5H c #574532",
"5I c #574730",
"5J c #574832",
"5K c #574837",
"5L c #574838",
"5M c #57483A",
"5N c #574937",
"5O c #57493A",
"5P c #574B38",
"5Q c #584632",
"5R c #584737",
"5S c #584932",
"5T c #584B37",
"5U c #584C38",
"5V c #584F3A",
"5W c #594532",
"5X c #594636",
"5Y c #594737",
"5Z c #594931",
"5[ c #594A31",
"5] c #594B32",
"5^ c #594C39",
"5_ c #594F3E",
"5` c #595249",
"5a c #5A4736",
"5b c #5A4832",
"5c c #5A4B33",
"5d c #5A4B37",
"5e c #5A4F37",
"5f c #5B4833",
"5g c #5B4834",
"5h c #5B4934",
"5i c #5B4A33",
"5j c #5B4A3A",
"5k c #5B4B35",
"5l c #5B4B37",
"5m c #5B5039",
"5n c #5C4734",
"5o c #5C4833",
"5p c #5C4836",
"5q c #5C4A35",
"5r c #5C4A37",
"5s c #5C4B38",
"5t c #5C4D36",
"5u c #5C4E39",
"5v c #5D4732",
"5w c #5D4733",
"5x c #5D4836",
"5y c #5D4932",
"5z c #5D4B38",
"5{ c #5D4F32",
"5| c #5D503A",
"5} c #5D5139",
"5~ c #5D523A",
"6! c #5E4C32",
"6# c #5E4E39",
"6$ c #5E5133",
"6% c #5E523B",
"6& c #5F4933",
"6' c #5F4A38",
"6( c #5F4B39",
"6) c #5F4F37",
"6* c #5F503C",
"6+ c #5F513C",
"6, c #604C31",
"6- c #604E36",
"6. c #605037",
"6/ c #605137",
"60 c #605138",
"61 c #605249",
"62 c #60533D",
"63 c #605446",
"64 c #614F3A",
"65 c #615139",
"66 c #61513E",
"67 c #62503F",
"68 c #634D35",
"69 c #634F3C",
"6: c #63503C",
"6; c #635142",
"6< c #635540",
"6= c #644F38",
"6> c #645039",
"6? c #64533C",
"6@ c #64533E",
"6A c #645743",
"6B c #655038",
"6C c #655141",
"6D c #655142",
"6E c #655642",
"6F c #65564B",
"6G c #664E3A",
"6H c #664F3B",
"6I c #665139",
"6J c #665239",
"6K c #66543A",
"6L c #66573F",
"6M c #665840",
"6N c #67563F",
"6O c #675A46",
"6P c #68553E",
"6Q c #695744",
"6R c #695E48",
"6S c #6A543B",
"6T c #6A5745",
"6U c #6B543C",
"6V c #6B563F",
"6W c #6C523A",
"6X c #6C573F",
"6Y c #6C5944",
"6Z c #6D593C",
"6[ c #6D593E",
"6] c #6D5C45",
"6^ c #6E5941",
"6_ c #6E5F41",
"6` c #6F5A40",
"6a c #705C43",
"6b c #705D48",
"6c c #715942",
"6d c #715D46",
"6e c #735B40",
"6f c #735D42",
"6g c #73614D",
"6h c #766145",
"6i c #776547",
"6j c #776551",
/* pixels */
"!R&E*g*e*Z+j*f#[#>$i&R!K${!{#O!C&0&10,3/4*5z6#0w-g,^+j,W*9(J!($q&K$N%g###<&#)b%a%-%`$@'e#j$i$v$w%-.{0<.:+o/$1;1j+='6':/y2z,i$>#X",
"$P+y.4,1+0*)'W(m%]%_(y#r#K%+';#B+T0d.(0s2`5!3T1^05/'-!+'(k&y&t(_'f%;&#%{#6&E%T%T%t$J(s-((Q#X!y$g!j.Y0809*l/~-D+G%Y#K3;0a1]4^&~#|",
"%x,I4827*8%W&t'V';%1#9$H%]$i%3&H292^/|.w.g.;+Q+&*%),)u-f/T/(,8(]#X#|&,$j#R'=#r#u&=+()4)Q*F#2(((W!}*b1K-}-~1W-'%`%f&W/Z4w2t/z$!#z",
"+k+-4v35*d,@%P&I$M%[%c+V*!&I%,%z2U0:2F2!11-p-J.3.-/o,X+n)U+T-H,E$H#b%z#J%y!q#{%(&>,B-{)3$=#&)5&*$M!v*p*l+Z1V*j$9#`$N):+G-B/S#%%_",
"#2#9(#%o#o$@!t#|(_)C*/)Y1'4D/'$m.;-G0[4R+Q(O(O,S.=/m2O+K+J0f1T+|$s$b#8)]+7#l%_#W%`-i-E*=+T%x%u$r#'!<#W(()k+<+M'Q$4#6$[.N1G1L$I#$",
"#{$I$J##!}!=%`(}*w*l(I)(.Y2W-n'}*((-/X/&*B+<+v*Z)0-j-d/q0)625m+s%3#;+:'K)y'@(-$a%A({1)(o%t#;#O#n#Q!z&J*D.o(-&;+-(!)'#L%-&*%5#z$$",
"#u'=$A#<$v(X-S/21J.9,1*73U1F1l/o$2$o'^-{0!/]1*(h(!5Y2l4Z4g5e6O,<#@!e.B*<++(G)e)W%3*D1M+S#x'9%w%3!_!~'_)_'T&:+h/P1C2r)o$B%2'6#y#{",
"'m$i!g!L#_&*-,3z/b-Q.M/<561]2=0F!M'#!X(4.!'^%<(q-t2&3+0v1g-=/{,a#5!9'~,t-k+h(!-h'~$?(Q$q'=+{%L$$&C#Q%R(A%|'|,N.R1q3O1t*l$8$##W!;",
"#;#t$H#Y$s#!'i.a0K0J/e5.5t2',v+$$q(,(2$&&t%_$v$H4!2)1G.X-=-K)_'@#3#&#z2|+$,T*i,8&k$?$v&R)R,?#x(1$h%t(J.c2:5;*=-N2<464l+u!z$i$h$N",
"%c#!$}#'!a&C.A3m4O2n5c6X6=0u*},w%-*2$|&x%<$q%Y&s.H+u.Y1%.<)V(p(V!~$*#<+p+L.A.E-t'^$h#s#Q#o%Z#q%:%9!y'>*s+U,D+S++,D*'+Z&G%:&x#[$o",
"$r!i!!#u%=$h,G1~3t4b5y6W6h2f*`+a+G)3!2(5'/$t#5&!/11k0f1m1o)})}%`$u%x%X,c+t-Q0e.-(o#n$0$%#p#%$M'G&Q!e%Z';)j)?*$)d)U&c%~&k&(%Y%A#^",
"#`#!!.&0!G'51:4a5q5v5w6U6f6D35-.,d0k&#%3%+%_$*(7%:)r+5,R.m#&&*#s&O&'&!'5)O*t-2+Y$X#/#v%G*l(%%{#!'I(W%;#D#8!~%Z!#$(%6!`('$F&.$o#A",
"'V/60c$3#^&R2{5^4M556L502H4c/m07$/%##}(o+2,P&l$T#Q&$#`%E$r$O#`#9!_$j#X'l%R);#!$:#u#I*=062`0J/u)O)s*D(B)y)9&<&m#3%.$i$Z&l&q%Y08-t",
".53f4E)p$E!-!}$?0_332}5:3Z3I-C,t#H%I#m1:.>+$->%,!m#s%b&#&/%C#`$B!V!k&f$@%,%L%`!x%;#J):+f/R,~'M)2(h#O((%+#m$3$$#W$R%`&6%,$o*#-$+I",
"07.k,2*D,A$g!H#P$?*I)u5<2/0Z(##J*N+v-s-t+c)y1C)_!:!R&D*?0V'6$%%b#a$M1>-1':!3$?#8#.#:*v,1-$*=*C,9-f$A$&&t'j%2#A%C&x(Q',!z'b-z,=+]",
"0Z+b,U*e)3('$:%f#v'd!}$@&g%1!s&I0g-*1).Y-Y2I2])8!d$J#7/F.6,z!l*G#R&_,g/P.b,]*@$i$9$j!J.a.D+/*E)x)9!Q*J+4/*.b+G,-.!&l!M$a';,C&?*V",
"3(*8*<+$-81j-B0S+D'}(P!{'j%3#C!u+g.82(0n6:6(4@.:%Y%/$e%4+?0<!2$:&#*p2V-%-&,[+K$:$i#o&l+U(W+X&#!O&{$M/(.y0=/J,n031##W$-)`/r0x.w->",
"+c)Q,I,w0{0V-%/s.g)-(&#3&G+>%h%Z-<.5/?-[/D5-3q.Y'@%{$@)p/k3D%;&L$A+h0^(M+i.b'.!;%--z.h!E!<#%%b%=#(&K13.L1Z,t0K4&3^%2$W&l5=5|6>3W",
"-_'''V,p-g-I,~-C07(%$f'G%`!(%Q(I0R,4..-63L3r3]+2#S%Z%[+~';$A#<$'.M-<1@*Y):,6((!L#W1s0E%]$V&*!R!a!K'd)|-!*7-y/.-m+)%%!)#L1D125f/m",
",9)3%Q+N-!+j*<&k);%w#V&V#9%t(I.c-f*0*W,r1e3x/-'T##$}%/)g#L%4/h0t4)104S))+k+k)A!>$Q4}4{+-!Q##)D%~%[(Z-!-C0y1!,T*k*k*k%;#9!0'S*5,M",
"&R)W#W#Q&f)X+M*O#P%T)h&=#4!c$G-e5%2h3p3!5U/N+@':(2'R1<0L3c0s2i0V0*+K/s+'){(a)3!c(w3C/`,5$:%q(9)2(r,i)t.M-m0W/1){,>-I%C$v%:)w-s+h",
")-(k#r#@#z)B.4*)!~(K)x'T%Y!&$i+,4a4(4G2e4;0M+`*i'}+g064Y6M544e.5-o+p+G(P+S+q*$!i#E1w4-.Y&7(p$y%A$j*L-=+`/!._,3/)/H0X$v!i$`0`.7-W",
"1B.?&s%<#s'3--*=$%%]#u%S&J&0%.*l*y.u.r0$3R1//C)m.Z1r2.4i2*.|2u,z,O+.)(+K(H':(2!z(-2m4W2Z*;,7(j#A#;!U-I0K1_.X.i-l2P+u#*$N*]0Z.p0m",
".T,O)S&B(2&'#Y#1-30j3=47(g&,#<(r(C,U+b/E-+*Y-%,1-v/J/q.a0x0-09+j-q*^,a+i()!w!$(r(V)N&N'>#@#&%W&|'!$R+F1I5~.X+*/!3((q#_&Y/p63.J0&",
"*=+i(r+k(w'](3$I451Q413M2s+L#m$c+2)~-K+x)Y*n,9+S/y/,1k,S.}-o.4-!,./@/i*X$a&S!*(8%2#y%g*P#S#B#s#?!`!6'[0F/)1P.{1A.:%a#:!b%13}1x1,",
"-g+4+q.y$F(P$F'843.83a4V5M-d#1#R&t)a%D%['1)<(t(.(J-J2N3n/B4r1;+G'y&l'})v)I*]'P$o!a%S&X!w&w'o*t,D+W)<#!*u(g+71A0W0R&4(X&)#0.k191]",
"+k+&*[-f&3%+$$(e,Y.&.K/:5T.f$f#<#Y!W$1%{$B&K$J#R%U(R*=0y,t/j/F#t%_#A*o-A)+*^%&&I!G#s'U-U,!+Z-x1H1U.C'^$A%!$)2%+U&J#:!y(_$>*p)1+b",
"%g(*$B!S#%#~#3*3.x/e2K/_-^-M/Z(J(.(!%Y%Z!%!c%Z&C%[)q'f&)'l'=)W#`,k'e)e.O+U/m)/#W%_3P1),J-z,f2;5V6j4B2w)2+n&e&#!b!j%e&|$i)5+H$8#O",
"%>&Z&&#s&I%f#o-f154=4f1$-j/Q-d(p!c!y)M's![%Y#x!Q#P%+-85A3o4.1}'u%`(k)$14(o$d&J*4%t0-04*<*:+M5_244X3b0`-P/W).&h)V'^&p!4'k'319+i)5",
"!|#`$I%S'=#Q#u&b(;,0+f-L593x,N*c,Y+I5D4t/K&a$b%4$k-e6`5Z6I4$4o6!30!o#*&k%+!J,6-D+e)%/9*{-D*i.e,S.0-b)3'3);#P!u#J$^'Y%f%_+N6Q*A$g",
"!f%[#S&}$p$H%`%r(=)&.;.+1h0%+`'v.W386a6d/}*Q'X%C#S,m6J5b5g0p4U5I4d&C#o-O'^#r(h-C./,U2)+A)K'x):*b)z-t)y)A&l!k%_%?*n((&L%36A5X4k.X",
"!d%f$w&&3K0i#g!B':*B(o+6+b)T.`3{6/5]5p4~2p-4#|!j!K3Y4:0r4#6S683s6$1@#r'@$L#s#^+L,N*^/>.U*:%P*d1R/x._*#((%R#=,#**#`&~!l&D,8)J/q4[",
"%y#W$q*N2O2--c)-$b$f$p(i)K,Z3~3%6]6?6N511&)i#-%>&J5?3?0N2C695H2_5{0M(1*+&x#s!s%y(D-#2Q.M->.U,e2Y1=-p)_&C#!!x,E)f)=#O!=&t-h*11B58",
"#+&t%Y%+/,/V08)+$J'%&2'q*>+*.*.^5i6)5S0I/w-3'}#A%(2A5h3C2G1[1Y3@3$(c&G&p)9*T'^&2#q+-,N,M,u+(),+&,y,b'c#q#X&G/4-}0E.F!2#Y,]/p0D/%",
"#=#A$?)W,V18+E$;%($@![#*+q)G)p/C4q3H4'0v2W0@(r$x!p+i2d3v3S-;*V4L16*l*H.d0#5`1N$N$%#-';22-o+U)y/O-o'_%_'c%}+..f.90C-G!j!m)32[+m)0",
"#R#_$7.@-m-7/b2g6<1(//&,!8(T+H0=.+/</n3A,0-+':&y!z&K+o6.5#3Q/;*1*n,x2v5E002i+_(`(!'0(0#r$N&K(/%_(($G(.+;.Z2),Q.^23*k#E#`&m,h%p%P",
"%c#p!]+,*B/I1b42.`+&,_$H&A#]#Q'/+D+C-^5u,}*I$o&%!e&B*&3'2T/E,-$>%v)**[/G/l1a.}&`&=%z%`%R%]%B'@(}(y$i%s.53|3-.)-d1O(r#`$j(!(k$X#r",
"%5#t%/'7+n.g3`4>0|'[+U';!}!_!t%x,01b2J5j0;+;!c%;#!$@'_,,/:2#/m&=%Q&@'.)H/N1Z/I&@#i%N%U&B(~&r$8#m'V&v'4*C3>3y4A+R)w%;&z!_$i#Q#R#o",
"%6#R%*%{&l.|404N/;'3(o&l!c%y$o%R.(3B1;/H-B)W#]$r#Y*.(|,A%s0~0B#J#O&5'*,K*c*7+R#n!j(V'_%`#A#z%U$3(0$i!_(#'_+S,a(P)9%Y):(q$i!`$j![",
"$C!/!|!j#;%,+'(?(r&!#W#_#y'r$I(`5y3k2i0}+i+H%Z&)(V(e*c$A%d%j$&!K&9,)1E)R%-!f###a&d)+-#0b0?/')E#Z'B$+'y-:-m+1'z&F!?#6$p&X#X#B!6!/",
"(+$j$]#5$P%.'g&J'C%u'f&S$L%B!M0o6G5>3',z'K(N)3(0*M#:+r$('n(:'C#W$I'=(l&n!j#P$G%X,j/0453.-),}-G';$w#)+.614<.,,2+9*C'E#9$@&%!R!d!+",
"-/*(%Q(W!-*~+H,~/+*d$w!@(i((+w+l-N,0#7'h-X-Z*h$A(P'&%))z)1$D$_*F%W#J%.'F#*!d%8&k'Z4,5R0q.P2,0X+U!e$k'(/=.q-V*;,]0D0h%i${$J#n%t(e",
"*f*>%P$b21/i,(,s3g,N-P$z&U#r((*$,F,$'y#K5a4+1i&K#_#3)_3F6Y6T4R&1$L%f(s#%(*'e#W(2(d/^/A+`-53G0A2J'2#z'L+?+K*W+n,>*j*m$u$@$6+.)@)2",
",_/i+&&*20532a*U2E/g0.'5%a&T%Z!7#&#x-r-P6V643&#^'=#K,[-A026F66,40[(b+M&Q(k*M#@'^-C,q1.+$(a-<5N6*.g%{&$3u.`,}):!r$v#;&w(('})q*b*h",
"-{1j/g%r),/Q,P,],.)&+O,%#W$v!e'B$~!v0c1R2B1{'N)?$k#3*Z(j,O4|6E5P6;,H0;'?(/(u#`&%(W(O3Y(d%J)Q2x-u0c(V*L'B(Q$h!{&J)D%:(P(q(P'5'.'-",
"+L*6'<+9*#)^/&.Z0Z+m/'(o#J)j';#Z&u'}3d4`.x,''_$?'3$9-#/,-z.l/O/U0}.2-a)n#U%n#-$r!M$j&J'O*F,?):&H#q$[,}2#.[1c/E(?%`#:&Y)K&:),%l(>",
"'-/Q$&-I+p)`-$,|.`.$+B,A'T)>&[&i#o,1/842.S*z%M$c'$$:,;-`,8')#P*,+Q091G3,3p6@6b(<%K!f#/!e$u%x$:'D&^0<3V6^6'5W672J+F%W%</[/J/-+n*C",
")+/Q#d3N1f/7,Y.z/M-^,+*q(0%`&})2'S.S3_2~+d+P#;!|'!#t)c)b&J&2#B('-R/E2b0I5s6K6P2%'w$s$,'=#X%:$%$I-A2z0S0w325C5F5G.|(P#p*r*n)u-G'U",
"*H,6$z-/3.-l-$/f4u/;/}#9%a#Y(w+o,>/|4s/r%y#j&+!e)!!|&u(E#y%5%b&[-w/,5L4L5$496H5&.S#R!{%x%'$r'p&k0Y07/N.Q2-1d4n3w0U.S$:&#'<$c&Q%'",
"(U$+#)'c2$.V+#0Z4y36+h(_$R%@$=!Q#&#u%7)0!6#4'`'A&K#<'a([%M#u#t'A*l)z-@1z2@1+2D0'*?$N$,%H%'#k$]+30z/t,M-9)7)s2k4?0g37%y#{#@!>#A!F",
"%<!M'H%a-B.2/H250X0C(v!H!^&+$H#'#<'h'C!}#Y(k.Z.;1S'`#Z#&#:&%#5(V%:'4(O,4-].[(F'e#:%4)6%m*[.;,w+*+`-f-C*a(G'~/O/+(q*B$$#u%F%^#x!@",
"#f'k'5'J#/0S.W(g)^+|#{)[-|-0*o&Q&I$F$o%S$.-?5d5+4j0>1u(R('*o'A#X$j![&x+,,1*K&H$b!5%5$%.15l6[5k0+,/&:'~(G'T'.+n*[$`&d#@(6'C#B#R!`",
"%{'O#X%C'e#4%K#M#e#T%R.j1v/{+,*s+8+z%R'f&?3U6B3a5*4_6+5}6R2?/Y'3!<$F#%(j*j(Y%-%j&J)J0<576i6Z5/4p3:'2#/!D&H#w%w%w&M#<!-$B#C!P$$#`",
"*K,o*S&!!M#{%;%,+,){0c4A6g5,3h.A+U+b0b26%+4/4T2L604x5'5[654]4z2>&s%;'<$:';$i'G%<&j-$2'6-6c6&3i5Q/%&<%(#I'/'.#R%D#K&$!h$?'k%1#X$j",
",{0Q,L*t'})z'5)4/Q+V.>1p5K2844*d+k*32Q2+($2v5O4h0:..2N4H2c3*2R0:'}%i&Z)R){'0%k0<,*+[.I4%4m52*c*|)L$a#h-v1n4F*C#v&D%b+{+8)8%V$=!F",
"0].t*x$Y$w$%+w5@2T3[574K6,6_6e(A,.,l.s(a#t-C2y/D1?/C1`3D0O-6/d1a&A'q#c0P,y0s*6.Y0X+]0G0H3)18'+)t'9!z#3-0/3.n*C$v$w#,-p,6(q(((S#n",
"0/.%)#%)&+#!'d):+U,`,-2!5J/#1h1y./,J%[$;#C+%3e2#20344C1X0R/c3l4Q*l$7+A6C4J5x/a1a4(-%2q(q)4$6#N$?(V#:$A.G-~+t*p&g#I&j*I*d*$%R#L'.",
"()*_%x!4!f%a%Y#%&x%`$p$G%,+f*X0&+!'0'{%r!2.~4P1@.14I/C0r1-5)0(4H-x(P3E4>5n5B+m/}1K.b.w*:#h#r#q%2(*$H$G)e+}+R(q&P(x)z)5'^(Z%`$h):",
"&K%_!Q!L%2$H#`#4$v#r%B#^#t$l%2#!(y%0$%!]!}&H/52X3v3p/f171|2U.'+^(x#F3#3j0%-e&A'G*p)1*Y%O)p'y%,!e!L#4!}&o)l$K!S!`#m!s&B*d%0!,()'`",
"#_$2!%+q$7$i$i!s$,#F#'#B$S(z%<!'&z&Q!1)D$B&3)W3J4]2o0l.v.Y/+)_$G!t&Q0-3X01.|)`#&)`'V(f)O-!+n+4&B#3#{#z'B$U$5*C%(#2!w!~)5$_%1)f(W",
"'5#E.]/&.f.9&/#@%b!k!Z%:%9$n$7!+&I%2'7%<!l&]!p*H.;31.|/J,&-)+o!Y(w(}&f.M.#(e&;%_(L)`%~+M-&-v,G$d$3!n#/)v+K+*/%)Y*q)p#a!`%-!s(Q&r",
"*L3<-F2j,^$:&-%<$H$g%Z$v$G%<$N$@%B&Q!A$/'0'-!N&J!I$E%P(>+G-J'S!=&r'e'y)F$X%$),#E%1'U)2+E-O+1(n&H':&e+^1@2S38-8*]-T0T'*'3)W,:&!$:",
"(!/L't#Y(@'W#<#G)Z$u#z#t#@%2%a'=$O($&$'=/I5f39)`(H#,%2'.'3$>&W*R!d$i&B&)&#'P%+#B$@$b)h*L*)'l#A$v#W)P-m5r5(2x/v1;,N.M0Y&8$N'A!T#z",
"%]&%#5#=$9(s(k%.'>*G$c#5$M#_#^%[$k$A*c*?4T5o6%.a%,'<%R$>$<#;#;*-&q&/)`(3(0%y%3$w'z(J)h(^$j&t!|%c$G-<*;2M2%0y/I0~/t,x*t$U%b'd$E&Q"
};
