/* XPM */
static char *glass_01[] = {
/* columns rows colors chars-per-pixel */
"64 64 3037 2",
/* colors */
"!! c #0C0E09",
"!# c #0E0F09",
"!$ c #0F120C",
"!% c #0F120D",
"!& c #10120C",
"!' c #10130B",
"!( c #10130C",
"!) c #10130E",
"!* c #11120B",
"!+ c #11120D",
"!, c #11130D",
"!- c #11130E",
"!. c #11130F",
"!/ c #111310",
"!0 c #11140B",
"!1 c #11140F",
"!2 c #12100F",
"!3 c #12110A",
"!4 c #12110F",
"!5 c #12130E",
"!6 c #121310",
"!7 c #12140B",
"!8 c #12140E",
"!9 c #121412",
"!: c #12150F",
"!; c #121510",
"!< c #12160D",
"!= c #13120B",
"!> c #13130E",
"!? c #131311",
"!@ c #13140F",
"!A c #13150F",
"!B c #14110B",
"!C c #141311",
"!D c #14140F",
"!E c #141411",
"!F c #141510",
"!G c #141511",
"!H c #14160E",
"!I c #141611",
"!J c #14170E",
"!K c #141711",
"!L c #141712",
"!M c #151311",
"!N c #151510",
"!O c #151511",
"!P c #151512",
"!Q c #15160C",
"!R c #15160E",
"!S c #15160F",
"!T c #151612",
"!U c #15170F",
"!V c #151710",
"!W c #151712",
"!X c #151713",
"!Y c #151714",
"!Z c #15180E",
"![ c #151812",
"!] c #161412",
"!^ c #161510",
"!_ c #161514",
"!` c #161611",
"!a c #161612",
"!b c #16170D",
"!c c #16170F",
"!d c #161713",
"!e c #16180F",
"!f c #161810",
"!g c #161913",
"!h c #17120B",
"!i c #17150E",
"!j c #171512",
"!k c #171516",
"!l c #17160F",
"!m c #171610",
"!n c #171611",
"!o c #171613",
"!p c #171614",
"!q c #171622",
"!r c #17170E",
"!s c #171711",
"!t c #171712",
"!u c #171713",
"!v c #171814",
"!w c #17181B",
"!x c #171911",
"!y c #171912",
"!z c #171915",
"!{ c #171917",
"!| c #171A12",
"!} c #18130C",
"!~ c #18140E",
"#! c #181515",
"## c #181516",
"#$ c #181612",
"#% c #181613",
"#& c #181614",
"#' c #181711",
"#( c #181713",
"#) c #181714",
"#* c #181812",
"#+ c #181813",
"#, c #181814",
"#- c #18190F",
"#. c #181913",
"#/ c #181914",
"#0 c #181915",
"#1 c #181916",
"#2 c #181A12",
"#3 c #181A13",
"#4 c #181A15",
"#5 c #181B14",
"#6 c #181B15",
"#7 c #19150E",
"#8 c #191615",
"#9 c #191711",
"#: c #191712",
"#; c #191715",
"#< c #191719",
"#= c #19180F",
"#> c #191812",
"#? c #191813",
"#@ c #191814",
"#A c #191815",
"#B c #191816",
"#C c #191915",
"#D c #191918",
"#E c #191A11",
"#F c #191A12",
"#G c #191A13",
"#H c #191A14",
"#I c #191A15",
"#J c #191A16",
"#K c #191A17",
"#L c #191B14",
"#M c #191B15",
"#N c #191B16",
"#O c #191C13",
"#P c #191D14",
"#Q c #1A1710",
"#R c #1A1811",
"#S c #1A1815",
"#T c #1A190F",
"#U c #1A1914",
"#V c #1A1915",
"#W c #1A1A15",
"#X c #1A1A16",
"#Y c #1A1A17",
"#Z c #1A1B13",
"#[ c #1A1B15",
"#] c #1A1B16",
"#^ c #1A1B17",
"#_ c #1A1B25",
"#` c #1A1C13",
"#a c #1A1C15",
"#b c #1A1D15",
"#c c #1A1D16",
"#d c #1A1E17",
"#e c #1B180F",
"#f c #1B1814",
"#g c #1B1818",
"#h c #1B1A12",
"#i c #1B1A13",
"#j c #1B1A15",
"#k c #1B1A16",
"#l c #1B1A17",
"#m c #1B1B15",
"#n c #1B1B16",
"#o c #1B1B17",
"#p c #1B1C12",
"#q c #1B1C13",
"#r c #1B1C15",
"#s c #1B1C16",
"#t c #1B1C17",
"#u c #1B1C18",
"#v c #1B1D13",
"#w c #1B1D14",
"#x c #1B1D15",
"#y c #1B1D16",
"#z c #1B1D17",
"#{ c #1B1E14",
"#| c #1B1E16",
"#} c #1B1F16",
"#~ c #1C1510",
"$! c #1C1A12",
"$# c #1C1A14",
"$$ c #1C1A15",
"$% c #1C1A17",
"$& c #1C1A18",
"$' c #1C1A1C",
"$( c #1C1B0E",
"$) c #1C1B16",
"$* c #1C1B17",
"$+ c #1C1B18",
"$, c #1C1B19",
"$- c #1C1C15",
"$. c #1C1C16",
"$/ c #1C1C17",
"$0 c #1C1D12",
"$1 c #1C1D16",
"$2 c #1C1D17",
"$3 c #1C1D18",
"$4 c #1C1D19",
"$5 c #1C1D1A",
"$6 c #1C1E16",
"$7 c #1C1E17",
"$8 c #1D1810",
"$9 c #1D1912",
"$: c #1D1A0F",
"$; c #1D1A13",
"$< c #1D1A17",
"$= c #1D1A18",
"$> c #1D1A19",
"$? c #1D1B11",
"$@ c #1D1B13",
"$A c #1D1B15",
"$B c #1D1B16",
"$C c #1D1B17",
"$D c #1D1B18",
"$E c #1D1B19",
"$F c #1D1C10",
"$G c #1D1C15",
"$H c #1D1C16",
"$I c #1D1C17",
"$J c #1D1C18",
"$K c #1D1C19",
"$L c #1D1D17",
"$M c #1D1D18",
"$N c #1D1D19",
"$O c #1D1D1A",
"$P c #1D1E16",
"$Q c #1D1E18",
"$R c #1D1E19",
"$S c #1D1E1A",
"$T c #1D1F16",
"$U c #1D2119",
"$V c #1E1A19",
"$W c #1E1B13",
"$X c #1E1C16",
"$Y c #1E1C17",
"$Z c #1E1C18",
"$[ c #1E1C19",
"$] c #1E1C1A",
"$^ c #1E1D11",
"$_ c #1E1D15",
"$` c #1E1D16",
"$a c #1E1D17",
"$b c #1E1D18",
"$c c #1E1D19",
"$d c #1E1D1A",
"$e c #1E1E16",
"$f c #1E1E18",
"$g c #1E1E19",
"$h c #1E1E1A",
"$i c #1E1F17",
"$j c #1E1F19",
"$k c #1E1F1B",
"$l c #1E2018",
"$m c #1E201B",
"$n c #1F1913",
"$o c #1F1B11",
"$p c #1F1D17",
"$q c #1F1D18",
"$r c #1F1D19",
"$s c #1F1D1B",
"$t c #1F1D26",
"$u c #1F1E13",
"$v c #1F1E16",
"$w c #1F1E17",
"$x c #1F1E18",
"$y c #1F1E19",
"$z c #1F1E1A",
"${ c #1F1E1C",
"$| c #1F1F18",
"$} c #1F1F19",
"$~ c #1F1F1A",
"%! c #1F2015",
"%# c #1F2018",
"%$ c #1F2019",
"%% c #1F201A",
"%& c #1F201B",
"%' c #1F201C",
"%( c #1F2029",
"%) c #1F2117",
"%* c #1F2118",
"%+ c #1F2119",
"%, c #1F211B",
"%- c #1F211C",
"%. c #1F2128",
"%/ c #1F231A",
"%0 c #201C14",
"%1 c #201C26",
"%2 c #201D10",
"%3 c #201D18",
"%4 c #201E18",
"%5 c #201E19",
"%6 c #201E1A",
"%7 c #201E1B",
"%8 c #201F10",
"%9 c #201F18",
"%: c #201F19",
"%; c #201F1A",
"%< c #201F1B",
"%= c #202017",
"%> c #20201A",
"%? c #20201B",
"%@ c #20201C",
"%A c #202115",
"%B c #202118",
"%C c #20211B",
"%D c #20211C",
"%E c #20211D",
"%F c #202218",
"%G c #20221B",
"%H c #20221D",
"%I c #211A14",
"%J c #211D14",
"%K c #211E16",
"%L c #211E1B",
"%M c #211F17",
"%N c #211F18",
"%O c #211F19",
"%P c #211F1A",
"%Q c #211F1B",
"%R c #211F1C",
"%S c #212018",
"%T c #212019",
"%U c #21201A",
"%V c #21201B",
"%W c #21201C",
"%X c #21201D",
"%Y c #212112",
"%Z c #212119",
"%[ c #21211A",
"%] c #21211B",
"%^ c #21211C",
"%_ c #21211D",
"%` c #21221C",
"%a c #21221D",
"%b c #21221F",
"%c c #212319",
"%d c #21231A",
"%e c #212417",
"%f c #221C15",
"%g c #221F15",
"%h c #221F16",
"%i c #221F1C",
"%j c #22201A",
"%k c #22201B",
"%l c #22201C",
"%m c #22201D",
"%n c #22201E",
"%o c #22201F",
"%p c #222116",
"%q c #222119",
"%r c #22211A",
"%s c #22211B",
"%t c #22211C",
"%u c #22211D",
"%v c #222218",
"%w c #222219",
"%x c #22221B",
"%y c #22221C",
"%z c #222319",
"%{ c #22231A",
"%| c #22231B",
"%} c #22231C",
"%~ c #22231D",
"&! c #22241A",
"&# c #22241D",
"&$ c #22251C",
"&% c #22251F",
"&& c #22261D",
"&' c #231C10",
"&( c #231E16",
"&) c #231F17",
"&* c #232015",
"&+ c #232019",
"&, c #23201C",
"&- c #23201E",
"&. c #232023",
"&/ c #232114",
"&0 c #232119",
"&1 c #23211A",
"&2 c #23211C",
"&3 c #23211D",
"&4 c #23211E",
"&5 c #23211F",
"&6 c #23212C",
"&7 c #232216",
"&8 c #232217",
"&9 c #232219",
"&: c #23221B",
"&; c #23221D",
"&< c #23221E",
"&= c #23221F",
"&> c #232220",
"&? c #23231B",
"&@ c #23231C",
"&A c #23231D",
"&B c #23231F",
"&C c #23241A",
"&D c #23241B",
"&E c #23241C",
"&F c #23241D",
"&G c #23242C",
"&H c #23251B",
"&I c #23251C",
"&J c #23261C",
"&K c #23271F",
"&L c #23291A",
"&M c #241C17",
"&N c #241F27",
"&O c #242014",
"&P c #242016",
"&Q c #242116",
"&R c #24211A",
"&S c #242215",
"&T c #24221A",
"&U c #24221B",
"&V c #24221C",
"&W c #24221D",
"&X c #24221E",
"&Y c #242220",
"&Z c #24231B",
"&[ c #24231C",
"&] c #24231D",
"&^ c #24231E",
"&_ c #242413",
"&` c #24241D",
"&a c #24241E",
"&b c #24241F",
"&c c #242420",
"&d c #242519",
"&e c #24251C",
"&f c #24251D",
"&g c #24251E",
"&h c #24251F",
"&i c #24261D",
"&j c #24261E",
"&k c #242715",
"&l c #242A1C",
"&m c #251F17",
"&n c #252114",
"&o c #252118",
"&p c #25211B",
"&q c #25221B",
"&r c #25221F",
"&s c #252220",
"&t c #252318",
"&u c #25231D",
"&v c #25231E",
"&w c #25231F",
"&x c #252320",
"&y c #25241A",
"&z c #25241C",
"&{ c #25241E",
"&| c #25241F",
"&} c #252420",
"&~ c #252516",
"'! c #252519",
"'# c #25251A",
"'$ c #25251D",
"'% c #25251E",
"'& c #25251F",
"'' c #252520",
"'( c #252522",
"') c #252528",
"'* c #25261C",
"'+ c #25261D",
"', c #25261E",
"'- c #25261F",
"'. c #252620",
"'/ c #252622",
"'0 c #25262C",
"'1 c #25271D",
"'2 c #252720",
"'3 c #25281D",
"'4 c #262319",
"'5 c #26231B",
"'6 c #26231E",
"'7 c #26231F",
"'8 c #262417",
"'9 c #262418",
"': c #26241D",
"'; c #26241E",
"'< c #26241F",
"'= c #262420",
"'> c #26251D",
"'? c #26251E",
"'@ c #262520",
"'A c #262522",
"'B c #26261D",
"'C c #26261E",
"'D c #26261F",
"'E c #262621",
"'F c #262622",
"'G c #26262B",
"'H c #262719",
"'I c #26271F",
"'J c #262720",
"'K c #262722",
"'L c #26281D",
"'M c #26281E",
"'N c #262917",
"'O c #26291D",
"'P c #271D18",
"'Q c #272217",
"'R c #272218",
"'S c #27231A",
"'T c #27241E",
"'U c #272421",
"'V c #272422",
"'W c #272423",
"'X c #27251D",
"'Y c #27251F",
"'Z c #272520",
"'[ c #272521",
"'] c #272522",
"'^ c #272523",
"'_ c #27261D",
"'` c #27261F",
"'a c #272620",
"'b c #272621",
"'c c #272622",
"'d c #27271E",
"'e c #27271F",
"'f c #272720",
"'g c #272721",
"'h c #272722",
"'i c #272723",
"'j c #272821",
"'k c #272822",
"'l c #272A1E",
"'m c #281F15",
"'n c #28211A",
"'o c #282218",
"'p c #282319",
"'q c #28231B",
"'r c #28241C",
"'s c #282422",
"'t c #28251D",
"'u c #28251E",
"'v c #28251F",
"'w c #282521",
"'x c #282522",
"'y c #282523",
"'z c #28261B",
"'{ c #28261E",
"'| c #28261F",
"'} c #282620",
"'~ c #282621",
"(! c #282622",
"(# c #282623",
"($ c #28271F",
"(% c #282720",
"(& c #282722",
"(' c #282723",
"(( c #28281B",
"() c #28281F",
"(* c #282820",
"(+ c #282821",
"(, c #282822",
"(- c #282823",
"(. c #28282D",
"(/ c #282918",
"(0 c #282921",
"(1 c #282922",
"(2 c #282924",
"(3 c #282A1E",
"(4 c #282A20",
"(5 c #282B1E",
"(6 c #282B1F",
"(7 c #282B23",
"(8 c #292019",
"(9 c #29221A",
"(: c #29231A",
"(; c #29231B",
"(< c #29261D",
"(= c #292624",
"(> c #29271A",
"(? c #29271E",
"(@ c #29271F",
"(A c #292721",
"(B c #292722",
"(C c #292723",
"(D c #292725",
"(E c #29281F",
"(F c #292822",
"(G c #292921",
"(H c #292923",
"(I c #292A1E",
"(J c #292A20",
"(K c #292A21",
"(L c #292A22",
"(M c #292A23",
"(N c #292A24",
"(O c #292A25",
"(P c #292B21",
"(Q c #292C20",
"(R c #2A211B",
"(S c #2A231B",
"(T c #2A241D",
"(U c #2A251B",
"(V c #2A251D",
"(W c #2A2520",
"(X c #2A261B",
"(Y c #2A271D",
"(Z c #2A271F",
"([ c #2A2721",
"(] c #2A2722",
"(^ c #2A2723",
"(_ c #2A2724",
"(` c #2A281D",
"(a c #2A281F",
"(b c #2A2820",
"(c c #2A2821",
"(d c #2A2822",
"(e c #2A2823",
"(f c #2A2824",
"(g c #2A2825",
"(h c #2A291E",
"(i c #2A2920",
"(j c #2A2924",
"(k c #2A292F",
"(l c #2A2A21",
"(m c #2A2A22",
"(n c #2A2A25",
"(o c #2A2B24",
"(p c #2A2B25",
"(q c #2A2C19",
"(r c #2A2E25",
"(s c #2B1D17",
"(t c #2B241D",
"(u c #2B241E",
"(v c #2B251D",
"(w c #2B2621",
"(x c #2B2720",
"(y c #2B2724",
"(z c #2B281C",
"({ c #2B281F",
"(| c #2B2822",
"(} c #2B2823",
"(~ c #2B2824",
")! c #2B291F",
")# c #2B2921",
")$ c #2B2923",
")% c #2B2924",
")& c #2B2925",
")' c #2B2A21",
")( c #2B2A24",
")) c #2B2B23",
")* c #2B2B26",
")+ c #2B2C23",
"), c #2B2C25",
")- c #2B2C26",
"). c #2B2C28",
")/ c #2B2D24",
")0 c #2B2D26",
")1 c #2C241B",
")2 c #2C251D",
")3 c #2C261C",
")4 c #2C261D",
")5 c #2C271E",
")6 c #2C2721",
")7 c #2C281E",
")8 c #2C2921",
")9 c #2C2923",
"): c #2C2924",
"); c #2C2925",
")< c #2C2926",
")= c #2C2A23",
")> c #2C2A24",
")? c #2C2A27",
")@ c #2C2B23",
")A c #2C2B25",
")B c #2C2B26",
")C c #2C2B27",
")D c #2C2C26",
")E c #2C2C27",
")F c #2C2C2E",
")G c #2C2D21",
")H c #2C2D24",
")I c #2C2D25",
")J c #2C2D26",
")K c #2C2D27",
")L c #2C2E24",
")M c #2C2F21",
")N c #2C301B",
")O c #2D271E",
")P c #2D281D",
")Q c #2D2924",
")R c #2D2926",
")S c #2D2A22",
")T c #2D2A25",
")U c #2D2A27",
")V c #2D2B22",
")W c #2D2B24",
")X c #2D2B25",
")Y c #2D2B26",
")Z c #2D2B29",
")[ c #2D2C22",
")] c #2D2C23",
")^ c #2D2C25",
")_ c #2D2C28",
")` c #2D2C29",
")a c #2D2D22",
")b c #2D2D24",
")c c #2D2E21",
")d c #2D2E24",
")e c #2E2722",
")f c #2E291F",
")g c #2E2A1F",
")h c #2E2A23",
")i c #2E2A29",
")j c #2E2B21",
")k c #2E2B29",
")l c #2E2B35",
")m c #2E2C24",
")n c #2E2C25",
")o c #2E2C26",
")p c #2E2C27",
")q c #2E2D25",
")r c #2E2D26",
")s c #2E2D27",
")t c #2E2D28",
")u c #2E2E26",
")v c #2E2E2D",
")w c #2E2F24",
")x c #2E2F25",
")y c #2E2F35",
")z c #2E3127",
"){ c #2F241A",
")| c #2F272E",
")} c #2F2920",
")~ c #2F2921",
"*! c #2F2A1B",
"*# c #2F2A21",
"*$ c #2F2B27",
"*% c #2F2C24",
"*& c #2F2C26",
"*' c #2F2C29",
"*( c #2F2C2A",
"*) c #2F2D24",
"** c #2F2D27",
"*+ c #2F2D29",
"*, c #2F2D2A",
"*- c #2F2D2B",
"*. c #2F2E24",
"*/ c #2F2E27",
"*0 c #2F2E28",
"*1 c #2F2E2A",
"*2 c #2F2F25",
"*3 c #2F2F26",
"*4 c #2F2F27",
"*5 c #2F2F29",
"*6 c #2F3026",
"*7 c #2F3028",
"*8 c #2F302A",
"*9 c #2F3228",
"*: c #2F3229",
"*; c #30261C",
"*< c #30271B",
"*= c #30291E",
"*> c #302B1F",
"*? c #302B22",
"*@ c #302B26",
"*A c #302C1F",
"*B c #302C21",
"*C c #302C28",
"*D c #302D20",
"*E c #302D26",
"*F c #302D29",
"*G c #302D2B",
"*H c #302E23",
"*I c #302E24",
"*J c #302E25",
"*K c #302E27",
"*L c #302E28",
"*M c #302E29",
"*N c #302E2A",
"*O c #302E2B",
"*P c #302F24",
"*Q c #302F25",
"*R c #302F27",
"*S c #302F28",
"*T c #302F2A",
"*U c #302F2B",
"*V c #302F39",
"*W c #30312A",
"*X c #303227",
"*Y c #303229",
"*Z c #312B1F",
"*[ c #312C20",
"*] c #312C25",
"*^ c #312D23",
"*_ c #312D25",
"*` c #312D28",
"*a c #312E25",
"*b c #312E26",
"*c c #312E27",
"*d c #312E2A",
"*e c #312E2B",
"*f c #312F26",
"*g c #312F29",
"*h c #312F2A",
"*i c #312F2B",
"*j c #313028",
"*k c #313029",
"*l c #31302A",
"*m c #31302B",
"*n c #313124",
"*o c #313129",
"*p c #313228",
"*q c #31322B",
"*r c #313325",
"*s c #31332A",
"*t c #31332B",
"*u c #31382F",
"*v c #32291E",
"*w c #322B1E",
"*x c #322C1D",
"*y c #322D24",
"*z c #322E27",
"*{ c #322F21",
"*| c #322F25",
"*} c #322F28",
"*~ c #322F2B",
"+! c #322F2C",
"+# c #323027",
"+$ c #323029",
"+% c #32302A",
"+& c #32302B",
"+' c #323126",
"+( c #32312A",
"+) c #32312B",
"+* c #32312C",
"++ c #323222",
"+, c #323225",
"+- c #323329",
"+. c #32342D",
"+/ c #332B23",
"+0 c #332B33",
"+1 c #332C21",
"+2 c #332C27",
"+3 c #332D25",
"+4 c #332E24",
"+5 c #332F21",
"+6 c #332F26",
"+7 c #333026",
"+8 c #333027",
"+9 c #333029",
"+: c #33302D",
"+; c #333034",
"+< c #333124",
"+= c #333128",
"+> c #33312B",
"+? c #33312C",
"+@ c #33312E",
"+A c #333226",
"+B c #33322A",
"+C c #33322B",
"+D c #33322C",
"+E c #333321",
"+F c #33332D",
"+G c #333429",
"+H c #33342B",
"+I c #33352B",
"+J c #34251C",
"+K c #342B22",
"+L c #342D2C",
"+M c #342E2C",
"+N c #342F23",
"+O c #342F27",
"+P c #342F28",
"+Q c #343025",
"+R c #343027",
"+S c #34302E",
"+T c #343127",
"+U c #343128",
"+V c #343129",
"+W c #34312B",
"+X c #34312D",
"+Y c #343229",
"+Z c #34322A",
"+[ c #34322B",
"+] c #34322C",
"+^ c #34322D",
"+_ c #34332C",
"+` c #34332E",
"+a c #34341D",
"+b c #34342D",
"+c c #34342E",
"+d c #343430",
"+e c #343527",
"+f c #34352B",
"+g c #34352C",
"+h c #34362B",
"+i c #34362E",
"+j c #352E25",
"+k c #352E27",
"+l c #352E2D",
"+m c #353024",
"+n c #353026",
"+o c #353126",
"+p c #353129",
"+q c #35312E",
"+r c #353228",
"+s c #353229",
"+t c #35322A",
"+u c #35322D",
"+v c #35322E",
"+w c #353328",
"+x c #353329",
"+y c #35332A",
"+z c #35332C",
"+{ c #35332E",
"+| c #353429",
"+} c #35342C",
"+~ c #35342F",
",! c #35352C",
",# c #35372C",
",$ c #35372E",
",% c #35391F",
",& c #363026",
",' c #363027",
",( c #363028",
",) c #36312A",
",* c #363224",
",+ c #363225",
",, c #363226",
",- c #36322B",
",. c #36332C",
",/ c #36332E",
",0 c #36332F",
",1 c #36342B",
",2 c #36342C",
",3 c #36342D",
",4 c #36342E",
",5 c #36342F",
",6 c #363528",
",7 c #36352D",
",8 c #36352E",
",9 c #36352F",
",: c #363530",
",; c #36362D",
",< c #36372D",
",= c #36382F",
",> c #372F27",
",? c #373127",
",@ c #37312F",
",A c #373130",
",B c #373227",
",C c #37322B",
",D c #37322F",
",E c #373331",
",F c #373426",
",G c #373428",
",H c #37342E",
",I c #37342F",
",J c #373430",
",K c #37352C",
",L c #37352E",
",M c #37352F",
",N c #373530",
",O c #373628",
",P c #373629",
",Q c #37362B",
",R c #37362C",
",S c #37362D",
",T c #373632",
",U c #373731",
",V c #373821",
",W c #37382E",
",X c #37392E",
",Y c #382D20",
",Z c #383126",
",[ c #38322A",
",] c #38322C",
",^ c #38342F",
",_ c #383432",
",` c #383528",
",a c #38352B",
",b c #38352C",
",c c #38352D",
",d c #38352E",
",e c #383530",
",f c #383531",
",g c #383532",
",h c #38362B",
",i c #38362C",
",j c #38362F",
",k c #383631",
",l c #383632",
",m c #38372F",
",n c #383730",
",o c #383731",
",p c #383733",
",q c #38382D",
",r c #38382F",
",s c #383832",
",t c #383930",
",u c #383A31",
",v c #392E26",
",w c #393327",
",x c #393430",
",y c #39352F",
",z c #393625",
",{ c #39362B",
",| c #39362C",
",} c #39362D",
",~ c #39362E",
"-! c #393631",
"-# c #393632",
"-$ c #393633",
"-% c #393731",
"-& c #39381F",
"-' c #393832",
"-( c #393934",
"-) c #393A2D",
"-* c #393B32",
"-+ c #3A2F27",
"-, c #3A322A",
"-- c #3A3330",
"-. c #3A342B",
"-/ c #3A3430",
"-0 c #3A3529",
"-1 c #3A352B",
"-2 c #3A352D",
"-3 c #3A3631",
"-4 c #3A3633",
"-5 c #3A3731",
"-6 c #3A3732",
"-7 c #3A3830",
"-8 c #3A3831",
"-9 c #3A3832",
"-: c #3A3833",
"-; c #3A392E",
"-< c #3A3931",
"-= c #3A3932",
"-> c #3A3933",
"-? c #3A3A31",
"-@ c #3A3A32",
"-A c #3A3B2C",
"-B c #3A3C2E",
"-C c #3A3C33",
"-D c #3A3D33",
"-E c #3A3F30",
"-F c #3B2D22",
"-G c #3B3226",
"-H c #3B3326",
"-I c #3B342C",
"-J c #3B3529",
"-K c #3B352B",
"-L c #3B352E",
"-M c #3B3534",
"-N c #3B3628",
"-O c #3B372B",
"-P c #3B372D",
"-Q c #3B3730",
"-R c #3B3827",
"-S c #3B382F",
"-T c #3B3830",
"-U c #3B3831",
"-V c #3B3832",
"-W c #3B3834",
"-X c #3B392E",
"-Y c #3B3931",
"-Z c #3B3932",
"-[ c #3B3A30",
"-] c #3B3A31",
"-^ c #3B3A33",
"-_ c #3B3B31",
"-` c #3B3B33",
"-a c #3B3C2B",
"-b c #3B3C33",
"-c c #3B3D31",
"-d c #3B3D34",
"-e c #3C332B",
"-f c #3C352D",
"-g c #3C362E",
"-h c #3C372B",
"-i c #3C372D",
"-j c #3C372E",
"-k c #3C382D",
"-l c #3C3832",
"-m c #3C3931",
"-n c #3C3933",
"-o c #3C3934",
"-p c #3C3935",
"-q c #3C3A2E",
"-r c #3C3A31",
"-s c #3C3A32",
"-t c #3C3A33",
"-u c #3C3A34",
"-v c #3C3B32",
"-w c #3C3B33",
"-x c #3C3B34",
"-y c #3C3B35",
"-z c #3C3B36",
"-{ c #3C3C35",
"-| c #3C3D2F",
"-} c #3C3D35",
"-~ c #3C3D36",
".! c #3C3D41",
".# c #3C4034",
".$ c #3D3630",
".% c #3D372C",
".& c #3D3830",
".' c #3D3931",
".( c #3D3A27",
".) c #3D3A31",
".* c #3D3A33",
".+ c #3D3A34",
"., c #3D3B33",
".- c #3D3B35",
".. c #3D3C34",
"./ c #3D3C37",
".0 c #3D3D35",
".1 c #3D3D36",
".2 c #3D3F2F",
".3 c #3D3F35",
".4 c #3D3F39",
".5 c #3E2E24",
".6 c #3E342C",
".7 c #3E352C",
".8 c #3E362F",
".9 c #3E3834",
".: c #3E392D",
".; c #3E3932",
".< c #3E3A37",
".= c #3E3A38",
".> c #3E3B2C",
".? c #3E3B30",
".@ c #3E3B31",
".A c #3E3B33",
".B c #3E3B36",
".C c #3E3B37",
".D c #3E3C34",
".E c #3E3C35",
".F c #3E3C36",
".G c #3E3C44",
".H c #3E3D32",
".I c #3E3D37",
".J c #3E3E31",
".K c #3E3E37",
".L c #3E3F32",
".M c #3E4037",
".N c #3F342B",
".O c #3F352F",
".P c #3F382B",
".Q c #3F3831",
".R c #3F392C",
".S c #3F392F",
".T c #3F3C25",
".U c #3F3C33",
".V c #3F3C34",
".W c #3F3C38",
".X c #3F3D36",
".Y c #3F3D38",
".Z c #3F3E33",
".[ c #3F3E37",
".] c #3F3F33",
".^ c #3F3F37",
"._ c #3F4039",
".` c #40362C",
".a c #40382D",
".b c #40392B",
".c c #40392E",
".d c #403A2B",
".e c #403D35",
".f c #403D37",
".g c #403D38",
".h c #403E34",
".i c #403E36",
".j c #403E37",
".k c #403F34",
".l c #403F35",
".m c #403F38",
".n c #404036",
".o c #404131",
".p c #404136",
".q c #404236",
".r c #404336",
".s c #404431",
".t c #41362B",
".u c #41382B",
".v c #413A30",
".w c #413B31",
".x c #413B32",
".y c #413D32",
".z c #413D35",
".{ c #413E36",
".| c #413E38",
".} c #413E39",
".~ c #413F36",
"/! c #413F37",
"/# c #413F38",
"/$ c #413F39",
"/% c #413F3B",
"/& c #414038",
"/' c #414039",
"/( c #41403A",
"/) c #41412E",
"/* c #414133",
"/+ c #414135",
"/, c #414137",
"/- c #41433A",
"/. c #41433F",
"// c #414B38",
"/0 c #422F23",
"/1 c #423834",
"/2 c #423A2F",
"/3 c #423B37",
"/4 c #423F37",
"/5 c #423F39",
"/6 c #423F3A",
"/7 c #423F3B",
"/8 c #424034",
"/9 c #424037",
"/: c #424038",
"/; c #424039",
"/< c #42413B",
"/= c #42423B",
"/> c #424339",
"/? c #42433A",
"/@ c #424438",
"/A c #424B38",
"/B c #433D2F",
"/C c #433D32",
"/D c #433D36",
"/E c #433E34",
"/F c #433E37",
"/G c #433F31",
"/H c #433F35",
"/I c #433F38",
"/J c #434037",
"/K c #43403A",
"/L c #434130",
"/M c #434136",
"/N c #434138",
"/O c #434239",
"/P c #43423A",
"/Q c #43432F",
"/R c #434338",
"/S c #434339",
"/T c #43433B",
"/U c #434D46",
"/V c #44382B",
"/W c #443F38",
"/X c #44403C",
"/Y c #444137",
"/Z c #44413A",
"/[ c #444140",
"/] c #44423A",
"/^ c #44423D",
"/_ c #44433B",
"/` c #44433C",
"/a c #44443C",
"/b c #444935",
"/c c #45392E",
"/d c #453F34",
"/e c #453F36",
"/f c #454033",
"/g c #454137",
"/h c #45423F",
"/i c #454337",
"/j c #45433A",
"/k c #45433B",
"/l c #454438",
"/m c #45443A",
"/n c #45443B",
"/o c #45443C",
"/p c #45453A",
"/q c #45453E",
"/r c #45453F",
"/s c #463B2D",
"/t c #463D30",
"/u c #464035",
"/v c #46403D",
"/w c #464133",
"/x c #464137",
"/y c #46453B",
"/z c #46463D",
"/{ c #46473B",
"/| c #46473F",
"/} c #464740",
"/~ c #46484B",
"0! c #47392F",
"0# c #473B2E",
"0$ c #474038",
"0% c #47423A",
"0& c #474339",
"0' c #47433A",
"0( c #47443C",
"0) c #474538",
"0* c #47453B",
"0+ c #47453C",
"0, c #47453D",
"0- c #474540",
"0. c #474639",
"0/ c #47463D",
"00 c #47463E",
"01 c #474640",
"02 c #47473E",
"03 c #474740",
"04 c #474843",
"05 c #474A3A",
"06 c #474A44",
"07 c #47533C",
"08 c #48382C",
"09 c #483C31",
"0: c #483D2E",
"0; c #48423B",
"0< c #484337",
"0= c #484438",
"0> c #48443B",
"0? c #48443D",
"0@ c #48453F",
"0A c #48483E",
"0B c #48493E",
"0C c #484C3D",
"0D c #493E2E",
"0E c #49453B",
"0F c #49453F",
"0G c #49463E",
"0H c #49463F",
"0I c #494739",
"0J c #49473C",
"0K c #49473E",
"0L c #49473F",
"0M c #494842",
"0N c #494940",
"0O c #494941",
"0P c #4A3D31",
"0Q c #4A4030",
"0R c #4A4238",
"0S c #4A4331",
"0T c #4A443B",
"0U c #4A453F",
"0V c #4A4638",
"0W c #4A473F",
"0X c #4A4742",
"0Y c #4A493E",
"0Z c #4A493F",
"0[ c #4A4941",
"0] c #4A4A3A",
"0^ c #4A4A40",
"0_ c #4A4B42",
"0` c #4A4B43",
"0a c #4B4335",
"0b c #4B4433",
"0c c #4B453B",
"0d c #4B4643",
"0e c #4B473A",
"0f c #4B473F",
"0g c #4B4837",
"0h c #4B483E",
"0i c #4B4840",
"0j c #4B493F",
"0k c #4B4A41",
"0l c #4B4B41",
"0m c #4C3F28",
"0n c #4C4431",
"0o c #4C4539",
"0p c #4C483B",
"0q c #4C4840",
"0r c #4C4841",
"0s c #4C4942",
"0t c #4C4943",
"0u c #4C4944",
"0v c #4C4A3F",
"0w c #4C4A41",
"0x c #4C4B45",
"0y c #4C4D41",
"0z c #4C4F3F",
"0{ c #4C503E",
"0| c #4D463A",
"0} c #4D4737",
"0~ c #4D473F",
"1! c #4D4740",
"1# c #4D483D",
"1$ c #4D4841",
"1% c #4D493C",
"1& c #4D4943",
"1' c #4D4A36",
"1( c #4D4B42",
"1) c #4D4B47",
"1* c #4D4D45",
"1+ c #4D4E43",
"1, c #4D643D",
"1- c #4E4332",
"1. c #4E433A",
"1/ c #4E443E",
"10 c #4E493D",
"11 c #4E4A43",
"12 c #4E4B43",
"13 c #4E4C38",
"14 c #4E4C42",
"15 c #4E4C47",
"16 c #4E4D3E",
"17 c #4E4E44",
"18 c #4E4F42",
"19 c #4E4F43",
"1: c #4E4F44",
"1; c #4E5047",
"1< c #4F4A3F",
"1= c #4F4B42",
"1> c #4F4C43",
"1? c #4F4C44",
"1@ c #4F4C47",
"1A c #4F4D41",
"1B c #4F4D44",
"1C c #4F5040",
"1D c #4F5144",
"1E c #4F5247",
"1F c #504431",
"1G c #50473C",
"1H c #504B39",
"1I c #504B43",
"1J c #504C44",
"1K c #504D3F",
"1L c #504D46",
"1M c #504F47",
"1N c #504F48",
"1O c #505041",
"1P c #505047",
"1Q c #505049",
"1R c #514A44",
"1S c #514C3C",
"1T c #515048",
"1U c #524A3D",
"1V c #524A3F",
"1W c #524B40",
"1X c #524E41",
"1Y c #524F46",
"1Z c #525046",
"1[ c #525049",
"1] c #525142",
"1^ c #52534A",
"1_ c #525352",
"1` c #52544C",
"1a c #53493C",
"1b c #534C3D",
"1c c #534F3C",
"1d c #53504B",
"1e c #535142",
"1f c #535248",
"1g c #535449",
"1h c #545047",
"1i c #545344",
"1j c #545549",
"1k c #554B3D",
"1l c #554B40",
"1m c #555041",
"1n c #555148",
"1o c #55514B",
"1p c #55534B",
"1q c #55534E",
"1r c #55544F",
"1s c #555549",
"1t c #55554B",
"1u c #56534D",
"1v c #56544D",
"1w c #56565B",
"1x c #574F42",
"1y c #574F43",
"1z c #57534A",
"1{ c #57534B",
"1| c #57544C",
"1} c #575647",
"1~ c #57564E",
"2! c #58503D",
"2# c #58564E",
"2$ c #58564F",
"2% c #58574B",
"2& c #58574D",
"2' c #585849",
"2( c #58584A",
"2) c #58594C",
"2* c #594236",
"2+ c #594E41",
"2, c #595746",
"2- c #59574B",
"2. c #595850",
"2/ c #595B45",
"20 c #595B4A",
"21 c #5A5344",
"22 c #5A544C",
"23 c #5A564B",
"24 c #5A574C",
"25 c #5A584E",
"26 c #5A5853",
"27 c #5A5A53",
"28 c #5B564E",
"29 c #5B5749",
"2: c #5B574A",
"2; c #5B584C",
"2< c #5B5850",
"2= c #5B5953",
"2> c #5B5A4F",
"2? c #5B5A50",
"2@ c #5B5C4E",
"2A c #5B5C52",
"2B c #5B5D55",
"2C c #5C584F",
"2D c #5C594E",
"2E c #5C5A51",
"2F c #5C5B58",
"2G c #5C5C4F",
"2H c #5C5D55",
"2I c #5C5E50",
"2J c #5C6051",
"2K c #5D5441",
"2L c #5D5449",
"2M c #5D584E",
"2N c #5D594D",
"2O c #5D5A51",
"2P c #5D5B55",
"2Q c #5D5C54",
"2R c #5D5F56",
"2S c #5E5C51",
"2T c #5E5C56",
"2U c #5E6050",
"2V c #5F564F",
"2W c #5F5B51",
"2X c #5F5C51",
"2Y c #5F5C56",
"2Z c #5F5C59",
"2[ c #5F5D56",
"2] c #5F5D57",
"2^ c #5F5E56",
"2_ c #5F5F57",
"2` c #5F6151",
"2a c #5F6152",
"2b c #605A3C",
"2c c #605A4F",
"2d c #605C50",
"2e c #605D4B",
"2f c #605D51",
"2g c #605D56",
"2h c #605E54",
"2i c #605F52",
"2j c #605F54",
"2k c #605F55",
"2l c #606154",
"2m c #606161",
"2n c #615B52",
"2o c #615B58",
"2p c #615D52",
"2q c #615D53",
"2r c #615E54",
"2s c #615E56",
"2t c #615E59",
"2u c #615F58",
"2v c #616058",
"2w c #616059",
"2x c #61605A",
"2y c #61605B",
"2z c #61664D",
"2{ c #625F54",
"2| c #625F57",
"2} c #625F59",
"2~ c #626058",
"3! c #62614F",
"3# c #626354",
"3$ c #63604F",
"3% c #636058",
"3& c #636159",
"3' c #63615A",
"3( c #63625A",
"3) c #636359",
"3* c #63635A",
"3+ c #645E4F",
"3, c #645F56",
"3- c #646050",
"3. c #646053",
"3/ c #646056",
"30 c #64615B",
"31 c #64625C",
"32 c #646354",
"33 c #64635A",
"34 c #64635C",
"35 c #646559",
"36 c #655954",
"37 c #656053",
"38 c #656258",
"39 c #656259",
"3: c #65635B",
"3; c #65645C",
"3< c #656F4E",
"3= c #66584C",
"3> c #666156",
"3? c #666358",
"3@ c #66635D",
"3A c #66645D",
"3B c #66655D",
"3C c #66655E",
"3D c #66665B",
"3E c #66685B",
"3F c #675849",
"3G c #675D4E",
"3H c #676258",
"3I c #67655D",
"3J c #67655E",
"3K c #67665D",
"3L c #67675E",
"3M c #676862",
"3N c #676A56",
"3O c #685D50",
"3P c #686258",
"3Q c #686455",
"3R c #686459",
"3S c #68655F",
"3T c #686560",
"3U c #68665C",
"3V c #68665D",
"3W c #68665E",
"3X c #68695D",
"3Y c #686960",
"3Z c #695645",
"3[ c #69645B",
"3] c #69655C",
"3^ c #69655D",
"3_ c #696655",
"3` c #69675C",
"3a c #69675E",
"3b c #69685F",
"3c c #696860",
"3d c #696961",
"3e c #6A655D",
"3f c #6A675C",
"3g c #6A675D",
"3h c #6A6B61",
"3i c #6B665C",
"3j c #6B685E",
"3k c #6B685F",
"3l c #6B6862",
"3m c #6B695F",
"3n c #6B6960",
"3o c #6B6A5D",
"3p c #6B6C5F",
"3q c #6B6F5F",
"3r c #6C655B",
"3s c #6C6857",
"3t c #6C6959",
"3u c #6C6962",
"3v c #6C6A60",
"3w c #6C6A61",
"3x c #6C6A62",
"3y c #6C6A63",
"3z c #6C6A64",
"3{ c #6C6B60",
"3| c #6C6B62",
"3} c #6C6C5D",
"3~ c #6C6C62",
"4! c #6C6D60",
"4# c #6C6D64",
"4$ c #6C6D65",
"4% c #6D655B",
"4& c #6D695E",
"4' c #6D6A61",
"4( c #6D6B5C",
"4) c #6D6B63",
"4* c #6D6B66",
"4+ c #6D6C64",
"4, c #6D6C67",
"4- c #6D6D63",
"4. c #6D6D64",
"4/ c #6D6E65",
"40 c #6D7060",
"41 c #6D7163",
"42 c #6E6B62",
"43 c #6E6B64",
"44 c #6E6C5D",
"45 c #6E6C62",
"46 c #6E6C66",
"47 c #6E6D5D",
"48 c #6E6D63",
"49 c #6E6D67",
"4: c #6E6E63",
"4; c #6E6F62",
"4< c #6E7061",
"4= c #6E7066",
"4> c #6F6B5D",
"4? c #6F6B64",
"4@ c #6F6C63",
"4A c #6F6C65",
"4B c #6F6C66",
"4C c #6F6D64",
"4D c #6F6D66",
"4E c #6F6D67",
"4F c #6F6E63",
"4G c #6F6E65",
"4H c #6F6E66",
"4I c #6F6F68",
"4J c #70675F",
"4K c #70685E",
"4L c #706A5F",
"4M c #706C65",
"4N c #706D61",
"4O c #706D68",
"4P c #706E62",
"4Q c #706E65",
"4R c #706E69",
"4S c #706F65",
"4T c #706F68",
"4U c #706F69",
"4V c #707064",
"4W c #707065",
"4X c #707167",
"4Y c #707169",
"4Z c #716B61",
"4[ c #716C62",
"4] c #716C64",
"4^ c #716E65",
"4_ c #716E67",
"4` c #716F5F",
"4a c #716F65",
"4b c #716F68",
"4c c #716F69",
"4d c #717065",
"4e c #717066",
"4f c #717068",
"4g c #717069",
"4h c #717166",
"4i c #717168",
"4j c #717169",
"4k c #726C60",
"4l c #726C64",
"4m c #726E5F",
"4n c #726E61",
"4o c #726E65",
"4p c #726F69",
"4q c #727068",
"4r c #727167",
"4s c #727169",
"4t c #72716A",
"4u c #72736A",
"4v c #72736B",
"4w c #736750",
"4x c #736C63",
"4y c #736D62",
"4z c #736E64",
"4{ c #73706A",
"4| c #73706B",
"4} c #737166",
"4~ c #737267",
"5! c #737268",
"5# c #73726A",
"5$ c #73726B",
"5% c #737366",
"5& c #737369",
"5' c #746B63",
"5( c #746E66",
"5) c #746F64",
"5* c #747069",
"5+ c #747168",
"5, c #747169",
"5- c #74716C",
"5. c #747268",
"5/ c #747269",
"50 c #747369",
"51 c #74736B",
"52 c #747469",
"53 c #74756E",
"54 c #747577",
"55 c #757169",
"56 c #757264",
"57 c #757267",
"58 c #757269",
"59 c #75726B",
"5: c #75726C",
"5; c #75726D",
"5< c #75726F",
"5= c #75736A",
"5> c #75736C",
"5? c #75736E",
"5@ c #75736F",
"5A c #75746A",
"5B c #75746C",
"5C c #75746D",
"5D c #75756B",
"5E c #75756D",
"5F c #767062",
"5G c #767169",
"5H c #76716B",
"5I c #76726B",
"5J c #767369",
"5K c #76736C",
"5L c #767370",
"5M c #76756A",
"5N c #76756B",
"5O c #76756C",
"5P c #76756D",
"5Q c #76756F",
"5R c #76776A",
"5S c #76776B",
"5T c #76776F",
"5U c #776E5C",
"5V c #777265",
"5W c #777369",
"5X c #777465",
"5Y c #777469",
"5Z c #77746A",
"5[ c #77746C",
"5] c #77746D",
"5^ c #77756B",
"5_ c #77756D",
"5` c #77756E",
"5a c #77766F",
"5b c #77776B",
"5c c #77776E",
"5d c #77786E",
"5e c #787065",
"5f c #787168",
"5g c #78716A",
"5h c #787569",
"5i c #78756B",
"5j c #78756D",
"5k c #78756F",
"5l c #78766D",
"5m c #78766F",
"5n c #787671",
"5o c #78776B",
"5p c #78776D",
"5q c #78776E",
"5r c #78776F",
"5s c #787770",
"5t c #78786D",
"5u c #787870",
"5v c #787871",
"5w c #787A69",
"5x c #797167",
"5y c #79726A",
"5z c #79756C",
"5{ c #79756D",
"5| c #79757C",
"5} c #79766E",
"5~ c #797670",
"6! c #797672",
"6# c #79776A",
"6$ c #79776C",
"6% c #79776E",
"6& c #79776F",
"6' c #797770",
"6( c #797771",
"6) c #797772",
"6* c #79786C",
"6+ c #79786D",
"6, c #79786E",
"6- c #797870",
"6. c #797871",
"6/ c #79796F",
"60 c #797971",
"61 c #797A6C",
"62 c #797A6E",
"63 c #7A766B",
"64 c #7A766F",
"65 c #7A776E",
"66 c #7A7771",
"67 c #7A7774",
"68 c #7A7775",
"69 c #7A786D",
"6: c #7A796D",
"6; c #7A7970",
"6< c #7A7974",
"6= c #7A7A6E",
"6> c #7A7A72",
"6? c #7A7B6E",
"6@ c #7A7B71",
"6A c #7B776D",
"6B c #7B776E",
"6C c #7B7773",
"6D c #7B786D",
"6E c #7B786F",
"6F c #7B7870",
"6G c #7B7871",
"6H c #7B796D",
"6I c #7B7971",
"6J c #7B7972",
"6K c #7B7973",
"6L c #7B7974",
"6M c #7B7A6D",
"6N c #7B7A71",
"6O c #7B7A72",
"6P c #7B7D6A",
"6Q c #7B7D75",
"6R c #7B7D76",
"6S c #7C705C",
"6T c #7C7467",
"6U c #7C7468",
"6V c #7C766B",
"6W c #7C766E",
"6X c #7C776E",
"6Y c #7C776F",
"6Z c #7C7871",
"6[ c #7C7971",
"6] c #7C7972",
"6^ c #7C7973",
"6_ c #7C7A6C",
"6` c #7C7A6E",
"6a c #7C7A6F",
"6b c #7C7A70",
"6c c #7C7A73",
"6d c #7C7A74",
"6e c #7C7B71",
"6f c #7C7B73",
"6g c #7C7C71",
"6h c #7C7C72",
"6i c #7C7D73",
"6j c #7C7E75",
"6k c #7C8161",
"6l c #7D756B",
"6m c #7D766C",
"6n c #7D7764",
"6o c #7D776E",
"6p c #7D786F",
"6q c #7D7969",
"6r c #7D796F",
"6s c #7D7970",
"6t c #7D7971",
"6u c #7D7973",
"6v c #7D7974",
"6w c #7D7A71",
"6x c #7D7A72",
"6y c #7D7A73",
"6z c #7D7A74",
"6{ c #7D7A76",
"6| c #7D7B6A",
"6} c #7D7B74",
"6~ c #7D7B75",
"7! c #7D7C6E",
"7# c #7D7C71",
"7$ c #7D7C73",
"7% c #7D7C74",
"7& c #7D7C75",
"7' c #7D7C77",
"7( c #7D7C7B",
"7) c #7D7D70",
"7* c #7D7D74",
"7+ c #7D7E73",
"7, c #7D7E76",
"7- c #7E766A",
"7. c #7E7771",
"7/ c #7E7871",
"70 c #7E796F",
"71 c #7E7974",
"72 c #7E7A6D",
"73 c #7E7A6F",
"74 c #7E7A70",
"75 c #7E7A71",
"76 c #7E7A72",
"77 c #7E7B69",
"78 c #7E7B6F",
"79 c #7E7B70",
"7: c #7E7B71",
"7; c #7E7B72",
"7< c #7E7B73",
"7= c #7E7B74",
"7> c #7E7B76",
"7? c #7E7C72",
"7@ c #7E7C74",
"7A c #7E7C75",
"7B c #7E7C76",
"7C c #7E7D73",
"7D c #7E7D74",
"7E c #7E7D75",
"7F c #7E7D76",
"7G c #7E7E72",
"7H c #7E7F6C",
"7I c #7F766D",
"7J c #7F796F",
"7K c #7F7A6D",
"7L c #7F7A6F",
"7M c #7F7A71",
"7N c #7F7A72",
"7O c #7F7B6D",
"7P c #7F7B71",
"7Q c #7F7B76",
"7R c #7F7B77",
"7S c #7F7C6B",
"7T c #7F7C6E",
"7U c #7F7C73",
"7V c #7F7C74",
"7W c #7F7C75",
"7X c #7F7C76",
"7Y c #7F7C77",
"7Z c #7F7D71",
"7[ c #7F7D72",
"7] c #7F7D73",
"7^ c #7F7D74",
"7_ c #7F7D75",
"7` c #7F7D76",
"7a c #7F7D78",
"7b c #7F7E6D",
"7c c #7F7E74",
"7d c #7F7E76",
"7e c #7F7E77",
"7f c #7F7F6F",
"7g c #7F7F79",
"7h c #7F7F87",
"7i c #7F817C",
"7j c #807B70",
"7k c #807C6F",
"7l c #807C72",
"7m c #807C73",
"7n c #807D6D",
"7o c #807D73",
"7p c #807D74",
"7q c #807D75",
"7r c #807D76",
"7s c #807D77",
"7t c #807E72",
"7u c #807E74",
"7v c #807E75",
"7w c #807E76",
"7x c #807E77",
"7y c #807E78",
"7z c #807E79",
"7{ c #807E7B",
"7| c #807F73",
"7} c #807F74",
"7~ c #807F75",
"8! c #807F76",
"8# c #807F77",
"8$ c #807F78",
"8% c #807F7B",
"8& c #808072",
"8' c #808078",
"8( c #808079",
"8) c #817A71",
"8* c #817B63",
"8+ c #817B72",
"8, c #817B7C",
"8- c #817C72",
"8. c #817D70",
"8/ c #817D73",
"80 c #817D77",
"81 c #817E6F",
"82 c #817E74",
"83 c #817E75",
"84 c #817E76",
"85 c #817E77",
"86 c #817E78",
"87 c #817E79",
"88 c #817F72",
"89 c #817F76",
"8: c #817F77",
"8; c #817F78",
"8< c #817F79",
"8= c #817F7A",
"8> c #817F7B",
"8? c #818071",
"8@ c #818072",
"8A c #818075",
"8B c #818076",
"8C c #818078",
"8D c #818079",
"8E c #818273",
"8F c #818286",
"8G c #82766D",
"8H c #827A6D",
"8I c #827C72",
"8J c #827E74",
"8K c #827E75",
"8L c #827E84",
"8M c #827F75",
"8N c #827F76",
"8O c #827F77",
"8P c #827F78",
"8Q c #827F79",
"8R c #827F7A",
"8S c #827F7B",
"8T c #828071",
"8U c #828075",
"8V c #828076",
"8W c #828077",
"8X c #828078",
"8Y c #828079",
"8Z c #82807A",
"8[ c #82807C",
"8] c #828178",
"8^ c #828179",
"8_ c #82817A",
"8` c #82817B",
"8a c #82817C",
"8b c #828274",
"8c c #837B70",
"8d c #837C72",
"8e c #837D73",
"8f c #837E78",
"8g c #837F72",
"8h c #837F75",
"8i c #838077",
"8j c #838078",
"8k c #838079",
"8l c #83807A",
"8m c #83807B",
"8n c #83807C",
"8o c #83807D",
"8p c #838174",
"8q c #838177",
"8r c #838178",
"8s c #838179",
"8t c #83817A",
"8u c #83817B",
"8v c #83817C",
"8w c #83817D",
"8x c #838277",
"8y c #838279",
"8z c #83827A",
"8{ c #83827B",
"8| c #83827C",
"8} c #838376",
"8~ c #83837C",
"9! c #847E72",
"9# c #848074",
"9$ c #848077",
"9% c #848078",
"9& c #848172",
"9' c #848176",
"9( c #848177",
"9) c #848178",
"9* c #848179",
"9+ c #84817A",
"9, c #84817C",
"9- c #84817E",
"9. c #848277",
"9/ c #848278",
"90 c #848279",
"91 c #84827A",
"92 c #84827B",
"93 c #84827C",
"94 c #848379",
"95 c #84837A",
"96 c #84837B",
"97 c #84837D",
"98 c #84847C",
"99 c #857A74",
"9: c #857E73",
"9; c #857F73",
"9< c #857F77",
"9= c #857F78",
"9> c #858070",
"9? c #858074",
"9@ c #858075",
"9A c #858076",
"9B c #858176",
"9C c #858177",
"9D c #858274",
"9E c #858275",
"9F c #858279",
"9G c #85827A",
"9H c #85827B",
"9I c #85827D",
"9J c #858376",
"9K c #85837A",
"9L c #85837B",
"9M c #85837C",
"9N c #85837D",
"9O c #85837F",
"9P c #85847A",
"9Q c #85847C",
"9R c #858579",
"9S c #85857C",
"9T c #858677",
"9U c #867F77",
"9V c #868074",
"9W c #868078",
"9X c #868174",
"9Y c #868178",
"9Z c #868179",
"9[ c #868277",
"9] c #868278",
"9^ c #868376",
"9_ c #868377",
"9` c #868378",
"9a c #868379",
"9b c #86837A",
"9c c #86837B",
"9d c #86837C",
"9e c #86837D",
"9f c #86837E",
"9g c #86837F",
"9h c #868380",
"9i c #86847B",
"9j c #86847C",
"9k c #86847D",
"9l c #86857B",
"9m c #86857C",
"9n c #86857D",
"9o c #86857E",
"9p c #868580",
"9q c #86867D",
"9r c #868681",
"9s c #86877C",
"9t c #877C6E",
"9u c #877D74",
"9v c #878177",
"9w c #878179",
"9x c #878275",
"9y c #878277",
"9z c #87827B",
"9{ c #878377",
"9| c #87837E",
"9} c #878478",
"9~ c #878479",
":! c #87847A",
":# c #87847B",
":$ c #87847D",
":% c #87847E",
":& c #87847F",
":' c #87857C",
":( c #87857D",
":) c #87857E",
":* c #87857F",
":+ c #878580",
":, c #87867B",
":- c #87867C",
":. c #87867D",
":/ c #87867E",
":0 c #878680",
":1 c #878682",
":2 c #87886E",
":3 c #87887B",
":4 c #887E72",
":5 c #888077",
":6 c #888176",
":7 c #888277",
":8 c #888278",
":9 c #888279",
":: c #888376",
":; c #888379",
":< c #888477",
":= c #88847A",
":> c #88847B",
":? c #888577",
":@ c #88857A",
":A c #88857C",
":B c #88857D",
":C c #88857E",
":D c #88857F",
":E c #888580",
":F c #88867B",
":G c #88867C",
":H c #88867D",
":I c #88867E",
":J c #88867F",
":K c #888681",
":L c #888682",
":M c #88877A",
":N c #88877C",
":O c #88877E",
":P c #88877F",
":Q c #888780",
":R c #888781",
":S c #888782",
":T c #888783",
":U c #88898D",
":V c #888A73",
":W c #898079",
":X c #898176",
":Y c #898178",
":Z c #898278",
":[ c #898279",
":] c #898379",
":^ c #89837A",
":_ c #89837F",
":` c #89847A",
":a c #89847C",
":b c #898579",
":c c #89857A",
":d c #89857B",
":e c #89857C",
":f c #898679",
":g c #89867A",
":h c #89867B",
":i c #89867C",
":j c #89867D",
":k c #89877B",
":l c #89877C",
":m c #89877D",
":n c #89877E",
":o c #89877F",
":p c #898780",
":q c #898781",
":r c #898782",
":s c #898783",
":t c #89887E",
":u c #89887F",
":v c #898880",
":w c #898881",
":x c #898882",
":y c #898883",
":z c #89897D",
":{ c #898A7D",
":| c #898A7E",
":} c #898A8D",
":~ c #898B80",
";! c #8A8275",
";# c #8A8477",
";$ c #8A867B",
";% c #8A867C",
";& c #8A867D",
";' c #8A867E",
";( c #8A867F",
";) c #8A877A",
";* c #8A877C",
";+ c #8A877D",
";, c #8A877E",
";- c #8A877F",
";. c #8A8780",
";/ c #8A8781",
";0 c #8A8783",
";1 c #8A887C",
";2 c #8A887E",
";3 c #8A887F",
";4 c #8A8880",
";5 c #8A8881",
";6 c #8A8882",
";7 c #8A8883",
";8 c #8A897D",
";9 c #8A8980",
";: c #8A8981",
";; c #8A8983",
";< c #8A8984",
";= c #8B8279",
";> c #8B8376",
";? c #8B8377",
";@ c #8B8378",
";A c #8B847A",
";B c #8B8578",
";C c #8B857A",
";D c #8B857C",
";E c #8B867C",
";F c #8B877A",
";G c #8B877B",
";H c #8B877C",
";I c #8B877D",
";J c #8B877E",
";K c #8B8784",
";L c #8B8786",
";M c #8B887A",
";N c #8B887E",
";O c #8B887F",
";P c #8B8880",
";Q c #8B8881",
";R c #8B8882",
";S c #8B897D",
";T c #8B897E",
";U c #8B897F",
";V c #8B8980",
";W c #8B8981",
";X c #8B8982",
";Y c #8B8983",
";Z c #8B8A7F",
";[ c #8B8A81",
";] c #8B8A82",
";^ c #8B8A83",
";_ c #8B8B7B",
";` c #8B8B81",
";a c #8B8B82",
";b c #8B8B83",
";c c #8B8B84",
";d c #8B8C81",
";e c #8B8D7F",
";f c #8C8373",
";g c #8C8475",
";h c #8C847C",
";i c #8C857B",
";j c #8C867C",
";k c #8C8776",
";l c #8C877E",
";m c #8C887C",
";n c #8C887F",
";o c #8C8980",
";p c #8C8981",
";q c #8C8982",
";r c #8C8983",
";s c #8C8A80",
";t c #8C8A81",
";u c #8C8A82",
";v c #8C8A83",
";w c #8C8A84",
";x c #8C8B84",
";y c #8C8B87",
";z c #8C8C83",
";{ c #8C8D92",
";| c #8D847A",
";} c #8D8677",
";~ c #8D8679",
"<! c #8D8779",
"<# c #8D877D",
"<$ c #8D897E",
"<% c #8D897F",
"<& c #8D8980",
"<' c #8D8A82",
"<( c #8D8A83",
"<) c #8D8A84",
"<* c #8D8B81",
"<+ c #8D8B82",
"<, c #8D8B84",
"<- c #8D8B85",
"<. c #8D8B86",
"</ c #8D8C82",
"<0 c #8D8C83",
"<1 c #8D8C84",
"<2 c #8D8C85",
"<3 c #8D8C86",
"<4 c #8D8D7F",
"<5 c #8D8D85",
"<6 c #8E857B",
"<7 c #8E857D",
"<8 c #8E8676",
"<9 c #8E897C",
"<: c #8E897D",
"<; c #8E8980",
"<< c #8E8A7D",
"<= c #8E8A7E",
"<> c #8E8A80",
"<? c #8E8A81",
"<@ c #8E8B7E",
"<A c #8E8B82",
"<B c #8E8B83",
"<C c #8E8B84",
"<D c #8E8B85",
"<E c #8E8C80",
"<F c #8E8C81",
"<G c #8E8C82",
"<H c #8E8C83",
"<I c #8E8C84",
"<J c #8E8C86",
"<K c #8E8C87",
"<L c #8E8D83",
"<M c #8E8D85",
"<N c #8E8D86",
"<O c #8E8D87",
"<P c #8E8D88",
"<Q c #8E8E85",
"<R c #8F8579",
"<S c #8F867A",
"<T c #8F887D",
"<U c #8F887F",
"<V c #8F8980",
"<W c #8F8A80",
"<X c #8F8B92",
"<Y c #8F8C81",
"<Z c #8F8C82",
"<[ c #8F8C83",
"<] c #8F8C84",
"<^ c #8F8C85",
"<_ c #8F8C87",
"<` c #8F8D81",
"<a c #8F8D83",
"<b c #8F8D85",
"<c c #8F8D86",
"<d c #8F8D95",
"<e c #8F8E83",
"<f c #8F8E86",
"<g c #8F8F88",
"<h c #8F8F96",
"<i c #90877C",
"<j c #908C7F",
"<k c #908C82",
"<l c #908C84",
"<m c #908D7C",
"<n c #908D7F",
"<o c #908D81",
"<p c #908D84",
"<q c #908D85",
"<r c #908D88",
"<s c #908E84",
"<t c #908E85",
"<u c #908E86",
"<v c #908E87",
"<w c #908E88",
"<x c #908F81",
"<y c #908F82",
"<z c #908F83",
"<{ c #908F85",
"<| c #908F86",
"<} c #908F87",
"<~ c #908F88",
"=! c #908F89",
"=# c #908F8A",
"=$ c #918981",
"=% c #918B81",
"=& c #918C78",
"=' c #918C7F",
"=( c #918C82",
"=) c #918D82",
"=* c #918D86",
"=+ c #918E82",
"=, c #918E83",
"=- c #918E85",
"=. c #918E86",
"=/ c #918E87",
"=0 c #918F81",
"=1 c #918F83",
"=2 c #918F84",
"=3 c #918F85",
"=4 c #918F86",
"=5 c #918F87",
"=6 c #918F88",
"=7 c #918F89",
"=8 c #918F8A",
"=9 c #919083",
"=: c #919084",
"=; c #919086",
"=< c #919088",
"== c #919089",
"=> c #91908A",
"=? c #919181",
"=@ c #919187",
"=A c #919188",
"=B c #92867F",
"=C c #928A81",
"=D c #928B83",
"=E c #928E82",
"=F c #928F81",
"=G c #928F84",
"=H c #928F85",
"=I c #928F87",
"=J c #928F88",
"=K c #928F99",
"=L c #929085",
"=M c #929086",
"=N c #929087",
"=O c #929089",
"=P c #92908A",
"=Q c #92908B",
"=R c #929186",
"=S c #929187",
"=T c #929189",
"=U c #92918A",
"=V c #92918B",
"=W c #92918C",
"=X c #929286",
"=Y c #929288",
"=Z c #92938B",
"=[ c #929397",
"=] c #92948A",
"=^ c #938782",
"=_ c #938B80",
"=` c #938D83",
"=a c #938D84",
"=b c #938F80",
"=c c #939085",
"=d c #939086",
"=e c #939087",
"=f c #939089",
"=g c #93908A",
"=h c #939186",
"=i c #939188",
"=j c #939189",
"=k c #93918A",
"=l c #93918B",
"=m c #93928A",
"=n c #93928B",
"=o c #93928D",
"=p c #93938F",
"=q c #939489",
"=r c #939686",
"=s c #948A7F",
"=t c #948C81",
"=u c #948E80",
"=v c #948F81",
"=w c #948F83",
"=x c #948F84",
"=y c #948F86",
"=z c #94907D",
"={ c #949187",
"=| c #949188",
"=} c #949287",
"=~ c #949288",
">! c #949289",
"># c #94928A",
">$ c #94928B",
">% c #94928C",
">& c #94938A",
">' c #94938B",
">( c #94938D",
">) c #949486",
">* c #949488",
">+ c #94948A",
">, c #94948E",
">- c #94958A",
">. c #958C83",
">/ c #959084",
">0 c #959085",
">1 c #959186",
">2 c #959189",
">3 c #95918B",
">4 c #959286",
">5 c #959287",
">6 c #959289",
">7 c #959389",
">8 c #95938A",
">9 c #95938B",
">: c #95938C",
">; c #95938D",
">< c #959489",
">= c #959586",
">> c #95968A",
">? c #95978A",
">@ c #968B7F",
">A c #968C81",
">B c #968F84",
">C c #969186",
">D c #969284",
">E c #969285",
">F c #969287",
">G c #969387",
">H c #969388",
">I c #96938A",
">J c #96938D",
">K c #96948B",
">L c #96948C",
">M c #96958A",
">N c #96958D",
">O c #96958E",
">P c #96958F",
">Q c #96968A",
">R c #96968B",
">S c #969698",
">T c #978C82",
">U c #978F84",
">V c #979187",
">W c #979386",
">X c #979387",
">Y c #979388",
">Z c #979389",
">[ c #97938A",
">] c #979489",
">^ c #97948A",
">_ c #97948C",
">` c #97948D",
">a c #97958A",
">b c #97958B",
">c c #97958C",
">d c #97958E",
">e c #97958F",
">f c #97968B",
">g c #97968D",
">h c #97968E",
">i c #97968F",
">j c #979691",
">k c #97978A",
">l c #97978B",
">m c #97988A",
">n c #979A89",
">o c #988E84",
">p c #988E85",
">q c #988F87",
">r c #989287",
">s c #989388",
">t c #98938B",
">u c #98948B",
">v c #98958D",
">w c #98959C",
">x c #98968C",
">y c #98968E",
">z c #98968F",
">{ c #98978B",
">| c #98978C",
">} c #98978E",
">~ c #98978F",
"?! c #989790",
"?# c #989791",
"?$ c #989792",
"?% c #98998E",
"?& c #989C89",
"?' c #998F86",
"?( c #999389",
"?) c #999489",
"?* c #99968C",
"?+ c #99978B",
"?, c #99978D",
"?- c #99978E",
"?. c #99978F",
"?/ c #999790",
"?0 c #99988F",
"?1 c #999890",
"?2 c #99998F",
"?3 c #999B90",
"?4 c #9A9188",
"?5 c #9A9289",
"?6 c #9A9386",
"?7 c #9A948A",
"?8 c #9A958D",
"?9 c #9A978B",
"?: c #9A978C",
"?; c #9A978D",
"?< c #9A978E",
"?= c #9A978F",
"?> c #9A9790",
"?? c #9A988C",
"?@ c #9A988E",
"?A c #9A9890",
"?B c #9A998D",
"?C c #9A9990",
"?D c #9A9991",
"?E c #9A9A8F",
"?F c #9A9C91",
"?G c #9B9488",
"?H c #9B9586",
"?I c #9B958A",
"?J c #9B958B",
"?K c #9B968B",
"?L c #9B968E",
"?M c #9B978D",
"?N c #9B988E",
"?O c #9B998F",
"?P c #9B9990",
"?Q c #9B9996",
"?R c #9B9A8D",
"?S c #9B9A91",
"?T c #9B9A93",
"?U c #9B9A95",
"?V c #9B9B8F",
"?W c #9B9B92",
"?X c #9B9D90",
"?Y c #9C9183",
"?Z c #9C9691",
"?[ c #9C978A",
"?] c #9C9889",
"?^ c #9C988C",
"?_ c #9C9890",
"?` c #9C9A8B",
"?a c #9C9A8E",
"?b c #9C9A91",
"?c c #9C9A95",
"?d c #9C9B91",
"?e c #9C9B94",
"?f c #9C9C91",
"?g c #9C9C92",
"?h c #9C9C93",
"?i c #9C9E8F",
"?j c #9C9F8A",
"?k c #9D928B",
"?l c #9D9687",
"?m c #9D968E",
"?n c #9D9693",
"?o c #9D978C",
"?p c #9D9889",
"?q c #9D988B",
"?r c #9D988D",
"?s c #9D998A",
"?t c #9D998B",
"?u c #9D9990",
"?v c #9D9A8E",
"?w c #9D9A95",
"?x c #9D9B91",
"?y c #9D9B92",
"?z c #9D9B94",
"?{ c #9D9C90",
"?| c #9D9C94",
"?} c #9D9E8D",
"?~ c #9D9E92",
"@! c #9E947F",
"@# c #9E978B",
"@$ c #9E988E",
"@% c #9E9A8F",
"@& c #9E9B8F",
"@' c #9E9C90",
"@( c #9E9C95",
"@) c #9E9D95",
"@* c #9E9E91",
"@+ c #9E9E92",
"@, c #9E9E96",
"@- c #9EA0A3",
"@. c #9F988C",
"@/ c #9F9A8F",
"@0 c #9F9A91",
"@1 c #9F9A93",
"@2 c #9F9B8F",
"@3 c #9F9B90",
"@4 c #9F9B92",
"@5 c #9F9D8F",
"@6 c #9F9D91",
"@7 c #9F9D92",
"@8 c #9F9E91",
"@9 c #9F9E95",
"@: c #9F9E96",
"@; c #9F9E9A",
"@< c #9F9F87",
"@= c #9FA094",
"@> c #A0968A",
"@? c #A09A90",
"@@ c #A09C8F",
"@A c #A09C92",
"@B c #A09D91",
"@C c #A09E93",
"@D c #A09E94",
"@E c #A09F94",
"@F c #A09F97",
"@G c #A09F99",
"@H c #A0A093",
"@I c #A0A095",
"@J c #A0A0A9",
"@K c #A0A295",
"@L c #A1988D",
"@M c #A19B89",
"@N c #A19C91",
"@O c #A19D90",
"@P c #A19D91",
"@Q c #A19E93",
"@R c #A19F92",
"@S c #A19F93",
"@T c #A19F95",
"@U c #A19F97",
"@V c #A1A098",
"@W c #A1A198",
"@X c #A1A199",
"@Y c #A1A293",
"@Z c #A1A294",
"@[ c #A1A298",
"@] c #A1A48F",
"@^ c #A29883",
"@_ c #A29A8A",
"@` c #A29F92",
"@a c #A29F93",
"@b c #A29F95",
"@c c #A2A092",
"@d c #A2A19D",
"@e c #A2A299",
"@f c #A2A398",
"@g c #A2A698",
"@h c #A3998B",
"@i c #A39C8E",
"@j c #A39D8E",
"@k c #A39D8F",
"@l c #A39D90",
"@m c #A39E8F",
"@n c #A39E90",
"@o c #A39E92",
"@p c #A39F92",
"@q c #A39F93",
"@r c #A3A09A",
"@s c #A3A194",
"@t c #A3A295",
"@u c #A3A49A",
"@v c #A3A696",
"@w c #A3A796",
"@x c #A49C90",
"@y c #A49D90",
"@z c #A49E8F",
"@{ c #A49F95",
"@| c #A4A198",
"@} c #A4A293",
"@~ c #A4A399",
"A! c #A4A39A",
"A# c #A4A49D",
"A$ c #A4A4A5",
"A% c #A4A692",
"A& c #A4A698",
"A' c #A4A699",
"A( c #A59D90",
"A) c #A5A094",
"A* c #A5A095",
"A+ c #A5A198",
"A, c #A5A295",
"A- c #A5A39B",
"A. c #A5A499",
"A/ c #A5A49C",
"A0 c #A5A698",
"A1 c #A5A69A",
"A2 c #A5A792",
"A3 c #A5A796",
"A4 c #A5A79C",
"A5 c #A69F94",
"A6 c #A6A299",
"A7 c #A6A48E",
"A8 c #A6A497",
"A9 c #A6A59C",
"A: c #A6A692",
"A; c #A6A79B",
"A< c #A6A79C",
"A= c #A79F93",
"A> c #A7A292",
"A? c #A7A396",
"A@ c #A7A495",
"AA c #A7A69E",
"AB c #A7A99D",
"AC c #A8A193",
"AD c #A8A397",
"AE c #A8A398",
"AF c #A8A799",
"AG c #A8A79D",
"AH c #A8A7A1",
"AI c #A8A99F",
"AJ c #A8A9A0",
"AK c #A8AA9D",
"AL c #A8AB9A",
"AM c #A8AB9B",
"AN c #A99C8F",
"AO c #A99F92",
"AP c #A9A197",
"AQ c #A9A597",
"AR c #A9A791",
"AS c #A9A89D",
"AT c #A9A8A0",
"AU c #A9A994",
"AV c #A9A99C",
"AW c #A9A99D",
"AX c #A9A9A0",
"AY c #A9AB9B",
"AZ c #AAA797",
"A[ c #AAA8A1",
"A] c #AAA9A0",
"A^ c #AAAA9B",
"A_ c #AAAAB1",
"A` c #ABA79B",
"Aa c #ABA89A",
"Ab c #ABA89B",
"Ac c #ABAAA1",
"Ad c #ABAC96",
"Ae c #ABB19F",
"Af c #ACA295",
"Ag c #ACA397",
"Ah c #ACA792",
"Ai c #ACABA3",
"Aj c #ACABA5",
"Ak c #ADA697",
"Al c #ADA69A",
"Am c #ADA99F",
"An c #ADAEA4",
"Ao c #ADB19C",
"Ap c #AEADA4",
"Aq c #AEADB5",
"Ar c #AEAE9D",
"As c #AEAEA4",
"At c #AEAFA6",
"Au c #AEB0A5",
"Av c #AEB3A0",
"Aw c #AFA99C",
"Ax c #AFAA9E",
"Ay c #AFAEA1",
"Az c #AFAFA0",
"A{ c #AFAFA3",
"A| c #AFB0A6",
"A} c #AFB19E",
"A~ c #AFB2A1",
"B! c #AFB5A2",
"B# c #B0AC95",
"B$ c #B0AFA2",
"B% c #B0B0A5",
"B& c #B0B3A2",
"B' c #B1AEA5",
"B( c #B1B2A4",
"B) c #B1B2A7",
"B* c #B1B8A2",
"B+ c #B2B2A1",
"B, c #B2B3A5",
"B- c #B2B3A8",
"B. c #B3AB9B",
"B/ c #B3AB9E",
"B0 c #B3AF9D",
"B1 c #B3AFA0",
"B2 c #B3B0A0",
"B3 c #B3B2A0",
"B4 c #B3B3A8",
"B5 c #B3B6A4",
"B6 c #B4A8A1",
"B7 c #B4AD9C",
"B8 c #B4AE9F",
"B9 c #B4B0A2",
"B: c #B4B6A9",
"B; c #B4B6AD",
"B< c #B5B5AE",
"B= c #B5B7A4",
"B> c #B5B9A5",
"B? c #B6A897",
"B@ c #B6AE9A",
"BA c #B6B5AB",
"BB c #B6B7A9",
"BC c #B7B1A7",
"BD c #B7B8AA",
"BE c #B7B9A4",
"BF c #B7BAA3",
"BG c #B7BAA6",
"BH c #B8AB94",
"BI c #B8B09B",
"BJ c #B8B19E",
"BK c #B8B7A8",
"BL c #B8B7AB",
"BM c #B8BAA6",
"BN c #B8BCA8",
"BO c #B8BCA9",
"BP c #B9AD9B",
"BQ c #B9B3A0",
"BR c #B9B5A5",
"BS c #B9BBA7",
"BT c #B9BFA7",
"BU c #BAAC94",
"BV c #BAB0A0",
"BW c #BAB297",
"BX c #BAB6A2",
"BY c #BAB6A6",
"BZ c #BAB6A7",
"B[ c #BAB9A9",
"B] c #BABCC7",
"B^ c #BABDA8",
"B_ c #BABDAB",
"B` c #BABDAC",
"Ba c #BABDC3",
"Bb c #BBBCA6",
"Bc c #BBBCA7",
"Bd c #BBBCC1",
"Be c #BBBDA7",
"Bf c #BCAD9E",
"Bg c #BCB39F",
"Bh c #BCB9A5",
"Bi c #BCBBAF",
"Bj c #BCBCA8",
"Bk c #BCBCC8",
"Bl c #BCBDA4",
"Bm c #BCBDA5",
"Bn c #BCBDAD",
"Bo c #BCBDB1",
"Bp c #BCBDB6",
"Bq c #BCBEB1",
"Br c #BCBEBA",
"Bs c #BCC0AE",
"Bt c #BCC0B1",
"Bu c #BDB5B7",
"Bv c #BEB7A2",
"Bw c #BEBBAC",
"Bx c #BEBCA5",
"By c #BEBCC4",
"Bz c #BEBDAC",
"B{ c #BFB8B1",
"B| c #BFBCA7",
"B} c #BFBCA9",
"B~ c #C0BDB1",
"C! c #C1BCB1",
/* pixels */
"*1+o-N,t)H#P'k%{$P#M%!!Q'Q'8'J&H'h&%#3#-%,&H&C(K'-&K(0)E'L'A)R*p'Z(#&#.M.40`1E&I%R&f-B&E$u$?&S*r-D))'z)O(Q*9-Y-c,W173X3p)x+d-}+$",
"/3(m,VByB>?jA2B3A}BGA%@<@Z)N+E&k)7.(&k<m@Q;#>s%Y(/(q3t7n7H'N(z&t&P-.'4:V6|7S*{%g%0A?9XBEB#,%&_*Z.T-&&~BTBtBsB^BcBSB5B=BsAM%o'),s",
"+M+~B<?.?8>5:I4i<5>$>}>dAyB;%E(,).(':H:'6C8=6W8y$5$5#B2]5:5:*W-4+~+!=!=55E'W%^%_4b8Y;:7R6Z76(_(e&s'iBL6K6e<':%==<.@U@9?!<,AA(k+.",
")+B:>/:i9z<I8~4Q<o;+;`B1>x<G0q&u'|504l4K:;7X4y4D;]'6$S%Q2O4p9k)&&A7z8>3%$c#J$H6u9,7[7Q5-576p<R)4(a1B9LAR6N<G?9?y>j>M?SA!>9:SBa./",
"/1?p=~;$=f;o8]6q9x:#?6<]:A,a*3&V%V2T7L794C586F6V9F9m#^%l$z7#8k)p+?9e8a'v$B!d4+3u7x929.954/4o6T*]22-|-S8b@^A3>iAF@S=X>|?:7]<MA$/9",
"%i=b;H<A845b5o8N@2?,;B<H-7-I:C%5%48=2s424%8I8>8-9I7z6l&,(y%~1~$p$Y3D(,'7%4867W4M2t5]5{8S5`6m9Z)924@**_-m<0BWAQ>(??>7?v98:_?L:U$v",
"&|9^;j=t5R4-4[5[>Q>m73,1(V:p:q%O%a>(8M8g9U5k965Q4*9f59?D&h'=$L$1$2'J,~)[;*9C9F5z5$:B9]8!<J;h=`(]+-@5=@+3.,AIBe=m<z:<=:;2<C:P8F&j",
"&e8p:6=99[837y5/?B?V,B&z3o:p9L$C'~<~8N6Y=C8Y;w938Z:q5~Ac89&X%%$Z$*(H,i;1?7:5:l:B8w;6=$<~===D=`,j18@c=h7!*y0=BF>F<%6=<79{=6=P:}(c",
"&!<j:Z>!9a:):D<>>+-8)S*o*4>#<(';'.>b8=5s9y:J:r9$7y:P:sA~)Y&c%X''&B(d-)0|;6808i8e<f>J@I>PB-A4@O0$1eBb=n-C/2+A16BJ>L:(:w?R<+<J=[(7",
"&?8T:g7pA?AvAo@H.e'p#+&:,,7u>N%^$<;49i9#=<:J8;8<:P;W=7?U,5'('/&v&2'I+r+29j=s;T9@<,?<B9?e@,@A?'1G,GBX?H/s,*++,Y1ABOAdBM?xAf@4@-,u",
"($;f9U?BB7A.?~.y(E'5&(&D3Q=u:o%6$%9e8j9F:!:I:E;n:B<r<C<K2P*G*8)-),,X/e5^:j;?;W>1<):D?I=6<K=D>.'X*=@M=t4(*P-H)P()0)A^@k>x>!>t>S(3",
"(U9t;3Ah<T>&.@(9%R$A&V&)$a2:?`$~#I9+9+9'8W;O=O=k@l=l;(4k*N.i/G2(1=-[0Z+:;!>@A)<*<C?E9[8]8l6s<#+J*>?l2;%9*;$$#9+/$G0'@qB}@1?P;D$.",
"#e1SAU>T<Z.~({=LA@>0>8&p%:(w:2'd*]6X?_?^@m?N@B=|>9Bn<u/p0;1g=S2d/x580O3F21BUB?=d>_>G<:9a?J?4?k.5/08*,v){(X:b>oB+A8*[0eB$Bl?>1_$0",
"%#%82c>Y-T&`2?;W>=<4<@@b&b%h&u({+4,m8pAK=v<U=y<p@a>l1X.j14:`*l+D'{*d2.0R1/3Z?Y=F=';2=x<$>f8f.N0#0!(s-F)f@C?]<`<F=12%(v/gBB>V.G*A",
"&U&'+},R(Y2A:.7T6`9P9>>X:k)!)w(e.H1l/`8'3i:m<,==>%(F)`.h3j,3+k))%>)j*^8W3~0P.P5V2C2w5=9?>W1b0S1H.o0:+K6n<8;e9`=?<H=q40*B...n/.-[",
"'_*D)2%K*7+z1:2r0w373=2'.w+O+f(o(Z0.0j1V0U2L3_44,/)k*c280%.Q*k1L*},}+s.V../c-h-i)W-$,N'T-1.x1i05.L.b-+080},K1]0+0[0r/k)J&g*e0605",
"&Z&`#~&T&[&v)p0@,d0W+>/8+j+G+H'^(M-32z2/3!3s3>-k+9)%2>251a1-)$'-([*b*k-%/C,?,`0Q-7/p0N1O/o1(.k1k0b-G/V2*.&,]/D-o0r0>/F/I*)(W*V,;",
"'>!h(<6U5)8M9$;G3[<?9W?uAE.?(m(p,=+D0{/b-;+w*J*f+6Bf<q>c>]*?$n%`&])6&X;6@{Bg@x.a/u-=+B)#*/,y0V/w,]0D0oB6=^:^;l;M=)9_::8c=%,2!w+e",
"$:#7=B5f3W5y7/<*5j5g8d;570<^+&-W.D0]/A//,$2b.v'{BVAxAg@p>D9V%M$q$|%>:h:a>c?[?t9y)}-2'}(2,1,})X*'+3,3?Z>1<;?m;&>4<s9w:W4z9C=5+l#q",
"!?$=7V853T84:r:+:C8S7s5n4p6{9I/&/O,<.J.s*s1'0n+1@t@>Bh;J:A4x>2$I%S@/;-;iBQ?-=}BI*J't%t*s+=*~+C20*0?A@`<H7X6z8l8l<c:#8m;/;=<B%.!}",
"$S/{6{6(3M:);R:K:q:08#6I5?7s7e.|1@,Q.2-E+h/)-R&o81@PB0:!:d8G99%b$[>U;W:-Bv>O>9@!%%%?%@,#)K*M+x/**+=O?{<-8=7y:R:'<q:s9j<,:&=g2m%p",
"!'*Q5e9m2}<I:o>p;O<+7k8t7x:p:L/q1t(B(A&4$g.q,q-f@'=G:c7V6B6o8<&4%u:u;~5kA=BuA:Bx*n$3'C%~&4(A(%,I+*;x<b?g8=91@+<7>A9d;|92@$;<'G!r",
"$]*g6*7:46845c;X8Y7%;O=Q8:8u=70-0x)r(A&1(!+$)a&W:t<<@sB2<o:I:P(@(j8s;,8k>9AkBC:~$I$j)(+]'<**'@-@-%A9<l>|8Y:P:)9)7U6w6E;v<%;;(.%+",
"$>'s&:8$5;8=67<J86:P:%;Y7y8k:r)X*m*/,}(c-a%q32'D%$@_>B8h>7;U=|(Z)'9B7P8S<S@i:M,w(N1N(n'.&w+X)t,U.W@W>#;98#7c6J66;p;Y=J;4<v(!%((+",
"*F,;%:%l7M;'9|8k9u9{8M;6:+7s5h+y,((a/tBRB{?nB/1y)~(b@o?5<=;S=I'>(d8P;X=oAO;>*J)12{<N?+<I<P)(,8+t1s8;@T949[6r6>7>9G<#<A;3&3(!.!)u",
"1R0y$@+V-87d7d7$:(9H<f?h:I3@0A/E'e,|<p=5;bBY=c?,4V*h'=?d:'>7?a'k(F>9:*:A=G&V)C3.:]Ar8v?#A<A1+_*q-#1P72=3:-5m8;667F:]9j.).*&</~/?",
"3,?|*M&x$r*O8i387p8K<:AZ5F/,,')#-OAD>E>^AwA>=w;m<L5U+n&R8H>r>z(&+_<+;A2<&q-J1r?)@@9H<|@F@Y@}B[%u(1(g3#8p6+9)9f6<4B82*z%t/W+`<d,;",
"1&;d89$[#@!J%S3]4A6F;3:>.m-z+t0<0T?(B.B8?o>[8/A`=-<92V+L(@3P={,3,j8)2Z'h1F1%87@z=7=m?[B|A|At>y1f,T-/2e2@4U6&9-5@3'#t!1$I$b:S;{-*",
".g8?7^<y!:#^$-+Y1`(T+91^(t-~/'+z'b3k4^7.7x;77'?/=j8J<e1|*/-'7N-g.S1o)>-(2f:,@,@):oA?5x7J?,=n4.-q1#,a1K,c._+@-^3q*8!g!X!:=(8v7(1D",
"(')Z4N83;U#6$U+I&u+$/]0L+c,:*/)=(e'<2S:H:m:>8k:o</9~;n7y.;-j)%,>,>*O-K/X<EA(:)=;=i<^7:8r=N7v&}/z.X%Q/N.K,M*h,9&|(O!;!)5s7r0X&61[",
"&s'M%=2&1z2|(,+Z*L0G1Z/T-u)s*f)$&;&A(c4e4>6,9K7c>c8r393r4Z,4.z-%-t+]-:8N78;/<p8s695-2[235&,j,&+n%&$;)[2G2a.,-!)<(f'>3U3g2=$,&G)d",
"$V'H%J!n!t#N!@%5+F->/4,3%s%;&}#u$~&[#h)V/5,5031p1{-9/K1!1.-Q.f-Z,c.F,)1?0(110t0E1<)D'[*((C)I(G%5#[%y$)$.$}%G#V$s#k!m#y%`%j(^)y'd",
"']&y#S#:#'!>#j#t*C.[-n*S&+#o%7$h#^%a'a/H'&1Y2D153)-80u10-,-P.9-e.6,5.%.{1$1I0H/Y1W/Z,l*-*S,b'J'Z#]!y!N%T$6#a#L$M$Y$.!t&,$r(~&N*/",
"&-%w#$8_8]1)#X#0$k)t*/+=)^$g$Z$c$C(R$W;2:Y<]>6<D@)@U?wBZ75,I-l,^,x,f-3;.?;>`A-=i?M>J<_;^<N+))q%u$)#-!F0^/>,o+%(H%}$/268$7+'c%1)*",
"#8#E4q7@4b$3%_!z&>$J,7-Y+^'r'Z09(:%I7I7L7j=a;E:p>I<p<6:@,C*d,L-L-Q*m,4)o4{=`<{;5<,:D=-;t:):s)?*M&9%c)r-:-`.])>)p'2'j&F7?6.:T'0(6",
"#c9s6)5i%R$S$R)BAp$w=#+((d&w*@.7*`>F;@<H55:I?r=T<k@L:Q,I.81JBi,[-QB'0~,-)?7m<^:);/;p;Y:q<+8`:1(H)+.')8-_02<f-XAL0z)H)D&x5}=V>w)m",
"%n8:7X)K&4%'*U>};X8Q6d?+)A%;*R.A,d@6:79;;%AE7=@%@y5l-'.$0H7=A*1n1h:==.2n(A&{5Y>29*84:C8P8v8l7q%W'?0g*a.Z=4=6;c@w;u-x'K)$(-9O<X)L",
"$O62$f$c$c)h8[:*8D854|<~@S&X+v/&,HAbBPB@:X=E74AC6D)r.p0h9$=D?=/K.E9e@?@(47+U(B;8;[5H9:>I:C:I9()=%[1C.`<x:z8B;v<w=H9*+u&W#1'K7h)I",
"&x&Q&u#j-65K7a717Y3&2v@K>K:p(-*i2+1xA5AN@.<e?r5p,~+|/583;E:J?O,!);;Q>H;3A/3+&2)>6:=M?q:p:]9h1}%U&i/@@]BH965l8z5r8;9Y9H.+$X)U)l*6",
"'x%F%3.B8X5K8n3C4$2g8p5D8:6}>d%U'-,Z/J6q568@3b*L(0/;;V9G;4:p>b+z+c=O:IA;:e>]0v(i+7?&5X3R4m0?)X(4#{>n>)?s=07!8;6/5T:I9n5m,n(=)F(P",
"$*$F5,4g9v8q8#533D4h6?5S5_9N=Z0*)7(;'S#i)g%Z&p'`0,8;>x<t7z:%<H&^&}938u;r@3=_:o-Q)b&Y(S*H#>':+Q%e$^:N8V9l6@6/4u4G605O6O3d4I8($t%c",
"!T8.695s7,4~5t4+3L4@6=9S8k90>Z0f/l*|.d.O(i(l'o19:J:G91657q;V>'*F'<9);s8+8R>u9i;q/S$9/d)@&@&g)J#b!N3i6M7|6g6,7K9P454S3J6g8;7*8L!Z",
"!M)^8N8=4,5A6L8;3k4@4W8~4E8!8x3$29--(J(r(C!S!D+p658m9<7W7W4_9L$g$M6w;C@#;R:rB&>'+{!^!V&X%`%O)o#}#L8C3{6D6b4n8:9[9$514A9o:.:S+;%*",
"!20l;48;9j9E>8;+;23I4F:p4S8D:u353E,='f)=$!$}+N/i8;;t8n7@;P7^:8&b#n3e5G6t<V;X5s:P-?!u$z#Z$z#r+g$7!i<n6H5/4&9D<!;)7D5+5Z=36$<}1w$i",
"$d/f6m8O90948]8a7x633m7~;5=>6/3<6k1,,z.t#z$h.:)Y7v9@<v8o9k;/2~#j#R/^6G9ABm@8<O7z%m(A%&(5(u'B,h&L!~3G:47-4F7O<i9}8U6A8;=4:[6`54&*",
"%z!70c5$:J<2<3<[:Q9Q5B6(5>2M2K0k0Y*#)M(6#`#r#W$c$Z:*9*7W9c3w%?'q#i!l2p@&AY@n?.#C%<%s#w'1)3*w'!($&$+a3O9y394P9J@h8t9m9/7Z5O-y)|%|",
"#A!=!=0M5C8#97:F2k2h1N2H04%L0a-p#K*?&l07#,#x)p!s$b$#4a2q1u#C#[#?!R$8&W77:{8}&w#+#n-w$7'$.:(>'9$|'*0m'R2N/n0B2i6S2)1*1T.j/|!6+0#6",
"!4$(#7#n*N*l.Y/<*T$z!;#0!$'F+!$+&0&!2-1+.},0+!.{#I%t%:$z$z%D$~&b#A$y)=)r,e(c#n$W+('w%R*Y&m'u&/%:$f-A+5*v!H!f$X$Q%&#3$D$r$_!/!q$T",
"!]#T&M#m(}+!/;.1%$%X!%![#(''&5$[#s2I2J2U/S-=$N-v/M#4(*!g(N%x!d%a)01c/S-r%/!Y#].f-{,J(-+C#U%:)]&d*K,6.c13%r#O#F#G$b$)$Q&2#*'y#_&&",
"$j$o)51>%r.j2$9L9M8|>R=]1v$K'U%k$S.r&|6%8^;/7t:w8%/a!K!|#5(B&]%_$E%P,k!|#q!$.0;2:Q9Q?D==?G)e,F/L+'+G(?=&A7>k?i>??X7f2`'C0i*,*u'O",
",r+,Am>:/!%N1M338u522l3^#Y&3%a%E%H*5;;8{;X6;7e8`7g4i-5!W!L#4%-#1$S&b!A!(!5'<3x6j;<:y9p9g7u:P*I.>0>)G+m,O886P9T=r614!*%/mB!Br/U.#",
"'VB~Aa>~=!.-%~/_'Z&Z'Y%u'.)T<,%?%`6f7w6+4|2~4+5q4f5p3B$b!3!,!#!O!G!S!-!c*25A2^4X7;4t4c6v314)<W.u+P>'+U(a%s)m(`)p2j'C,7?3?fA'Bk0C",
",@@jBj?T>i=U-U'h'<$r%]'f%V?F@g'E$S8;6x8!3|5P5M8!9q7d4#6i&4!.#t#&!j%>!+&4:|8&3;8::*;R;06^6!7o<Y/R0*@RA0+R($&A-h*k(m-<>K<aBN;yA_/y",
",AA[@0@:?z<2:&.U!!#)%v(|&;;z>h$&#u5l8D8#3h5u4e4d9R7A6;5%%l#|#n$[$D$f!0!_342u8q8!7=7<6y5I7`8V8N,.2!A,<;+#*|&8)n,{-Y;[9F?}<g=WBd1(",
"0d@rA+>:>hAGAV>~.j!*%5&v7~?W>9'i$z7W;^=,8A3Y6a4'5q493y4|27'%#t%m%n!v!v013l2y3A4:5<5~6.5*:B:(7l/j/;@f@D3f$x*.*X/+@=B`Ae?%:O@XAq3(",
"2o@S@|=l?*@=AnAuAz.j!*)H)T=P=6$[$/:q<Q=29!4R4j5$6'6h4F:/2R#X%7$[$m%R$}2B2x5#4r3^3z89>C8<:R:o9b3H3?>9<v&u%}+80I@vB*@[AX>L=A@GBa7C",
"5(As>!9d4]4O7_<w@e@V/4$H&r:P=6#^$%>7<1<1:w8<91303a4=4H41-]$q'v#l%E${!a)n/r3K2_2E2#7#8h5a?2>{=+-V/#?08;*E120KBoB,?b>g>~>-A#BpB]3v",
"/hBz?K>h=65]8Y:uB_A&<|-s#E+[>>#%#k9o:B9c5N7&2^5!3V481;,:%d#n&a!P$R%%!G#H)&.^2W3/4g3:;%6]:v<&;Z,/,59m)W-d.eBDBq?C<w><@uAJ@;@d@J0_",
"&==*606y8=5!=O9d=S>*6]:q**$e,m#S!`6Q5v5d3'3S4T3n4s.I-:!u#d$b4Y#,'&=8!P!1!E-r0/9i8{5+;+5.8{;I:f+W.+,S0s0JB(A8B):t=R?0@7AS>eAH=K.3",
"/7=/5>7v4}4D;;:H<qAW8:823c-<(h#.!d6~6R5J436c7E6-/-/:!I!A#3;N4v%&%?;t:$!*!&!G0W1j;W83:A7p6E9%:?*g'}3-/;B%BK@EAB:p?@BA@~BwAT?c<h-b",
")k2Q8,6_:n=k;5@U6[:o7|7~7}=Y%|#'!81Q:Q<><c<M8Z00)%#=!N#F;a9k/=#/$-6g59@N!U#k$`*&/P:!9k7B5'4L3`!x)9*j;XA{B4>;>L>~?eAiAjA]?1;65|)H",
"'g*a4w9=;K?Q>P?$:95&5W>37a4`#D#Q%f$'1Z5M5L67/}(,!{!k!9687{/[###!#<&.2F9r;L$4#s#f(x/j6`3*4J36'P(8'n+T=zC!A6APAl?T>v>q>,=p>a7i)v&O",
"#[/B-01q5w4~4;6#1U1X0p1m2,&7%2!b!e$l#v%A/%!o*N%Q$a7b2Y4?3}',(L'#((#q%C4<7G7);_%B#p+A!B.R&n'm*<*!'Q+</Q;g;}9&8E:3;F;k=e64:x+q*:(I",
"*$.C,D,_(D.</v/'*4#;#2$T,P)z'+#`#g)Q&J$~!C!p!p$=0&+b):&<)/'l(_,3)c%>&=.l/q1d3N2X$*#&!<#x*x,+%)&;*t)_'3,g+S,p-M/6+i/(0F.=)i,E/$'+"
};
