/* XPM */
static char *glass_09[] = {
/* columns rows colors chars-per-pixel */
"64 64 3354 2",
/* colors */
"!! c #2C5535",
"!# c #345033",
"!$ c #354C33",
"!% c #394E3F",
"!& c #3A4932",
"!' c #3D492C",
"!( c #3E5A4F",
"!) c #3F443D",
"!* c #3F4538",
"!+ c #3F5434",
"!, c #404438",
"!- c #40462F",
"!. c #404B2F",
"!/ c #404C34",
"!0 c #404E32",
"!1 c #405437",
"!2 c #405935",
"!3 c #405B35",
"!4 c #435039",
"!5 c #43563D",
"!6 c #43592F",
"!7 c #435C45",
"!8 c #436244",
"!9 c #444627",
"!: c #445133",
"!; c #445943",
"!< c #445A40",
"!= c #445B40",
"!> c #445C3F",
"!? c #454F38",
"!@ c #455132",
"!A c #464A2E",
"!B c #465032",
"!C c #465442",
"!D c #465A40",
"!E c #495944",
"!F c #495A3F",
"!G c #495B39",
"!H c #495F4B",
"!I c #4A4923",
"!J c #4A4E39",
"!K c #4A5439",
"!L c #4A5639",
"!M c #4A5744",
"!N c #4A5A40",
"!O c #4A5B44",
"!P c #4B543D",
"!Q c #4B5637",
"!R c #4B563F",
"!S c #4B5640",
"!T c #4B5745",
"!U c #4B5C3F",
"!V c #4B5C4A",
"!W c #4B664E",
"!X c #4C5045",
"!Y c #4C504A",
"!Z c #4C5442",
"![ c #4C552F",
"!] c #4C564A",
"!^ c #4C5F49",
"!_ c #4C5F4A",
"!` c #4C603D",
"!a c #4C674B",
"!b c #4C693D",
"!c c #4E4F45",
"!d c #4E5042",
"!e c #4E544E",
"!f c #4E5946",
"!g c #4E5A43",
"!h c #4E5B4A",
"!i c #4E5C42",
"!j c #4E5C45",
"!k c #4E5C46",
"!l c #4E5F43",
"!m c #4E6042",
"!n c #4E6043",
"!o c #4E6143",
"!p c #4E6243",
"!q c #4E6535",
"!r c #4E654B",
"!s c #4E7759",
"!t c #4F5640",
"!u c #4F5946",
"!v c #4F5B4A",
"!w c #4F5B4E",
"!x c #4F5C38",
"!y c #4F5C43",
"!z c #4F6044",
"!{ c #4F6544",
"!| c #4F6557",
"!} c #4F664C",
"!~ c #505431",
"#! c #50544F",
"## c #505638",
"#$ c #505642",
"#% c #505A45",
"#& c #505A4A",
"#' c #505B46",
"#( c #505B4A",
"#) c #505C3D",
"#* c #505F51",
"#+ c #50614A",
"#, c #506244",
"#- c #50674E",
"#. c #506D50",
"#/ c #51594F",
"#0 c #515A3F",
"#1 c #515A43",
"#2 c #515A49",
"#3 c #515A4A",
"#4 c #515B4B",
"#5 c #515F3D",
"#6 c #516138",
"#7 c #516149",
"#8 c #516243",
"#9 c #51624B",
"#: c #51654C",
"#; c #516555",
"#< c #51664E",
"#= c #516D4F",
"#> c #51774F",
"#? c #545A3F",
"#@ c #545A46",
"#A c #545B43",
"#B c #545C37",
"#C c #545F44",
"#D c #54604A",
"#E c #546145",
"#F c #54644E",
"#G c #54664B",
"#H c #54674F",
"#I c #546945",
"#J c #546C4F",
"#K c #555937",
"#L c #555944",
"#M c #555A45",
"#N c #555A46",
"#O c #555B3A",
"#P c #555C50",
"#Q c #555F4A",
"#R c #55604C",
"#S c #556056",
"#T c #556245",
"#U c #55624B",
"#V c #55654A",
"#W c #556550",
"#X c #556645",
"#Y c #556951",
"#Z c #557D5C",
"#[ c #565C49",
"#] c #566042",
"#^ c #56614C",
"#_ c #566243",
"#` c #566246",
"#a c #56624F",
"#b c #566451",
"#c c #56654E",
"#d c #56654F",
"#e c #56664F",
"#f c #566654",
"#g c #566954",
"#h c #566B3D",
"#i c #566B50",
"#j c #566E50",
"#k c #566E56",
"#l c #566E59",
"#m c #56745F",
"#n c #575144",
"#o c #575A3E",
"#p c #575B44",
"#q c #575C4F",
"#r c #575F43",
"#s c #576046",
"#t c #576143",
"#u c #576243",
"#v c #576245",
"#w c #576255",
"#x c #576449",
"#y c #57644A",
"#z c #576450",
"#{ c #57654C",
"#| c #576551",
"#} c #57664E",
"#~ c #576754",
"$! c #576756",
"$# c #576951",
"$$ c #576C40",
"$% c #576C4C",
"$& c #576C4F",
"$' c #576D4E",
"$( c #576D51",
"$) c #577251",
"$* c #577449",
"$+ c #57744A",
"$, c #595937",
"$- c #595943",
"$. c #595A50",
"$/ c #595B46",
"$0 c #596255",
"$1 c #596556",
"$2 c #59664F",
"$3 c #596756",
"$4 c #596757",
"$5 c #596950",
"$6 c #596B44",
"$7 c #596B51",
"$8 c #596C45",
"$9 c #596C4E",
"$: c #596C4F",
"$; c #596D4A",
"$< c #596D4E",
"$= c #596D55",
"$> c #597054",
"$? c #597755",
"$@ c #597B4F",
"$A c #5A5A55",
"$B c #5A5F4E",
"$C c #5A624F",
"$D c #5A6255",
"$E c #5A6440",
"$F c #5A644E",
"$G c #5A6450",
"$H c #5A6551",
"$I c #5A664C",
"$J c #5A6655",
"$K c #5A6656",
"$L c #5A6750",
"$M c #5A6755",
"$N c #5A6956",
"$O c #5A6B4C",
"$P c #5A6B4F",
"$Q c #5A6B50",
"$R c #5A6B51",
"$S c #5A6E51",
"$T c #5A7055",
"$U c #5A7059",
"$V c #5A705A",
"$W c #5A7156",
"$X c #5A7159",
"$Y c #5A7662",
"$Z c #5A774C",
"$[ c #5B6050",
"$] c #5B624A",
"$^ c #5B6256",
"$_ c #5B6655",
"$` c #5B674F",
"$a c #5B6755",
"$b c #5B6759",
"$c c #5B694F",
"$d c #5B6950",
"$e c #5B6951",
"$f c #5B6955",
"$g c #5B6B49",
"$h c #5B6B4E",
"$i c #5B6C4A",
"$j c #5B6D51",
"$k c #5B6D57",
"$l c #5B6D5C",
"$m c #5B6E59",
"$n c #5B7054",
"$o c #5B714B",
"$p c #5B7150",
"$q c #5B725C",
"$r c #5B765B",
"$s c #5B7D55",
"$t c #5C604F",
"$u c #5C6246",
"$v c #5C645B",
"$w c #5C654C",
"$x c #5C6551",
"$y c #5C6556",
"$z c #5C6557",
"${ c #5C6655",
"$| c #5C6657",
"$} c #5C674E",
"$~ c #5C6750",
"%! c #5C694C",
"%# c #5C6959",
"%$ c #5C6B46",
"%% c #5C6B50",
"%& c #5C6C51",
"%' c #5C6C64",
"%( c #5C6D4C",
"%) c #5C6D51",
"%* c #5C6E5A",
"%+ c #5C6E5B",
"%, c #5C7057",
"%- c #5C714E",
"%. c #5C7151",
"%/ c #5C7156",
"%0 c #5C7257",
"%1 c #5C7455",
"%2 c #5C7654",
"%3 c #5C7661",
"%4 c #5F6456",
"%5 c #5F645B",
"%6 c #5F6559",
"%7 c #5F655C",
"%8 c #5F6656",
"%9 c #5F674E",
"%: c #5F6942",
"%; c #5F6949",
"%< c #5F694C",
"%= c #5F6954",
"%> c #5F6956",
"%? c #5F6B54",
"%@ c #5F6D4A",
"%A c #5F6D56",
"%B c #5F6D5A",
"%C c #5F6D5B",
"%D c #5F6E51",
"%E c #5F6E55",
"%F c #5F6E56",
"%G c #5F7160",
"%H c #5F7457",
"%I c #5F745C",
"%J c #5F7461",
"%K c #605A51",
"%L c #606150",
"%M c #606251",
"%N c #606454",
"%O c #606456",
"%P c #606457",
"%Q c #60645B",
"%R c #606556",
"%S c #60655C",
"%T c #606656",
"%U c #606756",
"%V c #606955",
"%W c #606B45",
"%X c #606B56",
"%Y c #606B5A",
"%Z c #606C43",
"%[ c #606C59",
"%] c #606C5B",
"%^ c #606C5F",
"%_ c #606D51",
"%` c #606D56",
"%a c #606D5B",
"%b c #606D5C",
"%c c #606E62",
"%d c #60704B",
"%e c #60704F",
"%f c #607059",
"%g c #60705A",
"%h c #60705C",
"%i c #607155",
"%j c #60725F",
"%k c #60735A",
"%l c #60744E",
"%m c #607455",
"%n c #607650",
"%o c #607660",
"%p c #607960",
"%q c #607B6B",
"%r c #607C5F",
"%s c #61644E",
"%t c #616551",
"%u c #61655F",
"%v c #616654",
"%w c #616656",
"%x c #61665A",
"%y c #616755",
"%z c #616946",
"%{ c #616B56",
"%| c #616B59",
"%} c #616B5F",
"%~ c #616C3D",
"&! c #616C54",
"&# c #616C59",
"&$ c #616C5A",
"&% c #616C5B",
"&& c #616C5F",
"&' c #616D55",
"&( c #616D56",
"&) c #616D5A",
"&* c #616D5B",
"&+ c #616D5F",
"&, c #616E44",
"&- c #616E54",
"&. c #616E59",
"&/ c #617059",
"&0 c #61705B",
"&1 c #61705C",
"&2 c #617151",
"&3 c #617156",
"&4 c #617159",
"&5 c #61715C",
"&6 c #617162",
"&7 c #617260",
"&8 c #61745B",
"&9 c #617654",
"&: c #617756",
"&; c #61775F",
"&< c #617761",
"&= c #626156",
"&> c #62674F",
"&? c #626757",
"&@ c #626759",
"&A c #626B56",
"&B c #626B57",
"&C c #626B5B",
"&D c #626C54",
"&E c #626C55",
"&F c #626C56",
"&G c #626C57",
"&H c #626C59",
"&I c #626D56",
"&J c #626E5A",
"&K c #626E5B",
"&L c #62704F",
"&M c #627056",
"&N c #62705A",
"&O c #62705C",
"&P c #62714C",
"&Q c #627150",
"&R c #627159",
"&S c #627166",
"&T c #627264",
"&U c #62745B",
"&V c #627761",
"&W c #627762",
"&X c #62796C",
"&Y c #627B57",
"&Z c #627B60",
"&[ c #646655",
"&] c #646764",
"&^ c #646955",
"&_ c #64695B",
"&` c #646962",
"&a c #646B4C",
"&b c #646B4F",
"&c c #646B59",
"&d c #646B5C",
"&e c #646C4F",
"&f c #646C55",
"&g c #646C56",
"&h c #646C5A",
"&i c #646C5B",
"&j c #646D4B",
"&k c #646D4E",
"&l c #646D5B",
"&m c #646D60",
"&n c #646D64",
"&o c #646E56",
"&p c #646E5B",
"&q c #646E5C",
"&r c #646E60",
"&s c #646E67",
"&t c #647050",
"&u c #647057",
"&v c #64705B",
"&w c #647061",
"&x c #647062",
"&y c #647156",
"&z c #647157",
"&{ c #64715C",
"&| c #64715F",
"&} c #647254",
"&~ c #64725A",
"'! c #647455",
"'# c #647457",
"'$ c #647460",
"'% c #647461",
"'& c #647464",
"'' c #64775F",
"'( c #64785B",
"') c #64785F",
"'* c #647861",
"'+ c #64786B",
"', c #64794F",
"'- c #647957",
"'. c #64795F",
"'/ c #647F5A",
"'0 c #647F5F",
"'1 c #647F66",
"'2 c #648166",
"'3 c #648360",
"'4 c #648366",
"'5 c #64886C",
"'6 c #656155",
"'7 c #65664E",
"'8 c #656750",
"'9 c #656B55",
"': c #656B5B",
"'; c #656C57",
"'< c #656C5A",
"'= c #656D57",
"'> c #656D5A",
"'? c #656D61",
"'@ c #656D64",
"'A c #656E57",
"'B c #656E5C",
"'C c #656E5F",
"'D c #657055",
"'E c #657056",
"'F c #657057",
"'G c #65705B",
"'H c #657061",
"'I c #657154",
"'J c #657156",
"'K c #657159",
"'L c #65715B",
"'M c #657165",
"'N c #65724A",
"'O c #657265",
"'P c #657460",
"'Q c #657654",
"'R c #657659",
"'S c #65765F",
"'T c #657661",
"'U c #657664",
"'V c #65775B",
"'W c #65775C",
"'X c #657761",
"'Y c #657765",
"'Z c #657766",
"'[ c #65785B",
"'] c #65785F",
"'^ c #657860",
"'_ c #657959",
"'` c #65795F",
"'a c #657C62",
"'b c #657C65",
"'c c #657D61",
"'d c #65816C",
"'e c #65835B",
"'f c #66694C",
"'g c #66695A",
"'h c #66695C",
"'i c #666961",
"'j c #666B54",
"'k c #666C5C",
"'l c #666D45",
"'m c #666D59",
"'n c #666D5C",
"'o c #666D5F",
"'p c #666D64",
"'q c #666E59",
"'r c #666E60",
"'s c #666E61",
"'t c #666E64",
"'u c #667056",
"'v c #667059",
"'w c #667060",
"'x c #667061",
"'y c #667156",
"'z c #66715A",
"'{ c #66715F",
"'| c #667160",
"'} c #667246",
"'~ c #667249",
"(! c #667261",
"(# c #667451",
"($ c #667457",
"(% c #667460",
"(& c #667465",
"(' c #667654",
"(( c #66765A",
"() c #66765C",
"(* c #667666",
"(+ c #66775B",
"(, c #66775F",
"(- c #667760",
"(. c #667762",
"(/ c #667767",
"(0 c #66785A",
"(1 c #66785B",
"(2 c #66785F",
"(3 c #667860",
"(4 c #667864",
"(5 c #667965",
"(6 c #667B61",
"(7 c #667C60",
"(8 c #667C62",
"(9 c #667D65",
"(: c #667F61",
"(; c #668161",
"(< c #668164",
"(= c #668260",
"(> c #668872",
"(? c #668A65",
"(@ c #676650",
"(A c #676957",
"(B c #676B4E",
"(C c #676B55",
"(D c #676B66",
"(E c #676C65",
"(F c #676D5F",
"(G c #676E50",
"(H c #676E5C",
"(I c #676E5F",
"(J c #676E60",
"(K c #676E62",
"(L c #677051",
"(M c #677059",
"(N c #67705B",
"(O c #67705C",
"(P c #677060",
"(Q c #677065",
"(R c #67715A",
"(S c #67715B",
"(T c #67715F",
"(U c #677256",
"(V c #677257",
"(W c #677265",
"(X c #677267",
"(Y c #677449",
"(Z c #677461",
"([ c #677462",
"(] c #677464",
"(^ c #677471",
"(_ c #677661",
"(` c #677665",
"(a c #67775B",
"(b c #677764",
"(c c #67776B",
"(d c #67785B",
"(e c #67785C",
"(f c #677867",
"(g c #67795B",
"(h c #677966",
"(i c #677B59",
"(j c #677B62",
"(k c #677B67",
"(l c #677C62",
"(m c #677C64",
"(n c #677D57",
"(o c #677D64",
"(p c #677D6E",
"(q c #677F62",
"(r c #677F6E",
"(s c #678165",
"(t c #678262",
"(u c #678269",
"(v c #67886E",
"(w c #696B5C",
"(x c #696D5C",
"(y c #696D60",
"(z c #696E61",
"({ c #696E62",
"(| c #697055",
"(} c #697059",
"(~ c #69705B",
")! c #69705F",
")# c #69715A",
")$ c #697160",
")% c #697162",
")& c #697164",
")' c #697169",
")( c #697259",
")) c #69725C",
")* c #697260",
")+ c #697262",
"), c #697466",
")- c #697467",
"). c #697471",
")/ c #697656",
")0 c #69765A",
")1 c #697760",
")2 c #697761",
")3 c #697765",
")4 c #697766",
")5 c #697770",
")6 c #697957",
")7 c #69795F",
")8 c #697964",
")9 c #697B61",
"): c #697B65",
"); c #697B67",
")< c #697B6C",
")= c #697D50",
")> c #697D62",
")? c #697D64",
")@ c #697D69",
")A c #697F56",
")B c #697F5A",
")C c #697F5F",
")D c #698162",
")E c #698165",
")F c #69816D",
")G c #698251",
")H c #698464",
")I c #698A6B",
")J c #6B615C",
")K c #6B6745",
")L c #6B695F",
")M c #6B6B55",
")N c #6B6C4A",
")O c #6B6C51",
")P c #6B6D59",
")Q c #6B6E5B",
")R c #6B6E64",
")S c #6B7060",
")T c #6B7061",
")U c #6B7062",
")V c #6B7257",
")W c #6B7262",
")X c #6B7265",
")Y c #6B735A",
")Z c #6B7457",
")[ c #6B7466",
")] c #6B765A",
")^ c #6B7660",
")_ c #6B7661",
")` c #6B7662",
")a c #6B7664",
")b c #6B7667",
")c c #6B7669",
")d c #6B766C",
")e c #6B7755",
")f c #6B7759",
")g c #6B7760",
")h c #6B7761",
")i c #6B785B",
")j c #6B7865",
")k c #6B795C",
")l c #6B7960",
")m c #6B7961",
")n c #6B7965",
")o c #6B7969",
")p c #6B7B5A",
")q c #6B7B5B",
")r c #6B7B5C",
")s c #6B7B64",
")t c #6B7B69",
")u c #6B7B72",
")v c #6B7C4B",
")w c #6B7C5C",
")x c #6B7C5F",
")y c #6B7C61",
")z c #6B7C64",
"){ c #6B7C67",
")| c #6B7C6B",
")} c #6B7D5C",
")~ c #6B7D60",
"*! c #6B7D69",
"*# c #6B7F62",
"*$ c #6B7F65",
"*% c #6B7F66",
"*& c #6B815F",
"*' c #6B8162",
"*( c #6B8265",
"*) c #6B836D",
"** c #6B846B",
"*+ c #6B8670",
"*, c #6B876B",
"*- c #6B8B67",
"*. c #6C695A",
"*/ c #6C6B5B",
"*0 c #6C6C61",
"*1 c #6C6D5B",
"*2 c #6C7064",
"*3 c #6C7069",
"*4 c #6C7156",
"*5 c #6C715F",
"*6 c #6C7161",
"*7 c #6C7164",
"*8 c #6C7167",
"*9 c #6C7170",
"*: c #6C7256",
"*; c #6C7257",
"*< c #6C7260",
"*= c #6C7265",
"*> c #6C735A",
"*? c #6C7460",
"*@ c #6C7461",
"*A c #6C7462",
"*B c #6C765B",
"*C c #6C7666",
"*D c #6C7761",
"*E c #6C7762",
"*F c #6C7764",
"*G c #6C7864",
"*H c #6C7865",
"*I c #6C7866",
"*J c #6C795B",
"*K c #6C7965",
"*L c #6C7B5B",
"*M c #6C7B6D",
"*N c #6C7C61",
"*O c #6C7C66",
"*P c #6C7C67",
"*Q c #6C7C69",
"*R c #6C7D60",
"*S c #6C7D62",
"*T c #6C7D64",
"*U c #6C7D66",
"*V c #6C7D6B",
"*W c #6C7F61",
"*X c #6C815A",
"*Y c #6C815B",
"*Z c #6C8165",
"*[ c #6C8262",
"*] c #6C8265",
"*^ c #6C8470",
"*_ c #6C866D",
"*` c #6C8862",
"*a c #6C8A79",
"*b c #6C8B66",
"*c c #6C8B6D",
"*d c #6C8D61",
"*e c #6D6C55",
"*f c #6D6C62",
"*g c #6D725B",
"*h c #6D725C",
"*i c #6D725F",
"*j c #6D7262",
"*k c #6D7264",
"*l c #6D7459",
"*m c #6D745B",
"*n c #6D765B",
"*o c #6D7661",
"*p c #6D7662",
"*q c #6D7665",
"*r c #6D776C",
"*s c #6D7861",
"*t c #6D7864",
"*u c #6D786B",
"*v c #6D7961",
"*w c #6D7962",
"*x c #6D7966",
"*y c #6D796C",
"*z c #6D7970",
"*{ c #6D7B67",
"*| c #6D7B69",
"*} c #6D7B6C",
"*~ c #6D7C6B",
"+! c #6D7C6D",
"+# c #6D7D60",
"+$ c #6D7D62",
"+% c #6D7D64",
"+& c #6D7D65",
"+' c #6D7D67",
"+( c #6D7D6D",
"+) c #6D7F62",
"+* c #6D7F67",
"++ c #6D7F69",
"+, c #6D815F",
"+- c #6D8167",
"+. c #6D8169",
"+/ c #6D816B",
"+0 c #6D816D",
"+1 c #6D816E",
"+2 c #6D825F",
"+3 c #6D8362",
"+4 c #6D846B",
"+5 c #6D846C",
"+6 c #6D8667",
"+7 c #6D866D",
"+8 c #6D876B",
"+9 c #6E6E4E",
"+: c #6E7166",
"+; c #6E7267",
"+< c #6E7269",
"+= c #6E726C",
"+> c #6E745F",
"+? c #6E7460",
"+@ c #6E7465",
"+A c #6E766C",
"+B c #6E7760",
"+C c #6E7761",
"+D c #6E7769",
"+E c #6E7864",
"+F c #6E7865",
"+G c #6E786B",
"+H c #6E786C",
"+I c #6E786E",
"+J c #6E7961",
"+K c #6E7962",
"+L c #6E7965",
"+M c #6E7966",
"+N c #6E7967",
"+O c #6E796C",
"+P c #6E796D",
"+Q c #6E796E",
"+R c #6E7B54",
"+S c #6E7B5C",
"+T c #6E7B61",
"+U c #6E7B65",
"+V c #6E7B69",
"+W c #6E7B6D",
"+X c #6E7C5C",
"+Y c #6E7C61",
"+Z c #6E7C69",
"+[ c #6E7C70",
"+] c #6E7D61",
"+^ c #6E7D64",
"+_ c #6E7D69",
"+` c #6E7D6C",
"+a c #6E7D6D",
"+b c #6E7D6E",
"+c c #6E7F65",
"+d c #6E7F6C",
"+e c #6E7F6D",
"+f c #6E8160",
"+g c #6E8162",
"+h c #6E816C",
"+i c #6E8260",
"+j c #6E8266",
"+k c #6E8267",
"+l c #6E8271",
"+m c #6E8362",
"+n c #6E8465",
"+o c #6E8467",
"+p c #6E8469",
"+q c #6E846C",
"+r c #6E8665",
"+s c #6E8669",
"+t c #6E876E",
"+u c #6E8869",
"+v c #6E8A66",
"+w c #6E8B6D",
"+x c #6E8E6D",
"+y c #6E8F6C",
"+z c #6E907A",
"+{ c #707066",
"+| c #707269",
"+} c #707466",
"+~ c #70746B",
",! c #70765F",
",# c #707665",
",$ c #707762",
",% c #707765",
",& c #70785A",
",' c #707861",
",( c #707862",
",) c #707864",
",* c #707866",
",+ c #707867",
",, c #707872",
",- c #70795F",
",. c #70796B",
",/ c #70796D",
",0 c #707B5C",
",1 c #707B64",
",2 c #707B67",
",3 c #707B69",
",4 c #707B70",
",5 c #707C57",
",6 c #707C5C",
",7 c #707C5F",
",8 c #707C61",
",9 c #707C64",
",: c #707C65",
",; c #707C66",
",< c #707C67",
",= c #707C69",
",> c #707C6C",
",? c #707C6D",
",@ c #707D56",
",A c #707D62",
",B c #707D67",
",C c #707D69",
",D c #707D6B",
",E c #707D6D",
",F c #707F62",
",G c #707F65",
",H c #707F67",
",I c #707F70",
",J c #70815C",
",K c #708160",
",L c #70816B",
",M c #70816C",
",N c #708266",
",O c #708267",
",P c #70826C",
",Q c #708272",
",R c #708367",
",S c #70836B",
",T c #708377",
",U c #708464",
",V c #708467",
",W c #708469",
",X c #70846B",
",Y c #70846E",
",Z c #708665",
",[ c #70876B",
",] c #70876E",
",^ c #708A66",
",_ c #708A67",
",` c #708B6C",
",a c #708B77",
",b c #716B5B",
",c c #716C5A",
",d c #717154",
",e c #71745C",
",f c #71766B",
",g c #71766E",
",h c #717764",
",i c #717767",
",j c #71776B",
",k c #71776E",
",l c #71785A",
",m c #717864",
",n c #717865",
",o c #717866",
",p c #717869",
",q c #717960",
",r c #71796B",
",s c #71796D",
",t c #717972",
",u c #717B57",
",v c #717B5C",
",w c #717B65",
",x c #717B69",
",y c #717B6D",
",z c #717C61",
",{ c #717C64",
",| c #717C67",
",} c #717C6B",
",~ c #717C6E",
"-! c #717C70",
"-# c #717C72",
"-$ c #717D5B",
"-% c #717D61",
"-& c #717D64",
"-' c #717D65",
"-( c #717D6B",
"-) c #717D71",
"-* c #717F5B",
"-+ c #717F5C",
"-, c #717F62",
"-- c #717F65",
"-. c #717F66",
"-/ c #717F67",
"-0 c #71815F",
"-1 c #718160",
"-2 c #718169",
"-3 c #71816D",
"-4 c #718171",
"-5 c #718262",
"-6 c #718264",
"-7 c #71826B",
"-8 c #71826D",
"-9 c #71826E",
"-: c #718365",
"-; c #718366",
"-< c #718369",
"-= c #71836C",
"-> c #71836E",
"-? c #718660",
"-@ c #718665",
"-A c #718667",
"-B c #718669",
"-C c #718670",
"-D c #718671",
"-E c #71876E",
"-F c #718869",
"-G c #718872",
"-H c #718A65",
"-I c #718A6E",
"-J c #718B6C",
"-K c #718D69",
"-L c #718D71",
"-M c #718F7A",
"-N c #727666",
"-O c #727669",
"-P c #727861",
"-Q c #727864",
"-R c #72786D",
"-S c #72795F",
"-T c #727962",
"-U c #727966",
"-V c #727969",
"-W c #72796B",
"-X c #72796D",
"-Y c #727B55",
"-Z c #727B66",
"-[ c #727B6C",
"-] c #727B70",
"-^ c #727C69",
"-_ c #727C71",
"-` c #727C75",
"-a c #727D62",
"-b c #727D64",
"-c c #727D66",
"-d c #727D69",
"-e c #727D6E",
"-f c #727D70",
"-g c #727F5C",
"-h c #727F64",
"-i c #727F65",
"-j c #727F66",
"-k c #727F67",
"-l c #727F6B",
"-m c #727F6C",
"-n c #727F70",
"-o c #727F72",
"-p c #727F75",
"-q c #728167",
"-r c #728170",
"-s c #728177",
"-t c #728265",
"-u c #72826D",
"-v c #728276",
"-w c #728369",
"-x c #72836B",
"-y c #72836D",
"-z c #728371",
"-{ c #728372",
"-| c #728375",
"-} c #728462",
"-~ c #728467",
".! c #728469",
".# c #72846E",
".$ c #728666",
".% c #728669",
".& c #72866B",
".' c #728670",
".( c #728672",
".) c #728761",
".* c #728765",
".+ c #728770",
"., c #728772",
".- c #728864",
".. c #728867",
"./ c #728A65",
".0 c #728A66",
".1 c #728A6E",
".2 c #728A75",
".3 c #728A76",
".4 c #728B5F",
".5 c #728B69",
".6 c #728B6E",
".7 c #728D5A",
".8 c #728E6B",
".9 c #728E70",
".: c #737870",
".; c #737B5A",
".< c #737D69",
".= c #737F69",
".> c #738167",
".? c #73846D",
".@ c #738670",
".A c #738769",
".B c #738771",
".C c #738E74",
".D c #739075",
".E c #739472",
".F c #747459",
".G c #74746B",
".H c #747660",
".I c #747666",
".J c #747764",
".K c #747766",
".L c #74776B",
".M c #747865",
".N c #747869",
".O c #74786B",
".P c #74795C",
".Q c #74795F",
".R c #747965",
".S c #747966",
".T c #747969",
".U c #74796C",
".V c #747B5F",
".W c #747B66",
".X c #747B67",
".Y c #747B69",
".Z c #747B6B",
".[ c #747B77",
".] c #747C62",
".^ c #747C64",
"._ c #747C6D",
".` c #747D5B",
".a c #747D64",
".b c #747D67",
".c c #747D6B",
".d c #747F60",
".e c #747F65",
".f c #747F66",
".g c #747F6C",
".h c #747F6D",
".i c #748161",
".j c #748162",
".k c #748166",
".l c #748169",
".m c #74816D",
".n c #74825C",
".o c #748267",
".p c #74826B",
".q c #74826C",
".r c #74826D",
".s c #74826E",
".t c #748270",
".u c #748272",
".v c #748364",
".w c #748365",
".x c #748367",
".y c #748369",
".z c #74836B",
".{ c #748376",
".| c #748461",
".} c #74846B",
".~ c #748470",
"/! c #74866D",
"/# c #74866E",
"/$ c #748671",
"/% c #748675",
"/& c #748775",
"/' c #74886B",
"/( c #748870",
"/) c #74887B",
"/* c #748A6C",
"/+ c #748A6E",
"/, c #748A74",
"/- c #748B6D",
"/. c #748D72",
"// c #748E71",
"/0 c #74907A",
"/1 c #759478",
"/2 c #767465",
"/3 c #767665",
"/4 c #767869",
"/5 c #76795C",
"/6 c #767960",
"/7 c #767967",
"/8 c #767969",
"/9 c #767B5F",
"/: c #767B66",
"/; c #767B67",
"/< c #767B6C",
"/= c #767B6E",
"/> c #767B70",
"/? c #767C66",
"/@ c #767C6D",
"/A c #767C6E",
"/B c #767D57",
"/C c #767D5B",
"/D c #767D61",
"/E c #767D67",
"/F c #767D6C",
"/G c #767D6E",
"/H c #767D70",
"/I c #767D72",
"/J c #767F61",
"/K c #767F67",
"/L c #767F6B",
"/M c #767F71",
"/N c #767F72",
"/O c #76815A",
"/P c #768162",
"/Q c #768169",
"/R c #76816E",
"/S c #768170",
"/T c #768265",
"/U c #768267",
"/V c #768269",
"/W c #76826D",
"/X c #76826E",
"/Y c #768270",
"/Z c #768271",
"/[ c #768272",
"/] c #768274",
"/^ c #768360",
"/_ c #76836C",
"/` c #76836D",
"/a c #76836E",
"/b c #768370",
"/c c #768371",
"/d c #768372",
"/e c #768377",
"/f c #76846B",
"/g c #76846D",
"/h c #76846E",
"/i c #768470",
"/j c #768475",
"/k c #768476",
"/l c #768660",
"/m c #768664",
"/n c #768669",
"/o c #76866D",
"/p c #76866E",
"/q c #768671",
"/r c #768677",
"/s c #768756",
"/t c #768764",
"/u c #768769",
"/v c #76876B",
"/w c #76876E",
"/x c #768771",
"/y c #768772",
"/z c #768865",
"/{ c #768872",
"/| c #768875",
"/} c #768A64",
"/~ c #768A65",
"0! c #768A67",
"0# c #768A69",
"0$ c #768A6D",
"0% c #768A6E",
"0& c #768B6D",
"0' c #768B70",
"0( c #768B75",
"0) c #768E6E",
"0* c #768E76",
"0+ c #768E7A",
"0, c #768F71",
"0- c #769271",
"0. c #776762",
"0/ c #77746C",
"00 c #777472",
"01 c #777862",
"02 c #777867",
"03 c #777967",
"04 c #777B57",
"05 c #777C61",
"06 c #777C62",
"07 c #777C67",
"08 c #777C74",
"09 c #777D6B",
"0: c #777F6C",
"0; c #777F72",
"0< c #778165",
"0= c #77816C",
"0> c #77816D",
"0? c #77816E",
"0@ c #778170",
"0A c #778172",
"0B c #77826B",
"0C c #77826D",
"0D c #778270",
"0E c #778272",
"0F c #778274",
"0G c #778360",
"0H c #778361",
"0I c #778362",
"0J c #778366",
"0K c #778367",
"0L c #77836C",
"0M c #778372",
"0N c #778374",
"0O c #778376",
"0P c #778377",
"0Q c #77846D",
"0R c #77846E",
"0S c #778470",
"0T c #778472",
"0U c #778474",
"0V c #778476",
"0W c #778667",
"0X c #778669",
"0Y c #77866C",
"0Z c #77866E",
"0[ c #778672",
"0] c #778676",
"0^ c #778677",
"0_ c #77876B",
"0` c #77876D",
"0a c #778770",
"0b c #778775",
"0c c #778776",
"0d c #77886B",
"0e c #77886C",
"0f c #77886E",
"0g c #778876",
"0h c #778977",
"0i c #778A6D",
"0j c #778A71",
"0k c #778A74",
"0l c #778A77",
"0m c #778B6C",
"0n c #778B6E",
"0o c #778B74",
"0p c #778C76",
"0q c #778D6D",
"0r c #778E77",
"0s c #778F65",
"0t c #778F75",
"0u c #779070",
"0v c #77917C",
"0w c #786250",
"0x c #78735B",
"0y c #787462",
"0z c #787856",
"0{ c #787857",
"0| c #78786E",
"0} c #787956",
"0~ c #787962",
"1! c #787B6B",
"1# c #787B6C",
"1$ c #787B6D",
"1% c #787B70",
"1& c #787B71",
"1' c #787C66",
"1( c #787C67",
"1) c #787C6C",
"1* c #787D70",
"1+ c #787D74",
"1, c #787F67",
"1- c #787F6D",
"1. c #787F6E",
"1/ c #787F70",
"10 c #787F72",
"11 c #787F74",
"12 c #788165",
"13 c #78816B",
"14 c #78816D",
"15 c #788176",
"16 c #78825C",
"17 c #788264",
"18 c #788266",
"19 c #78826C",
"1: c #788270",
"1; c #788271",
"1< c #788355",
"1= c #788366",
"1> c #788369",
"1? c #78836C",
"1@ c #78836D",
"1A c #78836E",
"1B c #788371",
"1C c #788372",
"1D c #788374",
"1E c #78846C",
"1F c #78846E",
"1G c #788470",
"1H c #788472",
"1I c #788474",
"1J c #788475",
"1K c #788477",
"1L c #788662",
"1M c #788670",
"1N c #788671",
"1O c #788672",
"1P c #788675",
"1Q c #788676",
"1R c #788764",
"1S c #788766",
"1T c #788770",
"1U c #788772",
"1V c #788775",
"1W c #788862",
"1X c #788867",
"1Y c #788871",
"1Z c #788976",
"1[ c #788977",
"1] c #788A6B",
"1^ c #788A6D",
"1_ c #788A6E",
"1` c #788A72",
"1a c #788A74",
"1b c #788A75",
"1c c #788A77",
"1d c #788A79",
"1e c #788B64",
"1f c #788B6C",
"1g c #788B6D",
"1h c #788B71",
"1i c #788B72",
"1j c #788D6D",
"1k c #788E70",
"1l c #788E71",
"1m c #788E76",
"1n c #788F73",
"1o c #788F74",
"1p c #788F76",
"1q c #788F78",
"1r c #78926D",
"1s c #789272",
"1t c #789277",
"1u c #78927F",
"1v c #789373",
"1w c #789376",
"1x c #797167",
"1y c #797962",
"1z c #79796C",
"1{ c #797C61",
"1| c #797D67",
"1} c #797D69",
"1~ c #797D6C",
"2! c #797D71",
"2# c #797F69",
"2$ c #797F70",
"2% c #798165",
"2& c #798166",
"2' c #79816B",
"2( c #79816C",
"2) c #798269",
"2* c #79826C",
"2+ c #79826E",
"2, c #798271",
"2- c #79836C",
"2. c #79836E",
"2/ c #798375",
"20 c #798376",
"21 c #798457",
"22 c #798466",
"23 c #798467",
"24 c #798469",
"25 c #79846C",
"26 c #79846D",
"27 c #798470",
"28 c #798471",
"29 c #798472",
"2: c #798474",
"2; c #798476",
"2< c #798664",
"2= c #798667",
"2> c #79866D",
"2? c #79866E",
"2@ c #798670",
"2A c #798674",
"2B c #798676",
"2C c #798679",
"2D c #79867A",
"2E c #798761",
"2F c #798769",
"2G c #79876D",
"2H c #798771",
"2I c #798772",
"2J c #798774",
"2K c #798777",
"2L c #79886C",
"2M c #798877",
"2N c #798879",
"2O c #798976",
"2P c #798A6D",
"2Q c #798A6E",
"2R c #798A70",
"2S c #798A75",
"2T c #798B65",
"2U c #798B66",
"2V c #798B6C",
"2W c #798B6D",
"2X c #798D69",
"2Y c #798D75",
"2Z c #798E6E",
"2[ c #798F6B",
"2] c #798F70",
"2^ c #798F73",
"2_ c #798F78",
"2` c #799069",
"2a c #799576",
"2b c #7A8E7A",
"2c c #7A9274",
"2d c #7A9373",
"2e c #7A9376",
"2f c #7A9571",
"2g c #7A9579",
"2h c #7B766D",
"2i c #7B7C74",
"2j c #7B7D6C",
"2k c #7B7D70",
"2l c #7B7D74",
"2m c #7B7F6D",
"2n c #7B7F74",
"2o c #7B8167",
"2p c #7B8169",
"2q c #7B816B",
"2r c #7B816E",
"2s c #7B8171",
"2t c #7B8174",
"2u c #7B8176",
"2v c #7B8269",
"2w c #7B826C",
"2x c #7B836D",
"2y c #7B8372",
"2z c #7B8374",
"2{ c #7B845F",
"2| c #7B846C",
"2} c #7B846D",
"2~ c #7B8470",
"3! c #7B8471",
"3# c #7B8472",
"3$ c #7B8475",
"3% c #7B8476",
"3& c #7B866D",
"3' c #7B866E",
"3( c #7B8670",
"3) c #7B8672",
"3* c #7B8674",
"3+ c #7B8675",
"3, c #7B8676",
"3- c #7B8677",
"3. c #7B8679",
"3/ c #7B8767",
"30 c #7B8769",
"31 c #7B876C",
"32 c #7B876D",
"33 c #7B876E",
"34 c #7B8770",
"35 c #7B8771",
"36 c #7B8772",
"37 c #7B8774",
"38 c #7B8775",
"39 c #7B8869",
"3: c #7B886C",
"3; c #7B886D",
"3< c #7B8870",
"3= c #7B8872",
"3> c #7B8875",
"3? c #7B8977",
"3@ c #7B8979",
"3A c #7B8A61",
"3B c #7B8A6C",
"3C c #7B8A72",
"3D c #7B8A74",
"3E c #7B8A75",
"3F c #7B8A76",
"3G c #7B8B55",
"3H c #7B8B6D",
"3I c #7B8B6E",
"3J c #7B8B70",
"3K c #7B8B74",
"3L c #7B8B75",
"3M c #7B8D71",
"3N c #7B8D72",
"3O c #7B8D74",
"3P c #7B8D75",
"3Q c #7B8E70",
"3R c #7B8E73",
"3S c #7B8E75",
"3T c #7B9072",
"3U c #7B946D",
"3V c #7B947C",
"3W c #7B9979",
"3X c #7C775F",
"3Y c #7C7B67",
"3Z c #7C7D6C",
"3[ c #7C7F70",
"3] c #7C7F76",
"3^ c #7C8166",
"3_ c #7C8171",
"3` c #7C826B",
"3a c #7C8270",
"3b c #7C8272",
"3c c #7C8276",
"3d c #7C8367",
"3e c #7C836B",
"3f c #7C8370",
"3g c #7C8379",
"3h c #7C8467",
"3i c #7C846D",
"3j c #7C8476",
"3k c #7C866B",
"3l c #7C866C",
"3m c #7C866D",
"3n c #7C8670",
"3o c #7C8671",
"3p c #7C8674",
"3q c #7C867A",
"3r c #7C8760",
"3s c #7C876B",
"3t c #7C8861",
"3u c #7C8862",
"3v c #7C8867",
"3w c #7C8869",
"3x c #7C8870",
"3y c #7C8872",
"3z c #7C8877",
"3{ c #7C887A",
"3| c #7C8977",
"3} c #7C8979",
"3~ c #7C897A",
"4! c #7C8A67",
"4# c #7C8A6D",
"4$ c #7C8A70",
"4% c #7C8A74",
"4& c #7C8A77",
"4' c #7C8A79",
"4( c #7C8B67",
"4) c #7C8B69",
"4* c #7C8B6B",
"4+ c #7C8B72",
"4, c #7C8B74",
"4- c #7C8B75",
"4. c #7C8C77",
"4/ c #7C8C7C",
"40 c #7C8D6C",
"41 c #7C8D6E",
"42 c #7C8D70",
"43 c #7C8D72",
"44 c #7C8D74",
"45 c #7C8D75",
"46 c #7C8D76",
"47 c #7C8D77",
"48 c #7C8E6D",
"49 c #7C8E6E",
"4: c #7C8E73",
"4; c #7C8E75",
"4< c #7C8F6C",
"4= c #7C8F6D",
"4> c #7C9074",
"4? c #7C9271",
"4@ c #7C9272",
"4A c #7C9273",
"4B c #7C9276",
"4C c #7C9278",
"4D c #7C936D",
"4E c #7C946D",
"4F c #7C9669",
"4G c #7D7C61",
"4H c #7D7D64",
"4I c #7D7F61",
"4J c #7D7F6E",
"4K c #7D7F74",
"4L c #7D8164",
"4M c #7D8169",
"4N c #7D8171",
"4O c #7D8174",
"4P c #7D8269",
"4Q c #7D826D",
"4R c #7D8271",
"4S c #7D8274",
"4T c #7D8362",
"4U c #7D8367",
"4V c #7D8370",
"4W c #7D8371",
"4X c #7D8372",
"4Y c #7D8374",
"4Z c #7D8469",
"4[ c #7D8472",
"4] c #7D8479",
"4^ c #7D847A",
"4_ c #7D8661",
"4` c #7D866C",
"4a c #7D8670",
"4b c #7D8671",
"4c c #7D8672",
"4d c #7D8674",
"4e c #7D8675",
"4f c #7D867A",
"4g c #7D876C",
"4h c #7D8774",
"4i c #7D8775",
"4j c #7D8776",
"4k c #7D8777",
"4l c #7D877A",
"4m c #7D8867",
"4n c #7D8877",
"4o c #7D8A6E",
"4p c #7D8A72",
"4q c #7D8A75",
"4r c #7D8A77",
"4s c #7D8A7A",
"4t c #7D8A7D",
"4u c #7D8A7F",
"4v c #7D8B74",
"4w c #7D8B75",
"4x c #7D8C7C",
"4y c #7D8C7E",
"4z c #7D8D6E",
"4{ c #7D8D75",
"4| c #7D8E73",
"4} c #7D8E76",
"4~ c #7D8E7A",
"5! c #7D8E7D",
"5# c #7D8F71",
"5$ c #7D8F78",
"5% c #7D8F7A",
"5& c #7D8F7B",
"5' c #7D9178",
"5( c #7D9273",
"5) c #7D9274",
"5* c #7D9277",
"5+ c #7D9373",
"5, c #7D9377",
"5- c #7D9475",
"5. c #7E816C",
"5/ c #7E8A7A",
"50 c #7E8C7A",
"51 c #7E8D77",
"52 c #7E8D7B",
"53 c #7E8E76",
"54 c #7E8E7A",
"55 c #7E8E7E",
"56 c #7E8E86",
"57 c #7E8F75",
"58 c #7E8F7B",
"59 c #7E8F7E",
"5: c #7E9074",
"5; c #7E9177",
"5< c #7E9178",
"5= c #7E917C",
"5> c #7E9272",
"5? c #7E9273",
"5@ c #7E9277",
"5A c #7E9278",
"5B c #7E927B",
"5C c #7E9376",
"5D c #7E937E",
"5E c #7E9476",
"5F c #7E956D",
"5G c #7E957C",
"5H c #7E9679",
"5I c #7E967B",
"5J c #7E987C",
"5K c #7F7B5A",
"5L c #7F7D6E",
"5M c #7F7F65",
"5N c #7F7F75",
"5O c #7F816B",
"5P c #7F8171",
"5Q c #7F8172",
"5R c #7F8274",
"5S c #7F8275",
"5T c #7F8367",
"5U c #7F836C",
"5V c #7F8372",
"5W c #7F8374",
"5X c #7F8376",
"5Y c #7F8377",
"5Z c #7F8379",
"5[ c #7F837A",
"5] c #7F8460",
"5^ c #7F8471",
"5_ c #7F8474",
"5` c #7F8665",
"5a c #7F8666",
"5b c #7F866B",
"5c c #7F8670",
"5d c #7F8671",
"5e c #7F8672",
"5f c #7F8677",
"5g c #7F875F",
"5h c #7F876B",
"5i c #7F876C",
"5j c #7F8771",
"5k c #7F8775",
"5l c #7F8777",
"5m c #7F8867",
"5n c #7F8872",
"5o c #7F8879",
"5p c #7F8976",
"5q c #7F8977",
"5r c #7F8979",
"5s c #7F897C",
"5t c #7F8A6E",
"5u c #7F8A74",
"5v c #7F8A75",
"5w c #7F8A76",
"5x c #7F8A79",
"5y c #7F8B72",
"5z c #7F8B75",
"5{ c #7F8C76",
"5| c #7F8C77",
"5} c #7F8D72",
"5~ c #7F8D74",
"6! c #7F8D77",
"6# c #7F8D80",
"6$ c #7F8E71",
"6% c #7F8E74",
"6& c #7F8E75",
"6' c #7F8E76",
"6( c #7F8E7B",
"6) c #7F8E7E",
"6* c #7F8F6E",
"6+ c #7F8F71",
"6, c #7F8F75",
"6- c #7F8F78",
"6. c #7F8F7B",
"6/ c #7F8F7C",
"60 c #7F906E",
"61 c #7F9070",
"62 c #7F9074",
"63 c #7F917A",
"64 c #7F917B",
"65 c #7F9269",
"66 c #7F9272",
"67 c #7F9274",
"68 c #7F927A",
"69 c #7F9372",
"6: c #7F9581",
"6; c #7F9672",
"6< c #7F967C",
"6= c #7F987F",
"6> c #7F997A",
"6? c #809183",
"6@ c #80927D",
"6A c #809280",
"6B c #80937D",
"6C c #80947D",
"6D c #809481",
"6E c #80957B",
"6F c #80967C",
"6G c #809682",
"6H c #80977C",
"6I c #817962",
"6J c #817F61",
"6K c #818177",
"6L c #818271",
"6M c #818274",
"6N c #818279",
"6O c #81836C",
"6P c #81836D",
"6Q c #818375",
"6R c #818466",
"6S c #818470",
"6T c #818471",
"6U c #818472",
"6V c #818476",
"6W c #818665",
"6X c #818672",
"6Y c #818676",
"6Z c #818774",
"6[ c #818776",
"6] c #818777",
"6^ c #81877C",
"6_ c #818874",
"6` c #818877",
"6a c #81887A",
"6b c #81887B",
"6c c #818880",
"6d c #818976",
"6e c #818977",
"6f c #818979",
"6g c #818A71",
"6h c #818A74",
"6i c #818A76",
"6j c #818A77",
"6k c #818A79",
"6l c #818A7C",
"6m c #818A7D",
"6n c #818B66",
"6o c #818B6B",
"6p c #818B71",
"6q c #818C76",
"6r c #818C77",
"6s c #818C7A",
"6t c #818C7B",
"6u c #818D74",
"6v c #818D76",
"6w c #818D77",
"6x c #818D7B",
"6y c #818D7D",
"6z c #818E70",
"6{ c #818E77",
"6| c #818E7A",
"6} c #818E7C",
"6~ c #818F73",
"7! c #818F75",
"7# c #818F76",
"7$ c #818F7A",
"7% c #818F7B",
"7& c #818F7C",
"7' c #819069",
"7( c #819074",
"7) c #819177",
"7* c #81917E",
"7+ c #819272",
"7, c #81927B",
"7- c #819371",
"7. c #81937C",
"7/ c #81947B",
"70 c #819576",
"71 c #82816B",
"72 c #82826C",
"73 c #828277",
"74 c #828672",
"75 c #828674",
"76 c #82876D",
"77 c #828866",
"78 c #828872",
"79 c #828874",
"7: c #828875",
"7; c #828877",
"7< c #828879",
"7= c #828977",
"7> c #82897D",
"7? c #82897E",
"7@ c #828A5A",
"7A c #828A72",
"7B c #828A79",
"7C c #828A7A",
"7D c #828C77",
"7E c #828C7B",
"7F c #828C7D",
"7G c #828D6D",
"7H c #828D74",
"7I c #828D75",
"7J c #828D76",
"7K c #828D77",
"7L c #828D7A",
"7M c #828D7B",
"7N c #828D7C",
"7O c #828E7A",
"7P c #828E7B",
"7Q c #828E7C",
"7R c #828E80",
"7S c #828F70",
"7T c #828F73",
"7U c #828F74",
"7V c #828F78",
"7W c #828F7B",
"7X c #829072",
"7Y c #829177",
"7Z c #829178",
"7[ c #82917B",
"7] c #82917C",
"7^ c #82917E",
"7_ c #829276",
"7` c #829277",
"7a c #829278",
"7b c #82927B",
"7c c #82927E",
"7d c #829378",
"7e c #82937C",
"7f c #82937D",
"7g c #829579",
"7h c #829679",
"7i c #82967E",
"7j c #829680",
"7k c #82987F",
"7l c #829881",
"7m c #829982",
"7n c #837D64",
"7o c #838174",
"7p c #83826D",
"7q c #83836B",
"7r c #838379",
"7s c #838467",
"7t c #838675",
"7u c #838777",
"7v c #838865",
"7w c #838871",
"7x c #838872",
"7y c #838877",
"7z c #83887B",
"7{ c #838977",
"7| c #838979",
"7} c #83897A",
"7~ c #83897C",
"8! c #83897D",
"8# c #83897F",
"8$ c #838A6B",
"8% c #838A6E",
"8& c #838A75",
"8' c #838A77",
"8( c #838A7A",
"8) c #838A7C",
"8* c #838A7D",
"8+ c #838B72",
"8, c #838B75",
"8- c #838C76",
"8. c #838C7A",
"8/ c #838C7D",
"80 c #838C7F",
"81 c #838D6D",
"82 c #838D6E",
"83 c #838D77",
"84 c #838D7B",
"85 c #838D7D",
"86 c #838E75",
"87 c #838E76",
"88 c #838E77",
"89 c #838E7A",
"8: c #838E7B",
"8; c #838E7C",
"8< c #838E7D",
"8= c #838F75",
"8> c #838F76",
"8? c #838F78",
"8@ c #838F7B",
"8A c #838F7C",
"8B c #838F7D",
"8C c #838F82",
"8D c #83906E",
"8E c #839073",
"8F c #839074",
"8G c #839177",
"8H c #839178",
"8I c #83917A",
"8J c #83917B",
"8K c #83917C",
"8L c #83917E",
"8M c #839180",
"8N c #839274",
"8O c #839276",
"8P c #839278",
"8Q c #83927B",
"8R c #83936E",
"8S c #83937A",
"8T c #83937D",
"8U c #83937E",
"8V c #839380",
"8W c #839471",
"8X c #83947B",
"8Y c #83947C",
"8Z c #83947D",
"8[ c #83947E",
"8] c #839577",
"8^ c #839579",
"8_ c #83957C",
"8` c #839673",
"8a c #83967B",
"8b c #83967C",
"8c c #839979",
"8d c #847F6D",
"8e c #848677",
"8f c #84867A",
"8g c #848775",
"8h c #848979",
"8i c #84897A",
"8j c #848A77",
"8k c #848B61",
"8l c #848B72",
"8m c #848B74",
"8n c #848B75",
"8o c #848C7C",
"8p c #848C7D",
"8q c #848C7E",
"8r c #848D6E",
"8s c #848D77",
"8t c #848D7A",
"8u c #848D7B",
"8v c #848D7C",
"8w c #848D80",
"8x c #848D83",
"8y c #848E6E",
"8z c #848E75",
"8{ c #848E77",
"8| c #848E7A",
"8} c #848E7B",
"8~ c #848E7C",
"9! c #848E7D",
"9# c #848E82",
"9$ c #848F70",
"9% c #848F74",
"9& c #848F75",
"9' c #848F78",
"9( c #848F7A",
"9) c #848F7B",
"9* c #848F7C",
"9+ c #848F7E",
"9, c #849073",
"9- c #849175",
"9. c #849178",
"9/ c #84917B",
"90 c #84917C",
"91 c #84917E",
"92 c #849181",
"93 c #849262",
"94 c #849271",
"95 c #84927D",
"96 c #84927E",
"97 c #849281",
"98 c #849376",
"99 c #849378",
"9: c #84937C",
"9; c #84947C",
"9< c #849571",
"9= c #84957B",
"9> c #84957C",
"9? c #84957D",
"9@ c #849675",
"9A c #849676",
"9B c #84967B",
"9C c #84967C",
"9D c #84967D",
"9E c #849867",
"9F c #85866B",
"9G c #85867A",
"9H c #858681",
"9I c #858771",
"9J c #858777",
"9K c #858979",
"9L c #858A72",
"9M c #858A74",
"9N c #858A77",
"9O c #858A7A",
"9P c #858C7A",
"9Q c #858C7E",
"9R c #858D74",
"9S c #858D76",
"9T c #858D77",
"9U c #858D7A",
"9V c #858D81",
"9W c #858D84",
"9X c #858E6B",
"9Y c #858E71",
"9Z c #858E75",
"9[ c #858E76",
"9] c #858E77",
"9^ c #858E7A",
"9_ c #858E7F",
"9` c #858E80",
"9a c #858F6E",
"9b c #858F73",
"9c c #858F74",
"9d c #858F75",
"9e c #858F76",
"9f c #858F78",
"9g c #859177",
"9h c #85917B",
"9i c #85917C",
"9j c #85917E",
"9k c #85917F",
"9l c #859272",
"9m c #859274",
"9n c #859278",
"9o c #85927B",
"9p c #85927D",
"9q c #85927E",
"9r c #85936D",
"9s c #859376",
"9t c #859378",
"9u c #85937A",
"9v c #85937D",
"9w c #85937E",
"9x c #859383",
"9y c #85946C",
"9z c #859474",
"9{ c #859475",
"9| c #859478",
"9} c #85947B",
"9~ c #85947C",
":! c #85947D",
":# c #85947F",
":$ c #859484",
":% c #859579",
":& c #85957C",
":' c #85957D",
":( c #85957E",
":) c #85957F",
":* c #859673",
":+ c #859676",
":, c #85967C",
":- c #85967D",
":. c #859681",
":/ c #859682",
":0 c #859684",
":1 c #85977C",
":2 c #859A84",
":3 c #859B8A",
":4 c #86786D",
":5 c #868171",
":6 c #868672",
":7 c #868765",
":8 c #868770",
":9 c #868867",
":: c #86897A",
":; c #868981",
":< c #868A71",
":= c #868A76",
":> c #868A79",
":? c #868A7A",
":@ c #868A7C",
":A c #868A7F",
":B c #868C77",
":C c #868C7B",
":D c #868C7D",
":E c #868C7F",
":F c #868C80",
":G c #868C84",
":H c #868D75",
":I c #868D77",
":J c #868D7A",
":K c #868D7B",
":L c #868D7D",
":M c #868D80",
":N c #868E6D",
":O c #868E73",
":P c #868E74",
":Q c #868E75",
":R c #868E76",
":S c #868E77",
":T c #868E7B",
":U c #868E7C",
":V c #868E7E",
":W c #868E80",
":X c #868F6C",
":Y c #868F75",
":Z c #868F76",
":[ c #868F78",
":] c #868F7A",
":^ c #868F7B",
":_ c #868F7C",
":` c #868F7E",
":a c #868F80",
":b c #868F81",
":c c #868F82",
":d c #868F83",
":e c #86906D",
":f c #869074",
":g c #869178",
":h c #86917A",
":i c #86917B",
":j c #86917C",
":k c #869180",
":l c #869182",
":m c #869272",
":n c #869277",
":o c #869278",
":p c #86927B",
":q c #86927D",
":r c #86927E",
":s c #86927F",
":t c #869281",
":u c #86936E",
":v c #869373",
":w c #869375",
":x c #869376",
":y c #869378",
":z c #86937A",
":{ c #86937C",
":| c #86937D",
":} c #86937E",
":~ c #869380",
";! c #869382",
";# c #869384",
";$ c #869476",
";% c #869478",
";& c #86947C",
";' c #86947D",
";( c #86947E",
";) c #86947F",
";* c #869480",
";+ c #869482",
";, c #869579",
";- c #869678",
";. c #869679",
";/ c #86967C",
";0 c #86967D",
";1 c #86967E",
";2 c #869683",
";3 c #869687",
";4 c #86976F",
";5 c #869784",
";6 c #869867",
";7 c #86987C",
";8 c #869883",
";9 c #86A086",
";: c #878A81",
";; c #878C7E",
";< c #878C82",
";= c #878D77",
";> c #878D7B",
";? c #878D88",
";@ c #878E7A",
";A c #878E7C",
";B c #878E7D",
";C c #878E7E",
";D c #878F7C",
";E c #878F7E",
";F c #878F82",
";G c #879070",
";H c #879178",
";I c #87917B",
";J c #87917E",
";K c #87917F",
";L c #879181",
";M c #879182",
";N c #879276",
";O c #879277",
";P c #879278",
";Q c #879280",
";R c #879281",
";S c #879283",
";T c #879286",
";U c #879372",
";V c #879378",
";W c #87937A",
";X c #87937C",
";Y c #87937D",
";Z c #87937F",
";[ c #879380",
";] c #879381",
";^ c #879383",
";_ c #879387",
";` c #879474",
";a c #879478",
";b c #87947C",
";c c #87947E",
";d c #87947F",
";e c #879480",
";f c #879481",
";g c #879482",
";h c #879484",
";i c #879579",
";j c #87957B",
";k c #87957C",
";l c #87957D",
";m c #87957E",
";n c #879580",
";o c #879584",
";p c #879679",
";q c #87967C",
";r c #87967D",
";s c #87967E",
";t c #879680",
";u c #879681",
";v c #879682",
";w c #879683",
";x c #879684",
";y c #87977C",
";z c #87977F",
";{ c #879782",
";| c #879783",
";} c #87987C",
";~ c #87987D",
"<! c #879880",
"<# c #879882",
"<$ c #879885",
"<% c #879886",
"<& c #87997C",
"<' c #879A7A",
"<( c #879C84",
"<) c #88866D",
"<* c #88867A",
"<+ c #888B6B",
"<, c #888C77",
"<- c #888C82",
"<. c #888D76",
"</ c #888D77",
"<0 c #888D7E",
"<1 c #888D83",
"<2 c #888E7F",
"<3 c #888F7A",
"<4 c #888F7B",
"<5 c #888F84",
"<6 c #889178",
"<7 c #88917A",
"<8 c #88917C",
"<9 c #889180",
"<: c #889181",
"<; c #889276",
"<< c #889278",
"<= c #88927B",
"<> c #889280",
"<? c #889283",
"<@ c #889378",
"<A c #88937C",
"<B c #88937E",
"<C c #88937F",
"<D c #889380",
"<E c #889384",
"<F c #889388",
"<G c #889476",
"<H c #88947B",
"<I c #88947C",
"<J c #88947D",
"<K c #88947E",
"<L c #88947F",
"<M c #889480",
"<N c #889481",
"<O c #889482",
"<P c #889484",
"<Q c #889487",
"<R c #889574",
"<S c #889577",
"<T c #88957C",
"<U c #88957D",
"<V c #88957E",
"<W c #889679",
"<X c #88967C",
"<Y c #88967E",
"<Z c #889681",
"<[ c #88986C",
"<] c #88987D",
"<^ c #88987F",
"<_ c #889883",
"<` c #889982",
"<a c #889985",
"<b c #889A86",
"<c c #889A8C",
"<d c #889B80",
"<e c #889B83",
"<f c #889B85",
"<g c #889B89",
"<h c #89897A",
"<i c #898C7F",
"<j c #898C80",
"<k c #898D7B",
"<l c #898E71",
"<m c #898E73",
"<n c #898E7B",
"<o c #898E80",
"<p c #898F74",
"<q c #898F78",
"<r c #898F7E",
"<s c #898F82",
"<t c #898F84",
"<u c #89917B",
"<v c #899277",
"<w c #89927A",
"<x c #89927D",
"<y c #89927E",
"<z c #899280",
"<{ c #89937A",
"<| c #899478",
"<} c #89947C",
"<~ c #89947F",
"=! c #899480",
"=# c #899486",
"=$ c #899579",
"=% c #89957C",
"=& c #89957E",
"=' c #89957F",
"=( c #899584",
"=) c #89967D",
"=* c #899685",
"=+ c #899688",
"=, c #89977B",
"=- c #89977C",
"=. c #899782",
"=/ c #899785",
"=0 c #89987F",
"=1 c #899883",
"=2 c #899884",
"=3 c #899885",
"=4 c #899983",
"=5 c #899986",
"=6 c #89998A",
"=7 c #899B84",
"=8 c #8A897C",
"=9 c #8A8B71",
"=: c #8A8C7C",
"=; c #8A8E75",
"=< c #8A8E7D",
"== c #8A8E7E",
"=> c #8A8F73",
"=? c #8A8F7A",
"=@ c #8A8F7B",
"=A c #8A8F82",
"=B c #8A8F86",
"=C c #8A9175",
"=D c #8A917E",
"=E c #8A917F",
"=F c #8A9180",
"=G c #8A9183",
"=H c #8A927B",
"=I c #8A927F",
"=J c #8A9282",
"=K c #8A9283",
"=L c #8A9286",
"=M c #8A9378",
"=N c #8A937A",
"=O c #8A937D",
"=P c #8A9380",
"=Q c #8A9383",
"=R c #8A9387",
"=S c #8A947E",
"=T c #8A947F",
"=U c #8A9481",
"=V c #8A9482",
"=W c #8A9484",
"=X c #8A9486",
"=Y c #8A9489",
"=Z c #8A957E",
"=[ c #8A9580",
"=] c #8A9584",
"=^ c #8A9679",
"=_ c #8A967D",
"=` c #8A967E",
"=a c #8A9680",
"=b c #8A9681",
"=c c #8A9683",
"=d c #8A9684",
"=e c #8A977B",
"=f c #8A977C",
"=g c #8A977D",
"=h c #8A9785",
"=i c #8A9787",
"=j c #8A987D",
"=k c #8A987F",
"=l c #8A9882",
"=m c #8A9883",
"=n c #8A9887",
"=o c #8A9981",
"=p c #8A9984",
"=q c #8A9A6C",
"=r c #8A9A7A",
"=s c #8A9A84",
"=t c #8A9B82",
"=u c #8A9B86",
"=v c #8A9B88",
"=w c #8A9C81",
"=x c #8A9C86",
"=y c #8A9D78",
"=z c #8A9D80",
"={ c #8A9F7B",
"=| c #8B8379",
"=} c #8B8A6E",
"=~ c #8B8B86",
">! c #8B8D7A",
"># c #8B8F78",
">$ c #8B8F7D",
">% c #8B8F81",
">& c #8B917A",
">' c #8B917B",
">( c #8B9180",
">) c #8B9182",
">* c #8B9183",
">+ c #8B9277",
">, c #8B927B",
">- c #8B9280",
">. c #8B9282",
">/ c #8B9283",
">0 c #8B9284",
">1 c #8B937C",
">2 c #8B937E",
">3 c #8B9380",
">4 c #8B9381",
">5 c #8B9383",
">6 c #8B9478",
">7 c #8B947C",
">8 c #8B947D",
">9 c #8B947E",
">: c #8B9482",
">; c #8B9484",
">< c #8B9487",
">= c #8B948A",
">> c #8B9579",
">? c #8B957E",
">@ c #8B957F",
">A c #8B9584",
">B c #8B9587",
">C c #8B967C",
">D c #8B967D",
">E c #8B967E",
">F c #8B9680",
">G c #8B9682",
">H c #8B9683",
">I c #8B9684",
">J c #8B9686",
">K c #8B977C",
">L c #8B977D",
">M c #8B9780",
">N c #8B9783",
">O c #8B9784",
">P c #8B9785",
">Q c #8B987C",
">R c #8B987D",
">S c #8B987F",
">T c #8B9882",
">U c #8B9886",
">V c #8B997D",
">W c #8B997F",
">X c #8B9982",
">Y c #8B9983",
">Z c #8B9984",
">[ c #8B9985",
">] c #8B9A79",
">^ c #8B9A87",
">_ c #8B9B70",
">` c #8B9B83",
">a c #8B9B87",
">b c #8B9B88",
">c c #8B9B89",
">d c #8B9C7B",
">e c #8B9C88",
">f c #8B9C8A",
">g c #8B9D77",
">h c #8B9D85",
">i c #8B9E78",
">j c #8B9E87",
">k c #8C8160",
">l c #8C8974",
">m c #8C9284",
">n c #8C9286",
">o c #8C9382",
">p c #8C9383",
">q c #8C9482",
">r c #8C9484",
">s c #8C9486",
">t c #8C9487",
">u c #8C9584",
">v c #8C9587",
">w c #8C9681",
">x c #8C9683",
">y c #8C9684",
">z c #8C9686",
">{ c #8C977F",
">| c #8C9782",
">} c #8C9784",
">~ c #8C9785",
"?! c #8C9786",
"?# c #8C9787",
"?$ c #8C9866",
"?% c #8C987F",
"?& c #8C9882",
"?' c #8C9884",
"?( c #8C9885",
"?) c #8C9886",
"?* c #8C997E",
"?+ c #8C9981",
"?, c #8C9982",
"?- c #8C9985",
"?. c #8C9986",
"?/ c #8C9A7B",
"?0 c #8C9A7D",
"?1 c #8C9A7F",
"?2 c #8C9A81",
"?3 c #8C9A84",
"?4 c #8C9A87",
"?5 c #8C9A88",
"?6 c #8C9B7F",
"?7 c #8C9B83",
"?8 c #8C9B84",
"?9 c #8C9D81",
"?: c #8C9E7D",
"?; c #8D867A",
"?< c #8D8D7C",
"?= c #8D8E7F",
"?> c #8D9181",
"?? c #8D927F",
"?@ c #8D9282",
"?A c #8D947E",
"?B c #8D9481",
"?C c #8D9487",
"?D c #8D957D",
"?E c #8D9587",
"?F c #8D9672",
"?G c #8D9687",
"?H c #8D977B",
"?I c #8D977C",
"?J c #8D977F",
"?K c #8D9780",
"?L c #8D9787",
"?M c #8D9789",
"?N c #8D978B",
"?O c #8D978E",
"?P c #8D9885",
"?Q c #8D9886",
"?R c #8D9888",
"?S c #8D9889",
"?T c #8D9972",
"?U c #8D9983",
"?V c #8D9985",
"?W c #8D9986",
"?X c #8D9987",
"?Y c #8D9988",
"?Z c #8D9989",
"?[ c #8D9A81",
"?] c #8D9A87",
"?^ c #8D9A8C",
"?_ c #8D9A8E",
"?` c #8D9B82",
"?a c #8D9B84",
"?b c #8D9B85",
"?c c #8D9B86",
"?d c #8D9B87",
"?e c #8D9C83",
"?f c #8D9C87",
"?g c #8D9D89",
"?h c #8D9E82",
"?i c #8D9E83",
"?j c #8D9E89",
"?k c #8D9E8B",
"?l c #8D9F81",
"?m c #8D9F8A",
"?n c #8E8E77",
"?o c #8E9281",
"?p c #8E9282",
"?q c #8E9378",
"?r c #8E947C",
"?s c #8E947E",
"?t c #8E9481",
"?u c #8E9482",
"?v c #8E9484",
"?w c #8E9487",
"?x c #8E9674",
"?y c #8E967D",
"?z c #8E967E",
"?{ c #8E9682",
"?| c #8E9687",
"?} c #8E9785",
"?~ c #8E9786",
"@! c #8E9789",
"@# c #8E987C",
"@$ c #8E987D",
"@% c #8E9880",
"@& c #8E9883",
"@' c #8E9886",
"@( c #8E9887",
"@) c #8E9888",
"@* c #8E9889",
"@+ c #8E9984",
"@, c #8E9986",
"@- c #8E9987",
"@. c #8E9989",
"@/ c #8E9A72",
"@0 c #8E9A87",
"@1 c #8E9B7B",
"@2 c #8E9B83",
"@3 c #8E9B87",
"@4 c #8E9B88",
"@5 c #8E9D87",
"@6 c #8E9D8A",
"@7 c #8E9D8D",
"@8 c #8E9E83",
"@9 c #8E9E86",
"@: c #8E9E87",
"@; c #8E9E88",
"@< c #8E9E8A",
"@= c #8EA08A",
"@> c #8EA18F",
"@? c #8F8F83",
"@@ c #8F9189",
"@A c #8F948B",
"@B c #8F957E",
"@C c #8F9584",
"@D c #8F9587",
"@E c #8F958A",
"@F c #8F9683",
"@G c #8F9684",
"@H c #8F9685",
"@I c #8F9686",
"@J c #8F9689",
"@K c #8F9782",
"@L c #8F9789",
"@M c #8F9882",
"@N c #8F9883",
"@O c #8F9884",
"@P c #8F9886",
"@Q c #8F9887",
"@R c #8F9889",
"@S c #8F988A",
"@T c #8F988C",
"@U c #8F9981",
"@V c #8F9982",
"@W c #8F9983",
"@X c #8F9984",
"@Y c #8F9985",
"@Z c #8F9986",
"@[ c #8F9987",
"@] c #8F9988",
"@^ c #8F9989",
"@_ c #8F9A82",
"@` c #8F9A84",
"@a c #8F9A87",
"@b c #8F9A89",
"@c c #8F9B82",
"@d c #8F9B84",
"@e c #8F9B87",
"@f c #8F9B8A",
"@g c #8F9C8C",
"@h c #8F9C8D",
"@i c #8F9C8E",
"@j c #8F9D81",
"@k c #8F9D83",
"@l c #8F9D86",
"@m c #8F9D89",
"@n c #8F9D8A",
"@o c #8F9D8F",
"@p c #8F9E85",
"@q c #8F9E86",
"@r c #8F9E89",
"@s c #8FA08B",
"@t c #8FA08D",
"@u c #90957D",
"@v c #909789",
"@w c #909883",
"@x c #909886",
"@y c #909889",
"@z c #90988A",
"@{ c #90988C",
"@| c #909981",
"@} c #909985",
"@~ c #90998B",
"A! c #90998D",
"A# c #909A89",
"A$ c #909A8B",
"A% c #909A8C",
"A& c #909A8D",
"A' c #909B83",
"A( c #909B85",
"A) c #909B87",
"A* c #909B88",
"A+ c #909B89",
"A, c #909B8A",
"A- c #909B8B",
"A. c #909B8C",
"A/ c #909C83",
"A0 c #909C8A",
"A1 c #909C8B",
"A2 c #909C8C",
"A3 c #909C8E",
"A4 c #909D80",
"A5 c #909D88",
"A6 c #909D8A",
"A7 c #909D8E",
"A8 c #909E88",
"A9 c #909E89",
"A: c #909E8D",
"A; c #909F88",
"A< c #909F8E",
"A= c #90A384",
"A> c #90A587",
"A? c #91927B",
"A@ c #919789",
"AA c #91978B",
"AB c #919885",
"AC c #91988A",
"AD c #91988B",
"AE c #919988",
"AF c #91998A",
"AG c #919A81",
"AH c #919A82",
"AI c #919A87",
"AJ c #919A8D",
"AK c #919B81",
"AL c #919B87",
"AM c #919B88",
"AN c #919B89",
"AO c #919B8A",
"AP c #919B8B",
"AQ c #919B8D",
"AR c #919C70",
"AS c #919C87",
"AT c #919C8A",
"AU c #919C8C",
"AV c #919D88",
"AW c #919D8B",
"AX c #919E89",
"AY c #919E8D",
"AZ c #919F8C",
"A[ c #919F8F",
"A] c #91A085",
"A^ c #91A087",
"A_ c #91A089",
"A` c #91A08D",
"Aa c #91A183",
"Ab c #91A28A",
"Ac c #91A38B",
"Ad c #91A38D",
"Ae c #92968B",
"Af c #929982",
"Ag c #929988",
"Ah c #92998A",
"Ai c #92998B",
"Aj c #929A87",
"Ak c #929A8C",
"Al c #929A8D",
"Am c #929A8E",
"An c #929B82",
"Ao c #929B86",
"Ap c #929B87",
"Aq c #929B88",
"Ar c #929B8A",
"As c #929B8B",
"At c #929B8C",
"Au c #929B8D",
"Av c #929B92",
"Aw c #929C8A",
"Ax c #929C8C",
"Ay c #929C8D",
"Az c #929C90",
"A{ c #929D8A",
"A| c #929D8B",
"A} c #929D90",
"A~ c #929E85",
"B! c #929E89",
"B# c #929E8A",
"B$ c #929E8C",
"B% c #929E8D",
"B& c #929E91",
"B' c #929F8F",
"B( c #92A08A",
"B) c #92A288",
"B* c #92A385",
"B+ c #93948A",
"B, c #939583",
"B- c #939684",
"B. c #939782",
"B/ c #939789",
"B0 c #939885",
"B1 c #939887",
"B2 c #939982",
"B3 c #939985",
"B4 c #939A89",
"B5 c #939A8B",
"B6 c #939A8C",
"B7 c #939A8D",
"B8 c #939B83",
"B9 c #939B87",
"B: c #939B8C",
"B; c #939B8F",
"B< c #939B90",
"B= c #939C8C",
"B> c #939C8D",
"B? c #939D7E",
"B@ c #939D8F",
"BA c #939E85",
"BB c #939E88",
"BC c #939E8D",
"BD c #939E90",
"BE c #939F86",
"BF c #939F91",
"BG c #939F94",
"BH c #93A18D",
"BI c #93A190",
"BJ c #93A192",
"BK c #93A28D",
"BL c #93A493",
"BM c #949989",
"BN c #949A84",
"BO c #949A87",
"BP c #949A89",
"BQ c #949A8B",
"BR c #949A8C",
"BS c #949A8D",
"BT c #949A8E",
"BU c #949B83",
"BV c #949B84",
"BW c #949B87",
"BX c #949B8A",
"BY c #949C87",
"BZ c #949C8B",
"B[ c #949C8C",
"B] c #949C8D",
"B^ c #949C8E",
"B_ c #949C90",
"B` c #949C93",
"Ba c #949D88",
"Bb c #949D8A",
"Bc c #949D8B",
"Bd c #949D8D",
"Be c #949D8E",
"Bf c #949E8A",
"Bg c #949E8D",
"Bh c #949F8E",
"Bi c #949F8F",
"Bj c #94A08B",
"Bk c #94A08C",
"Bl c #94A092",
"Bm c #94A191",
"Bn c #94A193",
"Bo c #94A28E",
"Bp c #94A28F",
"Bq c #959A7F",
"Br c #959A8E",
"Bs c #959B84",
"Bt c #959B8B",
"Bu c #959C8D",
"Bv c #959C8E",
"Bw c #959D91",
"Bx c #959E8A",
"By c #959E8B",
"Bz c #959E8D",
"B{ c #959E8E",
"B| c #959E91",
"B} c #959E93",
"B~ c #959F8D",
"C! c #959F8E",
"C# c #959F8F",
"C$ c #959F93",
"C% c #95A08C",
"C& c #95A08D",
"C' c #95A08F",
"C( c #95A090",
"C) c #95A091",
"C* c #95A092",
"C+ c #95A093",
"C, c #95A18E",
"C- c #95A291",
"C. c #95A38C",
"C/ c #95A38E",
"C0 c #95A48B",
"C1 c #96968B",
"C2 c #96998C",
"C3 c #969A84",
"C4 c #969A87",
"C5 c #969A8C",
"C6 c #969B76",
"C7 c #969C8C",
"C8 c #969D8F",
"C9 c #969E88",
"C: c #969E89",
"C; c #969E8D",
"C< c #969E8E",
"C= c #969F8A",
"C> c #969F8C",
"C? c #969F91",
"C@ c #96A08F",
"CA c #96A18F",
"CB c #96A191",
"CC c #96A793",
"CD c #979993",
"CE c #979B8A",
"CF c #979C90",
"CG c #979D90",
"CH c #979D91",
"CI c #979D93",
"CJ c #979E89",
"CK c #979E8A",
"CL c #979E8C",
"CM c #979E8D",
"CN c #979E8F",
"CO c #979E90",
"CP c #979F8C",
"CQ c #979F8F",
"CR c #979F90",
"CS c #979F91",
"CT c #979F92",
"CU c #97A091",
"CV c #97A18F",
"CW c #97A190",
"CX c #97A194",
"CY c #97A28D",
"CZ c #97A28E",
"C[ c #97A28F",
"C] c #97A38D",
"C^ c #97A38F",
"C_ c #97A391",
"C` c #97A48F",
"Ca c #97A490",
"Cb c #989985",
"Cc c #989A93",
"Cd c #989B8B",
"Ce c #989D88",
"Cf c #989F8C",
"Cg c #989F90",
"Ch c #989F91",
"Ci c #989F94",
"Cj c #98A091",
"Ck c #98A093",
"Cl c #98A191",
"Cm c #98A194",
"Cn c #98A195",
"Co c #98A291",
"Cp c #98A296",
"Cq c #98A38F",
"Cr c #98A393",
"Cs c #98A494",
"Ct c #98A495",
"Cu c #98A58A",
"Cv c #98A690",
"Cw c #999E8D",
"Cx c #999E90",
"Cy c #999E91",
"Cz c #99A094",
"C{ c #99A18F",
"C| c #99A191",
"C} c #99A192",
"C~ c #99A291",
"D! c #99A294",
"D# c #99A295",
"D$ c #99A495",
"D% c #99A594",
"D& c #99A692",
"D' c #99A99A",
"D( c #9A9584",
"D) c #9AA093",
"D* c #9AA18F",
"D+ c #9AA190",
"D, c #9AA191",
"D- c #9AA194",
"D. c #9AA197",
"D/ c #9AA293",
"D0 c #9AA295",
"D1 c #9AA38D",
"D2 c #9AA391",
"D3 c #9AA395",
"D4 c #9AA493",
"D5 c #9AA494",
"D6 c #9AA692",
"D7 c #9B9C8D",
"D8 c #9BA092",
"D9 c #9BA098",
"D: c #9BA197",
"D; c #9BA293",
"D< c #9BA38D",
"D= c #9BA494",
"D> c #9BA496",
"D? c #9BA58F",
"D@ c #9BA596",
"DA c #9BA695",
"DB c #9BA697",
"DC c #9BA795",
"DD c #9BA997",
"DE c #9CA194",
"DF c #9CA392",
"DG c #9CA394",
"DH c #9CA493",
"DI c #9CA498",
"DJ c #9CA593",
"DK c #9CA594",
"DL c #9CA595",
"DM c #9CA596",
"DN c #9CA695",
"DO c #9CA696",
"DP c #9CA697",
"DQ c #9CA897",
"DR c #9CA89B",
"DS c #9CA996",
"DT c #9D9C94",
"DU c #9DA291",
"DV c #9DA496",
"DW c #9DA498",
"DX c #9DA594",
"DY c #9DA596",
"DZ c #9DA598",
"D[ c #9DA696",
"D] c #9DA697",
"D^ c #9DA698",
"D_ c #9DA699",
"D` c #9DA796",
"Da c #9DA797",
"Db c #9DA799",
"Dc c #9DA79B",
"Dd c #9DA898",
"De c #9DA89A",
"Df c #9EA28E",
"Dg c #9EA494",
"Dh c #9EA499",
"Di c #9EA49B",
"Dj c #9EA596",
"Dk c #9EA59A",
"Dl c #9EA696",
"Dm c #9EA797",
"Dn c #9EA890",
"Do c #9EAA9A",
"Dp c #9EAB9C",
"Dq c #9FA494",
"Dr c #9FA49A",
"Ds c #9FA599",
"Dt c #9FA79A",
"Du c #9FA997",
"Dv c #9FA998",
"Dw c #9FA99A",
"Dx c #9FAB99",
"Dy c #A0A196",
"Dz c #A0A899",
"D{ c #A0A99A",
"D| c #A0AA9C",
"D} c #A1A298",
"D~ c #A1A597",
"E! c #A1A798",
"E# c #A1A899",
"E$ c #A1A89B",
"E% c #A1A99A",
"E& c #A1AA97",
"E' c #A1AC9D",
"E( c #A1AD97",
"E) c #A2A99A",
"E* c #A2A9A1",
"E+ c #A2AA9C",
"E, c #A2AA9D",
"E- c #A2AB9A",
"E. c #A2AB9F",
"E/ c #A2AC9C",
"E0 c #A2AD97",
"E1 c #A2AD99",
"E2 c #A2AE9C",
"E3 c #A3A89C",
"E4 c #A3AA98",
"E5 c #A3AA99",
"E6 c #A3AAA1",
"E7 c #A3AB9B",
"E8 c #A3AC99",
"E9 c #A3AC9B",
"E: c #A3AC9C",
"E; c #A3AC9F",
"E< c #A3ADA1",
"E= c #A3B0A0",
"E> c #A4A99A",
"E? c #A4AB9A",
"E@ c #A4AC9B",
"EA c #A4AC9E",
"EB c #A4AC9F",
"EC c #A4AD9B",
"ED c #A4AD9C",
"EE c #A4AD9F",
"EF c #A4AE9D",
"EG c #A4AE9E",
"EH c #A4AEA0",
"EI c #A4AF9E",
"EJ c #A4B09D",
"EK c #A5A993",
"EL c #A5AA9C",
"EM c #A5AB9A",
"EN c #A5AB9D",
"EO c #A5AC9D",
"EP c #A5AC9F",
"EQ c #A5ADA0",
"ER c #A5AFA0",
"ES c #A5B0A0",
"ET c #A6A99A",
"EU c #A6AA9D",
"EV c #A6AB9C",
"EW c #A6AC9B",
"EX c #A6AC9F",
"EY c #A6AD9C",
"EZ c #A6ADA0",
"E[ c #A6AE9C",
"E] c #A6AEA1",
"E^ c #A6B29E",
"E_ c #A7AC9E",
"E` c #A7ACA3",
"Ea c #A7AD9E",
"Eb c #A8AB9F",
"Ec c #A8AEA3",
"Ed c #A8B1A5",
"Ee c #A8B3A3",
"Ef c #A9B09F",
"Eg c #A9B0A2",
"Eh c #A9B0A3",
"Ei c #A9B3A4",
"Ej c #A9B3A7",
"Ek c #AAB0A6",
"El c #AAB1A4",
"Em c #AAB1A6",
"En c #AAB2A1",
"Eo c #AAB3A5",
"Ep c #AAB4A7",
"Eq c #AAB4A8",
"Er c #ABB0A4",
"Es c #ABB1A4",
"Et c #ACAFA1",
"Eu c #ACB1A7",
"Ev c #ACB2A9",
"Ew c #ACB4A5",
"Ex c #ACB5A5",
"Ey c #ADB2A6",
"Ez c #ADB4A7",
"E{ c #ADB4A9",
"E| c #ADB5A5",
"E} c #ADB5A7",
"E~ c #ADB7A8",
"F! c #AEAFA4",
"F# c #AEB6A9",
"F$ c #AEB8A9",
"F% c #AFB6AA",
"F& c #AFB8A8",
"F' c #AFB8A9",
"F( c #AFB8AA",
"F) c #B0B9AB",
"F* c #B0BCAE",
"F+ c #B1B8A9",
"F, c #B1B9AB",
"F- c #B1B9AD",
"F. c #B1BBAA",
"F/ c #B2B9AC",
"F0 c #B2B9AD",
"F1 c #B2BBAD",
"F2 c #B3B7AA",
"F3 c #B3B7AC",
"F4 c #B3B9AF",
"F5 c #B3BBB1",
"F6 c #B4B9AD",
"F7 c #B4BAAF",
"F8 c #B9C4B5",
"F9 c #BBC4B7",
"F: c #BCC3B8",
"F; c #BDC2B9",
"F< c #BDC4B8",
"F= c #BDC5B9",
"F> c #BDC8B9",
"F? c #BEC4B1",
"F@ c #BEC5B9",
"FA c #BEC8BA",
"FB c #BFC5BC",
"FC c #C0C8BD",
"FD c #C0C9BB",
"FE c #C1C7BE",
"FF c #C2C7BE",
"FG c #C3C7BF",
"FH c #D1D6CC",
"FI c #D2D5CC",
"FJ c #D2D7CE",
"FK c #D3D7CF",
/* pixels */
"Cl5U5w?HAA@/=?@2B.<1AR@nAwBjC$CrDR?BDLDT;vA4A6B(?F<xE6Cp>Z>B@.9:8S@,?t@MD8E;:|=+A^AxB=9DCUDs>DD[CqBzC=BUAn@_=>?]>j:o?Q@-=l48/oCo",
"5U!%!$(s+R#K!+.o,-#u!X)Q(4'j#/1)0>#6(m=|':*1-R9'(c#S,S4d$y)*'t-(-)%j'O%50'*_!r%q9f/5&{$)1m,p#[1+/>#3%b)d0.!6#U*u1-!?!f):+Z!,!03h",
"0p!*!I(@-S!F!Q-$0K$2!<%C/S(F#29K._#*$'/p/f$3),<N5x$!(-=R)'!k$k*Q,=%Y#&'';h)/$40-<X(]%P+u4N%v#,+28(#1&s-=%}!M$I1/*~!Z!t+G&?!!!-5u",
">S,z)K7@5i*>$z>S?=5Z3&B8><1a3)CWBc2'9h:iCO9-='9b8B/q<E3z5#7Q?L+8-z@(:C9H1[:.2E9);;6=8HBB:o;L0;@>Cj1]6Y=-BP3l2T>,=f$`(01f4g$j-Z?z",
"@V.R+X2U-d/7+g7d9e2P9c:L,_5+:ACN?k,T53;.0J6~>GCyAt*38K;*2(-]4O<:=D4S)F.z>+7,,dBSD7>E2d4J>)9R2mBPCN:B8s/k8R:S1V8J5E+_,;-/6X)~.P@Z",
"?^!O!=*i,9$^!`8}3Z$F!G'u)f#w&t4c(a$()D6U%|$E)C:(%G%F8k4s'B#a%4*v*K#~!}*05}7:&j$q3W.O$t&B1_+V%#*B37&K$])h&u!N#}2j:I#B$1.T+{!E#0>c",
"?n!4!d$},=#%#_1x0I'7!n+9(='M$*;)<U%?:c:t9F+|*B>w?))0>C=6=0.{'$:V8J)%+u>Y?|?B%p>V=f*j,e5k:w:b%~;j>%&))!+V'I#N%W18'/!b#'.`%N!3!1<9",
"@e*P)E>u:_8/(nDkCs+f-2DX@$8<:/F!EY;d?!B<8T5%:c?dB&<;BO>l3/8l=p07/J?~516M9U?h<3Bs@`;I8j9iA'@F;-EGEs;m63?,D]-h,|D!D?0x8D;A=3,<,{C1",
">g,m-y9t;G.$.!C^3V1.3dD1Af=<88E?A;2A=LCXB%5<8@Ax@.1782A?3{3q0S2@0#5N1b4l>p8n1-@[A/:S:PBZC-=I0dCEE-:O6DB1D<3b129yC{7n/s;C;P2!,j>`",
"7.$B$x0h/m#f&b/?0=($$W,u'f.]-e20)k(y:q+[#+(87P,I&&'_8.3p$P)43(-!,~4X)`%:3G6w(2&_.c:B+F#q0~<<'D+}3!1$.:%{-Q'h)&1,/C&,#h.*5e$w#^<k",
"@3!Y!e2G9Q!7!_1%4U&>%t/B3e)|(&>z2C$v7j?^0t#.+(?2;A%w54;u5Q(_%1;z<]&5)[8d?r8y%z9l@].^%T2^@^>/$$6R<&'&/63e+c$c$92y.[#5!]8x5S!;!5=x",
"AU'o!sA89!&i'@DODM,o,3E_EV7q,bF/E5,k38EBCQ;r4^Bv;)*F=!<?8|4n6Y,|.W4k2M94=M;i)39?B[3;=TB~EP34,5ELF6&w4WE@ET.Q*xDHDV'F%D9+BX$n&M@g",
"B[-12p=g,^-a+O?}A.'>.-E0AF+A+HE[Ce&2-yDeB')@)cDh;h,c3r/v2?2$'c,X2i,)2$4X4T20'x;YDV*q,vA~Dt.|*.A`EW+T)v@4EX*c%gB0=s,8.Y/o=-(>*[B#",
"CM&c%I2N=9$C*s5,6;-+.x0b)50L;b(v(*+/AW/H%o%J;R:t*5(#A2AP0^/Q3I;h?@2Q/M1UA5A,'{))8]:r&|(Q-n?m5K'Z-B;]+v'a2~14-^<r6@)o$02e2V$Y(BCk",
"BE#)#o/-9Y$>%];t:P,+)V'N-Y6~2P@?<9+MB5.#)*&T7%:p:Y)jAJBc5r/e5n6s6k741C4rBd?[*t<i==9T)R('.zB50z;$>>5h=}){(G'Q+S8u??%_&$843A#A#?CI",
"Cu+i8rB*C;4a;SEoE:,U=1F5Ek1<?pFKF=*v28FDAO.y6GF2BD7(;#DI4n1N8p7D4~5)0Z6_D=<<6)BtF09}.w?eF?.,0/F@FH?q1*EdF1<]1/EBEq9>3=BfC,7'1!Di",
"D`,N1&@rBQ,E><E2AY*%3*E;C,)-8XF;E',4)iE|1n3c5yDw?V:{4fCz1;,2952z.B92+$4MC[755I>ZE%7w..0+F%)6,GE&F99u)XC<E>5_+^AZE(>8+.ATAM,I.<Dc",
";-!q$A210H%=&F;'-J(H%>*!%0,}+1,>,D()8E$p'<&v-v*Z30;M=65J1J1X7|6x7E1q3!5P<G>|9;5Y,~2k*/$X&D:B(W0|.T.f-&&o.L%w(x0e:+&F%x-u3^#D!o?$",
"Dy)A$69o6y*N27?J;^:T;)0k.p?9@64b)74DEn35,q2LCX;---1YEu>e8#69>m@P?X>-8?6s@eEi1e.i<VCw.20{4`Ey7E(i36AtBM-~3*;&<.=I@D5R*x6{<n$L)sDr",
"C>810Q99=K4#7gA+BL,E@READS08,YFCF'%+3.F#BW1F7oEC>}0U>s=[/Y,H3|2I/|6o)H-{=Y<]1E?KEQ+x.,AKE~+y&GF(FF.},ODaE:@-,JCm@99w2W<K:s0Q45C(",
">1)N/cBh0>&*4.7`C##77$CTA[)Q')?a4y%f*y@;;n8f%^>P+<5o8U5a7e;x,t,.,@0}>7;H3#:^6_*k@E&H-M?>A0)?&J8+B3)^(MB[CK9T#EC7:m0u$T0BCH*-%`=W",
"AN(E$87)57#W(%7K89*r#j;w(<&x'M.+-E&36S0W:69X2Z7G9*<a=.B2@V;c>q?}@K?u<C=o@^>J>}9i7{:86x7u/g4a&4/u.'({&z,s<W%&*I7O9$*:#-7K:K$K&v@h",
"@;(l'X;k>G*R%n<28@8)*q1^+B;S547i6h.yD90b)M8&D37K3g77B)?_/U6xCD931wBN8q16B-C@4k1P9SD02]&+34Cf0B1k<}6,7h+~33(g6v9.:v(P+I=/<V(+):Av",
"CR68;27-C';R@)@yAS/PAE@tDC:p5HF&E),A:$EK<b3<7FE%5G7_AkDZ8'57@0:B3U@}4x7>DW@e907fE%7J2U>UER<T,|E)F38V6<DJBAAI/FB[?8?.;RA=5@>75DCd",
"=_(34/89AS&0?PB=>a%+>(;(9B)+:^B;?,3D+d=5)_8;5`98<LAx.A>[/?7M4v,g+E798o*(@K1DBR;f6A.68:(b>N-m1i@LBX:Z*<<D:z:&%,@S@<?'&nAz:;/0)h>w",
"9=%K'61E&8&c$@9{,X*9%!,&(|)R)p8M9j<r5X0j4-<^4j>&AHEIBz91>~Db<P8z:N=QDj@I;>BCEF@d=H1d>M42734Y9~9k8P+C(K(N,$$7'].v8^'#&((U1E$_#96<",
"Dw/N(,;q8I3P56B86t<+6i<[1W@a@W<=4p>|Ee>E7/=kC)AQ,[AcE+AV9h449p:i9k6D4,7dC4E,CB-DAiCg>y:n=*Ej@G4%;WA!A,25=S9M517}Br:?3~:[7m*l0<Du",
"C]37:16]:#3R@V7#=]3u?o9=0Y?lBaD6CV=K@b=V2>?f?5DK@v3S@7D;8(2M>{@5A*=h2N7UC`AL6k?]D]?Z>f.0<W=w;iD*CvB$@m0R;Q;t0&;y7V=u5z9x.C6>3>Ct",
"@R$v'V1o,W(J?S0_7t$g1?8t3m1_4'4]1;3f7}/X97?Y-r7~+-?f;B6&8Q:F2t3[.t2,8A9/1p7.@e1z8,1.?1<4-w6u/u6J>k8%2R2A7W/h$:7r24@!'y/R9G&W%O<(",
";y)*!^5@*($[.h6{4)'+)Y3M-;19/W,`);/+59-:>@<{7N9#::D^426t7P3|:22b7H<`4%8q7C6`Dd7X8@5';X;t3Y4F3l*L/}2&-@4I<)(Z)12S4@+l#G-b5-!l*;=U",
"?8$?$S@M2F#Y%k>X1L2x&.4z055f76=8:M6$;14&*|=,Ar@`4o=X96@A1@?v@{>t>t>^>I+t=m:a;03?@_A1<_3X6g>.6f9*8;5m1[.Z8$%d/%/#?/$r#~1I@$&^&yA%",
":!+b,4-C9C-O9*+k2C+3=a+Y+5;q7y6q1Q6w>R-K+Q?N0v5'(96(:GB63`1r;|.k.><!5~/]?j7c5&/3:C4>@J,8.5>Q9O5W7|47;n,V(;<]+03(1#9g+K<y0E,w1';O",
":p-'.R-C<>)y5|+a6Q/@=)*O-<;y6+5{3i85?*./,0@M6#:H+K5B9s@j2l7I=]-609<$2_.u@f:j7W)s6.58?)(o1S?-5?-G3T53=b0@(q=V.b1Y+_7B,+;Z0D(r'48U",
"@^&q%X>_0M$a&y>Z/a2B%i4+,#/.3I9]:h8&>18g,r=i@hA#+z;5<-<'*d>w@-=`>;@T>x23?C8P;q7;AhB:@B-V4s>22`<3</1g.8*s4q&l1T1B@H(L$d0W>W$=$Z={",
">A)U!j:S.X#<.=671k)a'[400C-9.(1R)>0d5@6I<K9B7K6r.DD'6^5t6.:9>O8-6u>K5p8}8e0,DQ7<535&<R<|/G9d0c*S1K0F,P.%3N'])g6`661|#y,F5+#M'P=j",
"=7$#&V1s0J%l@C5V50%S2u:J3-2H4&:772-F45*^;F<g/L9N4G>}:E3T=;:?/l.)2s1=6(:c8m:R?N*)5#/R@P=@,S4&4R3$3L5/3p5b9'/g$M7{.1:3&r1:5|*7%6@%",
"C/6[;s3C<y6{=p4B;73B:08a/(A}B$CaCW=b?3<Y7s>h>[D&<c:UAXD/4t4y>HB:Ap=j6m4{CZB=8K=oD4?-;931='@.=[CVD2BFAS/';e<~5j;855>]5>9~.9;m3JCY",
"E#0:)Y;p7Z6%>$?g4;654|:,/#B_@z=O2=?VEt>x<p=kC*A&*+CADpAp9^2[:g<q;?:d3N5B@qDzBK10@zCR<e9r=eEp=r0a<D>b@k-F<H8h7S8iC6;`9L7[<J'W-tE+",
"8`!a#g-H'R(C*g:y0G+;%U+D)T%3(79&;J9v5[3_6Z>T4f9/B6EJD$:=?:DD=(639,<YDm@e6*D0ER@88O1c=n5l2.5c;V<68=)l(V(~,%%<*o-}9z','i(!2<${#F;[",
"?-*p0r9eAN&m@IAYAD%[7a<B<M'R8OA9@R0!*]?&(j7*0[7e<Z@3.s<f/@6`1`)t+N3y6a/A?Y11?c>E705T8C*w=k,K34@,Ay:f)+;l:):]&A@^B`?O&rB>5A6d*E=t",
"CQ:S;p8NC:=U>GA%AM,M@YBuD&9:6CF,D{2h;/EO>|.E6'Dv:T;)@~DV4r5=@c/16wA$8G7=D@@^;,6BDu1t4=?'E@=J.SD|F+;D;EDBB]=z1(BV?`<%>3Ab2f=&:TC!",
"A1,7*?>F=d*W(,>#9f6-+,4e(.<r7*9@1l2nD,4V&e2YD}863'4*C&@'+67MB4526lAt6.+o@*Bm0p/x2cD>5q&F1OC~.%6p<y5F:})]3w-,7!9(8Y'.*$>F>v(1)>AM",
"AT'z$58H7L$u)160:Q.G$Q<V+$%2*f-A.~'q/*4P3E7M6e1`7Y?G>UAl@V=B>S?,@O=m:'AeB7=k=45<4f4.6{3J/n/{&O4Q*`'K'J+#>9%;):5)5$+?#V:X7^#i)!Ao",
"=f%A/#Bx2)&a2X;UB{#R49C9Cc&:)$Aj8-%-,hAK=N4(%e?&*J3@:c1O<v=B-T*},,)u;T6F1M7e0s'b?#&#3K;gAp)9&E:<A*'%)$B!BJ0*#]Bi;N74%(2rCS.?&f?D",
"CV51.@:o<I4m=HC2D)-g@NE-DQ,L0TFGE}&k3,ExA00Q0`EE>x32<!;t-q-36b/}.44r/N/I>o<#0%@CE2/&22@lEz4d%.E}F>1G-iDlEN?W+,Cn@i;_3:=Q:`./4>Bo",
"D=,)$&:q6r,>9EA@<O;!>:4i.wAqBd/~'^7+Ew0g+J6ND,;^-k3oEl?,4p6}>5>S?T;r877x@QEr0f-k=GD-3v,i2KE{8{'`:5A:@6.q1j?s;6>*@w6:*&6!:y%u-QDP",
">C$/#D2v2%%%$i<w5g'A&=-P'=,y.K+L-[():>';%E's.r++1c:}>Z>F/$/{6l6/9T4}1U/r;{?%8b4$+*/Z'r%a#>:@((-*)x)>*#&L)}%M'm1N<@$;$</^.&#Q$.>?",
"Do.j,BCGAs)e=%E1B#)83)E7BI([;XF<ED.T*CF'5|2+3ODx?X9n5eC|2:(h8~0]0%8w*G-ICV0$7b@+E32Z3]6jF$&Z(uE=FB<t*hBgE&4Z(6B%EZ>4'(BqBb,C.nDn",
"D++`4?A>A]3k<xE^EH3%?IF.Ec/`;/FJF8-W0nFAA*22<zF-B^8L:-D%1Z.35A1o467R2I-LD4;h7[A3F);+,]AmFE3<,sF:FI7k5LESF*?y3tE:Em<y4[BzCW7!*'D.",
"C?!h#O5c5)&P&y>19Z1y(d*e*M917C@@;Q-,B[0X*='w9P9q90(f@{CF5v-u4f4:5{5f-97;B@@W)n<0<85;(T*m0NBw.e9|;51q9/.P&}+>069%>-'v&Q:C4c!y!VB#",
"Bk'g'p7p4E#;)P9I;P.V)G5])q-87}*,+:-XAu+j's'?=A:p(X&9A6@=0(->3H<Q=#4f+s1hA:Ar&U*68_;,'~%j-`Ax*V'U-s4u-4)91H(:+]9t3K'E#d7&2;&N&%Bp",
"B[%r**>E/z'*'2@#@c&]*bEM@],l.;EgBx#m+qD~BY*'&XDg>n%H0O.7,a13-U+7-x,/-|39/w/t(z;hDY(/+!BDD`,R%hC+Eh*{)=B1Ea2-%@Ag?0+U*@+w;}/H,!A<",
"A('H&-BQ8G'!(RDqDG00+)EbE83b'nF4E;*z0oEUC%<F/)B}<5)j;h;X8;437;+P(p6c4.8?<u>5)n:sC86V>0CUE/0l/4E.F7(D1AE]E?/;,*DFDN(S)#9WAT$V&~?i",
"?6!2!(6L8{#$#p-l26&(%?.N-H+4'-?E6W%Z=Q@]9b'8*DAL=F$%4w9A-D)Z$l7l;3%'#Z/c6H4&$b:%At(5#k:e@U:0%y2J=5(^+p/!'d%V&g2}.h!z#!;:2}!R!K@|",
":u#t#{2q4h%L)J*%0>'C%$.I)O(t*H3a,r&p9`.a#8,f::.l%*(e613x$~(e0V-)+e2/+=$N2O62).&*-p8')w#s-&2g'F,14K)m,:%/(k$e(I'5+$$h#e4!,Z#H!{=~",
"@+/21!;V;=(?:4C0<m0?27DfD(<49[E9Be6O=PC~B|6|:DATB/+n7C=Z44421>2D/,/d3F5s=W7?.r=y@:9&:B@sC}<?3nBGE`5@:l>iDA2>,Q8WC./[1~;@;]+1-N@0",
"@z4H/K>L=:2a*QDWD,-Z-5D6@*6n>6EfE4:*?8A-7]1v6EABA6;KCb?;718>?(-_-c?R7&/p80C5:xBR@Z9u9a6?BT@^;%E<Ev<N3}@&D_.g'3C_DU+O8:7`@u+m2#?b",
";P!J!L$}02#L#v01/_&!!m)(.M.F'};a=q'l3,;Y7{*2&SB,?M'L5!=v?M-0)L466z%c-#=p@Q7T(}<d?+(Y&;8h;d0i$o>;=F%m)2)B)S#4&C2o,6#`!H+&$O![!B:y",
"?U!g!D*n.U#|!i842*$D!T(x/=$0&_3j-c&[+W0q%B#b+'8c'A(A7z4C&7!|$f)z'1#=#z'G<h4<$+&R=$.S$C&'4^*X$R-j/y%)#X-''o!G#c/b83$,$G,x+@!F!u@V",
"AB,',n5i-.,w.W9<9m5.:K<l4R8F:HCQBT1}5:;,1.5*><BnA{'|9!>'2{+`29<A<s2|1{4L;46@*4A7Ci?w67/V<M4A+rB9Cx5(8v2}5C<,157a:W,?*S/<4$+K)r?4",
"?t/9&A5^6T*A%9=c?<0A0_BV?A3+0mCLAx2w8Z<oC7;<=29V1u*a;h0)3Q9_?W/i.~@X9)9J7v=^4_6y64>=9-By:k8[5MApCP5d6P>rC36K-?=C>w%7)b343s&D,9>M",
"41!'!#'9.J#n!~-o/E#I!S$U/T(O#@6v.d#r$|/j)I%Q)W;o1m#~&Y<Q$s!w#l*Y*U&@#('T;/*8%s6u<X(`%80R0P#J#P+h8*!v'x.m&`##$H/D-f!P!>,($m!.!&7A",
"23!A!904+%!U!:/80y!W!c&/-k&d$-/:-j!p'0<*&I&6*x8@'Y#x-33C%R&<&1+]'e'k'S$J//-7#:)a9&,((M&h8!)<#C---%!80w/O(w!C#T.H03!@!x+#*T!)!/5O",
"Cr2-78?x@Y@}=E@-=z>!?7A)B>BHA_D#E*;qCCAd;~B?@pAa@T;LE,D:@*>sA%:{:~Ak;x@xDEE$<7B+A`A3@o;~ChD5<SE!D+BlCJA|AG@1<j@^AC=G>d@V?{791EC_"
};
