/* XPM */
static char *grass_01[] = {
/* columns rows colors chars-per-pixel */
"64 64 2382 2",
/* colors */
"!! c #051A13",
"!# c #061D10",
"!$ c #071C10",
"!% c #071E12",
"!& c #072115",
"!' c #072214",
"!( c #072313",
"!) c #072314",
"!* c #081D12",
"!+ c #082012",
"!, c #082111",
"!- c #082114",
"!. c #082310",
"!/ c #082312",
"!0 c #082314",
"!1 c #082315",
"!2 c #082319",
"!3 c #091B10",
"!4 c #091F15",
"!5 c #091F19",
"!6 c #092112",
"!7 c #092114",
"!8 c #092214",
"!9 c #092218",
"!: c #092313",
"!; c #09240D",
"!< c #092412",
"!= c #092413",
"!> c #092414",
"!? c #092415",
"!@ c #092416",
"!A c #092418",
"!B c #09241B",
"!C c #092512",
"!D c #092514",
"!E c #092613",
"!F c #092616",
"!G c #092710",
"!H c #092714",
"!I c #092715",
"!J c #092814",
"!K c #092816",
"!L c #092817",
"!M c #092911",
"!N c #092915",
"!O c #092A12",
"!P c #092A16",
"!Q c #092A17",
"!R c #092A18",
"!S c #092A19",
"!T c #092A1A",
"!U c #092A1B",
"!V c #092B13",
"!W c #092B16",
"!X c #092B19",
"!Y c #0A1D15",
"!Z c #0A1F15",
"![ c #0A2016",
"!] c #0A2017",
"!^ c #0A2018",
"!_ c #0A2110",
"!` c #0A2111",
"!a c #0A2114",
"!b c #0A2115",
"!c c #0A2212",
"!d c #0A2215",
"!e c #0A2315",
"!f c #0A231A",
"!g c #0A2412",
"!h c #0A2413",
"!i c #0A2415",
"!j c #0A2417",
"!k c #0A2511",
"!l c #0A2512",
"!m c #0A2513",
"!n c #0A2514",
"!o c #0A2515",
"!p c #0A2516",
"!q c #0A2517",
"!r c #0A2518",
"!s c #0A2519",
"!t c #0A251B",
"!u c #0A251C",
"!v c #0A2615",
"!w c #0A2617",
"!x c #0A2619",
"!y c #0A261A",
"!z c #0A2714",
"!{ c #0A2716",
"!| c #0A2717",
"!} c #0A271A",
"!~ c #0A271D",
"#! c #0A2811",
"## c #0A2815",
"#$ c #0A2816",
"#% c #0A2817",
"#& c #0A2915",
"#' c #0A2916",
"#( c #0A2917",
"#) c #0A2918",
"#* c #0A2A13",
"#+ c #0A2A16",
"#, c #0A2A18",
"#- c #0A2A19",
"#. c #0A2A1A",
"#/ c #0A2C16",
"#0 c #0A2D14",
"#1 c #0A2D17",
"#2 c #0A2E15",
"#3 c #0A2E16",
"#4 c #0A2E18",
"#5 c #0A2E19",
"#6 c #0A2E1D",
"#7 c #0A2F17",
"#8 c #0A2F19",
"#9 c #0A2F1B",
"#: c #0A2F1E",
"#; c #0A3016",
"#< c #0A301B",
"#= c #0A3115",
"#> c #0A3116",
"#? c #0A3117",
"#@ c #0A3216",
"#A c #0A3218",
"#B c #0A3219",
"#C c #0B1F1A",
"#D c #0B2011",
"#E c #0B2013",
"#F c #0B2017",
"#G c #0B2111",
"#H c #0B2118",
"#I c #0B2119",
"#J c #0B2214",
"#K c #0B2215",
"#L c #0B230E",
"#M c #0B2316",
"#N c #0B2413",
"#O c #0B2415",
"#P c #0B2416",
"#Q c #0B2515",
"#R c #0B2517",
"#S c #0B2611",
"#T c #0B2612",
"#U c #0B2613",
"#V c #0B2614",
"#W c #0B2615",
"#X c #0B2616",
"#Y c #0B2617",
"#Z c #0B2618",
"#[ c #0B2619",
"#] c #0B261A",
"#^ c #0B2714",
"#_ c #0B2715",
"#` c #0B2716",
"#a c #0B2717",
"#b c #0B2719",
"#c c #0B271B",
"#d c #0B2814",
"#e c #0B2815",
"#f c #0B2816",
"#g c #0B2817",
"#h c #0B2818",
"#i c #0B2916",
"#j c #0B2917",
"#k c #0B2919",
"#l c #0B291B",
"#m c #0B2A16",
"#n c #0B2A17",
"#o c #0B2A18",
"#p c #0B2A19",
"#q c #0B2A1B",
"#r c #0B2C14",
"#s c #0B2C16",
"#t c #0B2C17",
"#u c #0B2C18",
"#v c #0B2C1A",
"#w c #0B2C1B",
"#x c #0B2C1C",
"#y c #0B2D15",
"#z c #0B2D16",
"#{ c #0B2D17",
"#| c #0B2D18",
"#} c #0B2D19",
"#~ c #0B2E13",
"$! c #0B2E14",
"$# c #0B2E16",
"$$ c #0B2E18",
"$% c #0B2F14",
"$& c #0B2F17",
"$' c #0B2F18",
"$( c #0B2F19",
"$) c #0B2F1D",
"$* c #0B3016",
"$+ c #0B3018",
"$, c #0B3019",
"$- c #0B301B",
"$. c #0B301C",
"$/ c #0C1C12",
"$0 c #0C1F0C",
"$1 c #0C1F11",
"$2 c #0C211A",
"$3 c #0C2213",
"$4 c #0C2413",
"$5 c #0C2414",
"$6 c #0C2417",
"$7 c #0C2418",
"$8 c #0C2419",
"$9 c #0C241C",
"$: c #0C2511",
"$; c #0C2516",
"$< c #0C2517",
"$= c #0C251A",
"$> c #0C2613",
"$? c #0C2615",
"$@ c #0C2616",
"$A c #0C2619",
"$B c #0C2712",
"$C c #0C2713",
"$D c #0C2714",
"$E c #0C2715",
"$F c #0C2716",
"$G c #0C2717",
"$H c #0C2718",
"$I c #0C2719",
"$J c #0C271A",
"$K c #0C271B",
"$L c #0C2811",
"$M c #0C2813",
"$N c #0C2815",
"$O c #0C2816",
"$P c #0C2817",
"$Q c #0C2819",
"$R c #0C2910",
"$S c #0C2916",
"$T c #0C2918",
"$U c #0C2919",
"$V c #0C291A",
"$W c #0C2B14",
"$X c #0C2B16",
"$Y c #0C2B1C",
"$Z c #0C2C14",
"$[ c #0C2C16",
"$] c #0C2C18",
"$^ c #0C2C19",
"$_ c #0C2C1A",
"$` c #0C2C1B",
"$a c #0C2D15",
"$b c #0C2D16",
"$c c #0C2D17",
"$d c #0C2D18",
"$e c #0C2D19",
"$f c #0C2D1B",
"$g c #0C2D1D",
"$h c #0C2E14",
"$i c #0C2E17",
"$j c #0C2E18",
"$k c #0C2E1B",
"$l c #0C2F18",
"$m c #0C2F19",
"$n c #0C2F1A",
"$o c #0C3116",
"$p c #0C3117",
"$q c #0C3119",
"$r c #0C311A",
"$s c #0C311E",
"$t c #0C3217",
"$u c #0C3219",
"$v c #0C321A",
"$w c #0C321D",
"$x c #0C3318",
"$y c #0C3319",
"$z c #0C331B",
"${ c #0C331E",
"$| c #0C331F",
"$} c #0C3413",
"$~ c #0C3418",
"%! c #0C341B",
"%# c #0C341C",
"%$ c #0C351B",
"%% c #0C3614",
"%& c #0D1F18",
"%' c #0D2114",
"%( c #0D2211",
"%) c #0D2213",
"%* c #0D2215",
"%+ c #0D2216",
"%, c #0D2218",
"%- c #0D2313",
"%. c #0D2314",
"%/ c #0D2315",
"%0 c #0D2316",
"%1 c #0D2411",
"%2 c #0D2416",
"%3 c #0D2418",
"%4 c #0D241A",
"%5 c #0D2515",
"%6 c #0D2517",
"%7 c #0D2518",
"%8 c #0D251C",
"%9 c #0D2612",
"%: c #0D2615",
"%; c #0D2618",
"%< c #0D2619",
"%= c #0D2715",
"%> c #0D2716",
"%? c #0D2719",
"%@ c #0D2811",
"%A c #0D2813",
"%B c #0D2814",
"%C c #0D2815",
"%D c #0D2816",
"%E c #0D2817",
"%F c #0D2818",
"%G c #0D2819",
"%H c #0D281A",
"%I c #0D281B",
"%J c #0D281D",
"%K c #0D2917",
"%L c #0D2919",
"%M c #0D291B",
"%N c #0D2A17",
"%O c #0D2A19",
"%P c #0D2B10",
"%Q c #0D2B17",
"%R c #0D2B18",
"%S c #0D2B1A",
"%T c #0D2B1B",
"%U c #0D2C15",
"%V c #0D2C16",
"%W c #0D2C1B",
"%X c #0D2C21",
"%Y c #0D2D17",
"%Z c #0D2D19",
"%[ c #0D2D1A",
"%] c #0D3016",
"%^ c #0D3018",
"%_ c #0D301A",
"%` c #0D301C",
"%a c #0D301E",
"%b c #0D3115",
"%c c #0D3118",
"%d c #0D3119",
"%e c #0D311A",
"%f c #0D311E",
"%g c #0D3216",
"%h c #0D3218",
"%i c #0D321A",
"%j c #0D321B",
"%k c #0D3317",
"%l c #0D3318",
"%m c #0D331A",
"%n c #0D3411",
"%o c #0D3413",
"%p c #0D3419",
"%q c #0D341C",
"%r c #0D3515",
"%s c #0D3517",
"%t c #0D351D",
"%u c #0D3618",
"%v c #0D361A",
"%w c #0D371D",
"%x c #0D391B",
"%y c #0D3A17",
"%z c #0D3A19",
"%{ c #0E1E10",
"%| c #0E2213",
"%} c #0E2214",
"%~ c #0E2313",
"&! c #0E2314",
"&# c #0E2316",
"&$ c #0E2317",
"&% c #0E2318",
"&& c #0E231B",
"&' c #0E2411",
"&( c #0E2413",
"&) c #0E2512",
"&* c #0E2515",
"&+ c #0E251A",
"&, c #0E251B",
"&- c #0E2613",
"&. c #0E2614",
"&/ c #0E2616",
"&0 c #0E2714",
"&1 c #0E2716",
"&2 c #0E2817",
"&3 c #0E2818",
"&4 c #0E2A11",
"&5 c #0E2A13",
"&6 c #0E2A15",
"&7 c #0E2A16",
"&8 c #0E2A17",
"&9 c #0E2A18",
"&: c #0E2A19",
"&; c #0E2A1A",
"&< c #0E2A1D",
"&= c #0E2B13",
"&> c #0E2B14",
"&? c #0E2B15",
"&@ c #0E2B16",
"&A c #0E2B17",
"&B c #0E2B18",
"&C c #0E2B19",
"&D c #0E2B1A",
"&E c #0E2B1B",
"&F c #0E2D15",
"&G c #0E2D18",
"&H c #0E2D19",
"&I c #0E2D1B",
"&J c #0E2E13",
"&K c #0E2E16",
"&L c #0E2E17",
"&M c #0E2E19",
"&N c #0E2E1A",
"&O c #0E2E1C",
"&P c #0E2F12",
"&Q c #0E2F13",
"&R c #0E2F15",
"&S c #0E2F16",
"&T c #0E2F17",
"&U c #0E2F18",
"&V c #0E2F19",
"&W c #0E2F1A",
"&X c #0E2F1C",
"&Y c #0E2F21",
"&Z c #0E3017",
"&[ c #0E3018",
"&] c #0E3019",
"&^ c #0E301A",
"&_ c #0E301B",
"&` c #0E301E",
"&a c #0E3114",
"&b c #0E3115",
"&c c #0E3118",
"&d c #0E311B",
"&e c #0E311E",
"&f c #0E3217",
"&g c #0E321B",
"&h c #0E3314",
"&i c #0E3317",
"&j c #0E3318",
"&k c #0E3319",
"&l c #0E3417",
"&m c #0E3419",
"&n c #0E341A",
"&o c #0E341C",
"&p c #0E3518",
"&q c #0E3519",
"&r c #0E351A",
"&s c #0E3614",
"&t c #0E3618",
"&u c #0E3619",
"&v c #0E361A",
"&w c #0E361B",
"&x c #0E381A",
"&y c #0E3A19",
"&z c #0E3A1A",
"&{ c #0E3A1C",
"&| c #0E3B19",
"&} c #0E3B1C",
"&~ c #0E3B1D",
"'! c #0E3B1E",
"'# c #0E3D1C",
"'$ c #0F1D16",
"'% c #0F2014",
"'& c #0F201A",
"'' c #0F2117",
"'( c #0F2315",
"') c #0F2415",
"'* c #0F2418",
"'+ c #0F2419",
"', c #0F2515",
"'- c #0F2516",
"'. c #0F2517",
"'/ c #0F2613",
"'0 c #0F2615",
"'1 c #0F2616",
"'2 c #0F2618",
"'3 c #0F2619",
"'4 c #0F261A",
"'5 c #0F2710",
"'6 c #0F2713",
"'7 c #0F2718",
"'8 c #0F2B16",
"'9 c #0F2B17",
"': c #0F2B18",
"'; c #0F2B19",
"'< c #0F2B1A",
"'= c #0F2B1D",
"'> c #0F2B1E",
"'? c #0F2B1F",
"'@ c #0F2C16",
"'A c #0F2C17",
"'B c #0F2C19",
"'C c #0F2C1A",
"'D c #0F2D15",
"'E c #0F2D17",
"'F c #0F2D18",
"'G c #0F2D1B",
"'H c #0F2E14",
"'I c #0F2E17",
"'J c #0F2E19",
"'K c #0F2E1A",
"'L c #0F2E1B",
"'M c #0F2E1D",
"'N c #0F2F17",
"'O c #0F2F1B",
"'P c #0F2F20",
"'Q c #0F3015",
"'R c #0F3017",
"'S c #0F3018",
"'T c #0F301B",
"'U c #0F301C",
"'V c #0F3117",
"'W c #0F3119",
"'X c #0F311B",
"'Y c #0F3215",
"'Z c #0F3216",
"'[ c #0F3217",
"'] c #0F3218",
"'^ c #0F3219",
"'_ c #0F321A",
"'` c #0F321C",
"'a c #0F3317",
"'b c #0F3318",
"'c c #0F3319",
"'d c #0F331C",
"'e c #0F3416",
"'f c #0F3418",
"'g c #0F3419",
"'h c #0F341A",
"'i c #0F341B",
"'j c #0F3518",
"'k c #0F3616",
"'l c #0F3719",
"'m c #0F371B",
"'n c #0F3819",
"'o c #0F381E",
"'p c #0F3A1A",
"'q c #0F3B1A",
"'r c #0F3C18",
"'s c #0F3C1B",
"'t c #0F3C1D",
"'u c #0F3D1B",
"'v c #0F3D1C",
"'w c #101E13",
"'x c #102416",
"'y c #10241A",
"'z c #102510",
"'{ c #102515",
"'| c #102516",
"'} c #10251A",
"'~ c #10251B",
"(! c #10251D",
"(# c #10251E",
"($ c #102616",
"(% c #102814",
"(& c #102815",
"(' c #102816",
"(( c #102817",
"() c #102818",
"(* c #10281A",
"(+ c #10281D",
"(, c #102A18",
"(- c #102A19",
"(. c #102A1C",
"(/ c #102B14",
"(0 c #102B15",
"(1 c #102B16",
"(2 c #102B17",
"(3 c #102B18",
"(4 c #102B19",
"(5 c #102B1A",
"(6 c #102B1C",
"(7 c #102C13",
"(8 c #102C15",
"(9 c #102C16",
"(: c #102C17",
"(; c #102C18",
"(< c #102C19",
"(= c #102C1A",
"(> c #102C1B",
"(? c #102C1C",
"(@ c #102C1D",
"(A c #102C1E",
"(B c #102D14",
"(C c #102D17",
"(D c #102D18",
"(E c #102D19",
"(F c #102D1A",
"(G c #102E17",
"(H c #102E18",
"(I c #102E1A",
"(J c #102E1B",
"(K c #102E1D",
"(L c #102E20",
"(M c #102F12",
"(N c #102F15",
"(O c #102F17",
"(P c #102F19",
"(Q c #102F1A",
"(R c #102F1B",
"(S c #103016",
"(T c #103017",
"(U c #103018",
"(V c #103019",
"(W c #10301A",
"(X c #10301B",
"(Y c #103116",
"(Z c #103117",
"([ c #103118",
"(] c #103119",
"(^ c #10311B",
"(_ c #10311C",
"(` c #10311D",
"(a c #10321B",
"(b c #103316",
"(c c #103319",
"(d c #10331A",
"(e c #10331C",
"(f c #103418",
"(g c #103419",
"(h c #10341B",
"(i c #10341D",
"(j c #103514",
"(k c #103515",
"(l c #103518",
"(m c #10351B",
"(n c #10371A",
"(o c #10371D",
"(p c #103818",
"(q c #10381D",
"(r c #103917",
"(s c #10391F",
"(t c #103A1B",
"(u c #103B17",
"(v c #103B1B",
"(w c #103C1A",
"(x c #103D1D",
"(y c #103D1F",
"(z c #104415",
"({ c #111E13",
"(| c #112019",
"(} c #112315",
"(~ c #112715",
")! c #112717",
")# c #112718",
")$ c #112919",
")% c #11291C",
")& c #112A15",
")' c #112A17",
")( c #112A19",
")) c #112B16",
")* c #112B19",
")+ c #112B1A",
"), c #112C13",
")- c #112C14",
"). c #112C15",
")/ c #112C16",
")0 c #112C18",
")1 c #112C19",
")2 c #112C1A",
")3 c #112C1B",
")4 c #112C1C",
")5 c #112C1D",
")6 c #112D16",
")7 c #112D18",
")8 c #112D19",
")9 c #112D1A",
"): c #112D1B",
"); c #112D1D",
")< c #112E15",
")= c #112E17",
")> c #112E18",
")? c #112E19",
")@ c #112E1B",
")A c #112E20",
")B c #112F16",
")C c #112F18",
")D c #112F19",
")E c #112F1A",
")F c #112F1B",
")G c #112F1C",
")H c #113016",
")I c #113017",
")J c #113019",
")K c #11301A",
")L c #113116",
")M c #113118",
")N c #113119",
")O c #11311A",
")P c #11311D",
")Q c #11311F",
")R c #113217",
")S c #113219",
")T c #11321A",
")U c #11321B",
")V c #11321C",
")W c #11321D",
")X c #113221",
")Y c #113317",
")Z c #113318",
")[ c #113319",
")] c #11331A",
")^ c #11331B",
")_ c #11331C",
")` c #113416",
")a c #113418",
")b c #113419",
")c c #11341A",
")d c #11341C",
")e c #113519",
")f c #113520",
")g c #113521",
")h c #113717",
")i c #11371C",
")j c #11371F",
")k c #113817",
")l c #113818",
")m c #113819",
")n c #11381C",
")o c #11381D",
")p c #11381E",
")q c #113A15",
")r c #113A1A",
")s c #113E1D",
")t c #113E20",
")u c #11401B",
")v c #121C15",
")w c #122016",
")x c #122116",
")y c #122419",
")z c #122517",
"){ c #122616",
")| c #122617",
")} c #122716",
")~ c #122717",
"*! c #122718",
"*# c #122719",
"*$ c #12271A",
"*% c #122817",
"*& c #122818",
"*' c #122819",
"*( c #12291A",
"*) c #122A18",
"** c #122A1A",
"*+ c #122A20",
"*, c #122A22",
"*- c #122B1A",
"*. c #122C15",
"*/ c #122C17",
"*0 c #122C18",
"*1 c #122C19",
"*2 c #122C1A",
"*3 c #122C1B",
"*4 c #122D14",
"*5 c #122D15",
"*6 c #122D16",
"*7 c #122D17",
"*8 c #122D18",
"*9 c #122D19",
"*: c #122D1A",
"*; c #122D1B",
"*< c #122D1C",
"*= c #122D1D",
"*> c #122D1E",
"*? c #122D21",
"*@ c #122E18",
"*A c #122E19",
"*B c #122E1B",
"*C c #122F17",
"*D c #122F19",
"*E c #122F1A",
"*F c #122F1B",
"*G c #122F1C",
"*H c #123015",
"*I c #123017",
"*J c #123019",
"*K c #12301A",
"*L c #12301B",
"*M c #12301D",
"*N c #123021",
"*O c #123117",
"*P c #123118",
"*Q c #123119",
"*R c #12311A",
"*S c #12311B",
"*T c #12311C",
"*U c #12311D",
"*V c #12321A",
"*W c #12321D",
"*X c #12321E",
"*Y c #123221",
"*Z c #123317",
"*[ c #123318",
"*] c #123319",
"*^ c #12331B",
"*_ c #12331C",
"*` c #12331E",
"*a c #123418",
"*b c #123419",
"*c c #12341A",
"*d c #123616",
"*e c #123619",
"*f c #12361E",
"*g c #123717",
"*h c #12371B",
"*i c #123818",
"*j c #12381C",
"*k c #12381D",
"*l c #12381F",
"*m c #123917",
"*n c #123919",
"*o c #12391A",
"*p c #12391B",
"*q c #12391C",
"*r c #12391F",
"*s c #123A19",
"*t c #123A1A",
"*u c #123A1C",
"*v c #123B1B",
"*w c #123C19",
"*x c #123C1B",
"*y c #123C20",
"*z c #123E12",
"*{ c #123E1B",
"*| c #123F1D",
"*} c #123F21",
"*~ c #124516",
"+! c #12471F",
"+# c #132515",
"+$ c #132516",
"+% c #132519",
"+& c #13251B",
"+' c #13261B",
"+( c #132814",
"+) c #132819",
"+* c #132918",
"++ c #13291B",
"+, c #132A0E",
"+- c #132A17",
"+. c #132A18",
"+/ c #132A1A",
"+0 c #132A1C",
"+1 c #132B17",
"+2 c #132B18",
"+3 c #132B1A",
"+4 c #132B1B",
"+5 c #132C17",
"+6 c #132C18",
"+7 c #132C1A",
"+8 c #132C1B",
"+9 c #132C1E",
"+: c #132D15",
"+; c #132D19",
"+< c #132D1A",
"+= c #132D1D",
"+> c #132E16",
"+? c #132E17",
"+@ c #132E18",
"+A c #132E19",
"+B c #132E1A",
"+C c #132E1B",
"+D c #132E1C",
"+E c #132E1D",
"+F c #132E22",
"+G c #132F19",
"+H c #132F1A",
"+I c #132F1B",
"+J c #132F1D",
"+K c #132F20",
"+L c #133018",
"+M c #133019",
"+N c #13301A",
"+O c #13301C",
"+P c #133116",
"+Q c #133119",
"+R c #13311A",
"+S c #13311C",
"+T c #13311E",
"+U c #133218",
"+V c #13321B",
"+W c #13321C",
"+X c #13321E",
"+Y c #133317",
"+Z c #13331B",
"+[ c #13331D",
"+] c #133415",
"+^ c #133417",
"+_ c #133419",
"+` c #13341A",
"+a c #13341C",
"+b c #13341D",
"+c c #13341E",
"+d c #13341F",
"+e c #133518",
"+f c #13351A",
"+g c #13351C",
"+h c #133617",
"+i c #133618",
"+j c #133619",
"+k c #13361D",
"+l c #13361E",
"+m c #13371B",
"+n c #13371C",
"+o c #13371D",
"+p c #13381B",
"+q c #13391C",
"+r c #13391F",
"+s c #133A1C",
"+t c #133A1E",
"+u c #133B19",
"+v c #133B1B",
"+w c #133B22",
"+x c #133C15",
"+y c #133C1F",
"+z c #133D1A",
"+{ c #133D1E",
"+| c #13401C",
"+} c #13411C",
"+~ c #13411D",
",! c #142315",
",# c #14231A",
",$ c #142518",
",% c #142616",
",& c #14261D",
",' c #142819",
",( c #14281F",
",) c #142914",
",* c #142916",
",+ c #142917",
",, c #142918",
",- c #142919",
",. c #14291A",
",/ c #142A14",
",0 c #142A17",
",1 c #142A19",
",2 c #142A1A",
",3 c #142B18",
",4 c #142B19",
",5 c #142B1E",
",6 c #142C15",
",7 c #142C18",
",8 c #142D0F",
",9 c #142D18",
",: c #142D19",
",; c #142D1A",
",< c #142D1B",
",= c #142D22",
",> c #142E16",
",? c #142E19",
",@ c #142E1B",
",A c #142E1C",
",B c #142E1D",
",C c #142F14",
",D c #142F16",
",E c #142F17",
",F c #142F18",
",G c #142F19",
",H c #142F1A",
",I c #142F1B",
",J c #142F1C",
",K c #142F1D",
",L c #142F1E",
",M c #142F1F",
",N c #142F20",
",O c #143016",
",P c #143017",
",Q c #143018",
",R c #143019",
",S c #14301A",
",T c #14301B",
",U c #14301C",
",V c #14301D",
",W c #14301E",
",X c #14301F",
",Y c #143115",
",Z c #14311B",
",[ c #14311C",
",] c #143121",
",^ c #143216",
",_ c #143217",
",` c #14321A",
",a c #14321D",
",b c #143221",
",c c #143315",
",d c #143319",
",e c #14331A",
",f c #14331C",
",g c #143515",
",h c #143517",
",i c #143519",
",j c #14351A",
",k c #14351B",
",l c #14351D",
",m c #14351E",
",n c #14351F",
",o c #143520",
",p c #14361B",
",q c #143716",
",r c #143718",
",s c #14371B",
",t c #14371F",
",u c #143720",
",v c #14381B",
",w c #14381D",
",x c #14381F",
",y c #143820",
",z c #143822",
",{ c #14391B",
",| c #14391C",
",} c #143922",
",~ c #143A17",
"-! c #143A1A",
"-# c #143A1C",
"-$ c #143A1D",
"-% c #143A1E",
"-& c #143B1A",
"-' c #143B1D",
"-( c #143B20",
"-) c #143E16",
"-* c #143E1B",
"-+ c #14401F",
"-, c #144020",
"-- c #14411E",
"-. c #144A1E",
"-/ c #144B1D",
"-0 c #144C1E",
"-1 c #151F17",
"-2 c #152214",
"-3 c #152317",
"-4 c #152415",
"-5 c #152717",
"-6 c #152718",
"-7 c #15281C",
"-8 c #152912",
"-9 c #152918",
"-: c #15291A",
"-; c #152A15",
"-< c #152A16",
"-= c #152A17",
"-> c #152A1A",
"-? c #152A1B",
"-@ c #152A1D",
"-A c #152B16",
"-B c #152B17",
"-C c #152B18",
"-D c #152B1A",
"-E c #152C13",
"-F c #152C19",
"-G c #152C1A",
"-H c #152C1E",
"-I c #152D16",
"-J c #152D19",
"-K c #152D1A",
"-L c #152E15",
"-M c #152E1A",
"-N c #152E1D",
"-O c #152E20",
"-P c #152F14",
"-Q c #152F18",
"-R c #152F19",
"-S c #152F1A",
"-T c #152F1C",
"-U c #152F1E",
"-V c #153016",
"-W c #153017",
"-X c #153018",
"-Y c #153019",
"-Z c #15301A",
"-[ c #15301B",
"-] c #15301C",
"-^ c #15301E",
"-_ c #153020",
"-` c #153117",
"-a c #153118",
"-b c #153119",
"-c c #15311B",
"-d c #153216",
"-e c #153218",
"-f c #153219",
"-g c #15321A",
"-h c #15321C",
"-i c #15321F",
"-j c #153317",
"-k c #153319",
"-l c #15331B",
"-m c #15331C",
"-n c #15351A",
"-o c #15351B",
"-p c #15351E",
"-q c #153520",
"-r c #153612",
"-s c #153615",
"-t c #153617",
"-u c #153618",
"-v c #153619",
"-w c #15361A",
"-x c #15361B",
"-y c #15361E",
"-z c #15361F",
"-{ c #153620",
"-| c #153711",
"-} c #153714",
"-~ c #153719",
".! c #15371B",
".# c #153721",
".$ c #15381A",
".% c #15381E",
".& c #153821",
".' c #153822",
".( c #153B1B",
".) c #153B1D",
".* c #153B1E",
".+ c #153B21",
"., c #153C1B",
".- c #153C1C",
".. c #153C1D",
"./ c #153C1E",
".0 c #153D1B",
".1 c #153D1C",
".2 c #153E1E",
".3 c #153F1B",
".4 c #15401B",
".5 c #15411E",
".6 c #154220",
".7 c #154421",
".8 c #154520",
".9 c #15471E",
".: c #162215",
".; c #162319",
".< c #162518",
".= c #162519",
".> c #162718",
".? c #16271A",
".@ c #162818",
".A c #162819",
".B c #16281D",
".C c #162915",
".D c #162916",
".E c #162A16",
".F c #162A19",
".G c #162B16",
".H c #162B17",
".I c #162B18",
".J c #162B19",
".K c #162B1A",
".L c #162B1B",
".M c #162B21",
".N c #162C15",
".O c #162C16",
".P c #162C17",
".Q c #162D14",
".R c #162D15",
".S c #162D18",
".T c #162D19",
".U c #162D1A",
".V c #162D1B",
".W c #162D1C",
".X c #162D1D",
".Y c #162D20",
".Z c #162E15",
".[ c #162E19",
".] c #162E1A",
".^ c #162E1C",
"._ c #162E1D",
".` c #162E1E",
".a c #162F14",
".b c #162F1A",
".c c #162F1C",
".d c #162F1F",
".e c #163015",
".f c #163018",
".g c #163019",
".h c #16301D",
".i c #163110",
".j c #163116",
".k c #163117",
".l c #163118",
".m c #163119",
".n c #16311A",
".o c #16311B",
".p c #16311C",
".q c #16311D",
".r c #16311E",
".s c #16311F",
".t c #163120",
".u c #163122",
".v c #163219",
".w c #16321B",
".x c #16321C",
".y c #16321D",
".z c #16321E",
".{ c #163413",
".| c #16341A",
".} c #16341B",
".~ c #16341C",
"/! c #16341D",
"/# c #16341E",
"/$ c #16351B",
"/% c #16351C",
"/& c #16351F",
"/' c #163616",
"/( c #16361A",
"/) c #16361B",
"/* c #16361D",
"/+ c #163718",
"/, c #16371B",
"/- c #16371C",
"/. c #16371D",
"// c #16371E",
"/0 c #163812",
"/1 c #163918",
"/2 c #16391C",
"/3 c #16391E",
"/4 c #163920",
"/5 c #163A1E",
"/6 c #163A1F",
"/7 c #163B1A",
"/8 c #163B1B",
"/9 c #163C16",
"/: c #163C1C",
"/; c #163C1E",
"/< c #163D1C",
"/= c #163D1F",
"/> c #163D21",
"/? c #163E1C",
"/@ c #163E22",
"/A c #163F1D",
"/B c #164019",
"/C c #16421C",
"/D c #16431C",
"/E c #164523",
"/F c #172320",
"/G c #17241A",
"/H c #17261A",
"/I c #17261B",
"/J c #17271E",
"/K c #172816",
"/L c #172914",
"/M c #17291C",
"/N c #172A10",
"/O c #172A17",
"/P c #172A19",
"/Q c #172A1A",
"/R c #172A1B",
"/S c #172A1C",
"/T c #172B1D",
"/U c #172C18",
"/V c #172C19",
"/W c #172C1A",
"/X c #172C1B",
"/Y c #172D17",
"/Z c #172D1C",
"/[ c #172D1D",
"/] c #172E18",
"/^ c #172E1B",
"/_ c #172E1C",
"/` c #172E20",
"/a c #172F15",
"/b c #172F19",
"/c c #172F1C",
"/d c #172F1F",
"/e c #173019",
"/f c #17301A",
"/g c #17301C",
"/h c #17301D",
"/i c #173110",
"/j c #173116",
"/k c #173119",
"/l c #17311E",
"/m c #173217",
"/n c #173218",
"/o c #17321A",
"/p c #17321B",
"/q c #17321C",
"/r c #17321D",
"/s c #173220",
"/t c #17331A",
"/u c #17331B",
"/v c #173418",
"/w c #17341A",
"/x c #17341B",
"/y c #17341C",
"/z c #17341E",
"/{ c #173420",
"/| c #173719",
"/} c #17371A",
"/~ c #17371B",
"0! c #17371C",
"0# c #173817",
"0$ c #17381A",
"0% c #17381B",
"0& c #17381C",
"0' c #17381D",
"0( c #17381F",
"0) c #173820",
"0* c #173912",
"0+ c #173918",
"0, c #17391A",
"0- c #17391B",
"0. c #17391C",
"0/ c #17391D",
"00 c #17391E",
"01 c #173A1B",
"02 c #173A1F",
"03 c #173B1C",
"04 c #173C13",
"05 c #173C19",
"06 c #173C1C",
"07 c #173C1E",
"08 c #173E1C",
"09 c #173E1D",
"0: c #173E20",
"0; c #17411C",
"0< c #174320",
"0= c #17441E",
"0> c #174521",
"0? c #17461B",
"0@ c #182114",
"0A c #182614",
"0B c #182718",
"0C c #182719",
"0D c #18281A",
"0E c #182A1A",
"0F c #182B18",
"0G c #182B19",
"0H c #182B1A",
"0I c #182B1B",
"0J c #182C17",
"0K c #182C1A",
"0L c #182C1C",
"0M c #182D13",
"0N c #182D1E",
"0O c #182D1F",
"0P c #182E17",
"0Q c #182E19",
"0R c #182E1A",
"0S c #182E1B",
"0T c #182E1E",
"0U c #182F1A",
"0V c #182F1C",
"0W c #183015",
"0X c #183016",
"0Y c #183019",
"0Z c #18301B",
"0[ c #18301C",
"0] c #18311B",
"0^ c #18311D",
"0_ c #18311E",
"0` c #183121",
"0a c #183217",
"0b c #183317",
"0c c #18331A",
"0d c #18331B",
"0e c #18331C",
"0f c #18331D",
"0g c #18331E",
"0h c #183413",
"0i c #183519",
"0j c #18351C",
"0k c #18351D",
"0l c #18351E",
"0m c #18351F",
"0n c #183619",
"0o c #183621",
"0p c #183713",
"0q c #18371A",
"0r c #18371C",
"0s c #18371D",
"0t c #183818",
"0u c #183819",
"0v c #18381C",
"0w c #183823",
"0x c #18391B",
"0y c #18391C",
"0z c #18391D",
"0{ c #18391E",
"0| c #183920",
"0} c #183921",
"0~ c #183A19",
"1! c #183A1A",
"1# c #183A1E",
"1$ c #183A1F",
"1% c #183B18",
"1& c #183B1C",
"1' c #183C18",
"1( c #183C1C",
"1) c #183C1E",
"1* c #183C20",
"1+ c #183D1D",
"1, c #183D1F",
"1- c #183E1A",
"1. c #183E21",
"1/ c #183F16",
"10 c #183F19",
"11 c #183F1C",
"12 c #183F1E",
"13 c #183F1F",
"14 c #183F21",
"15 c #18411C",
"16 c #184318",
"17 c #18451C",
"18 c #18451E",
"19 c #18471E",
"1: c #192314",
"1; c #19261A",
"1< c #192815",
"1= c #192819",
"1> c #19291A",
"1? c #192A1A",
"1@ c #192A1E",
"1A c #192B10",
"1B c #192B16",
"1C c #192B1A",
"1D c #192C18",
"1E c #192C1E",
"1F c #192D1F",
"1G c #192E19",
"1H c #192E1A",
"1I c #192E1C",
"1J c #192E1F",
"1K c #192F19",
"1L c #192F1B",
"1M c #192F1C",
"1N c #192F1D",
"1O c #192F1E",
"1P c #193116",
"1Q c #193216",
"1R c #193319",
"1S c #19331A",
"1T c #19331C",
"1U c #19331D",
"1V c #193419",
"1W c #19341B",
"1X c #19341C",
"1Y c #19341D",
"1Z c #19341E",
"1[ c #19341F",
"1] c #193421",
"1^ c #193424",
"1_ c #193519",
"1` c #19351A",
"1a c #19351C",
"1b c #19351F",
"1c c #193616",
"1d c #19361A",
"1e c #19361D",
"1f c #19361F",
"1g c #193620",
"1h c #193621",
"1i c #193716",
"1j c #19371B",
"1k c #19371D",
"1l c #193720",
"1m c #19381E",
"1n c #193820",
"1o c #193910",
"1p c #193918",
"1q c #19391C",
"1r c #19391E",
"1s c #19391F",
"1t c #193921",
"1u c #193A19",
"1v c #193A1A",
"1w c #193A1B",
"1x c #193A1C",
"1y c #193A1E",
"1z c #193A22",
"1{ c #193B19",
"1| c #193B1B",
"1} c #193B1D",
"1~ c #193B1E",
"2! c #193B1F",
"2# c #193C17",
"2$ c #193C1D",
"2% c #193C1F",
"2& c #193D10",
"2' c #193D16",
"2( c #193D1D",
"2) c #193D20",
"2* c #193E1C",
"2+ c #193F23",
"2, c #19401F",
"2- c #19411C",
"2. c #194123",
"2/ c #19421B",
"20 c #194319",
"21 c #194521",
"22 c #19461F",
"23 c #1A2515",
"24 c #1A291A",
"25 c #1A2C17",
"26 c #1A2C18",
"27 c #1A2E19",
"28 c #1A2F14",
"29 c #1A2F17",
"2: c #1A2F19",
"2; c #1A3016",
"2< c #1A301A",
"2= c #1A301D",
"2> c #1A301F",
"2? c #1A3021",
"2@ c #1A3024",
"2A c #1A3116",
"2B c #1A311A",
"2C c #1A311B",
"2D c #1A311E",
"2E c #1A3217",
"2F c #1A3318",
"2G c #1A331C",
"2H c #1A3419",
"2I c #1A341A",
"2J c #1A341B",
"2K c #1A341C",
"2L c #1A341D",
"2M c #1A3519",
"2N c #1A351A",
"2O c #1A351B",
"2P c #1A351C",
"2Q c #1A351D",
"2R c #1A351E",
"2S c #1A351F",
"2T c #1A3520",
"2U c #1A361A",
"2V c #1A361B",
"2W c #1A361C",
"2X c #1A361D",
"2Y c #1A361F",
"2Z c #1A3620",
"2[ c #1A3621",
"2] c #1A371B",
"2^ c #1A371F",
"2_ c #1A381B",
"2` c #1A381C",
"2a c #1A381D",
"2b c #1A3919",
"2c c #1A391B",
"2d c #1A391D",
"2e c #1A391F",
"2f c #1A3A1D",
"2g c #1A3B1A",
"2h c #1A3B1B",
"2i c #1A3B1C",
"2j c #1A3B1D",
"2k c #1A3B1E",
"2l c #1A3C1E",
"2m c #1A3D1B",
"2n c #1A3D1C",
"2o c #1A3D1D",
"2p c #1A3D21",
"2q c #1A3E1E",
"2r c #1A401B",
"2s c #1A401C",
"2t c #1A4020",
"2u c #1A411B",
"2v c #1A411C",
"2w c #1A411F",
"2x c #1A4120",
"2y c #1A4121",
"2z c #1A421D",
"2{ c #1A421E",
"2| c #1A421F",
"2} c #1A4220",
"2~ c #1A4221",
"3! c #1A4321",
"3# c #1A441F",
"3$ c #1A4420",
"3% c #1A4421",
"3& c #1A4620",
"3' c #1A471C",
"3( c #1A471D",
"3) c #1A4723",
"3* c #1A4821",
"3+ c #1A4E1E",
"3, c #1B261C",
"3- c #1B2A1B",
"3. c #1B2B16",
"3/ c #1B2B1E",
"30 c #1B2B1F",
"31 c #1B2D12",
"32 c #1B2E1D",
"33 c #1B2E20",
"34 c #1B2F20",
"35 c #1B2F21",
"36 c #1B300F",
"37 c #1B301A",
"38 c #1B301B",
"39 c #1B301C",
"3: c #1B301D",
"3; c #1B3020",
"3< c #1B311A",
"3= c #1B321E",
"3> c #1B3222",
"3? c #1B3318",
"3@ c #1B331B",
"3A c #1B331D",
"3B c #1B3320",
"3C c #1B3417",
"3D c #1B3419",
"3E c #1B341A",
"3F c #1B341D",
"3G c #1B341F",
"3H c #1B3519",
"3I c #1B351A",
"3J c #1B351D",
"3K c #1B351E",
"3L c #1B3618",
"3M c #1B361A",
"3N c #1B361B",
"3O c #1B361C",
"3P c #1B361D",
"3Q c #1B361E",
"3R c #1B361F",
"3S c #1B3621",
"3T c #1B3624",
"3U c #1B3719",
"3V c #1B371A",
"3W c #1B371C",
"3X c #1B371D",
"3Y c #1B371F",
"3Z c #1B3725",
"3[ c #1B381C",
"3] c #1B381E",
"3^ c #1B381F",
"3_ c #1B3820",
"3` c #1B3918",
"3a c #1B391B",
"3b c #1B391C",
"3c c #1B391D",
"3d c #1B3923",
"3e c #1B3A17",
"3f c #1B3A1C",
"3g c #1B3A1D",
"3h c #1B3B1E",
"3i c #1B3B21",
"3j c #1B3C1C",
"3k c #1B3C1D",
"3l c #1B3C1E",
"3m c #1B3C21",
"3n c #1B3D17",
"3o c #1B3D20",
"3p c #1B3E1A",
"3q c #1B3E1C",
"3r c #1B3E20",
"3s c #1B3F18",
"3t c #1B4020",
"3u c #1B411E",
"3v c #1B4121",
"3w c #1B421C",
"3x c #1B441E",
"3y c #1B461F",
"3z c #1B4724",
"3{ c #1B481D",
"3| c #1B481E",
"3} c #1B4821",
"3~ c #1B4823",
"4! c #1B4B18",
"4# c #1C271A",
"4$ c #1C291C",
"4% c #1C2C16",
"4& c #1C2C1D",
"4' c #1C2D1A",
"4( c #1C2E19",
"4) c #1C2F1B",
"4* c #1C2F1D",
"4+ c #1C311C",
"4, c #1C311D",
"4- c #1C321C",
"4. c #1C321F",
"4/ c #1C3222",
"40 c #1C331D",
"41 c #1C3320",
"42 c #1C3419",
"43 c #1C341E",
"44 c #1C351A",
"45 c #1C351D",
"46 c #1C351E",
"47 c #1C3521",
"48 c #1C3616",
"49 c #1C361A",
"4: c #1C361B",
"4; c #1C361C",
"4< c #1C361D",
"4= c #1C361F",
"4> c #1C3622",
"4? c #1C3716",
"4@ c #1C371B",
"4A c #1C371C",
"4B c #1C371D",
"4C c #1C371E",
"4D c #1C371F",
"4E c #1C3720",
"4F c #1C3721",
"4G c #1C3722",
"4H c #1C3817",
"4I c #1C381B",
"4J c #1C381C",
"4K c #1C381D",
"4L c #1C381E",
"4M c #1C3918",
"4N c #1C391D",
"4O c #1C3A19",
"4P c #1C3A1D",
"4Q c #1C3A1E",
"4R c #1C3A22",
"4S c #1C3B17",
"4T c #1C3B19",
"4U c #1C3B1B",
"4V c #1C3B1E",
"4W c #1C3C1F",
"4X c #1C3C21",
"4Y c #1C3D17",
"4Z c #1C3D1C",
"4[ c #1C3D1D",
"4] c #1C3D1E",
"4^ c #1C3D1F",
"4_ c #1C3D20",
"4` c #1C3D21",
"4a c #1C3E1A",
"4b c #1C3E1B",
"4c c #1C3F1D",
"4d c #1C401D",
"4e c #1C411A",
"4f c #1C411C",
"4g c #1C4121",
"4h c #1C421C",
"4i c #1C4220",
"4j c #1C431C",
"4k c #1C431E",
"4l c #1C431F",
"4m c #1C4421",
"4n c #1C4423",
"4o c #1C471A",
"4p c #1C4921",
"4q c #1C4E21",
"4r c #1D2818",
"4s c #1D2B18",
"4t c #1D2C1E",
"4u c #1D2C20",
"4v c #1D2D1C",
"4w c #1D2E19",
"4x c #1D2E1B",
"4y c #1D2F14",
"4z c #1D2F1D",
"4{ c #1D2F1E",
"4| c #1D301A",
"4} c #1D301B",
"4~ c #1D3116",
"5! c #1D311C",
"5# c #1D311E",
"5$ c #1D3122",
"5% c #1D321D",
"5& c #1D3220",
"5' c #1D3319",
"5( c #1D331B",
"5) c #1D331D",
"5* c #1D3323",
"5+ c #1D3421",
"5, c #1D351A",
"5- c #1D351B",
"5. c #1D351D",
"5/ c #1D3520",
"50 c #1D3619",
"51 c #1D361A",
"52 c #1D361B",
"53 c #1D371B",
"54 c #1D371C",
"55 c #1D3720",
"56 c #1D3818",
"57 c #1D381C",
"58 c #1D381D",
"59 c #1D381E",
"5: c #1D3820",
"5; c #1D3823",
"5< c #1D3919",
"5= c #1D391B",
"5> c #1D391C",
"5? c #1D391D",
"5@ c #1D391E",
"5A c #1D3A1A",
"5B c #1D3A1E",
"5C c #1D3B1A",
"5D c #1D3B1F",
"5E c #1D3B21",
"5F c #1D3C1B",
"5G c #1D3C1D",
"5H c #1D3C1F",
"5I c #1D3C21",
"5J c #1D3D1C",
"5K c #1D3D1E",
"5L c #1D3D22",
"5M c #1D3E1E",
"5N c #1D3E1F",
"5O c #1D3F21",
"5P c #1D401E",
"5Q c #1D4024",
"5R c #1D411D",
"5S c #1D411E",
"5T c #1D421A",
"5U c #1D421C",
"5V c #1D421D",
"5W c #1D421E",
"5X c #1D4321",
"5Y c #1D4417",
"5Z c #1D4518",
"5[ c #1D4720",
"5] c #1D481B",
"5^ c #1D4822",
"5_ c #1D4A1F",
"5` c #1D4E1F",
"5a c #1D4F1F",
"5b c #1E2B1A",
"5c c #1E2C1A",
"5d c #1E2D18",
"5e c #1E2E21",
"5f c #1E2F17",
"5g c #1E2F1D",
"5h c #1E2F1F",
"5i c #1E301A",
"5j c #1E301C",
"5k c #1E311A",
"5l c #1E321D",
"5m c #1E331E",
"5n c #1E331F",
"5o c #1E3419",
"5p c #1E341A",
"5q c #1E341B",
"5r c #1E341F",
"5s c #1E3518",
"5t c #1E351A",
"5u c #1E351D",
"5v c #1E3520",
"5w c #1E3718",
"5x c #1E371C",
"5y c #1E371D",
"5z c #1E3818",
"5{ c #1E381A",
"5| c #1E381C",
"5} c #1E381D",
"5~ c #1E381E",
"6! c #1E3825",
"6# c #1E391D",
"6$ c #1E391E",
"6% c #1E391F",
"6& c #1E3921",
"6' c #1E3922",
"6( c #1E3924",
"6) c #1E3927",
"6* c #1E3A1B",
"6+ c #1E3A1C",
"6, c #1E3A1D",
"6- c #1E3A1E",
"6. c #1E3A1F",
"6/ c #1E3B1C",
"60 c #1E3B1D",
"61 c #1E3B1F",
"62 c #1E3C1C",
"63 c #1E3C1F",
"64 c #1E3C21",
"65 c #1E3E1E",
"66 c #1E3F1F",
"67 c #1E3F21",
"68 c #1E401C",
"69 c #1E401F",
"6: c #1E411F",
"6; c #1E421C",
"6< c #1E4221",
"6= c #1E4223",
"6> c #1E431D",
"6? c #1E4719",
"6@ c #1E4720",
"6A c #1E491C",
"6B c #1F2B21",
"6C c #1F2E20",
"6D c #1F3021",
"6E c #1F3116",
"6F c #1F311C",
"6G c #1F3120",
"6H c #1F321D",
"6I c #1F3221",
"6J c #1F331A",
"6K c #1F331F",
"6L c #1F3419",
"6M c #1F341A",
"6N c #1F341F",
"6O c #1F3422",
"6P c #1F3519",
"6Q c #1F351A",
"6R c #1F351C",
"6S c #1F351D",
"6T c #1F351E",
"6U c #1F351F",
"6V c #1F361A",
"6W c #1F361B",
"6X c #1F361C",
"6Y c #1F361D",
"6Z c #1F3622",
"6[ c #1F371C",
"6] c #1F3720",
"6^ c #1F381B",
"6_ c #1F381C",
"6` c #1F381D",
"6a c #1F391A",
"6b c #1F391E",
"6c c #1F391F",
"6d c #1F3921",
"6e c #1F3A19",
"6f c #1F3A1E",
"6g c #1F3A1F",
"6h c #1F3A22",
"6i c #1F3B1C",
"6j c #1F3B1D",
"6k c #1F3B1E",
"6l c #1F3B1F",
"6m c #1F3B22",
"6n c #1F3C1B",
"6o c #1F3C1C",
"6p c #1F3C1D",
"6q c #1F3C1E",
"6r c #1F3C1F",
"6s c #1F3C23",
"6t c #1F3D1C",
"6u c #1F3E1D",
"6v c #1F3F1E",
"6w c #1F401F",
"6x c #1F4025",
"6y c #1F411D",
"6z c #1F4122",
"6{ c #1F4123",
"6| c #1F4215",
"6} c #1F421D",
"6~ c #1F431F",
"7! c #1F4320",
"7# c #1F4321",
"7$ c #1F441D",
"7% c #1F451D",
"7& c #1F4525",
"7' c #1F461E",
"7( c #1F4620",
"7) c #1F4622",
"7* c #1F4624",
"7+ c #1F4625",
"7, c #1F481D",
"7- c #1F4A1E",
"7. c #1F4C1F",
"7/ c #1F4C27",
"70 c #1F5121",
"71 c #202C1D",
"72 c #202D1E",
"73 c #202E1B",
"74 c #203018",
"75 c #20301B",
"76 c #203116",
"77 c #203121",
"78 c #203217",
"79 c #20321D",
"7: c #203318",
"7; c #203419",
"7< c #20341B",
"7= c #203514",
"7> c #203516",
"7? c #20351A",
"7@ c #203520",
"7A c #20361B",
"7B c #20361C",
"7C c #20361F",
"7D c #203620",
"7E c #203717",
"7F c #20371C",
"7G c #20371D",
"7H c #20371E",
"7I c #203721",
"7J c #20381D",
"7K c #20381F",
"7L c #203917",
"7M c #20391D",
"7N c #20391E",
"7O c #203A18",
"7P c #203A1F",
"7Q c #203B1A",
"7R c #203B1F",
"7S c #203B20",
"7T c #203B23",
"7U c #203C1D",
"7V c #203C1E",
"7W c #203C1F",
"7X c #203D1C",
"7Y c #203D1D",
"7Z c #203E22",
"7[ c #203E24",
"7] c #203F1D",
"7^ c #203F1F",
"7_ c #20401A",
"7` c #20411C",
"7a c #20411F",
"7b c #204121",
"7c c #204122",
"7d c #204223",
"7e c #20431F",
"7f c #204321",
"7g c #204520",
"7h c #204722",
"7i c #20491E",
"7j c #20491F",
"7k c #204922",
"7l c #204B25",
"7m c #212B21",
"7n c #213017",
"7o c #21311A",
"7p c #213217",
"7q c #213221",
"7r c #21331B",
"7s c #21331E",
"7t c #213323",
"7u c #213422",
"7v c #213423",
"7w c #21351A",
"7x c #21351B",
"7y c #21361A",
"7z c #21361B",
"7{ c #21361D",
"7| c #213620",
"7} c #21371C",
"7~ c #21371D",
"8! c #213720",
"8# c #21381C",
"8$ c #21381D",
"8% c #21381F",
"8& c #21391E",
"8' c #213A1B",
"8( c #213A1E",
"8) c #213A1F",
"8* c #213A21",
"8+ c #213B13",
"8, c #213B1B",
"8- c #213C1E",
"8. c #213C21",
"8/ c #213C27",
"80 c #213D19",
"81 c #213D1C",
"82 c #213D20",
"83 c #213F1E",
"84 c #213F22",
"85 c #213F25",
"86 c #21401F",
"87 c #214117",
"88 c #21411A",
"89 c #214120",
"8: c #214124",
"8; c #214221",
"8< c #214222",
"8= c #214223",
"8> c #214318",
"8? c #21431C",
"8@ c #214619",
"8A c #21461A",
"8B c #214721",
"8C c #21481F",
"8D c #214821",
"8E c #214824",
"8F c #214D25",
"8G c #214E21",
"8H c #215922",
"8I c #222E1D",
"8J c #22321B",
"8K c #223319",
"8L c #22341D",
"8M c #22341F",
"8N c #223615",
"8O c #22361B",
"8P c #22371C",
"8Q c #223722",
"8R c #223728",
"8S c #223820",
"8T c #223823",
"8U c #22391E",
"8V c #223A1B",
"8W c #223A1E",
"8X c #223A1F",
"8Y c #223A20",
"8Z c #223B20",
"8[ c #223C1B",
"8] c #223D1C",
"8^ c #223D21",
"8_ c #223E16",
"8` c #223E20",
"8a c #223F1D",
"8b c #223F1E",
"8c c #223F23",
"8d c #22401F",
"8e c #224024",
"8f c #22411F",
"8g c #22421E",
"8h c #22431C",
"8i c #224325",
"8j c #224329",
"8k c #22441B",
"8l c #224421",
"8m c #22451F",
"8n c #22461F",
"8o c #224621",
"8p c #224726",
"8q c #22481B",
"8r c #224F22",
"8s c #224F26",
"8t c #225020",
"8u c #22511D",
"8v c #225423",
"8w c #225523",
"8x c #232B18",
"8y c #233320",
"8z c #233321",
"8{ c #23351A",
"8| c #233520",
"8} c #23361C",
"8~ c #23361F",
"9! c #23371D",
"9# c #23371E",
"9$ c #23381D",
"9% c #23391C",
"9& c #233921",
"9' c #233A1C",
"9( c #233A1F",
"9) c #233A21",
"9* c #233A27",
"9+ c #233B1C",
"9, c #233B20",
"9- c #233C12",
"9. c #233C1C",
"9/ c #233C1E",
"90 c #233D22",
"91 c #233D23",
"92 c #233D24",
"93 c #233E1D",
"94 c #233E22",
"95 c #233F19",
"96 c #233F1C",
"97 c #233F1E",
"98 c #23401F",
"99 c #234021",
"9: c #234120",
"9; c #234126",
"9< c #23421A",
"9= c #23421C",
"9> c #23421E",
"9? c #234221",
"9@ c #234424",
"9A c #234426",
"9B c #23461A",
"9C c #234622",
"9D c #234820",
"9E c #23491E",
"9F c #234A23",
"9G c #234A29",
"9H c #234C20",
"9I c #234D22",
"9J c #234D25",
"9K c #234F1D",
"9L c #235325",
"9M c #243120",
"9N c #24341B",
"9O c #24351D",
"9P c #243520",
"9Q c #24361A",
"9R c #24361B",
"9S c #243621",
"9T c #24371A",
"9U c #243818",
"9V c #243918",
"9W c #243A1F",
"9X c #243A21",
"9Y c #243A25",
"9Z c #243B1A",
"9[ c #243B1C",
"9] c #243B1E",
"9^ c #243B21",
"9_ c #243C1B",
"9` c #243C21",
"9a c #243D1C",
"9b c #243D23",
"9c c #243D24",
"9d c #243D26",
"9e c #243F1D",
"9f c #243F24",
"9g c #243F29",
"9h c #24401E",
"9i c #24401F",
"9j c #244022",
"9k c #24411E",
"9l c #24411F",
"9m c #244122",
"9n c #244125",
"9o c #244220",
"9p c #24431C",
"9q c #244320",
"9r c #244322",
"9s c #24441A",
"9t c #24441D",
"9u c #24441F",
"9v c #244420",
"9w c #244422",
"9x c #244424",
"9y c #244524",
"9z c #24491D",
"9{ c #244B25",
"9| c #244C23",
"9} c #244C26",
"9~ c #244D21",
":! c #253117",
":# c #253122",
":$ c #25351D",
":% c #25361D",
":& c #253820",
":' c #25391B",
":( c #25391E",
":) c #25391F",
":* c #253924",
":+ c #253A18",
":, c #253B1F",
":- c #253D16",
":. c #253D1A",
":/ c #253D21",
":0 c #253D23",
":1 c #253E1E",
":2 c #254019",
":3 c #25401F",
":4 c #254024",
":5 c #25411D",
":6 c #254123",
":7 c #25421C",
":8 c #25421E",
":9 c #254322",
":: c #254421",
":; c #254428",
":< c #254524",
":= c #254525",
":> c #254620",
":? c #254720",
":@ c #25481F",
":A c #254A23",
":B c #254B25",
":C c #254E21",
":D c #254F21",
":E c #254F22",
":F c #254F23",
":G c #255124",
":H c #26381D",
":I c #26391E",
":J c #263A1A",
":K c #263A1B",
":L c #263D24",
":M c #263F1E",
":N c #263F22",
":O c #26401B",
":P c #264120",
":Q c #26431F",
":R c #264324",
":S c #264328",
":T c #26441D",
":U c #264522",
":V c #264620",
":W c #264825",
":X c #26491C",
":Y c #264C20",
":Z c #264C25",
":[ c #264F1F",
":] c #27321F",
":^ c #273524",
":_ c #27361A",
":` c #273A20",
":a c #273D23",
":b c #273F1E",
":c c #273F24",
":d c #27411F",
":e c #274221",
":f c #27431F",
":g c #274327",
":h c #274328",
":i c #274421",
":j c #274523",
":k c #274524",
":l c #274527",
":m c #27461F",
":n c #274721",
":o c #274920",
":p c #274B27",
":q c #274C1F",
":r c #274C20",
":s c #28391E",
":t c #283B1D",
":u c #283B20",
":v c #283D22",
":w c #283E1B",
":x c #283F1F",
":y c #283F22",
":z c #28401E",
":{ c #28401F",
":| c #284122",
":} c #28431C",
":~ c #284322",
";! c #28441A",
";# c #284426",
";$ c #284522",
";% c #284616",
";& c #284625",
";' c #284720",
";( c #284820",
";) c #284A23",
";* c #284C25",
";+ c #284E24",
";, c #284F28",
";- c #285220",
";. c #285323",
";/ c #293223",
";0 c #293519",
";1 c #293823",
";2 c #293B20",
";3 c #293C1F",
";4 c #293E23",
";5 c #293F24",
";6 c #29401E",
";7 c #29421E",
";8 c #294220",
";9 c #294223",
";: c #294226",
";; c #294321",
";< c #294422",
";= c #29471F",
";> c #294720",
";? c #294A1D",
";@ c #294A22",
";A c #294A23",
";B c #294A29",
";C c #295123",
";D c #295524",
";E c #295826",
";F c #2A2E1E",
";G c #2A3924",
";H c #2A3B25",
";I c #2A3C27",
";J c #2A3D1A",
";K c #2A3D23",
";L c #2A3F1E",
";M c #2A4025",
";N c #2A411E",
";O c #2A461F",
";P c #2A481F",
";Q c #2B3D1C",
";R c #2B3D23",
";S c #2B401F",
";T c #2B4322",
";U c #2B4728",
";V c #2B4C26",
";W c #2B4C2B",
";X c #2B4E22",
";Y c #2B4F28",
";Z c #2B5129",
";[ c #2B5A25",
";] c #2C3822",
";^ c #2C3D23",
";_ c #2C411F",
";` c #2C491C",
";a c #2C5023",
";b c #2C5C29",
";c c #2D3F24",
";d c #2D4021",
";e c #2D4C20",
";f c #2E4826",
";g c #2E5422",
";h c #2E552A",
";i c #2F4423",
";j c #2F491F",
";k c #2F6229",
";l c #304025",
";m c #304A23",
";n c #31401F",
";o c #314825",
";p c #324C20",
";q c #324E24",
";r c #333C27",
";s c #333D23",
";t c #395025",
/* pixels */
"$N!m#t,>*s9Y9*6p1{..&X-{,b.(-u,^%h&s&=3<3g.l&C-!&^*_%N(9$C$:6L6c6r.o+>2N)I+C-31;'/%(6W$E%@(;#a(<(/%*/F''+C#]5p6A$l#m0G/O/v0$/o'<",
"+H$a0k$V&l-&%y#z2u%U%a1}/#1V(Z&h+v7h4U$i-b'T/x+y';-A&T,Q'Z$!$b(S)k0,%Y*;5n-@*(2Q39,;%T%u!E2D#V*8&@'}.t!B)c#;3o8D031&$I%;)Z81.|&:",
"9&94,[%R'z.b!9%c&p5W2x6$1>/(#>#B'u7j)]%D,H!z)Q,5!f)w&8(G83%b%h%?(U)$&i4H,E5v9^'c*P54+a3P*:*M*8')4v/l%I)~*$(v:>:V+e.l!W.b2M6t$E0R",
"6K8|)%#u!7-73-.h2R(_*:(G$Z#_#}2Y$r:j7z&>3@-X'M2Z!s#+*7*e'Y3n&A9)$_&(/R!g&b5c8{7K$&954{9d0t4A+:-<;G0S#o+$)E$t:?2_3O,q(6(,5x+6%{#P",
"2T2Z.p*1.[/t7}/[,K2d#n&#2P#O)U,W,Z._:.$c1'/b+S+D5:,j(E%E)e#/+d$s'l-##5'E4L(05/-F.H8[:63I-r3C3Q3347/5&!!),,,H9a1k-y3_)i##0`+M!..V",
"0~#i%D!{(}8L.G#Y#n)F$O(((47(5946&^&v&V-4-3/d&2+a+R43.m+.,P&G'd#:&%'^.o&N9u#9*F*&)#0x+j5Z8u6&:#4A(11j1V2G8P:w;08N6$-V2F0Y3l*;(M1Y",
"$W'9*O#_.w:&/g'S$m1O$$0}3!3O+V&d(i,t*^,H,J#.(=1(.2%/5q#T'6*87d)i+++8$H5y:76n!C#3%[0N4x4y3M9z0m(3$j2]7o0U7z;p9+58&6!G#L753r3a15$X",
"*J5B'g)Y)e:P3d1z4`6$,K%`-_2q'p(=,Z8s3(14/^$,;A;O&u'b/g2G!-*)-^&$/S%J6-9]%c(E).7H;42&6|0*,C+@(%%=&S+]481q7B;n7E2E2<!I&*)~2y4]#e$0",
"8t7.5[%$3Q967f+q)W+g$n(5*p3#,};S7M;)5S:=3G&r(x;Y)C*864$d(=6t5E2.$9);1r92%D&H2X;l9`2:3604'Q!J).!o(C74,c,T5#7z0[6N;R6G!%-=$v(o!R:`",
".m6*3&7)0)6`0z,I)f)N3%!s!|3X*a*]/m-l5H;f+O(4,/3;,Q2k-i)~/M:{1k.&-,'?%X8S,e,V6(6)0j+a-Q+20C,h,Y7`2e*;(#*+*G$j%h/+371b;M)e'V-v!k%Y",
")}(g2($~.!62/7/25^842`,T%G$b#Y&n%E:B*S5I248(&!+X(]+Z$'!P+g0V,.'4$I'+!5(R-h8^#p/4(W(]*n4C,I8}5|2N#Z73-^)^!F+7';$<6I7C4($D')*A%:*%",
"(2+W3S*|.,/;3f.'%x4!4a:X:C*:!?!e(d13.0##4;5d9v3>$p*96H'|/X2Q!j%74<5k.K*;-^$H&37@9,-[7X,41C(<#g)*#-8!6h)0#+!d)z/G7q1I9W!<!*&-#e%|",
"#m,l,T)u*u3l4e.p4E4p5K7]*x$L'%#k837s1u,P+>.j&8!p$+#m,R&81G!p#w+0)0292O1w'I,^1=;F*94I)C)06K$?+3.q&B3S7V,:#V!4/H1@*',|4V#V/V'-#Q('",
")b#m%O$o/3519U2]8)7-;3:54@284A.q8~+Q(9([2I/k!a'B(;)7&8!b!w(..t,-%k+-:(7R32'=:]6[-a0x,),D-Z4[,h87*R+'-:5l.S->)5.o6o%D'-!:(U4-2B0!",
"%<%O(U%^2v3V7O6v$z457<;<:06W3:*U3J4J0'3}5;:e1!'(!=*1#E&1'9$.,m$E#),=/-0/&_7H9P6Q+G%D%N+14[,h$A+%#J51*=1T-G.F%N6i3`'|!:*A%*2V5.*A",
"&r(['R$E&y-X8,65*R076y:@/<9j:8*u.Z9:06'$%d4F-*'#2C6$.P'7*;$$1~6.(^(y.#'u'8;F1=8J2M0?%k1W&n'L$e$g+'&)!`.m0('T(J3F5j'Q3U)/!x8Y2c/-",
",x$-#%*3*;%p1v49,I#n5U:Z9|+z:S'r.v,;*:**#41.)g6&2Q96:3)5,z1$&m4g*q%x)t.9%N*8*V1Z4h5Y0%-%(<0H*;(#*+%~!003#6(q*D%.%c&|8A!p(_2{0y2^",
"+6(0$^(|%41F+g+E1n6u9#':8h)7&}%w)2&N7&8j,s1a+o*h+k*N*</&.c)?1~(y$'*?/@)r8m4)5_6}8,2%%S0g9{;973-^)^(&'')O#v#H,f)y*53z0>%x6k5G5M$4",
"556m-q&&,K(=&W9R#e7w0_$Q0r+i#**g$].x$q&z%F2U+m&87!/r(L/s2Q)0%v.70|5$1t+N3j7N5]/:1h.u%H3O2f6!8!6h)0&2!c*>!5&,-A.m4[4-;!(k%D'09!&/",
")X!u'~,H!^%*$;6p2$:g+D!Q*W1V,~-.(X5?7a/.#t),.i*;:F8X2Q(P9%'.&W3T/{&E60(4526R';9L8H8c5*8*1<6C3S7V,:#V!4/H1@*',|4V+v7t$/4v',+A.@$J",
"!T';#`$6%7!&-64R1)6z4=1[72.a2b:E2Q+b6+6%%0!#)8#Z7P9E-k*02=/U-M6D2Y8]8P0u5J.m!K/8/<8i638U25.z+'-:5l.S->)5.o6o%D8W(K**,!%r)(-K5g5&",
",A#t&9#Z+n.[6B.~1l,S6:&w.H.],7(X4Z%]&S(m&M!n(*#F5?/?-v-b-l3M8Z6$4A3H-K4M061Y6>+!&r4.9N/Q1P!<51*=1T-G.F%N6i3`'|7?1[)S#&*8,K+&1Z'}",
"$F!p'8#u+t:a:#7y-D6n5,*J*r2).Y(c)S!W-84]4X%G!?**1m&T&p4U2U5@9y%C-X7:71;;2O)_12*~#q8x9~;=1|+<&)!`.m0('T(J3F5j'Q3U;Q.c%-4t%?+=3a5b",
"&g&^0j/o-^776g:98&8f'O'Q&N.6)K2I#t)h%C+*,./K&{&x6$,S4B1X0J4&.H!$%24d1)6S5F*f#`3^&_&e2S:|6w+(%~!003#6(q*D%.%c&|8A;^0L$S,'$w#K+_+r",
"2@5x2R3B6Z*8-n2m7c#+$,7{2f2-.8-}%),P.I&Y)A&^6<*k/f#%91+t)U-d1B+#;68n8B.W,<433Z'P'U+c3)9h1D#i(&'')O#v9=,f)y*53z0>1M3A%F)T!y0@!2(?",
".`4m0L4/,I,%9-#e(i.}/E9G890q/.,i*80p&;!s%q#p$G+k(4-^4C&v&o9}5-&#4:%q's(P*:2x30.M)o'i+~0&){'w&6/r1t.5*~7$7%.k8z344K!+'*&_$]!!*!-N",
"!w7T41'K(~$l5o0R(5*8%++J1E.>0q.85!4v2W'N7@2#,d6&*S**0z.|'K/!##!'#l$|!p!?!X7k/P(@2~+F+T8&-b'1.T,M'>/D9H-K9=5{1G'k4'-;0@!i$(![&0#X",
".s9c1G'x4C3W.P,F0Z3X&V$H2/;/0@4v7>6n3]*9/B0-4L;$1N1G/O#N';*!,E#Y&D$8%6!?#|&[$$,K4F*,%H!10E.J,$,54G)14w:t4f8q,p)O/X!>$E$E!?%>!8(;",
"8R$^'{,12*)2(H&1!p)n3k,&-B8M522/:n-b+H.g3s5T;q:^5:.k&$!e%K,:0X(),R)]$S!@#o*o,p'v1g'U#c'36B%I&B/T.n,2.^+&0e8o-Y9/.^(;-9)`%U#+%L#C",
"3i%s4@+m/92K.h'-2z'_9,,;#56s4u8&6t824P;7;_;c;r4F:4'W,#-Z.n4N6b5|*a#Z(I$H#I6h8:'K%_,X1B5&6I*E+e3|#a$7#Y!:,j-b/}2i$M#V#W#R0n.q#h,(",
"/-)m$F83*t1L3R+c$J(E%G'&2[.V/r2s1w&T1G.*9i;K;s5O3c,H%:!0-51L8I(C&5)~(^&B)4%W8Q,o*B.=&<(A$S!@(n)d&p#d#u*C#V,77V8b)1)`'3+)!p-z4D2Q",
"%E$m50:Y3y#i(d*;!p$A+%#J-H67584c-0&G,U9M8y;&4G#-*K0g$[$?*8!Q3J7m*@#'1),B0I$J-T0O!r-2)G%f%D#'#$*K8.#a*;+4'F&9$m't$T&I$@$2,u%#*:1f",
"&T+<!,3c+K$V(Q#b'L$e$g+'/J)3!Z7Y;+)n:h;];/7u5%&T'q%Z!D#R6V.m2a.y2Q3=:b/S!]!s1Y8d)1.]$($,4d:U857+8F$E#h#.)K%,&w$`/6-~!n&+0^-S,k3Y",
"27$E'x*B)j+D+C)+0H*;(#*+*G$j%h/+371b;M2>0T7W:N%A#@$#%&'86j93,P$~#Y(+.<4s*9%e/,3$+{#R%!588>;?'R's5X#W')*A)S!(!8$v6g!6&#9X5(2;.n'D",
"$5#S!/'X%j.L7v/s;973-^)^!F+7';$<6I7C4(!H'C1A3h*E$}195N%K;-0s$%#Y.r3>9v5d4;##.013(d!e!?*::C:X4a4!(z)=0e,k/Z*-$S5i6l0D+%(f:[)>,G'@",
"'`';$*7;+M-N.;:*6!8!6h)0#+!d)z/G7q1I9W;J*60G2J-h3N#=3I7}:28K7r-?5e!p&8.j+>,P1u7s83#k'%$L*x7]5K4p3*%M6T9S7[0{-o/x9(5%,+/|3{&P+Y1c",
"&O6[4k,l1I1I&7'O6C3S7V,:#V!4/H1@*',|4V-X$W)69=7F3#5P3[6$9$9]-F!u!}'B!a/k2I([(9+Q8~.q4A284@:5;37-9F2S-:6K4$+D)9%7+/:o6_(8&a)-3l6/",
"$P+R0#(3.p3t/y#j.z+'-:5l.S->)5.o6o%D8W2n)l4i1*4]9D6w;57P:u;1.s$V#s'(1!:e5;3}0'4J3J*U3:6W:0;<7<450'3^,29O9?0.(u-W/g4N!Y)!0Q*2,9&G",
"&'.G&7#m0i)L%)%[!<51*=1T-G.F%N6i3`'|7?8.;E:W556~6%;X7l7Z;89m9;)C%R'#-*4F%d'$069:.Z*u:89j/<:@6y07!;%B1J10*z6g,j6]*Y$x%Q4A2U8=5L-x",
"({(;.?*b&j(d$F#t+<&)!`.m0('T(J3F-@*(2Q39,;%T%u!E2D#V*8&@'}9f6m6U1d6&)g1.#4***:,;.v'r:S+z9|:Z5U#n%D*7*c+u*g/~,T:)/m%k,E%98a3l%t+j",
"*:0=22.41s-$4Z%A+(%~!003#6(q*D%.5v9^'c*P54+a3P*:*M*8')4v/l'm,v#Y(F*h+o1a,s8j7&&N)2%w&})78h':9#6u,;%[#|&L6/2P9@9[0W/a#G,0*p.-2,#y",
"6$3w:G0<-+(b(r.n#i(&'')O#v#H,f)y5c8{7K$&954{9d0t4A+:-<;G0S39&V)d1H&8+m2U%F&z$q.x$]*g#*+i0r$Q0_7w*l#x&~660;7b4+.R1o&7#f+}9K'c5(#!",
"%m)L'j69#u%o-)-C#K&2!c*>!5&,-A.m(05/-F.H8[:63I-r3C3Q3347/5'y8E:A4G*;.i),#t/.7a5?(X-.,~1V*W!Q+D:g4G$k)B$E8r7,.j/N-|&=+h,r$M'E8#4Y",
"*/0X(Y(N7x'e-X#(!=2o&f$K)g-/16$h#9*F*&)#0x+j5Z8u6&:#4A(11j2L:/1])9#Z)8!#%06%6++b2Q:E2b.a721[4=6z#7#U!E#D5A6u76+x.e%P20%%*H(Z3L(B",
"1H'8(8*j8C7=%>%Z*[2'6$,I1,5a8v/C6n!C#3%[0N4x4y3M9z0m(3$j2];P:q+|)v#F(*!n&M(m&S%]4Z(X,7.].H&w6:,S'F$G&Z$F3,7G:H/j1i1S6@3k4W'[,_,O",
"2l(;1&2B-X*6!3-j;@:-4^7g(e&x3~-'(E).7H;42&6|0*,C+@(%%=&S+];j;''a$c**!?%G4X4]-8!W)S(c.Y2)*r*J5,6n)7.1%W&k4C:$/Y$3.X:I(=5'3?-v&Q&F",
"8$02-v38:i4*6/7A8@;k8w693m3S/c7W&H2X;l9`2:3604'Q!J).!o(C74:}.y&t!o&x&{/K,.+*%C)h#t2I)K.6&N'Q'O8f/0054Z97:M5u:s*C'5#2!V4j'H#Y*.']",
"&r,w!A-p008&.n7Q12181x/W$).r*383,V6(6)0j+a-Q+20C,h,Y7`2e*;4o-(7**W*k6<&^)A&Y.I,P%)-}.82-2f7{$,#+4O5`8k;+7Y!Z)3/J+'$g$e'L-m%!+B(p",
")|$F$l%i3:+I4S(j+H,H,`)P(>(5':*v8^#p/4(W(]*n4C,I8}5|2N#Z73'r/=9{;#+k$G#p%q!s&;0p*8,i/.0q899G/E.}&Q#+&*37/+%h$j*G*+(#*;0H*R#:$`*9",
"0(!U#,#t9Z.:426F$x!p)O6g940R)')#$H&37@9,-[7X,41C(<#g)*#-8!#m4Q6:(_5)!='B*B0v)J5=/-*}/o5C;a7/${%S'I*9/]6I$<';+7!F)^-^73;9*<7I%G!S",
"2|2N!p$u,30B)&6$6=):$c$e2w*y#M%+,^1=;F*94I)C)06K$?+3.q&B3S$&+V+B.B4`#+*X-[3'1%4A3b!~+J/C;[3l+p'A)?'h4^7q/G)z!d#+)06h8!6!)p(4*<1r",
"5.1X.m#0(8(s9x,n3[$U*9+I+G!u'G)x'=:]6[-a0x,),D-Z4[,h87*R+'-]2!+D-H/h$J+l99-c3x084l-N5r5p8D7^09&c#A7i7_*'1@/H!4#V,:7V3S6C$E!z+f&R",
"6d5,5>,y2t(t1q3O($*I,H+A$O-10:&N,L6$/*0l7e;.9q*w3h3e:~3=:<8&5Q$Y2T%83//%;>708G3+9w)[8)/z&l;Z5V4}/$88:+6o.o)5->.S5l-:+'.z,4,?1X/p",
":d;(,A+Z2X%g2I&67z+L/>$f-c*##|%>0o$r)>3K1+17.3.m1j:s:x5m;T:m&c!~(_#t(<;,;e7'4@:f/e3h(=4_218p;D::2j9B3.3`6i%N.F-G1T*=51!<6$+b%q$j",
"/A8r2}.$4Z1-&S(1+P*L0086.z-J!p'J4^2+7~9A8g80!N--%E269_824^-g%,)V#<'f$(;B:l.j1?3p)2&]/_;V;`8_;b8l1y4T$R-@3F(J'T0(.m!`&)+<;t;W:r,D",
"6;9I156,4,3h9l89(V&W'!+A(!0k'f4q7N1##v;I3v6j$a.)'C:v:!570d2f*3)@-?61:y:e6X.j*&6&406';H5h5w9<6?2{8$54/85v%.*D(q#603!0%~+(8`;o1u7L",
":J/w1V+?:_5~0h)R%3-y3g.r-U9b9p9J#e#+9.;>3u8O/i#>%F)C0F.P:,.l/q:L.d6%:%:_53#{+;.O9Q9,6x(H,*$E-Z1/.{8':Q5:5R9'./2r-I#^+J*C*m)q(G,E",
".N/1,h!l9T6E0a#1116g:D9o;*909W98).!q*<.T.f3E&*#i2N:T4?&U'B*;-w6$4G8e;d,@,a/?%Q$>)Y2Q4I*7*t1e074[0+.}+`;h:c:')M56-s2Q(4%l5z*d7y1p",
"-P,83`449V6q#r)k;m6#;L9C:;-i*J%]%V,j!z!(/'5K*`)0*6,d-$//(D&9(4.r-O8/0w1`7U62)D3D.D,49t#V*8,f6g7J,)!t,](h8&79*1$i(a4>4(*[$B6P1P*i",
",g%n*4*Z:O!|&K%E2a7N;:;U855D&q-S#89>$S(--E8V78*5+12x&^.o8Z)n2p$J!=9n)s1_7p1P;2.C8+4K9[$F#f!L35!v5f;i5r&.7y0]/g4#9m9e7n6E1Q!M/x+5",
"4~/L&43q:1*85(/u0f6$8T8c4n(w%W*`4z)H&Z2H.Q(:,6-L0c([*T*Q9u;C.+*M-i(O$O315<8$%B%+1U-R%}%5(52R8%*V*A+@2A,)5,)V+H5+8;8?5t4%6e+U)'#;",
"6a0b+^+s1`57-J7|:R6'01&6-Z*9;28<(l%D.%&`*81R$q0-))-J+w%z'2)95%)z-Z&G&R(l;g;%1K$=%U!O.A.l,:,R6^1|2g5}1:3.5|$d-f6k4b682<23+?6u1G(%",
"(1/o-`2h8U5|6f6O9g:p,N'L3l6j7S,{(9+,'T+[8Z6Y$c*{(T4|+906+`$m$E&?*R'o#|-V9r6{/)5%%'0M4r0P.U:K0e5?)a)G-K/I7D9k9?3<!m9s&J%1.E/n*O58",
"4]-t#~%l0(;N:k6'7#1^(`2Q(s6w-X/7'n#?0A4,+A(G).$x-W3P/`6h#j*6$1()0K29##,I$y.g$G!h!m.n1G1W-e#t#[1[)<,S2?#V8U;L6J7;!_)L(75s6M:z4}8-"
};
