/* XPM */
static char *grass_09[] = {
/* columns rows colors chars-per-pixel */
"64 64 1993 2",
/* colors */
"!! c #26231B",
"!# c #29382D",
"!$ c #2A231A",
"!% c #2A261A",
"!& c #2A281F",
"!' c #2A2821",
"!( c #2A291C",
"!) c #2A3B2F",
"!* c #2A3D32",
"!+ c #2A3E2C",
"!, c #2B251C",
"!- c #2B281B",
"!. c #2B291F",
"!/ c #2B2921",
"!0 c #2B2A20",
"!1 c #2B2B1D",
"!2 c #2B362C",
"!3 c #2B392E",
"!4 c #2B3A30",
"!5 c #2B3C34",
"!6 c #2B3F2D",
"!7 c #2C2E21",
"!8 c #2C2E29",
"!9 c #2C352D",
"!: c #2C362D",
"!; c #2C372D",
"!< c #2C382A",
"!= c #2C382E",
"!> c #2C392F",
"!? c #2C3A2F",
"!@ c #2C3B2D",
"!A c #2C3D31",
"!B c #2D2522",
"!C c #2D2720",
"!D c #2D281F",
"!E c #2D2821",
"!F c #2D2A1C",
"!G c #2D2B1F",
"!H c #2D2B23",
"!I c #2D2D22",
"!J c #2D2E1E",
"!K c #2D2F1E",
"!L c #2D2F22",
"!M c #2D322E",
"!N c #2D3533",
"!O c #2D3827",
"!P c #2D382D",
"!Q c #2D382E",
"!R c #2D392C",
"!S c #2D3A2E",
"!T c #2D3A37",
"!U c #2D3B37",
"!V c #2D3E30",
"!W c #2D3E32",
"!X c #2D3F38",
"!Y c #2E2520",
"!Z c #2E281F",
"![ c #2E2820",
"!] c #2E2822",
"!^ c #2E291F",
"!_ c #2E2924",
"!` c #2E2A1F",
"!a c #2E2A21",
"!b c #2E2B23",
"!c c #2E2C21",
"!d c #2E2C22",
"!e c #2E2C27",
"!f c #2E2D20",
"!g c #2E2D21",
"!h c #2E2D27",
"!i c #2E2E1C",
"!j c #2E2E20",
"!k c #2E2F29",
"!l c #2E3128",
"!m c #2E3227",
"!n c #2E3327",
"!o c #2E3524",
"!p c #2E352A",
"!q c #2E352B",
"!r c #2E362C",
"!s c #2E392D",
"!t c #2E3A2B",
"!u c #2E3A2D",
"!v c #2E3D2C",
"!w c #2E3F2E",
"!x c #2F2320",
"!y c #2F2923",
"!z c #2F2927",
"!{ c #2F2A1F",
"!| c #2F2A20",
"!} c #2F2A21",
"!~ c #2F2A22",
"#! c #2F2B20",
"## c #2F2B21",
"#$ c #2F2B22",
"#% c #2F2C22",
"#& c #2F2C23",
"#' c #2F2D21",
"#( c #2F2D22",
"#) c #2F2D28",
"#* c #2F2E23",
"#+ c #2F2E24",
"#, c #2F2E28",
"#- c #2F2F28",
"#. c #2F3024",
"#/ c #2F3123",
"#0 c #2F3529",
"#1 c #2F3634",
"#2 c #2F372C",
"#3 c #2F392F",
"#4 c #2F3930",
"#5 c #2F3931",
"#6 c #2F3A29",
"#7 c #2F3A30",
"#8 c #2F3A33",
"#9 c #2F3D36",
"#: c #302722",
"#; c #302822",
"#< c #302920",
"#= c #302A20",
"#> c #302A21",
"#? c #302A23",
"#@ c #302A27",
"#A c #302A28",
"#B c #302B1E",
"#C c #302B21",
"#D c #302B24",
"#E c #302C20",
"#F c #302C21",
"#G c #302C22",
"#H c #302C24",
"#I c #302C27",
"#J c #302D20",
"#K c #302D21",
"#L c #302D22",
"#M c #302D23",
"#N c #302D27",
"#O c #302D2A",
"#P c #302E1F",
"#Q c #302E22",
"#R c #302E23",
"#S c #302E28",
"#T c #302F25",
"#U c #303028",
"#V c #30312C",
"#W c #303221",
"#X c #30322B",
"#Y c #303527",
"#Z c #303630",
"#[ c #303631",
"#] c #30372B",
"#^ c #30392D",
"#_ c #303930",
"#` c #303933",
"#a c #303A29",
"#b c #303A2B",
"#c c #303B2F",
"#d c #303D30",
"#e c #303E30",
"#f c #303E31",
"#g c #303E33",
"#h c #303F2F",
"#i c #303F33",
"#j c #304036",
"#k c #304131",
"#l c #304132",
"#m c #304133",
"#n c #304134",
"#o c #312520",
"#p c #312521",
"#q c #312721",
"#r c #312722",
"#s c #312723",
"#t c #312724",
"#u c #312727",
"#v c #312728",
"#w c #312920",
"#x c #312921",
"#y c #312A21",
"#z c #312A23",
"#{ c #312B20",
"#| c #312B22",
"#} c #312B23",
"#~ c #312B24",
"$! c #312B25",
"$# c #312C20",
"$$ c #312C21",
"$% c #312C24",
"$& c #312C25",
"$' c #312C27",
"$( c #312C28",
"$) c #312D23",
"$* c #312D24",
"$+ c #312D25",
"$, c #312D27",
"$- c #312D28",
"$. c #312E22",
"$/ c #312E28",
"$0 c #312E29",
"$1 c #312F1F",
"$2 c #312F20",
"$3 c #312F21",
"$4 c #312F24",
"$5 c #312F27",
"$6 c #312F28",
"$7 c #312F29",
"$8 c #313028",
"$9 c #31302B",
"$: c #313124",
"$; c #313125",
"$< c #313129",
"$= c #313221",
"$> c #313329",
"$? c #31352C",
"$@ c #31352F",
"$A c #31362B",
"$B c #31362F",
"$C c #31382D",
"$D c #31382F",
"$E c #313831",
"$F c #313834",
"$G c #31392F",
"$H c #313930",
"$I c #313A2B",
"$J c #313A31",
"$K c #313A34",
"$L c #313B2D",
"$M c #313B2F",
"$N c #313B35",
"$O c #313D2F",
"$P c #313D33",
"$Q c #313D36",
"$R c #313D3F",
"$S c #313E30",
"$T c #313E36",
"$U c #313F34",
"$V c #314030",
"$W c #314231",
"$X c #314234",
"$Y c #322422",
"$Z c #322520",
"$[ c #322621",
"$] c #322622",
"$^ c #322821",
"$_ c #322823",
"$` c #322824",
"$a c #322920",
"$b c #322A22",
"$c c #322B21",
"$d c #322B23",
"$e c #322B24",
"$f c #322C21",
"$g c #322C22",
"$h c #322C23",
"$i c #322C24",
"$j c #322C25",
"$k c #322C28",
"$l c #322D24",
"$m c #322E23",
"$n c #322E24",
"$o c #322E27",
"$p c #322E29",
"$q c #322E2A",
"$r c #322F22",
"$s c #322F23",
"$t c #322F25",
"$u c #322F2B",
"$v c #323021",
"$w c #323023",
"$x c #323025",
"$y c #323027",
"$z c #323028",
"${ c #32302A",
"$| c #323122",
"$} c #323123",
"$~ c #323124",
"%! c #323127",
"%# c #323128",
"%$ c #323129",
"%% c #32312C",
"%& c #32312D",
"%' c #323220",
"%( c #323227",
"%) c #323229",
"%* c #32322C",
"%+ c #32322D",
"%, c #323322",
"%- c #323324",
"%. c #323328",
"%/ c #32332A",
"%0 c #323523",
"%1 c #323529",
"%2 c #32352B",
"%3 c #32352F",
"%4 c #32362B",
"%5 c #32372A",
"%6 c #323731",
"%7 c #323828",
"%8 c #32382F",
"%9 c #323835",
"%: c #32392F",
"%; c #323930",
"%< c #323934",
"%= c #323A2F",
"%> c #323A30",
"%? c #323A31",
"%@ c #323A32",
"%A c #323B2F",
"%B c #323B31",
"%C c #323B32",
"%D c #323D2C",
"%E c #323D32",
"%F c #323E33",
"%G c #323E35",
"%H c #323F37",
"%I c #324036",
"%J c #324130",
"%K c #324131",
"%L c #32433A",
"%M c #324539",
"%N c #32453D",
"%O c #332424",
"%P c #332522",
"%Q c #332722",
"%R c #332922",
"%S c #332925",
"%T c #332A22",
"%U c #332A23",
"%V c #332A29",
"%W c #332B22",
"%X c #332B23",
"%Y c #332B25",
"%Z c #332B27",
"%[ c #332C23",
"%] c #332D22",
"%^ c #332D23",
"%_ c #332D24",
"%` c #332D25",
"%a c #332D27",
"%b c #332D2A",
"%c c #332E22",
"%d c #332E23",
"%e c #332E24",
"%f c #332E25",
"%g c #332E27",
"%h c #332E29",
"%i c #332E2B",
"%j c #332E2C",
"%k c #332F22",
"%l c #332F23",
"%m c #332F24",
"%n c #332F25",
"%o c #332F27",
"%p c #332F28",
"%q c #332F29",
"%r c #332F2B",
"%s c #333023",
"%t c #333024",
"%u c #333028",
"%v c #33302B",
"%w c #333122",
"%x c #333127",
"%y c #333128",
"%z c #333129",
"%{ c #33312A",
"%| c #333222",
"%} c #333223",
"%~ c #333227",
"&! c #333228",
"&# c #333229",
"&$ c #33322A",
"&% c #33322B",
"&& c #333322",
"&' c #333327",
"&( c #33332A",
"&) c #33332B",
"&* c #33332C",
"&+ c #33332D",
"&, c #333524",
"&- c #33352B",
"&. c #33352C",
"&/ c #33352F",
"&0 c #333627",
"&1 c #33362D",
"&2 c #333631",
"&3 c #33372B",
"&4 c #33372D",
"&5 c #333730",
"&6 c #333731",
"&7 c #333828",
"&8 c #333829",
"&9 c #33382F",
"&: c #333830",
"&; c #333832",
"&< c #333929",
"&= c #33392B",
"&> c #33392D",
"&? c #33392F",
"&@ c #333A31",
"&A c #333A32",
"&B c #333A35",
"&C c #333A37",
"&D c #333B31",
"&E c #333B34",
"&F c #333E2F",
"&G c #333E34",
"&H c #333E35",
"&I c #333F32",
"&J c #333F34",
"&K c #333F3F",
"&L c #334030",
"&M c #334032",
"&N c #334034",
"&O c #334131",
"&P c #334132",
"&Q c #334134",
"&R c #33413B",
"&S c #334231",
"&T c #334233",
"&U c #334332",
"&V c #334437",
"&W c #342523",
"&X c #342621",
"&Y c #342722",
"&Z c #342723",
"&[ c #342A21",
"&] c #342B22",
"&^ c #342D23",
"&_ c #342E30",
"&` c #34312E",
"&a c #343223",
"&b c #343323",
"&c c #343422",
"&d c #343524",
"&e c #343529",
"&f c #34352A",
"&g c #34352C",
"&h c #34352F",
"&i c #343625",
"&j c #34362A",
"&k c #343631",
"&l c #343725",
"&m c #343726",
"&n c #343729",
"&o c #34372F",
"&p c #343732",
"&q c #343827",
"&r c #343828",
"&s c #34382A",
"&t c #34382F",
"&u c #343832",
"&v c #343833",
"&w c #34392C",
"&x c #34392F",
"&y c #343932",
"&z c #343933",
"&{ c #343A28",
"&| c #343A2B",
"&} c #343A2F",
"&~ c #343A31",
"'! c #343A39",
"'# c #343B2B",
"'$ c #343B2D",
"'% c #343B30",
"'& c #343B31",
"'' c #343B32",
"'( c #343B36",
"') c #343D31",
"'* c #343E33",
"'+ c #343F34",
"', c #343F35",
"'- c #343F3B",
"'. c #344034",
"'/ c #34403A",
"'0 c #344130",
"'1 c #344132",
"'2 c #34413F",
"'3 c #344234",
"'4 c #344236",
"'5 c #344337",
"'6 c #34433D",
"'7 c #344433",
"'8 c #34483B",
"'9 c #352522",
"': c #352623",
"'; c #352824",
"'< c #352924",
"'= c #352927",
"'> c #352929",
"'? c #352A23",
"'@ c #352A24",
"'A c #352A25",
"'B c #352B23",
"'C c #352B24",
"'D c #352B25",
"'E c #352B27",
"'F c #352B29",
"'G c #352C24",
"'H c #352C25",
"'I c #352C27",
"'J c #352C2A",
"'K c #352D24",
"'L c #352D25",
"'M c #352D27",
"'N c #352D28",
"'O c #352D29",
"'P c #352D2B",
"'Q c #352E24",
"'R c #352E2A",
"'S c #352F24",
"'T c #352F25",
"'U c #352F27",
"'V c #352F28",
"'W c #352F29",
"'X c #352F2A",
"'Y c #353024",
"'Z c #353027",
"'[ c #35302B",
"'] c #353124",
"'^ c #35312A",
"'_ c #35312B",
"'` c #35312C",
"'a c #353224",
"'b c #353228",
"'c c #353229",
"'d c #35322A",
"'e c #353325",
"'f c #353327",
"'g c #353328",
"'h c #35332B",
"'i c #353424",
"'j c #353425",
"'k c #353428",
"'l c #353429",
"'m c #35342A",
"'n c #35342B",
"'o c #353524",
"'p c #353529",
"'q c #35352A",
"'r c #35352B",
"'s c #35352C",
"'t c #35352D",
"'u c #353530",
"'v c #353625",
"'w c #35362B",
"'x c #35362C",
"'y c #353729",
"'z c #35372D",
"'{ c #35372F",
"'| c #353730",
"'} c #353732",
"'~ c #353829",
"(! c #35382B",
"(# c #35382F",
"($ c #353830",
"(% c #353928",
"(& c #353929",
"(' c #353930",
"(( c #353931",
"() c #353934",
"(* c #353A2C",
"(+ c #353A2D",
"(, c #353A2F",
"(- c #353A33",
"(. c #353B2B",
"(/ c #353B2F",
"(0 c #353B31",
"(1 c #353C29",
"(2 c #353D30",
"(3 c #353D31",
"(4 c #353D35",
"(5 c #353D37",
"(6 c #353D39",
"(7 c #353E2F",
"(8 c #353E32",
"(9 c #353E33",
"(: c #353E35",
"(; c #353F32",
"(< c #354130",
"(= c #354133",
"(> c #354134",
"(? c #354135",
"(@ c #354231",
"(A c #354232",
"(B c #354234",
"(C c #354237",
"(D c #354332",
"(E c #354635",
"(F c #354636",
"(G c #35463B",
"(H c #35473E",
"(I c #362522",
"(J c #362523",
"(K c #362525",
"(L c #362625",
"(M c #362724",
"(N c #362725",
"(O c #362925",
"(P c #362927",
"(Q c #362A24",
"(R c #362A27",
"(S c #362A2A",
"(T c #362A2D",
"(U c #362B25",
"(V c #362B27",
"(W c #362B29",
"(X c #362C25",
"(Y c #362C27",
"(Z c #362C28",
"([ c #362D24",
"(] c #362D25",
"(^ c #362D27",
"(_ c #362D28",
"(` c #362D29",
"(a c #362D2A",
"(b c #362D2B",
"(c c #362E24",
"(d c #362E25",
"(e c #362E27",
"(f c #362E29",
"(g c #362E2A",
"(h c #362E2B",
"(i c #362E2C",
"(j c #362F25",
"(k c #362F28",
"(l c #362F29",
"(m c #362F2C",
"(n c #363025",
"(o c #363028",
"(p c #363029",
"(q c #36302A",
"(r c #36302B",
"(s c #363125",
"(t c #36312B",
"(u c #36312C",
"(v c #36312D",
"(w c #36312F",
"(x c #363225",
"(y c #363228",
"(z c #36322A",
"({ c #36322B",
"(| c #363324",
"(} c #363327",
"(~ c #36332A",
")! c #36332B",
")# c #36332C",
")$ c #36332D",
")% c #36342C",
")& c #36342F",
")' c #363431",
")( c #363524",
")) c #363525",
")* c #363528",
")+ c #363529",
"), c #36352D",
")- c #36352F",
"). c #363531",
")/ c #363621",
")0 c #363624",
")1 c #363628",
")2 c #36362A",
")3 c #36362C",
")4 c #36362D",
")5 c #363726",
")6 c #36372A",
")7 c #36372B",
")8 c #36372C",
")9 c #363730",
"): c #363731",
"); c #363829",
")< c #36382A",
")= c #36382B",
")> c #363830",
")? c #363831",
")@ c #363833",
")A c #363928",
")B c #36392A",
")C c #36392B",
")D c #36392C",
")E c #36392F",
")F c #363931",
")G c #363933",
")H c #363934",
")I c #363A26",
")J c #363A29",
")K c #363A2B",
")L c #363A2C",
")M c #363A30",
")N c #363A31",
")O c #363A32",
")P c #363A33",
")Q c #363A34",
")R c #363B2B",
")S c #363B2D",
")T c #363B2F",
")U c #363B34",
")V c #363C38",
")W c #363D2C",
")X c #363D2D",
")Y c #363D2F",
")Z c #363D30",
")[ c #363D33",
")] c #363E2D",
")^ c #363E31",
")_ c #363E34",
")` c #363F2E",
")a c #363F35",
")b c #364032",
")c c #364034",
")d c #364035",
")e c #364333",
")f c #364635",
")g c #372523",
")h c #372524",
")i c #372624",
")j c #372726",
")k c #372728",
")l c #372829",
")m c #372923",
")n c #372927",
")o c #372A25",
")p c #372A26",
")q c #372B25",
")r c #372B26",
")s c #372B27",
")t c #372B2A",
")u c #372B2B",
")v c #372C24",
")w c #372C25",
")x c #372C26",
")y c #372C27",
")z c #372C2B",
"){ c #372C2C",
")| c #372D24",
")} c #372D25",
")~ c #372D26",
"*! c #372D28",
"*# c #372E24",
"*$ c #372E25",
"*% c #372E26",
"*& c #372E27",
"*' c #372E28",
"*( c #372E2C",
"*) c #372F26",
"** c #372F27",
"*+ c #372F29",
"*, c #372F2B",
"*- c #372F2F",
"*. c #373028",
"*/ c #37302A",
"*0 c #373125",
"*1 c #373127",
"*2 c #37312B",
"*3 c #37312C",
"*4 c #373228",
"*5 c #373229",
"*6 c #37322A",
"*7 c #37322B",
"*8 c #373230",
"*9 c #373231",
"*: c #373234",
"*; c #373325",
"*< c #373328",
"*= c #373329",
"*> c #37332B",
"*? c #37332C",
"*@ c #37332D",
"*A c #37332F",
"*B c #373425",
"*C c #373426",
"*D c #373428",
"*E c #373429",
"*F c #37342A",
"*G c #37342B",
"*H c #37342D",
"*I c #37342F",
"*J c #373526",
"*K c #373528",
"*L c #37352A",
"*M c #37352B",
"*N c #37352D",
"*O c #37352F",
"*P c #373530",
"*Q c #373531",
"*R c #373532",
"*S c #373533",
"*T c #373626",
"*U c #373627",
"*V c #37362B",
"*W c #37362D",
"*X c #37362F",
"*Y c #373631",
"*Z c #373632",
"*[ c #373725",
"*] c #373726",
"*^ c #373729",
"*_ c #37372A",
"*` c #373730",
"*a c #373732",
"*b c #373828",
"*c c #373829",
"*d c #37382B",
"*e c #37382C",
"*f c #373928",
"*g c #373929",
"*h c #37392B",
"*i c #37392C",
"*j c #37392D",
"*k c #37392F",
"*l c #373A2B",
"*m c #373A2C",
"*n c #373A2D",
"*o c #373A2F",
"*p c #373A30",
"*q c #373B2A",
"*r c #373B2B",
"*s c #373B2D",
"*t c #373B30",
"*u c #373B31",
"*v c #373B38",
"*w c #373C28",
"*x c #373C2B",
"*y c #373C36",
"*z c #373D2B",
"*{ c #373D2F",
"*| c #373D31",
"*} c #373D32",
"*~ c #373D33",
"+! c #373E2C",
"+# c #373E31",
"+$ c #373E33",
"+% c #373E34",
"+& c #373E38",
"+' c #373F2E",
"+( c #373F34",
"+) c #374033",
"+* c #374038",
"++ c #374130",
"+, c #374133",
"+- c #374134",
"+. c #37413E",
"+/ c #374232",
"+0 c #37423D",
"+1 c #374433",
"+2 c #374535",
"+3 c #374538",
"+4 c #382624",
"+5 c #382726",
"+6 c #382728",
"+7 c #382827",
"+8 c #382925",
"+9 c #382928",
"+: c #382A25",
"+; c #382A26",
"+< c #382A27",
"+= c #382B26",
"+> c #382C26",
"+? c #382C2A",
"+@ c #382D25",
"+A c #382D27",
"+B c #382D28",
"+C c #382D29",
"+D c #382E28",
"+E c #382E2B",
"+F c #382F26",
"+G c #382F28",
"+H c #382F29",
"+I c #382F2A",
"+J c #383024",
"+K c #383028",
"+L c #383029",
"+M c #38302A",
"+N c #38302C",
"+O c #383030",
"+P c #383125",
"+Q c #383127",
"+R c #383128",
"+S c #38312D",
"+T c #383228",
"+U c #383229",
"+V c #38322A",
"+W c #38322B",
"+X c #38322C",
"+Y c #38322F",
"+Z c #383328",
"+[ c #38332A",
"+] c #38332B",
"+^ c #38332C",
"+_ c #383424",
"+` c #383427",
"+a c #383429",
"+b c #38342A",
"+c c #38342B",
"+d c #38342C",
"+e c #38342D",
"+f c #38342F",
"+g c #383431",
"+h c #38352A",
"+i c #38352B",
"+j c #38352D",
"+k c #38352F",
"+l c #383628",
"+m c #383629",
"+n c #38362C",
"+o c #38362D",
"+p c #38362F",
"+q c #383630",
"+r c #383631",
"+s c #383729",
"+t c #38372A",
"+u c #38372B",
"+v c #38372C",
"+w c #38372D",
"+x c #38372F",
"+y c #383730",
"+z c #383732",
"+{ c #38382C",
"+| c #38382F",
"+} c #383830",
"+~ c #383831",
",! c #383833",
",# c #38392F",
",$ c #383930",
",% c #383931",
",& c #383934",
",' c #383A2A",
",( c #383A33",
",) c #383A34",
",* c #383B2A",
",+ c #383B2B",
",, c #383B32",
",- c #383B33",
",. c #383C37",
",/ c #383D30",
",0 c #383D38",
",1 c #383E2D",
",2 c #383E2F",
",3 c #383E32",
",4 c #383E38",
",5 c #383F2C",
",6 c #383F30",
",7 c #383F31",
",8 c #383F34",
",9 c #38402D",
",: c #384033",
",; c #384034",
",< c #384038",
",= c #38403D",
",> c #384231",
",? c #384235",
",@ c #384334",
",A c #384837",
",B c #38493F",
",C c #384C3B",
",D c #384C3D",
",E c #392828",
",F c #392829",
",G c #392926",
",H c #39292B",
",I c #39292D",
",J c #392A26",
",K c #392A28",
",L c #392B28",
",M c #392B29",
",N c #392B2B",
",O c #392C26",
",P c #392C28",
",Q c #392C29",
",R c #392D28",
",S c #392D29",
",T c #392D2A",
",U c #392D2D",
",V c #392E26",
",W c #392E28",
",X c #392E2B",
",Y c #392E2D",
",Z c #392F28",
",[ c #392F29",
",] c #392F2A",
",^ c #392F2B",
",_ c #392F2D",
",` c #393029",
",a c #39302B",
",b c #39302C",
",c c #393030",
",d c #393033",
",e c #393128",
",f c #393129",
",g c #39312C",
",h c #39312F",
",i c #393228",
",j c #393229",
",k c #39322B",
",l c #393231",
",m c #393328",
",n c #393329",
",o c #39332A",
",p c #39332D",
",q c #39342B",
",r c #39342D",
",s c #39342F",
",t c #393430",
",u c #393431",
",v c #393432",
",w c #393528",
",x c #39352B",
",y c #39352D",
",z c #393530",
",{ c #393531",
",| c #39362A",
",} c #39362D",
",~ c #39372A",
"-! c #39372B",
"-# c #39372C",
"-$ c #39372F",
"-% c #393730",
"-& c #393731",
"-' c #393732",
"-( c #393733",
"-) c #393734",
"-* c #393825",
"-+ c #393828",
"-, c #393829",
"-- c #39382A",
"-. c #39382C",
"-/ c #39382D",
"-0 c #39382F",
"-1 c #393831",
"-2 c #393832",
"-3 c #393834",
"-4 c #39392B",
"-5 c #39392D",
"-6 c #39392F",
"-7 c #393930",
"-8 c #393931",
"-9 c #393932",
"-: c #393933",
"-; c #393934",
"-< c #39393A",
"-= c #393A2B",
"-> c #393A2C",
"-? c #393A2D",
"-@ c #393A2F",
"-A c #393A30",
"-B c #393A33",
"-C c #393A35",
"-D c #393A36",
"-E c #393B2B",
"-F c #393B2C",
"-G c #393B2D",
"-H c #393B2F",
"-I c #393B31",
"-J c #393B32",
"-K c #393B33",
"-L c #393B34",
"-M c #393C36",
"-N c #393C38",
"-O c #393D2F",
"-P c #393D30",
"-Q c #393D31",
"-R c #393D32",
"-S c #393D37",
"-T c #393E2D",
"-U c #393E33",
"-V c #393F33",
"-W c #393F35",
"-X c #393F3A",
"-Y c #394039",
"-Z c #394137",
"-[ c #394139",
"-] c #39422C",
"-^ c #394231",
"-_ c #394232",
"-` c #394242",
"-a c #394332",
"-b c #394334",
"-c c #394537",
"-d c #39463B",
"-e c #394737",
"-f c #394838",
"-g c #3A2725",
"-h c #3A2726",
"-i c #3A282A",
"-j c #3A2925",
"-k c #3A292A",
"-l c #3A292D",
"-m c #3A2A28",
"-n c #3A2A29",
"-o c #3A2B28",
"-p c #3A2B29",
"-q c #3A2B2A",
"-r c #3A2C28",
"-s c #3A2C29",
"-t c #3A2C2A",
"-u c #3A2D29",
"-v c #3A2D2B",
"-w c #3A2E25",
"-x c #3A2E28",
"-y c #3A2E29",
"-z c #3A2E2B",
"-{ c #3A2F29",
"-| c #3A2F2A",
"-} c #3A3029",
"-~ c #3A302A",
".! c #3A302B",
".# c #3A302C",
".$ c #3A302D",
".% c #3A3030",
".& c #3A3031",
".' c #3A3128",
".( c #3A3129",
".) c #3A312D",
".* c #3A312F",
".+ c #3A3130",
"., c #3A322A",
".- c #3A322B",
".. c #3A322C",
"./ c #3A322D",
".0 c #3A332B",
".1 c #3A332D",
".2 c #3A3330",
".3 c #3A342B",
".4 c #3A342C",
".5 c #3A342D",
".6 c #3A3430",
".7 c #3A3431",
".8 c #3A352D",
".9 c #3A352F",
".: c #3A3530",
".; c #3A3531",
".< c #3A3532",
".= c #3A362C",
".> c #3A362D",
".? c #3A362F",
".@ c #3A3630",
".A c #3A3632",
".B c #3A3636",
".C c #3A372A",
".D c #3A372D",
".E c #3A3730",
".F c #3A3732",
".G c #3A3829",
".H c #3A382B",
".I c #3A382D",
".J c #3A3830",
".K c #3A3835",
".L c #3A3929",
".M c #3A392C",
".N c #3A3930",
".O c #3A3931",
".P c #3A3934",
".Q c #3A3A29",
".R c #3A3A2B",
".S c #3A3A2C",
".T c #3A3A2D",
".U c #3A3A2F",
".V c #3A3A30",
".W c #3A3A31",
".X c #3A3A32",
".Y c #3A3A33",
".Z c #3A3A35",
".[ c #3A3A36",
".] c #3A3B2A",
".^ c #3A3B30",
"._ c #3A3B31",
".` c #3A3B32",
".a c #3A3C37",
".b c #3A3D2F",
".c c #3A3D32",
".d c #3A3D33",
".e c #3A3D34",
".f c #3A3E2D",
".g c #3A3E30",
".h c #3A3E31",
".i c #3A3E32",
".j c #3A3E33",
".k c #3A3E34",
".l c #3A3E39",
".m c #3A3F2E",
".n c #3A3F31",
".o c #3A3F33",
".p c #3A3F35",
".q c #3A4034",
".r c #3A4035",
".s c #3A4038",
".t c #3A4130",
".u c #3A4139",
".v c #3A4235",
".w c #3A4237",
".x c #3A4337",
".y c #3A433D",
".z c #3A4533",
".{ c #3A4538",
".| c #3A463A",
".} c #3A4737",
".~ c #3A4740",
"/! c #3A4836",
"/# c #3A4839",
"/$ c #3A483C",
"/% c #3A4E3F",
"/& c #3B2A2A",
"/' c #3B2A2B",
"/( c #3B2C2A",
"/) c #3B2C2B",
"/* c #3B2D2A",
"/+ c #3B2E2A",
"/, c #3B2E2B",
"/- c #3B2E2C",
"/. c #3B2F2A",
"// c #3B2F2B",
"/0 c #3B302A",
"/1 c #3B302B",
"/2 c #3B302D",
"/3 c #3B3030",
"/4 c #3B312A",
"/5 c #3B312F",
"/6 c #3B322A",
"/7 c #3B322C",
"/8 c #3B322D",
"/9 c #3B3231",
"/: c #3B3232",
"/; c #3B332D",
"/< c #3B342A",
"/= c #3B342B",
"/> c #3B342C",
"/? c #3B342D",
"/@ c #3B342F",
"/A c #3B3430",
"/B c #3B3436",
"/C c #3B352A",
"/D c #3B352B",
"/E c #3B352C",
"/F c #3B352D",
"/G c #3B352F",
"/H c #3B3530",
"/I c #3B3531",
"/J c #3B3532",
"/K c #3B3533",
"/L c #3B362C",
"/M c #3B362F",
"/N c #3B372A",
"/O c #3B372C",
"/P c #3B372D",
"/Q c #3B3732",
"/R c #3B3733",
"/S c #3B3735",
"/T c #3B382B",
"/U c #3B382D",
"/V c #3B3830",
"/W c #3B3836",
"/X c #3B392C",
"/Y c #3B392D",
"/Z c #3B392F",
"/[ c #3B3930",
"/] c #3B3931",
"/^ c #3B3934",
"/_ c #3B3935",
"/` c #3B393A",
"/a c #3B3A2B",
"/b c #3B3A2D",
"/c c #3B3A2F",
"/d c #3B3A31",
"/e c #3B3A33",
"/f c #3B3A34",
"/g c #3B3A36",
"/h c #3B3A37",
"/i c #3B3B2D",
"/j c #3B3B2F",
"/k c #3B3B30",
"/l c #3B3B31",
"/m c #3B3B32",
"/n c #3B3B33",
"/o c #3B3D2B",
"/p c #3B3D2C",
"/q c #3B3D32",
"/r c #3B3D33",
"/s c #3B3D35",
"/t c #3B3E2C",
"/u c #3B3E2D",
"/v c #3B3E2F",
"/w c #3B3E30",
"/x c #3B3E31",
"/y c #3B3E32",
"/z c #3B3F2F",
"/{ c #3B3F33",
"/| c #3B3F37",
"/} c #3B3F38",
"/~ c #3B4032",
"0! c #3B4035",
"0# c #3B403B",
"0$ c #3B412C",
"0% c #3B4231",
"0& c #3B4233",
"0' c #3B4235",
"0( c #3B4337",
"0) c #3B4338",
"0* c #3B4539",
"0+ c #3C292A",
"0, c #3C2A28",
"0- c #3C2A2F",
"0. c #3C2B26",
"0/ c #3C2B28",
"00 c #3C2B29",
"01 c #3C2B2A",
"02 c #3C2B2B",
"03 c #3C2B2C",
"04 c #3C2C28",
"05 c #3C2C29",
"06 c #3C2C2B",
"07 c #3C2D26",
"08 c #3C2D2A",
"09 c #3C2D2B",
"0: c #3C2E26",
"0; c #3C2E28",
"0< c #3C2E2B",
"0= c #3C2F2B",
"0> c #3C3028",
"0? c #3C3128",
"0@ c #3C3129",
"0A c #3C312A",
"0B c #3C312B",
"0C c #3C3229",
"0D c #3C332A",
"0E c #3C332B",
"0F c #3C3936",
"0G c #3C3938",
"0H c #3C3B37",
"0I c #3C3B3A",
"0J c #3C3C2A",
"0K c #3C3D2A",
"0L c #3C3D2F",
"0M c #3C3D32",
"0N c #3C3D33",
"0O c #3C3E2D",
"0P c #3C3E2F",
"0Q c #3C3E32",
"0R c #3C3E3B",
"0S c #3C3F2E",
"0T c #3C3F33",
"0U c #3C3F34",
"0V c #3C3F3A",
"0W c #3C3F41",
"0X c #3C402F",
"0Y c #3C4030",
"0Z c #3C4032",
"0[ c #3C4034",
"0] c #3C4039",
"0^ c #3C4131",
"0_ c #3C4231",
"0` c #3C4233",
"0a c #3C4235",
"0b c #3C423D",
"0c c #3C4338",
"0d c #3C433C",
"0e c #3C4433",
"0f c #3C453E",
"0g c #3C4635",
"0h c #3C463B",
"0i c #3C4939",
"0j c #3C4D44",
"0k c #3D2928",
"0l c #3D2931",
"0m c #3D2A2B",
"0n c #3D2B28",
"0o c #3D2B29",
"0p c #3D2C28",
"0q c #3D2C29",
"0r c #3D2C2B",
"0s c #3D2C2C",
"0t c #3D2C2D",
"0u c #3D2D26",
"0v c #3D2D28",
"0w c #3D2D2A",
"0x c #3D2D2B",
"0y c #3D2D2C",
"0z c #3D2E28",
"0{ c #3D2E2B",
"0| c #3D2E2C",
"0} c #3D2F2B",
"0~ c #3D2F2C",
"1! c #3D2F2D",
"1# c #3D2F2F",
"1$ c #3D2F31",
"1% c #3D3029",
"1& c #3D302C",
"1' c #3D302F",
"1( c #3D3030",
"1) c #3D3035",
"1* c #3D3126",
"1+ c #3D3128",
"1, c #3D312B",
"1- c #3D312C",
"1. c #3D3131",
"1/ c #3D3132",
"10 c #3D322A",
"11 c #3D322B",
"12 c #3D322C",
"13 c #3D332B",
"14 c #3D332C",
"15 c #3D332D",
"16 c #3D342B",
"17 c #3D342C",
"18 c #3D342F",
"19 c #3D352C",
"1: c #3D352D",
"1; c #3D352F",
"1< c #3D3531",
"1= c #3D362C",
"1> c #3D3630",
"1? c #3D3731",
"1@ c #3D3734",
"1A c #3D3835",
"1B c #3D392C",
"1C c #3D3933",
"1D c #3D3A32",
"1E c #3D3B2F",
"1F c #3D3B30",
"1G c #3D3B34",
"1H c #3D3B35",
"1I c #3D3C30",
"1J c #3D3C31",
"1K c #3D3D2A",
"1L c #3D3D2B",
"1M c #3D3D2C",
"1N c #3D3D2F",
"1O c #3D3D31",
"1P c #3D3D33",
"1Q c #3D3D34",
"1R c #3D3D37",
"1S c #3D3E2A",
"1T c #3D3E2D",
"1U c #3D3E2F",
"1V c #3D3E30",
"1W c #3D3E31",
"1X c #3D3E32",
"1Y c #3D3E34",
"1Z c #3D3E37",
"1[ c #3D3E38",
"1] c #3D3F2B",
"1^ c #3D3F2E",
"1_ c #3D3F30",
"1` c #3D3F33",
"1a c #3D3F34",
"1b c #3D3F37",
"1c c #3D3F39",
"1d c #3D402F",
"1e c #3D4032",
"1f c #3D4033",
"1g c #3D4034",
"1h c #3D4035",
"1i c #3D4038",
"1j c #3D4130",
"1k c #3D4131",
"1l c #3D4139",
"1m c #3D413C",
"1n c #3D4232",
"1o c #3D4233",
"1p c #3D4235",
"1q c #3D4239",
"1r c #3D423B",
"1s c #3D4332",
"1t c #3D4335",
"1u c #3D4535",
"1v c #3D463A",
"1w c #3D4739",
"1x c #3D493D",
"1y c #3D4A3D",
"1z c #3E292B",
"1{ c #3E2A28",
"1| c #3E2A29",
"1} c #3E2A2C",
"1~ c #3E2B29",
"2! c #3E2B2A",
"2# c #3E2B2D",
"2$ c #3E2B34",
"2% c #3E2C2A",
"2& c #3E2D2A",
"2' c #3E2D2C",
"2( c #3E2D2D",
"2) c #3E2D2E",
"2* c #3E2D30",
"2+ c #3E2D31",
"2, c #3E2D32",
"2- c #3E2D34",
"2. c #3E2E28",
"2/ c #3E2E2A",
"20 c #3E2E2B",
"21 c #3E2E2C",
"22 c #3E2E2D",
"23 c #3E2F2A",
"24 c #3E2F2C",
"25 c #3E2F2D",
"26 c #3E2F31",
"27 c #3E2F32",
"28 c #3E3029",
"29 c #3E302D",
"2: c #3E312A",
"2; c #3E312D",
"2< c #3E312F",
"2= c #3E3132",
"2> c #3E3133",
"2? c #3E3229",
"2@ c #3E322A",
"2A c #3E322D",
"2B c #3E322F",
"2C c #3E332D",
"2D c #3E332F",
"2E c #3E342C",
"2F c #3E342D",
"2G c #3E342F",
"2H c #3E3430",
"2I c #3E3431",
"2J c #3E352C",
"2K c #3E352D",
"2L c #3E3530",
"2M c #3E3531",
"2N c #3E3532",
"2O c #3E362F",
"2P c #3E3631",
"2Q c #3E3632",
"2R c #3E372D",
"2S c #3E3730",
"2T c #3E3733",
"2U c #3E3832",
"2V c #3E392F",
"2W c #3E3937",
"2X c #3E3A32",
"2Y c #3E3B2F",
"2Z c #3E3B32",
"2[ c #3E3C32",
"2] c #3E3C33",
"2^ c #3E3C34",
"2_ c #3E3C37",
"2` c #3E3D35",
"2a c #3E3E30",
"2b c #3E3E31",
"2c c #3E3E32",
"2d c #3E3E33",
"2e c #3E3E34",
"2f c #3E3E35",
"2g c #3E3F31",
"2h c #3E3F33",
"2i c #3E3F34",
"2j c #3E402E",
"2k c #3E4031",
"2l c #3E4032",
"2m c #3E4033",
"2n c #3E4035",
"2o c #3E403A",
"2p c #3E4130",
"2q c #3E4132",
"2r c #3E4133",
"2s c #3E4137",
"2t c #3E413B",
"2u c #3E423A",
"2v c #3E4334",
"2w c #3E4338",
"2x c #3E433A",
"2y c #3E4533",
"2z c #3E4635",
"2{ c #3E4638",
"2| c #3E4639",
"2} c #3E483A",
"2~ c #3F2524",
"3! c #3F2825",
"3# c #3F2A2C",
"3$ c #3F2B2A",
"3% c #3F2B2B",
"3& c #3F2C29",
"3' c #3F2D29",
"3( c #3F2D2B",
"3) c #3F2D2C",
"3* c #3F2D2D",
"3+ c #3F2D2F",
"3, c #3F2E2B",
"3- c #3F2E2C",
"3. c #3F2E2D",
"3/ c #3F2E2F",
"30 c #3F2E30",
"31 c #3F2F2A",
"32 c #3F2F2D",
"33 c #3F2F2E",
"34 c #3F2F32",
"35 c #3F302E",
"36 c #3F302F",
"37 c #3F3129",
"38 c #3F312D",
"39 c #3F3132",
"3: c #3F3133",
"3; c #3F3135",
"3< c #3F322B",
"3= c #3F322D",
"3> c #3F322E",
"3? c #3F322F",
"3@ c #3F3234",
"3A c #3F332C",
"3B c #3F332D",
"3C c #3F332E",
"3D c #3F332F",
"3E c #3F3330",
"3F c #3F3331",
"3G c #3F3332",
"3H c #3F342E",
"3I c #3F342F",
"3J c #3F3430",
"3K c #3F3432",
"3L c #3F352F",
"3M c #3F3531",
"3N c #3F362E",
"3O c #3F3630",
"3P c #3F3631",
"3Q c #3F3632",
"3R c #3F372E",
"3S c #3F372F",
"3T c #3F3732",
"3U c #3F3733",
"3V c #3F3831",
"3W c #3F3832",
"3X c #3F3833",
"3Y c #3F3930",
"3Z c #3F3A31",
"3[ c #3F3C32",
"3] c #3F3D2C",
"3^ c #3F3D30",
"3_ c #3F3D35",
"3` c #3F3D37",
"3a c #3F3E33",
"3b c #3F3E34",
"3c c #3F3E37",
"3d c #3F3F2E",
"3e c #3F3F33",
"3f c #3F4033",
"3g c #3F4134",
"3h c #3F4231",
"3i c #3F4233",
"3j c #3F4234",
"3k c #3F4235",
"3l c #3F4335",
"3m c #3F4338",
"3n c #3F4534",
"3o c #3F4635",
"3p c #3F463B",
"3q c #3F493B",
"3r c #3F493F",
"3s c #402B2E",
"3t c #402B31",
"3u c #402C2C",
"3v c #402C2D",
"3w c #402D2B",
"3x c #402D2C",
"3y c #402D2D",
"3z c #402E29",
"3{ c #402E2C",
"3| c #402E2D",
"3} c #402E2E",
"3~ c #402F2D",
"4! c #402F2E",
"4# c #402F31",
"4$ c #40302A",
"4% c #40302E",
"4& c #403031",
"4' c #403032",
"4( c #40312E",
"4) c #40322B",
"4* c #40322D",
"4+ c #40322F",
"4, c #403230",
"4- c #40332C",
"4. c #40332D",
"4/ c #40332E",
"40 c #40332F",
"41 c #403330",
"42 c #403331",
"43 c #403332",
"44 c #40342B",
"45 c #40342D",
"46 c #40342E",
"47 c #40342F",
"48 c #403432",
"49 c #403436",
"4: c #403530",
"4; c #403531",
"4< c #403533",
"4= c #40362F",
"4> c #403630",
"4? c #403632",
"4@ c #403731",
"4A c #403732",
"4B c #403832",
"4C c #403833",
"4D c #403A34",
"4E c #403B2F",
"4F c #403B37",
"4G c #403C35",
"4H c #403D34",
"4I c #403D37",
"4J c #403D38",
"4K c #403D39",
"4L c #403D3A",
"4M c #403E2F",
"4N c #403E35",
"4O c #403F31",
"4P c #403F37",
"4Q c #403F39",
"4R c #404138",
"4S c #404238",
"4T c #404239",
"4U c #40433A",
"4V c #404538",
"4W c #40473C",
"4X c #40493B",
"4Y c #404A43",
"4Z c #412A2E",
"4[ c #412B2B",
"4] c #412C2C",
"4^ c #412C2D",
"4_ c #412D2B",
"4` c #412E2C",
"4a c #412E2E",
"4b c #412E2F",
"4c c #412F2B",
"4d c #412F2D",
"4e c #41302E",
"4f c #413030",
"4g c #413031",
"4h c #413032",
"4i c #413035",
"4j c #41312D",
"4k c #41322C",
"4l c #413236",
"4m c #41332D",
"4n c #413330",
"4o c #413331",
"4p c #41342C",
"4q c #41342E",
"4r c #413430",
"4s c #413437",
"4t c #413530",
"4u c #413532",
"4v c #413538",
"4w c #413730",
"4x c #413732",
"4y c #413734",
"4z c #413930",
"4{ c #413A30",
"4| c #413A32",
"4} c #413A33",
"4~ c #413A34",
"5! c #413B33",
"5# c #413B34",
"5$ c #413B35",
"5% c #413C30",
"5& c #413C34",
"5' c #413C37",
"5( c #413D32",
"5) c #413D3B",
"5* c #413E33",
"5+ c #413E39",
"5, c #414034",
"5- c #414037",
"5. c #414039",
"5/ c #41403A",
"50 c #414132",
"51 c #414133",
"52 c #414139",
"53 c #414232",
"54 c #414237",
"55 c #414333",
"56 c #414337",
"57 c #414339",
"58 c #41433B",
"59 c #414538",
"5: c #41473B",
"5; c #41493F",
"5< c #422A2A",
"5= c #422B2C",
"5> c #422C29",
"5? c #422C2C",
"5@ c #422C2E",
"5A c #422D2C",
"5B c #422E2D",
"5C c #422E2E",
"5D c #422E2F",
"5E c #422F2C",
"5F c #422F2D",
"5G c #422F2E",
"5H c #42302B",
"5I c #42302E",
"5J c #423030",
"5K c #423031",
"5L c #423033",
"5M c #42312C",
"5N c #423131",
"5O c #423133",
"5P c #423134",
"5Q c #423135",
"5R c #423136",
"5S c #423231",
"5T c #423234",
"5U c #42332D",
"5V c #423330",
"5W c #423331",
"5X c #423337",
"5Y c #42342E",
"5Z c #423431",
"5[ c #423432",
"5] c #423531",
"5^ c #423532",
"5_ c #423533",
"5` c #423631",
"5a c #423731",
"5b c #423732",
"5c c #423831",
"5d c #423833",
"5e c #423930",
"5f c #423C35",
"5g c #423D38",
"5h c #423E3A",
"5i c #424038",
"5j c #424132",
"5k c #424234",
"5l c #424238",
"5m c #42423A",
"5n c #42463B",
"5o c #424A3C",
"5p c #433232",
"5q c #433236",
"5r c #433332",
"5s c #433433",
"5t c #433532",
"5u c #433734",
"5v c #433A34",
"5w c #433A35",
"5x c #433B33",
"5y c #433E39",
"5z c #433E3B",
"5{ c #434035",
"5| c #434039",
"5} c #434238",
"5~ c #43453A",
"6! c #43453B",
"6# c #434634",
"6$ c #434838",
"6% c #442C2C",
"6& c #442E2B",
"6' c #442E30",
"6( c #443030",
"6) c #443032",
"6* c #44312D",
"6+ c #44312E",
"6, c #443131",
"6- c #443133",
"6. c #443134",
"6/ c #443137",
"60 c #443235",
"61 c #44332D",
"62 c #443331",
"63 c #443333",
"64 c #443335",
"65 c #44342D",
"66 c #443530",
"67 c #443531",
"68 c #443633",
"69 c #443830",
"6: c #443933",
"6; c #443A33",
"6< c #44473A",
"6= c #444943",
"6> c #452D2C",
"6? c #452D2E",
"6@ c #452F2D",
"6A c #453035",
"6B c #45312E",
"6C c #453130",
"6D c #453132",
"6E c #45322E",
"6F c #453232",
"6G c #453331",
"6H c #453332",
"6I c #453333",
"6J c #453335",
"6K c #45333A",
"6L c #45342E",
"6M c #453433",
"6N c #453434",
"6O c #453436",
"6P c #453438",
"6Q c #453533",
"6R c #453534",
"6S c #453633",
"6T c #453634",
"6U c #453733",
"6V c #453A33",
"6W c #453A34",
"6X c #453E3B",
"6Y c #454238",
"6Z c #454635",
"6[ c #45463A",
"6] c #454734",
"6^ c #463232",
"6_ c #463233",
"6` c #463235",
"6a c #46332E",
"6b c #463330",
"6c c #463333",
"6d c #463336",
"6e c #463433",
"6f c #463435",
"6g c #463439",
"6h c #46343C",
"6i c #463533",
"6j c #463535",
"6k c #463539",
"6l c #463630",
"6m c #463635",
"6n c #463734",
"6o c #463735",
"6p c #46373A",
"6q c #463932",
"6r c #463933",
"6s c #463938",
"6t c #463D31",
"6u c #472B2C",
"6v c #473131",
"6w c #473134",
"6x c #473332",
"6y c #473334",
"6z c #473336",
"6{ c #473532",
"6| c #473534",
"6} c #473536",
"6~ c #473636",
"7! c #473732",
"7# c #473C37",
"7$ c #473C38",
"7% c #47483A",
"7& c #48313B",
"7' c #483535",
"7( c #483634",
"7) c #483635",
"7* c #483637",
"7+ c #483735",
"7, c #48373B",
"7- c #483839",
"7. c #483A35",
"7/ c #483C38",
"70 c #483E3A",
"71 c #485042",
"72 c #493434",
"73 c #493534",
"74 c #493637",
"75 c #493833",
"76 c #49383C",
"77 c #493B36",
"78 c #49493C",
"79 c #4A313F",
"7: c #4A3232",
"7; c #4A3436",
"7< c #4A3635",
"7= c #4A3838",
"7> c #4A393B",
"7? c #4A393C",
"7@ c #4A3A38",
"7A c #4A3C39",
"7B c #4A3D39",
"7C c #4B3C3C",
"7D c #4C3132",
"7E c #4C3233",
"7F c #4C3433",
"7G c #4C3633",
"7H c #4C3736",
"7I c #4C3839",
"7J c #4C3939",
"7K c #4C3A3B",
"7L c #4D3142",
"7M c #4D3233",
"7N c #4D343E",
"7O c #4D3532",
"7P c #4D383C",
"7Q c #4E3735",
"7R c #4E3838",
"7S c #4E393B",
"7T c #4E3A36",
"7U c #4F3437",
"7V c #4F3834",
"7W c #4F383D",
"7X c #503A43",
"7Y c #503B3C",
"7Z c #513B3B",
"7[ c #523939",
"7] c #523E3A",
"7^ c #543C3D",
"7_ c #563E40",
/* pixels */
",X3a/04>+9*D3n({(V#?'l--63.h/l%`-u.o*02l${&f1o(|'n.b1a(')k*h-=-r!:.g*g&!'M'G2y%J,+6]7G7U3B5T+d/+'9-y#F79,s2Q07$z0f,i0E,p/J0K/4*b",
"1o._&v0z++&745.A)L.j.T6W'@02..'<5h0j.R2l()2f1X.L3h.Q$%6%3))x4*6Y2i-U,0%d&h*Z,!/m/%'a1{3@5B6!.a'!5L-g-x162o7U+d'9&@1T,a+A+>.G2p-?",
"&*$J&e)t*L&'4f$<$W'02K1M.V(o+;0>18'C%p$d$3$K)_$$/u3,(e7_5I(],n4j/U0c/#)4#?+{2g0%(A&|&2$e2Y/$1l4w-U*|0.6a0F43(x2>2v0_'w#>$^2.&V*?",
"0V++%i&t0~+P,o&;$1*|-U4w1l/$2Y$e&2)B%G,F%G,Z5W%t0=,i+v3_5a323D6o0p6z2x'++l(Q'w/G*$/a*n&Z(c293W)J(T*$*/5Q39/4'K'|2F+@/r(r%1/4*C*X",
"-A.l5c%!'X2z/])=#5*$(T)J3W29(c&Z*n)9+]5-+H,Z&#%?*E'g*d)v&8&o*6640G,S2I+;4i*6(m-{4U+'-;*.13.S19%{+`'y-'7./H3s(z5u!46J$@'O#=*G1]0O",
"!L#l/{#b.f/o(~#|'y'y+`%{19.S13*.-;0v+>+R%*+e1D!)%'$f6@(b-G/60|4#7'0:'J't(R#u+d*>%^,9$')o)Q'r&%/G3e+y!s%53e2a3-(e':.q*4!9(}2O2U$g",
"#E(3%W**.p)L1-/I-[+y3e/G&%'r)Q)o$'5t$n/z-~,#,A#T'o%,,L.U/e1:,$.#6G1?(v'`*n,1&v(j)Y&N%T-$3[!R&>'H'z&}0Y/~)e-H-8'5.o2z+v*+0T505`*d",
"!?&t/!0g!H+y3>1=+V&}'z'H&>!R3[-$%T)/.]3d&b*h3j*B)~&i2A!;&,.C+x4f1*61&~&.!i$m!@3M-'!*&`-41J&:*H.//r)T)f3m4V2a0H-u5k1[&Z4=1E#>7!0A",
")3/g'|$t')(v6B!j4=)T/r./*H&:1J-4&`#T-7,~2C)6,e(='V&m+i%q$<(n+;4[4k5U2K#R$#%^!g59#I)U3f$w)))O#O-*/G'w(Q+l'+2x6z0p6o3D325a3_+v/;1j",
",|*@*d$-#43*,T/<'k'w/G-*#O)O))$w3f&s(*(*)~$P*[(F)2#R1O'Z%Z,Z3{6`(k/0+U(n'B+}(Y3q$`$h1#1K1g*Y%X):-{(m*64i+;2I,S0G64*6&o&8)v*d/q1n",
"+h'z4u)^+T-k#'4M*8(m-{):%X*Y1g1K1#-7+@+&&[!Z4A'.#}+7$317/54?5p0/+n6q+e'^5{4t1(2A&u!a'Z4G1?*v/2-!*>+d#u(R't'J0:7'4#0|/6-G(b6@)I0&",
")Z%4/+*)(/$o2A775V+d*>-!/2*v1?4G'Z+B+D7M%-&!'G5z.O#C407A666R0m411Z-r)j2(0q-m1-$h(S'6'c1R(j)H(40@(j&v,1*n'`(v1?6G.#,$1:/e.U,L&n+M",
"+y/R5W,($)*a%$7Q2n&v(j0@(4)H(j1R'c*!%Q)z5o4S,b2R+j!#-;,X1&637P1F.|&]2F2U&X*3,M3#!(&w28&^5t.0'd.^3M!@$m!i&.&~611*4f+x.C&,!;2A,32F",
"#)5S.C)2'e(x5R3|+|!@3M.^'d.05t&^2833+v(`*$$i%z,Z,x&},&-j+C3>7]6{5H#{5`/h6C,f3T/M!.#(0r09%X-{,K,r5(.c,`-=2Z6l,i,^,/)M.{%2//3H(.&f",
"%V/c&U%]#B56.?0|(5!g59/.'H.?4B+h*7+U,q*/0-'d+Q0@0U5w*Y2~4c4a3~5#7+706m0,(O*%6b6,&J#~/H*e%X%^%`,g6N*p'D(t6o0Z5j/]*~$V,5433E3>#:)x",
"3g!W%>&l#K#h6</n)F(Y3q420+382V1f*S%r.0,R$+$B-K**'%3Z/]-9.s5U4r5m70+:4Q.A3/5=2F5a,;4<3H$e,G$i..4p%}$c*x%W#T'z.4*]#_+r&O!`1$0y/b,L",
"*}''%[2C.g#&3R5:411(2A4o5Q)!'A/5/k(c5O)v1N#X)|,#-I*M*=+n-O,Y/X5f6x4_/-,v+X)r.33`(q,Z,40{-z1#(P,P7D!5'm4g(f%R3^+0,P1z+w$G)3*I(D,R",
"$~(]$z5|07((1B2Q2D08,s.<797X.+#F04'Y$/#[#y(w0b5$2[*_3S3]&F*P*L(%6;0J2|%{&C(X(H1c-:5g4n-v){$h5^5@4]'G7=5N&!2h6[3r.(75-L+-%3!r-c&O",
"$54h3(5X-r))-Y.%3u6n5).)2%1H7%.(**0z3}$//30R4s5y*L,#0h7T+_%C%E/:5x542r!+&)(f'p1e&?*2/B-60|5J1-6j7&&.4x1p&p4Y5N.(5N1~4g#^%6!I#]6^",
",^-y'9/++d5T3B7U7G2F2o1216/[0E-x4-7')m3%$h6P7C5_2[.Y7C5,14+Z-902!V2r6#!V*`-{#G6,!G%b,u-u5F2+5Z4R-65J%^*J-'5},)75/=.r!M-,/Q#A#0.J",
"+?-g5L'!.a6!5B3@1{.[,h(i/C2'3x,e165S2F+6125K2/'[&c08-p,p(%,r*t,?!p(!1w#3!Q&Q-..8!k'>2708.*/5,<3O00(L*J1?'2%B'S'g%t.t2-1|*p-;.~2J",
"(q0z2>-n(x7[6+432;-:0F2A6a5F000.-w6J2_361d6(/S$A08*(1X*l.H1W%I$X!&$/2c3H.o,=%i%82!.$5D4y2A1@2^3I-s%^$N4`4>',%f#q)50i(o321_)$)E&w",
"+s(]'|({'K4$/8/4/E3*397(5Q1!#o*/5M+D+</d.@6j)#&K$R$q1e--,j/x*k'c(X)X1^.n.,+e()++)&6g1},K5v33.5.K.X&.$}).0y*s&d3?+O'<5T##-B)C%q-2",
"+u-X2`#d*%-p1O4d5G/m)p7H5b-.&`1G5S!X!T)60Z3<2L'-%9*@*d$-#43*,T/<'k'w/G-*#O)O))$w3f-`)h4(1Z)%4T(,$S1n+)-o1-/,3G1++K%w#*291O&d,l2B",
"+P/.5u#/(z7#2S3s.P+S/H4!7.,p&e-'%&,0#P$s,P5G2)0[${'z4u)^+T-k#'4M*8(m-{):%X*Y1g1K1#(6*2)x3I4b1u1y(;,3/*020~(]+}%e#s$(0;3P0Q$n)y'O",
"7J7B+B0l0|7+-y'q#4%k+p,}-~21/{*4-!*~.o/&(p24)O%M($%4/+*)(/$o2A775V+d*>-!/2*v1?4G'Z.N1U%d2g%a&g#Z.:/<+B0~0y**/i.M#?3P/Z12,o&/)E%(",
"3A,P4i2$32$.+K$?/Q4H53)C$Y-l0B3b$:/-36#%+.#y.N+q)2/R5W,($)*a%$7Q2n&v(j0@(4)H(j1R'c$&+!!O1u,f-o(f2q'%*A38,{2G,&,*%71z,Z0)'i+[$i)8",
"4(3=2>%X!n6X+##j%..D(?/D%#5'2T4D2P#G%P)P#`1i.^5d1&5S.C)2'e(x5R3|+|!@3M.^'d.05t&^28$M#a)W/60D)~-i(#71/j0=/(6w15#%/`3>4J12.3697/'(",
"7Z7Y4<*N!v,<4t/w%+(X+|1X)G1<74062k6k'P*d#4/</G#O$w/c&U%]#B56.?0|(5!g59/.'H.?4B+h*7)8'/%5*)#|!D%A+-127L2,6J6y5N2T%u'_/_/n&a4=5Z(N",
"$]266.51#n$O/T)>%.)~6F-+(2/j,f$u*(2H.&/+(/77*>/24G!W%>&l#K#h6</n)F(Y3q420+382V1f*S,>4{+1/N2M#N&(&E*K5E5q474^7O-5.6&<%y.w$y2F1>/.",
"*P5p4r(y%G,2,3,Z*T$a!_,[$9.2/Q$P(d*4#7.C'e3|3M'd&^''%[2C.g#&3R5:411(2A4o5Q)!'A/5/k+,0D,f785d+W!Q*+.=1g,I6D,Q583z)g/r)V!1(c2J5s/+",
"(41A'G1r+N-]-b,O->/s$S$v3+7:-t/Q$4(l*^&U#B0|59'H+h(]$z5|07((1B2Q2D08,s.<797X.+#F04+^*7-?0]6H+k23-0.W4D6/6)2#.p#x#+)1/m(q$86(+f6*",
"$c*o&B/r0#$l4.3).?-Z/w*z$}6e0I1@0d*O&p%[.g5:2A5Q/54h3(5X-r))-Y.%3u6n5).)2%1H7%.(**%T'[$6+w7$2R/A2=-N%L,Q5L%_1x3B$C$E2<,l)S0O-y(a",
"&M#.!e1h.e3y1;3D-@.{6V*b/40K/J,p0E,i0f$z072Q,s79#F-y'9/++d5T3B7U7G2F2o1216/[0E-x4-)A%a*7$w-E3C6'-.3Q,V6?,h+c4N+q.b*,4g.k(-$t5Y)%",
"-c+j10'U)]!['D**-P7)6&-?2p.G+>+A,a1T&@'9+d7U2o16-x-g5L'!.a6!5B3@1{.[,h(i/C2'3x,e16)0$*-@1V,%'Q30#@%j)E4'!,#10P2R-!.V4?%l'14,3U2K",
"0a727<)R/t*s'&2;4)+a7)*?&V2.$^#>'w0_2v2>(x430F6a0.*|-U4w1l/$2Y$e&2)B%G,F%G,Z5W0.-w/p._,$.B4%6D+x6>$p&j3Y/@/y'Z4q2m0F2e)u#5(x6U6t",
"-d7I7,&y4X1s(_2B.}-{4l*X*C/4%1(r/r+@2F'|'K/4395Q*/*$(T)J3W29(c&Z*n)9+]5-+H,Z&#*/5M6Z$f(+1Q)x,%)+'4,1#m)S-|);'~'[2b,B4K,W$Q-p+d2R",
"&G4d+?!A1v*B#=$0'71Y,k0O1]*G#='O$@6J!45u(z3s/H7.-''y+`%{19.S13*.-;0v+>+R%*+e1D1G5S-f/|*{)x)x5B't!`1t.i#f.-1:)A(l+L.u.>.-2M(J*B%n",
")d),#y+%%&/>3w#-&O01$q$g2U2O(}!9*4.q':(e3-2a3e%5!s+y3e/G&%'r)Q)o$'5t$n/z-~,#,A-'%&'u+~$0(^)s(00t#R-T'o&S-j%m-?-o/V3K%%.]-y'p4/&^",
".l(>&P0}!2!J3t+J%c+o(U*d5`500T*++v2z.o'5-8-H)e/~0Y&}'z'H&>!R3[-$%T)/.]3d&b*h3j0Z'8,D%v%]+q/O4C1`&i2s3o0<.1'b0S+$!F)_!`3i(8,.5A(x",
"'N)G'x+b$S!b6W*D2C,,%d0A7!#>1E4=&Z1[5k-u0H2a4V3m)f)T/r./*H&:1J-4&`#T#x,~2C)6,e!u*u*M5C$;$I/v1S1L$i1g)},]!]1I0X!'%U0(&D3V3H&T2N,]",
"-10N*7([55'^#g-n'e(U*)1j/;+v3_5a323D6o0p6z2x'++l(Q'w/G-*#O)O))$w3f&s(*!F)~$P*[(<0M1.3$(K&+!60O&r+q.5)8#H%@)L%}*p*!5~)a*y-$&0)w)D",
"&H'.(X0=66/f$T'w.k(j*f1n/q*d)v&8&o*6640G,S2I+;4i*6(m-{):%X*Y1g1K1#-7+@+&&[!Z4A&50s0|7R6|+I&A/))[+35m*q&k#G$4%0$x*j.X0'(B+/!!!a+B",
".x$U(W-q$[(/(:+Y+@28'Y0&)I6@(b-G/60|4#7'0:'J't(R#u+d*>-!/2*v1?4G'Z+B+D7M%-&!'G(g$75P/@4/-D(h'E#|+t1e6L.')^,61Y-(-%+m1,5n(@$.$m)c",
"&L%F#;6Q$^*M(70n&]2D2E+M&n,L.U/e1:,$.#6G1?(v'`*n,1&v(j0@(4)H(j1R'c*!%Q)z5o4S,b,7*2*55*(U2?'T#$-J/G11!{)($c%H*V*%&$*H1I.Q(C%g4()B",
"-^%/%~0^3b(s.])S)D3p2@2F,32A!;&,.C+x4f1*61&~&.!i$m!@3M.^'d.05t&^2833+v(`*$$i%z2]#W(Y0w##765N0{(x$2.$/,+I%y440$#c+;1`6$%=!C5[48/E",
"(x,H'f)?,-6r4@-e-R3k38/F0e+i%q$<(n+;4[4k5U2K#R$#!x!g59/.'H.?4B+h*7+U,q*/0-'d+Q0w):3v,J*F7'+g,c%|3})'3%/'124O+)&M-_.f'35;%:4:4v)7",
"!Y2A2A)-#%/c)*)N.s5#.;.J1^1O'Z%Z,Z3{6`(k/0+U(n'B+}(Y3q420+382V1f*S%r.0,R$+$B-K1)-K1)!N3w,_6v4m'F%Y,e38+6/1'j4;.E6=',&41X6R%n#<6A",
"$5,y46+X'D)+-2/}.9-)2:1Z1@$317/54?5p0/+n6q+e'^5{4t1(2A4o5Q)!'A/5/k(c5O)v1N#X)|6|/r%X!86O4m7?7*-z2*1'4t)s$,0^(,04#F.+7X79.<,s082D",
"#U6c/[*W#V)?*92C3b/P5]2u5J407A666R0m411Z-r)j2(0q-m1-$h.d1%*F4W4F-h$Z,P$m#e%)$o,@-}$D3y6~-u./(U!=&Z4-*&&Y+~/b(9**.(7%1H2%.)5)6n3u",
"2N!c%K!3#Y&-*>*%(t$h1O,}18-;,X1&637P1F.|&]2F2U&X*3,M3#,l,C#80[4x631?5t3!(o&_%O*U'f*E'}'@#F,m'=&9&&'r-;12#M#i'*4--x0E/[16122o2F7G",
"6~%g&v$H&e-8#c'?/>*:#r'C0T,&-j+C3>7]6{5H#{5`/h6C,f3T/M%{0[$F(I35*#0x)l,M,P4m4r/K3|4}4w4e.I.`!z!04~(h'{!h+E-u-Q16,e3x2'/C(i,h.[1{",
"3:6T52&!!q$>)K$|'s-=(6,z2P*Y2~4c4a3~5#7+706m0,(O*%6b6,-M2i!}4Z654z4{-S3;2(6i5q4N.33J5a1m.I3@1{.[,h(i/C2'3x,e16-w0.5W,Z%G,F%G)B&2",
"!0(+5i4|&D+^&o$C5?-02X5%4E/]-9.s5U4r5m70+:4Q.A3/5=2F5a(G-#(Y&W)S/Y-s6k4m6j/W/93L3)#L-31q.e432;-:0F2A6a5F000.-w5M*/&#,Z+H5-+])9*n",
"!o#k.z2d$u-S0W!U'F'L3c5+29*=+n-O,Y/X5f6x4_/-,v+X)r.33`6:+X%z$6%<'^1G6d7W5A)F0`._$j%S4!,8*R/4/E3*397(5Q1!#o*/5M5S1G1D+e%*+R+>0v-;",
"!$&x,'/D2^,$0V2{5<,U)p3'6S3P5e#_+E0)0/7;-o,d5&474L4+7-3>&z-F0M*Q4n1R)q5K'C)+.m3F3&!^$x2b!l4d5G/m)p7H5b-.&`1G5S%&-',A,#-~/z$n5t$'",
"&q+8+G,w)O#Q1c/R#v,E3>7@7^2H.Z#9%@-7457E6_6K686f0{+53-(x5l+*-y&)40(Z'R5K3D.U)=,l$_)q+z/E5>3s.P+S/H4!7.,p&e-'%&'80Z3j*h&b3d.]/z%T",
")C*;%s*%*'#23X.7*-(M*t4n6h7>/?-//@3_06,t335r0y/^/,)D.;-V,p$t1b.X%o%h'W3y0;$b*5*$$t's4I*.&>'q#4%k+p,}-~21/{*4-!*u!u,e)62C,~5t)C&`",
"%,&{*w$v'$2}6p7K&67N!c,7)8.Q4P-W)p.v1g$.-5.#*c#z*d2&)p/73J62/m&b,[+e%}3D.j0?6s+|.W4x'L!7#,$?/Q4H53)C$Y-l0B3b$:0M(<*[$P)~1#(*&s3f",
"(E%D)b2'$5$=317S001/1V'#+I2w*Q#S!y05(`0o+U,:#!#t'b5!4&,N!E0!.y3/0./p*i/357-C/^7V1&1C$r$k!/#j%..D(?/D%#5'2T4D2P0s&54A!Z&[+&+@-71#",
"-a!<)@!f(1%,)n1X!m%S.!'v!B-@*N)`$L-&60';0s+@3l$x&=6}+w.X$z*l'x14!|,o!~+;2j*s+[+S,r-B'Y&1)r/w%+(X+|1X)G1<74062k$7(g'G&!%-7M+D+B'Z",
")Y%;!d)<0u3N.%*m#H#D*1(n'C**'V*]+2#p3i2W)i37#>,}220C3B+='96-+F0L&I2`6(3425.J#6,Z#J!%6M5$#w)>%.)~6F-+(2/j,f$u*(*2,7,b4S5o)z%Q*!'c",
"&33)!P(&/r(j/.)c6R49(u*<.G4(*O/L+D+^!`673>2K)*%N7F73'h-j035/-9*90v(p,o2%+4+}*m.o/M3.+k&R!t,Z*T$a!_,[$9.2/Q$P(d*4#7.C'e3|3M'd&^''",
"$i!S'I!w%/*r0D$)*@4t1;5.*c5K$!%x.F!>!-%z,P))1k,#6u6I4`/.4h/n20)o0k%[4~(~-<!K+(0*']6E1P2t)Z,O->/s$S$v3+7:-t/Q$4(l*^&U#B0|59'H+h(]"
};
