/* XPM */
static char *metal_grille_09[] = {
/* columns rows colors chars-per-pixel */
"64 64 2375 2",
/* colors */
"!! c #000000",
"!# c #1C1210",
"!$ c #1E110F",
"!% c #20120D",
"!& c #201210",
"!' c #21120E",
"!( c #211410",
"!) c #22120F",
"!* c #221310",
"!+ c #23110E",
"!, c #23130F",
"!- c #23140F",
"!. c #231611",
"!/ c #231716",
"!0 c #24110D",
"!1 c #24130E",
"!2 c #24140F",
"!3 c #241411",
"!4 c #241510",
"!5 c #241511",
"!6 c #25120E",
"!7 c #25120F",
"!8 c #25130E",
"!9 c #25130F",
"!: c #251410",
"!; c #251412",
"!< c #25160F",
"!= c #251612",
"!> c #251713",
"!? c #261310",
"!@ c #26140F",
"!A c #261411",
"!B c #26150F",
"!C c #261612",
"!D c #261614",
"!E c #261714",
"!F c #27110D",
"!G c #271511",
"!H c #271610",
"!I c #28130E",
"!J c #281513",
"!K c #281613",
"!L c #281614",
"!M c #281712",
"!N c #281713",
"!O c #281714",
"!P c #281715",
"!Q c #291410",
"!R c #291511",
"!S c #291711",
"!T c #291713",
"!U c #291812",
"!V c #291913",
"!W c #291914",
"!X c #291916",
"!Y c #291A16",
"!Z c #2A1511",
"![ c #2A1713",
"!] c #2A1A18",
"!^ c #2B150F",
"!_ c #2B1610",
"!` c #2B1614",
"!a c #2B1813",
"!b c #2B1914",
"!c c #2B1916",
"!d c #2B1A14",
"!e c #2B1A18",
"!f c #2B1B14",
"!g c #2B1B18",
"!h c #2B1C17",
"!i c #2B1C19",
"!j c #2C150F",
"!k c #2C1611",
"!l c #2C1712",
"!m c #2C1816",
"!n c #2C1913",
"!o c #2C1914",
"!p c #2C1A14",
"!q c #2C1A17",
"!r c #2C1A18",
"!s c #2C1B14",
"!t c #2C1B17",
"!u c #2C1C19",
"!v c #2D1612",
"!w c #2D1711",
"!x c #2D1812",
"!y c #2D1913",
"!z c #2D1915",
"!{ c #2D1A15",
"!| c #2D1B13",
"!} c #2D1B15",
"!~ c #2D1B16",
"#! c #2D1B17",
"## c #2D1B18",
"#$ c #2D1C16",
"#% c #2D1C17",
"#& c #2D1C19",
"#' c #2D1E17",
"#( c #2E1812",
"#) c #2E1912",
"#* c #2E1914",
"#+ c #2E1A15",
"#, c #2E1A16",
"#- c #2E1B15",
"#. c #2E1C16",
"#/ c #2E1C18",
"#0 c #2E1C19",
"#1 c #2E1E17",
"#2 c #2E1F1B",
"#3 c #301813",
"#4 c #301910",
"#5 c #301915",
"#6 c #301A11",
"#7 c #301A16",
"#8 c #301B14",
"#9 c #301B15",
"#: c #301C16",
"#; c #301E18",
"#< c #301E19",
"#= c #301F19",
"#> c #301F1A",
"#? c #301F1B",
"#@ c #311814",
"#A c #311912",
"#B c #311913",
"#C c #311914",
"#D c #311A13",
"#E c #311A15",
"#F c #311B16",
"#G c #311B17",
"#H c #311C14",
"#I c #311C17",
"#J c #311D1A",
"#K c #311E18",
"#L c #311F18",
"#M c #311F1B",
"#N c #31201A",
"#O c #31211A",
"#P c #31211B",
"#Q c #321711",
"#R c #321713",
"#S c #321A15",
"#T c #321B14",
"#U c #321B15",
"#V c #321C15",
"#W c #321C16",
"#X c #321C19",
"#Y c #321E16",
"#Z c #321F17",
"#[ c #321F18",
"#] c #322017",
"#^ c #322019",
"#_ c #331814",
"#` c #331A12",
"#a c #331B15",
"#b c #331C15",
"#c c #331E16",
"#d c #331E19",
"#e c #331F18",
"#f c #331F1A",
"#g c #331F1B",
"#h c #331F1C",
"#i c #332019",
"#j c #341A15",
"#k c #341C18",
"#l c #341D17",
"#m c #341D18",
"#n c #341E15",
"#o c #341E16",
"#p c #341F1B",
"#q c #342017",
"#r c #342019",
"#s c #34201A",
"#t c #34201C",
"#u c #34211A",
"#v c #351B14",
"#w c #351B15",
"#x c #351C16",
"#y c #351C17",
"#z c #351C18",
"#{ c #351D16",
"#| c #351D18",
"#} c #351F15",
"#~ c #351F17",
"$! c #351F19",
"$# c #352017",
"$$ c #35211A",
"$% c #361A14",
"$& c #361B16",
"$' c #361C17",
"$( c #361D17",
"$) c #361D18",
"$* c #361F17",
"$+ c #361F19",
"$, c #362014",
"$- c #362118",
"$. c #36251C",
"$/ c #371A13",
"$0 c #371C13",
"$1 c #371C14",
"$2 c #371D18",
"$3 c #371E17",
"$4 c #371F15",
"$5 c #371F17",
"$6 c #37221B",
"$7 c #372418",
"$8 c #37241C",
"$9 c #381C14",
"$: c #381D19",
"$; c #381E12",
"$< c #381F19",
"$= c #382019",
"$> c #38201A",
"$? c #38201B",
"$@ c #38231A",
"$A c #391D14",
"$B c #391D17",
"$C c #391E15",
"$D c #391F17",
"$E c #392119",
"$F c #39211B",
"$G c #392218",
"$H c #39221A",
"$I c #39231B",
"$J c #39231C",
"$K c #39241F",
"$L c #3A1D16",
"$M c #3A1F16",
"$N c #3A1F18",
"$O c #3A2019",
"$P c #3A2119",
"$Q c #3A2319",
"$R c #3A2320",
"$S c #3A261C",
"$T c #3A261D",
"$U c #3B1C14",
"$V c #3B1C15",
"$W c #3B1D15",
"$X c #3B1D17",
"$Y c #3B1F15",
"$Z c #3B1F16",
"$[ c #3B2017",
"$] c #3B2115",
"$^ c #3B2117",
"$_ c #3B2217",
"$` c #3B2218",
"$a c #3B2219",
"$b c #3C1F17",
"$c c #3C1F19",
"$d c #3C2017",
"$e c #3C2019",
"$f c #3C2119",
"$g c #3C221C",
"$h c #3C2319",
"$i c #3C251B",
"$j c #3C261A",
"$k c #3C271F",
"$l c #3D1F14",
"$m c #3D1F16",
"$n c #3D2017",
"$o c #3D2117",
"$p c #3D2119",
"$q c #3D211A",
"$r c #3D211C",
"$s c #3D2216",
"$t c #3D2418",
"$u c #3D251F",
"$v c #3D261A",
"$w c #3D261F",
"$x c #3D271B",
"$y c #3E1F15",
"$z c #3E2013",
"${ c #3E2014",
"$| c #3E2016",
"$} c #3E201A",
"$~ c #3E2116",
"%! c #3E2117",
"%# c #3E2118",
"%$ c #3E2119",
"%% c #3E2217",
"%& c #3E2218",
"%' c #3E251B",
"%( c #3E261B",
"%) c #3E2620",
"%* c #3E271F",
"%+ c #3E2720",
"%, c #3E2818",
"%- c #3E281F",
"%. c #3E291D",
"%/ c #3F1F14",
"%0 c #3F2118",
"%1 c #3F2216",
"%2 c #3F2317",
"%3 c #3F2318",
"%4 c #3F2319",
"%5 c #3F251A",
"%6 c #3F2619",
"%7 c #3F261D",
"%8 c #3F2720",
"%9 c #3F281D",
"%: c #3F281E",
"%; c #3F2822",
"%< c #3F291E",
"%= c #401F14",
"%> c #401F18",
"%? c #402116",
"%@ c #402117",
"%A c #402317",
"%B c #402418",
"%C c #40241A",
"%D c #402518",
"%E c #40251A",
"%F c #40251C",
"%G c #40261F",
"%H c #40271A",
"%I c #40271C",
"%J c #40281D",
"%K c #40281F",
"%L c #402820",
"%M c #40291F",
"%N c #402920",
"%O c #402A1A",
"%P c #412216",
"%Q c #412217",
"%R c #41221B",
"%S c #412317",
"%T c #412318",
"%U c #412516",
"%V c #412519",
"%W c #41251B",
"%X c #41251C",
"%Y c #41261B",
"%Z c #41261C",
"%[ c #412719",
"%] c #41271C",
"%^ c #41271D",
"%_ c #41281B",
"%` c #412821",
"%a c #41291B",
"%b c #412922",
"%c c #412A21",
"%d c #412B21",
"%e c #412C23",
"%f c #432216",
"%g c #432316",
"%h c #432318",
"%i c #43231A",
"%j c #432417",
"%k c #43241A",
"%l c #432517",
"%m c #43251B",
"%n c #432618",
"%o c #43261B",
"%p c #43261C",
"%q c #43261D",
"%r c #43271A",
"%s c #43271B",
"%t c #43281E",
"%u c #432821",
"%v c #43291C",
"%w c #43291D",
"%x c #43291E",
"%y c #432922",
"%z c #432A1B",
"%{ c #432A1C",
"%| c #432A21",
"%} c #442419",
"%~ c #442519",
"&! c #44251B",
"&# c #44271A",
"&$ c #44271E",
"&% c #44281B",
"&& c #442921",
"&' c #442B20",
"&( c #442C21",
"&) c #452216",
"&* c #452319",
"&+ c #452416",
"&, c #452419",
"&- c #452518",
"&. c #45251A",
"&/ c #45251B",
"&0 c #452619",
"&1 c #45281A",
"&2 c #45281D",
"&3 c #452B1C",
"&4 c #452B1F",
"&5 c #452B24",
"&6 c #452C1C",
"&7 c #452C1D",
"&8 c #452C23",
"&9 c #462417",
"&: c #462519",
"&; c #46251A",
"&< c #46251B",
"&= c #462619",
"&> c #46261B",
"&? c #462719",
"&@ c #46271D",
"&A c #46281A",
"&B c #46281C",
"&C c #462820",
"&D c #46291A",
"&E c #462A1D",
"&F c #462A20",
"&G c #462B22",
"&H c #462B24",
"&I c #462C20",
"&J c #462C24",
"&K c #462D1D",
"&L c #462E1F",
"&M c #462E23",
"&N c #472515",
"&O c #47251A",
"&P c #47261A",
"&Q c #472719",
"&R c #47271E",
"&S c #472819",
"&T c #47281C",
"&U c #47281E",
"&V c #472919",
"&W c #472C1C",
"&X c #472D21",
"&Y c #472D22",
"&Z c #472E24",
"&[ c #472E26",
"&] c #482319",
"&^ c #482417",
"&_ c #482619",
"&` c #48261B",
"&a c #48281A",
"&b c #48281B",
"&c c #482919",
"&d c #48291C",
"&e c #482922",
"&f c #482A20",
"&g c #482B1C",
"&h c #482B20",
"&i c #482B22",
"&j c #482C21",
"&k c #482D1C",
"&l c #482D22",
"&m c #482F24",
"&n c #492419",
"&o c #492616",
"&p c #492619",
"&q c #492719",
"&r c #49271B",
"&s c #49271E",
"&t c #49281A",
"&u c #492820",
"&v c #49291A",
"&w c #49291E",
"&x c #492B1E",
"&y c #492C20",
"&z c #492C21",
"&{ c #492C22",
"&| c #492C23",
"&} c #492D20",
"&~ c #492D21",
"'! c #492D22",
"'# c #492D23",
"'$ c #492D24",
"'% c #492D25",
"'& c #4A2214",
"'' c #4A2518",
"'( c #4A2619",
"') c #4A2718",
"'* c #4A2819",
"'+ c #4A2820",
"', c #4A2920",
"'- c #4A2A1A",
"'. c #4A2A1D",
"'/ c #4A2A1F",
"'0 c #4A2B1D",
"'1 c #4A2B1F",
"'2 c #4A2C19",
"'3 c #4A2C22",
"'4 c #4A2C23",
"'5 c #4A2C25",
"'6 c #4A2D20",
"'7 c #4A2D21",
"'8 c #4A2D26",
"'9 c #4A2E21",
"': c #4A2E22",
"'; c #4A2F21",
"'< c #4A3123",
"'= c #4B2317",
"'> c #4B2719",
"'? c #4B271C",
"'@ c #4B2720",
"'A c #4B281B",
"'B c #4B281C",
"'C c #4B281D",
"'D c #4B291C",
"'E c #4B2921",
"'F c #4B2923",
"'G c #4B2A1C",
"'H c #4B2A21",
"'I c #4B2B1C",
"'J c #4B2B1D",
"'K c #4B2B21",
"'L c #4B2C1D",
"'M c #4B2C20",
"'N c #4B2C21",
"'O c #4B2C25",
"'P c #4B2D1C",
"'Q c #4B2D1D",
"'R c #4B2D20",
"'S c #4B2D21",
"'T c #4B2D24",
"'U c #4B2E20",
"'V c #4B2E21",
"'W c #4B2E22",
"'X c #4B2F21",
"'Y c #4B2F22",
"'Z c #4B2F29",
"'[ c #4B3026",
"'] c #4C251A",
"'^ c #4C261B",
"'_ c #4C261D",
"'` c #4C2818",
"'a c #4C281D",
"'b c #4C291C",
"'c c #4C291D",
"'d c #4C291F",
"'e c #4C2A1A",
"'f c #4C2A1D",
"'g c #4C2B1B",
"'h c #4C2B1D",
"'i c #4C2B20",
"'j c #4C2B21",
"'k c #4C2B22",
"'l c #4C2C20",
"'m c #4C2C21",
"'n c #4C2C22",
"'o c #4C2C23",
"'p c #4C2D22",
"'q c #4C2E23",
"'r c #4C2F25",
"'s c #4C3028",
"'t c #4C3228",
"'u c #4C3425",
"'v c #4D2619",
"'w c #4D2719",
"'x c #4D271A",
"'y c #4D271B",
"'z c #4D281A",
"'{ c #4D281B",
"'| c #4D281D",
"'} c #4D291B",
"'~ c #4D291C",
"(! c #4D291D",
"(# c #4D2A1B",
"($ c #4D2A1D",
"(% c #4D2A20",
"(& c #4D2B1C",
"(' c #4D2B1D",
"(( c #4D2B20",
"() c #4D2C1E",
"(* c #4D2C20",
"(+ c #4D2C21",
"(, c #4D2D20",
"(- c #4D2D21",
"(. c #4D2D22",
"(/ c #4D2E1D",
"(0 c #4D2E1E",
"(1 c #4D2E20",
"(2 c #4D2E21",
"(3 c #4D2E22",
"(4 c #4D2E24",
"(5 c #4D2F1E",
"(6 c #4D2F21",
"(7 c #4D2F22",
"(8 c #4D3023",
"(9 c #4D3324",
"(: c #4D3328",
"(; c #4D3427",
"(< c #4E2519",
"(= c #4E261A",
"(> c #4E281C",
"(? c #4E291A",
"(@ c #4E291D",
"(A c #4E2A1B",
"(B c #4E2A1D",
"(C c #4E2B19",
"(D c #4E2B1D",
"(E c #4E2B20",
"(F c #4E2B22",
"(G c #4E2C20",
"(H c #4E2C21",
"(I c #4E2C22",
"(J c #4E2C23",
"(K c #4E2D1B",
"(L c #4E2D1C",
"(M c #4E2D20",
"(N c #4E2D21",
"(O c #4E2D25",
"(P c #4E2E24",
"(Q c #4E2E25",
"(R c #4E2E29",
"(S c #4E2F21",
"(T c #4E3022",
"(U c #4E3023",
"(V c #4E3024",
"(W c #4E311F",
"(X c #4E3223",
"(Y c #4E3224",
"(Z c #4E3325",
"([ c #4E3328",
"(] c #4E3621",
"(^ c #4F2719",
"(_ c #4F2819",
"(` c #4F281C",
"(a c #4F2920",
"(b c #4F2A1A",
"(c c #4F2A1B",
"(d c #4F2B1D",
"(e c #4F2C1E",
"(f c #4F2D1E",
"(g c #4F2D20",
"(h c #4F2E1E",
"(i c #4F2E22",
"(j c #4F2F21",
"(k c #4F3021",
"(l c #4F3022",
"(m c #4F3023",
"(n c #4F3026",
"(o c #4F3027",
"(p c #4F311E",
"(q c #4F3222",
"(r c #4F3223",
"(s c #4F3226",
"(t c #4F3321",
"(u c #4F3329",
"(v c #4F352B",
"(w c #4F3829",
"(x c #50271A",
"(y c #50281B",
"(z c #50281D",
"({ c #50291C",
"(| c #50291F",
"(} c #502921",
"(~ c #502A1A",
")! c #502A1B",
")# c #502A1C",
")$ c #502A1F",
")% c #502B1A",
")& c #502B1D",
")' c #502C19",
")( c #502C1D",
")) c #502C20",
")* c #502C21",
")+ c #502D1F",
"), c #502D20",
")- c #502D21",
"). c #502D22",
")/ c #502E1B",
")0 c #502E1F",
")1 c #502E22",
")2 c #502F1D",
")3 c #502F20",
")4 c #502F23",
")5 c #502F25",
")6 c #502F26",
")7 c #503020",
")8 c #503021",
")9 c #503022",
"): c #503023",
"); c #503025",
")< c #50302A",
")= c #503223",
")> c #503225",
")? c #503226",
")@ c #503322",
")A c #503423",
")B c #503426",
")C c #512418",
")D c #512619",
")E c #512819",
")F c #51281A",
")G c #51291F",
")H c #512A1B",
")I c #512B1C",
")J c #512B1D",
")K c #512C1D",
")L c #512C1F",
")M c #512C20",
")N c #512D20",
")O c #512D21",
")P c #512D22",
")Q c #512E1D",
")R c #512E20",
")S c #512E22",
")T c #512E24",
")U c #512F1F",
")V c #512F21",
")W c #512F26",
")X c #51301F",
")Y c #513022",
")Z c #513024",
")[ c #513025",
")] c #51311D",
")^ c #513220",
")_ c #513222",
")` c #513224",
")a c #513225",
")b c #513226",
")c c #513227",
")d c #513321",
")e c #513322",
")f c #513325",
")g c #513326",
")h c #513328",
")i c #513427",
")j c #513526",
")k c #513628",
")l c #51362A",
")m c #513727",
")n c #513825",
")o c #513827",
")p c #52261A",
")q c #52291C",
")r c #522A1C",
")s c #522A20",
")t c #522B1B",
")u c #522B1C",
")v c #522B1D",
")w c #522C1A",
")x c #522C1C",
")y c #522D20",
")z c #522D22",
"){ c #522D24",
")| c #522E1C",
")} c #522E1F",
")~ c #522E21",
"*! c #522E22",
"*# c #522E25",
"*$ c #522F22",
"*% c #522F24",
"*& c #522F25",
"*' c #523021",
"*( c #523022",
"*) c #523025",
"** c #523220",
"*+ c #523222",
"*, c #523225",
"*- c #523227",
"*. c #523320",
"*/ c #523324",
"*0 c #523325",
"*1 c #523327",
"*2 c #523328",
"*3 c #523422",
"*4 c #523426",
"*5 c #523428",
"*6 c #523525",
"*7 c #523526",
"*8 c #523529",
"*9 c #523625",
"*: c #523629",
"*; c #523728",
"*< c #532619",
"*= c #53271A",
"*> c #53271C",
"*? c #532819",
"*@ c #53281B",
"*A c #53291B",
"*B c #53291C",
"*C c #53291D",
"*D c #532A18",
"*E c #532A1A",
"*F c #532B1C",
"*G c #532C1A",
"*H c #532C1D",
"*I c #532C1E",
"*J c #532D1C",
"*K c #532D1E",
"*L c #532D20",
"*M c #532D24",
"*N c #532E20",
"*O c #532E21",
"*P c #532F1C",
"*Q c #532F20",
"*R c #532F21",
"*S c #532F25",
"*T c #532F26",
"*U c #53301E",
"*V c #533020",
"*W c #533021",
"*X c #533023",
"*Y c #533028",
"*Z c #53321E",
"*[ c #533220",
"*] c #533221",
"*^ c #533224",
"*_ c #533225",
"*` c #533226",
"*a c #533227",
"*b c #533229",
"*c c #533323",
"*d c #533324",
"*e c #533325",
"*f c #53332A",
"*g c #533421",
"*h c #533426",
"*i c #533427",
"*j c #53342B",
"*k c #533524",
"*l c #533525",
"*m c #533527",
"*n c #533625",
"*o c #533627",
"*p c #53362A",
"*q c #533727",
"*r c #533729",
"*s c #54392C",
"*t c #55261A",
"*u c #552818",
"*v c #552819",
"*w c #552A1C",
"*x c #552A1E",
"*y c #552B1B",
"*z c #552B1D",
"*{ c #552B22",
"*| c #552C1D",
"*} c #552C1E",
"*~ c #552D1D",
"+! c #552D1E",
"+# c #552E1C",
"+$ c #552E21",
"+% c #552E22",
"+& c #552F21",
"+' c #552F22",
"+( c #552F23",
"+) c #553021",
"+* c #553023",
"++ c #553024",
"+, c #553221",
"+- c #553222",
"+. c #553225",
"+/ c #553227",
"+0 c #553324",
"+1 c #553325",
"+2 c #553326",
"+3 c #553328",
"+4 c #553425",
"+5 c #553426",
"+6 c #553522",
"+7 c #553525",
"+8 c #553528",
"+9 c #553623",
"+: c #553627",
"+; c #553726",
"+< c #553727",
"+= c #553728",
"+> c #553826",
"+? c #553828",
"+@ c #553926",
"+A c #562919",
"+B c #562A1C",
"+C c #562B1C",
"+D c #562C19",
"+E c #562C1B",
"+F c #562C1C",
"+G c #562D1C",
"+H c #562D1E",
"+I c #562D23",
"+J c #562E1C",
"+K c #562E1E",
"+L c #562E21",
"+M c #562F1B",
"+N c #562F1C",
"+O c #562F21",
"+P c #562F22",
"+Q c #562F23",
"+R c #56301D",
"+S c #56301E",
"+T c #563021",
"+U c #563022",
"+V c #563024",
"+W c #563025",
"+X c #56321E",
"+Y c #563224",
"+Z c #563226",
"+[ c #56331E",
"+] c #563323",
"+^ c #563324",
"+_ c #563325",
"+` c #563423",
"+a c #563424",
"+b c #563425",
"+c c #563426",
"+d c #563427",
"+e c #56342B",
"+f c #563524",
"+g c #563525",
"+h c #563526",
"+i c #563623",
"+j c #563624",
"+k c #563625",
"+l c #563627",
"+m c #563724",
"+n c #563A2C",
"+o c #572A1C",
"+p c #572B1B",
"+q c #572C1C",
"+r c #572D20",
"+s c #572D21",
"+t c #572E1B",
"+u c #572E1D",
"+v c #572E20",
"+w c #572E24",
"+x c #573020",
"+y c #573021",
"+z c #573022",
"+{ c #573023",
"+| c #573024",
"+} c #573221",
"+~ c #573222",
",! c #573223",
",# c #573322",
",$ c #573324",
",% c #573325",
",& c #573424",
",' c #573425",
",( c #573428",
",) c #57342C",
",* c #573521",
",+ c #573528",
",, c #573623",
",- c #573628",
",. c #57362C",
",/ c #573724",
",0 c #573729",
",1 c #573925",
",2 c #57392A",
",3 c #573B2A",
",4 c #582718",
",5 c #582A1D",
",6 c #582B1B",
",7 c #582C1C",
",8 c #582C20",
",9 c #582D1B",
",: c #582E1C",
",; c #582E20",
",< c #582E21",
",= c #582E22",
",> c #582F21",
",? c #582F23",
",@ c #583020",
",A c #583022",
",B c #583027",
",C c #583220",
",D c #583221",
",E c #583222",
",F c #583223",
",G c #583224",
",H c #583322",
",I c #583323",
",J c #583327",
",K c #583422",
",L c #583423",
",M c #583424",
",N c #583426",
",O c #583521",
",P c #583526",
",Q c #583527",
",R c #58352A",
",S c #58352C",
",T c #583626",
",U c #583628",
",V c #583723",
",W c #583724",
",X c #583728",
",Y c #583729",
",Z c #58372A",
",[ c #58372C",
",] c #583828",
",^ c #58382F",
",_ c #583926",
",` c #58392C",
",a c #592819",
",b c #592B1C",
",c c #592C1C",
",d c #592C1E",
",e c #592C1F",
",f c #592C21",
",g c #592D1E",
",h c #592D1F",
",i c #592E21",
",j c #592F1E",
",k c #592F21",
",l c #59301B",
",m c #59301E",
",n c #593021",
",o c #59321F",
",p c #593221",
",q c #593222",
",r c #593226",
",s c #59331F",
",t c #593321",
",u c #593323",
",v c #593328",
",w c #593422",
",x c #593423",
",y c #593425",
",z c #593426",
",{ c #593523",
",| c #593525",
",} c #593526",
",~ c #593625",
"-! c #593626",
"-# c #593627",
"-$ c #593628",
"-% c #59362A",
"-& c #593726",
"-' c #593826",
"-( c #593827",
"-) c #593828",
"-* c #593829",
"-+ c #59382A",
"-, c #59382C",
"-- c #593A28",
"-. c #593A2A",
"-/ c #5A2A1E",
"-0 c #5A2C1F",
"-1 c #5A2D1B",
"-2 c #5A2D1C",
"-3 c #5A2E1C",
"-4 c #5A2E21",
"-5 c #5A2F1E",
"-6 c #5A2F21",
"-7 c #5A301F",
"-8 c #5A3021",
"-9 c #5A321F",
"-: c #5A3224",
"-; c #5A3225",
"-< c #5A3227",
"-= c #5A331C",
"-> c #5A3324",
"-? c #5A3327",
"-@ c #5A3421",
"-A c #5A3424",
"-B c #5A3425",
"-C c #5A3426",
"-D c #5A3427",
"-E c #5A3521",
"-F c #5A3524",
"-G c #5A3525",
"-H c #5A3528",
"-I c #5A3529",
"-J c #5A3626",
"-K c #5A3628",
"-L c #5A362A",
"-M c #5A3725",
"-N c #5A372A",
"-O c #5A3828",
"-P c #5A382A",
"-Q c #5A382B",
"-R c #5A382C",
"-S c #5A392B",
"-T c #5A3A2A",
"-U c #5A3B27",
"-V c #5B2B1A",
"-W c #5B2D1E",
"-X c #5B2E1E",
"-Y c #5B2F1D",
"-Z c #5B2F1E",
"-[ c #5B2F20",
"-] c #5B301E",
"-^ c #5B3022",
"-_ c #5B3026",
"-` c #5B3222",
"-a c #5B3225",
"-b c #5B3226",
"-c c #5B3320",
"-d c #5B3322",
"-e c #5B3323",
"-f c #5B3324",
"-g c #5B3422",
"-h c #5B3423",
"-i c #5B3424",
"-j c #5B3426",
"-k c #5B3427",
"-l c #5B3429",
"-m c #5B3524",
"-n c #5B3525",
"-o c #5B3526",
"-p c #5B3529",
"-q c #5B3622",
"-r c #5B3624",
"-s c #5B3625",
"-t c #5B3627",
"-u c #5B362B",
"-v c #5B3724",
"-w c #5B3725",
"-x c #5B3728",
"-y c #5B3822",
"-z c #5B3825",
"-{ c #5B3827",
"-| c #5B3828",
"-} c #5B3829",
"-~ c #5B382A",
".! c #5B3926",
".# c #5B3927",
".$ c #5B3928",
".% c #5B392A",
".& c #5B392C",
".' c #5B3A28",
".( c #5B3A29",
".) c #5B3A2A",
".* c #5B3A2B",
".+ c #5B3E2D",
"., c #5C2B1A",
".- c #5C2E22",
".. c #5C2E23",
"./ c #5C2F1D",
".0 c #5C2F21",
".1 c #5C2F25",
".2 c #5C3021",
".3 c #5C321D",
".4 c #5C3223",
".5 c #5C3224",
".6 c #5C3225",
".7 c #5C331E",
".8 c #5C3321",
".9 c #5C3326",
".: c #5C3423",
".; c #5C3425",
".< c #5C3522",
".= c #5C3524",
".> c #5C3525",
".? c #5C3526",
".@ c #5C3528",
".A c #5C3529",
".B c #5C352B",
".C c #5C3623",
".D c #5C3624",
".E c #5C3625",
".F c #5C3626",
".G c #5C3627",
".H c #5C3628",
".I c #5C3629",
".J c #5C362B",
".K c #5C362C",
".L c #5C3726",
".M c #5C3727",
".N c #5C3729",
".O c #5C372B",
".P c #5C3822",
".Q c #5C3823",
".R c #5C3827",
".S c #5C3828",
".T c #5C3829",
".U c #5C382A",
".V c #5C3927",
".W c #5C3A26",
".X c #5C3A29",
".Y c #5C3B28",
".Z c #5C3B2D",
".[ c #5C3C2A",
".] c #5C3D2A",
".^ c #5D2C21",
"._ c #5D2D1D",
".` c #5D2E21",
".a c #5D2F25",
".b c #5D3020",
".c c #5D3021",
".d c #5D3022",
".e c #5D3024",
".f c #5D3220",
".g c #5D3321",
".h c #5D3322",
".i c #5D3323",
".j c #5D3324",
".k c #5D3325",
".l c #5D3422",
".m c #5D3423",
".n c #5D3425",
".o c #5D3524",
".p c #5D3525",
".q c #5D3527",
".r c #5D3623",
".s c #5D3624",
".t c #5D3625",
".u c #5D3626",
".v c #5D3627",
".w c #5D3628",
".x c #5D362A",
".y c #5D3722",
".z c #5D3724",
".{ c #5D3725",
".| c #5D3728",
".} c #5D3824",
".~ c #5D3825",
"/! c #5D3829",
"/# c #5D382B",
"/$ c #5D3925",
"/% c #5D392A",
"/& c #5D3A27",
"/' c #5D3A2C",
"/( c #5D3A2D",
"/) c #5D3B26",
"/* c #5D3B29",
"/+ c #5D3C2C",
"/, c #5D3C2D",
"/- c #5D3C2F",
"/. c #5D3D2B",
"// c #5D402B",
"/0 c #5E2E20",
"/1 c #5E2E24",
"/2 c #5E2F1E",
"/3 c #5E2F20",
"/4 c #5E2F24",
"/5 c #5E2F25",
"/6 c #5E3022",
"/7 c #5E321E",
"/8 c #5E3221",
"/9 c #5E3222",
"/: c #5E3225",
"/; c #5E3322",
"/< c #5E3323",
"/= c #5E3324",
"/> c #5E3421",
"/? c #5E3424",
"/@ c #5E3425",
"/A c #5E3523",
"/B c #5E3524",
"/C c #5E3620",
"/D c #5E3622",
"/E c #5E3624",
"/F c #5E3723",
"/G c #5E3724",
"/H c #5E3726",
"/I c #5E372B",
"/J c #5E3827",
"/K c #5E3828",
"/L c #5E382A",
"/M c #5E3924",
"/N c #5E3926",
"/O c #5E3928",
"/P c #5E3929",
"/Q c #5E392A",
"/R c #5E392D",
"/S c #5E3A25",
"/T c #5E3A26",
"/U c #5E3A28",
"/V c #5E3A2A",
"/W c #5E3A2B",
"/X c #5E3A2C",
"/Y c #5E3B2C",
"/Z c #5E3C2C",
"/[ c #5E3D2B",
"/] c #5F2C18",
"/^ c #5F2F20",
"/_ c #5F2F23",
"/` c #5F3021",
"/a c #5F3022",
"/b c #5F3023",
"/c c #5F3220",
"/d c #5F3223",
"/e c #5F3320",
"/f c #5F3321",
"/g c #5F3323",
"/h c #5F3325",
"/i c #5F3420",
"/j c #5F3421",
"/k c #5F3423",
"/l c #5F3424",
"/m c #5F3521",
"/n c #5F3522",
"/o c #5F3527",
"/p c #5F3622",
"/q c #5F3623",
"/r c #5F3624",
"/s c #5F3625",
"/t c #5F3626",
"/u c #5F3628",
"/v c #5F3725",
"/w c #5F3726",
"/x c #5F3729",
"/y c #5F3822",
"/z c #5F3925",
"/{ c #5F3928",
"/| c #5F392A",
"/} c #5F3A25",
"/~ c #5F3A26",
"0! c #5F3A29",
"0# c #5F3B2A",
"0$ c #5F3B2B",
"0% c #5F3B2D",
"0& c #5F3C25",
"0' c #5F3C29",
"0( c #5F3C2B",
"0) c #5F3C2C",
"0* c #5F3C2D",
"0+ c #5F3C30",
"0, c #5F3D2C",
"0- c #5F3D2F",
"0. c #5F3E29",
"0/ c #602E20",
"00 c #60321E",
"01 c #603220",
"02 c #603221",
"03 c #603222",
"04 c #603223",
"05 c #603224",
"06 c #603322",
"07 c #603325",
"08 c #603423",
"09 c #603425",
"0: c #603520",
"0; c #603525",
"0< c #603527",
"0= c #603623",
"0> c #603625",
"0? c #603629",
"0@ c #603725",
"0A c #603726",
"0B c #60382B",
"0C c #603928",
"0D c #603929",
"0E c #60392A",
"0F c #60392B",
"0G c #603A28",
"0H c #603A2A",
"0I c #603B27",
"0J c #603C28",
"0K c #603C2B",
"0L c #603D2A",
"0M c #603D2B",
"0N c #603E2C",
"0O c #603F2B",
"0P c #60422E",
"0Q c #612B1B",
"0R c #612E1E",
"0S c #612E1F",
"0T c #612F21",
"0U c #61301F",
"0V c #613023",
"0W c #61321D",
"0X c #61321E",
"0Y c #613221",
"0Z c #613322",
"0[ c #613324",
"0] c #613325",
"0^ c #613423",
"0_ c #613424",
"0` c #613522",
"0a c #613523",
"0b c #613524",
"0c c #613525",
"0d c #613527",
"0e c #613623",
"0f c #613625",
"0g c #613628",
"0h c #613722",
"0i c #613723",
"0j c #613725",
"0k c #613728",
"0l c #613822",
"0m c #613824",
"0n c #613825",
"0o c #613827",
"0p c #613924",
"0q c #613925",
"0r c #613927",
"0s c #613928",
"0t c #613929",
"0u c #613A27",
"0v c #613A28",
"0w c #613A2A",
"0x c #613A2B",
"0y c #613B24",
"0z c #613B25",
"0{ c #613C28",
"0| c #613C29",
"0} c #613C2A",
"0~ c #613C2B",
"1! c #613C2C",
"1# c #613D29",
"1$ c #613D2A",
"1% c #613D2C",
"1& c #613D2E",
"1' c #613E29",
"1( c #613E2E",
"1) c #613F2E",
"1* c #614230",
"1+ c #622F1F",
"1, c #622F21",
"1- c #622F22",
"1. c #62301E",
"1/ c #623022",
"10 c #623024",
"11 c #623224",
"12 c #623225",
"13 c #623321",
"14 c #623325",
"15 c #62341F",
"16 c #623421",
"17 c #623422",
"18 c #623424",
"19 c #623523",
"1: c #623524",
"1; c #623527",
"1< c #623621",
"1= c #623622",
"1> c #623625",
"1? c #623626",
"1@ c #62362A",
"1A c #623722",
"1B c #623724",
"1C c #623727",
"1D c #623823",
"1E c #623825",
"1F c #623829",
"1G c #623924",
"1H c #623925",
"1I c #623926",
"1J c #623929",
"1K c #623B27",
"1L c #623B28",
"1M c #623B29",
"1N c #623B2A",
"1O c #623B2B",
"1P c #623B2D",
"1Q c #623C28",
"1R c #623C29",
"1S c #623C2F",
"1T c #623C30",
"1U c #623D27",
"1V c #623D29",
"1W c #623D2A",
"1X c #623D2D",
"1Y c #623D2F",
"1Z c #623E2E",
"1[ c #623E31",
"1] c #623F2B",
"1^ c #624028",
"1_ c #624030",
"1` c #632F1F",
"1a c #633021",
"1b c #63321F",
"1c c #633322",
"1d c #63341F",
"1e c #633422",
"1f c #633423",
"1g c #633424",
"1h c #633523",
"1i c #633524",
"1j c #633622",
"1k c #633623",
"1l c #633624",
"1m c #633625",
"1n c #633626",
"1o c #633722",
"1p c #633724",
"1q c #633726",
"1r c #633729",
"1s c #633923",
"1t c #633927",
"1u c #633928",
"1v c #633929",
"1w c #63392A",
"1x c #63392C",
"1y c #633A24",
"1z c #633A25",
"1{ c #633A31",
"1| c #633B27",
"1} c #633B28",
"1~ c #633B2C",
"2! c #633B2F",
"2# c #633B30",
"2$ c #633C26",
"2% c #633C27",
"2& c #633C2A",
"2' c #633C2C",
"2( c #633C2D",
"2) c #633D2A",
"2* c #633D2C",
"2+ c #633E2F",
"2, c #633F2A",
"2- c #633F30",
"2. c #642C1C",
"2/ c #642E1E",
"20 c #642F21",
"21 c #64321D",
"22 c #643223",
"23 c #643421",
"24 c #643422",
"25 c #643423",
"26 c #643424",
"27 c #643426",
"28 c #643522",
"29 c #643525",
"2: c #643624",
"2; c #643722",
"2< c #643725",
"2= c #643823",
"2> c #643826",
"2? c #643827",
"2@ c #643828",
"2A c #643924",
"2B c #643A24",
"2C c #643A28",
"2D c #643A2B",
"2E c #643A2C",
"2F c #643B28",
"2G c #643C2C",
"2H c #643C30",
"2I c #643D25",
"2J c #643D27",
"2K c #643D29",
"2L c #643D2E",
"2M c #643E28",
"2N c #643E29",
"2O c #643E2B",
"2P c #643E2E",
"2Q c #643F28",
"2R c #643F2C",
"2S c #643F2D",
"2T c #64402B",
"2U c #644133",
"2V c #652F1D",
"2W c #653220",
"2X c #65331D",
"2Y c #653324",
"2Z c #653424",
"2[ c #653522",
"2] c #653524",
"2^ c #653621",
"2_ c #653622",
"2` c #653623",
"2a c #653624",
"2b c #653626",
"2c c #653725",
"2d c #653728",
"2e c #653826",
"2f c #653827",
"2g c #653828",
"2h c #653924",
"2i c #653925",
"2j c #653926",
"2k c #653927",
"2l c #653928",
"2m c #653A23",
"2n c #653A28",
"2o c #653B25",
"2p c #653B28",
"2q c #653B2C",
"2r c #653C27",
"2s c #653C28",
"2t c #653C2B",
"2u c #653C2E",
"2v c #653D28",
"2w c #653E27",
"2x c #653E28",
"2y c #653E2C",
"2z c #653E31",
"2{ c #653E35",
"2| c #653F29",
"2} c #653F2D",
"2~ c #653F2E",
"3! c #654028",
"3# c #65412C",
"3$ c #65422C",
"3% c #65422E",
"3& c #654234",
"3' c #662D1D",
"3( c #663521",
"3) c #663622",
"3* c #663624",
"3+ c #663626",
"3, c #663627",
"3- c #663727",
"3. c #663728",
"3/ c #663825",
"30 c #663826",
"31 c #663827",
"32 c #663923",
"33 c #663924",
"34 c #663925",
"35 c #663927",
"36 c #663A23",
"37 c #663A25",
"38 c #663A26",
"39 c #663A28",
"3: c #663A2A",
"3; c #663A2B",
"3< c #663B24",
"3= c #663B26",
"3> c #663B28",
"3? c #663B2A",
"3@ c #663B2B",
"3A c #663B2C",
"3B c #663C26",
"3C c #663C27",
"3D c #663C28",
"3E c #663C2A",
"3F c #663C2B",
"3G c #663C2C",
"3H c #663D27",
"3I c #663D28",
"3J c #663E2B",
"3K c #663E2D",
"3L c #663E31",
"3M c #663F30",
"3N c #66412B",
"3O c #66412C",
"3P c #664334",
"3Q c #66452D",
"3R c #673E2E",
"3S c #673F30",
"3T c #673F33",
"3U c #67402E",
"3V c #674030",
"3W c #67422E",
"3X c #67422F",
"3Y c #674230",
"3Z c #67432F",
"3[ c #67452E",
"3] c #682D1C",
"3^ c #683022",
"3_ c #68341F",
"3` c #683426",
"3a c #683621",
"3b c #683622",
"3c c #683623",
"3d c #683626",
"3e c #683724",
"3f c #68372A",
"3g c #683823",
"3h c #683828",
"3i c #683829",
"3j c #683924",
"3k c #683925",
"3l c #683A28",
"3m c #683B28",
"3n c #683B2A",
"3o c #683C26",
"3p c #683C28",
"3q c #683C2A",
"3r c #683C2B",
"3s c #683D26",
"3t c #683D28",
"3u c #683D2A",
"3v c #683E25",
"3w c #683E29",
"3x c #683F28",
"3y c #683F2B",
"3z c #684029",
"3{ c #68402B",
"3| c #68462B",
"3} c #693321",
"3~ c #69351F",
"4! c #693723",
"4# c #693725",
"4$ c #693823",
"4% c #693824",
"4& c #693828",
"4' c #693926",
"4( c #693928",
"4) c #693A24",
"4* c #693A26",
"4+ c #693A2E",
"4, c #693B23",
"4- c #693B25",
"4. c #693B26",
"4/ c #693C26",
"40 c #693C28",
"41 c #693C29",
"42 c #693F2C",
"43 c #693F31",
"44 c #69402D",
"45 c #694030",
"46 c #69412E",
"47 c #69422C",
"48 c #694735",
"49 c #6A3420",
"4: c #6A3422",
"4; c #6A3623",
"4< c #6A3627",
"4= c #6A3723",
"4> c #6A3725",
"4? c #6A3922",
"4@ c #6A3A27",
"4A c #6A3A2A",
"4B c #6A3B2A",
"4C c #6A3B2B",
"4D c #6A3C27",
"4E c #6A3D25",
"4F c #6A3D2D",
"4G c #6A3D31",
"4H c #6A3E28",
"4I c #6A3E2E",
"4J c #6A3E31",
"4K c #6A3F2B",
"4L c #6A3F30",
"4M c #6A4027",
"4N c #6A402A",
"4O c #6A402B",
"4P c #6A402F",
"4Q c #6A412A",
"4R c #6A412C",
"4S c #6A412D",
"4T c #6A412E",
"4U c #6A4131",
"4V c #6A422A",
"4W c #6A422E",
"4X c #6A4230",
"4Y c #6A4231",
"4Z c #6A432E",
"4[ c #6A432F",
"4] c #6A4330",
"4^ c #6A4334",
"4_ c #6A452E",
"4` c #6A4531",
"4a c #6A4534",
"4b c #6B3523",
"4c c #6B3621",
"4d c #6B3622",
"4e c #6B3724",
"4f c #6B3824",
"4g c #6B3826",
"4h c #6B3921",
"4i c #6B3923",
"4j c #6B3924",
"4k c #6B3926",
"4l c #6B3927",
"4m c #6B3A27",
"4n c #6B3A2C",
"4o c #6B3B26",
"4p c #6B3C26",
"4q c #6B3C27",
"4r c #6B3C2A",
"4s c #6B3C2B",
"4t c #6B3D26",
"4u c #6B3D29",
"4v c #6B3D2B",
"4w c #6B3D30",
"4x c #6B3E27",
"4y c #6B3E29",
"4z c #6B3E2B",
"4{ c #6B3E2C",
"4| c #6B3E2D",
"4} c #6B3E2E",
"4~ c #6B3F29",
"5! c #6B3F2A",
"5# c #6B3F2C",
"5$ c #6B3F2E",
"5% c #6B402B",
"5& c #6B402C",
"5' c #6B402F",
"5( c #6B4031",
"5) c #6B412C",
"5* c #6B412F",
"5+ c #6B422B",
"5, c #6B422C",
"5- c #6B422D",
"5. c #6B422E",
"5/ c #6B4230",
"50 c #6B432C",
"51 c #6B452F",
"52 c #6B4530",
"53 c #6B4533",
"54 c #6B4738",
"55 c #6C301E",
"56 c #6C3423",
"57 c #6C3522",
"58 c #6C3523",
"59 c #6C3621",
"5: c #6C3924",
"5; c #6C392A",
"5< c #6C3A24",
"5= c #6C3B24",
"5> c #6C3C29",
"5? c #6C3C2B",
"5@ c #6C3C2C",
"5A c #6C3D24",
"5B c #6C3D2A",
"5C c #6C3D30",
"5D c #6C3E28",
"5E c #6C3E2A",
"5F c #6C3E2B",
"5G c #6C3F2A",
"5H c #6C402A",
"5I c #6C402D",
"5J c #6C402E",
"5K c #6C402F",
"5L c #6C412A",
"5M c #6C412E",
"5N c #6C4130",
"5O c #6C422C",
"5P c #6C422D",
"5Q c #6C432C",
"5R c #6C432F",
"5S c #6C4333",
"5T c #6C4335",
"5U c #6C4633",
"5V c #6C472D",
"5W c #6C4831",
"5X c #6D3723",
"5Y c #6D3728",
"5Z c #6D3821",
"5[ c #6D3826",
"5] c #6D3A26",
"5^ c #6D3A27",
"5_ c #6D3A29",
"5` c #6D3A2A",
"5a c #6D3B26",
"5b c #6D3C28",
"5c c #6D3D26",
"5d c #6D3E27",
"5e c #6D3F27",
"5f c #6D3F2B",
"5g c #6D4028",
"5h c #6D402B",
"5i c #6D402C",
"5j c #6D402F",
"5k c #6D412C",
"5l c #6D4131",
"5m c #6D422B",
"5n c #6D422C",
"5o c #6D422D",
"5p c #6D422E",
"5q c #6D422F",
"5r c #6D432F",
"5s c #6D4333",
"5t c #6D452A",
"5u c #6D452F",
"5v c #6D4531",
"5w c #6D4533",
"5x c #6D4635",
"5y c #6D4734",
"5z c #6D4738",
"5{ c #6E3827",
"5| c #6E3921",
"5} c #6E3926",
"5~ c #6E3929",
"6! c #6E3A25",
"6# c #6E3A28",
"6$ c #6E3B26",
"6% c #6E3B28",
"6& c #6E3B29",
"6' c #6E3C27",
"6( c #6E3E2B",
"6) c #6E3F29",
"6* c #6E3F2C",
"6+ c #6E3F2E",
"6, c #6E402C",
"6- c #6E4030",
"6. c #6E412D",
"6/ c #6E412F",
"60 c #6E4230",
"61 c #6E432D",
"62 c #6E4330",
"63 c #6E452F",
"64 c #6E4530",
"65 c #6E472F",
"66 c #6E4730",
"67 c #6F3524",
"68 c #6F371F",
"69 c #6F3726",
"6: c #6F3926",
"6; c #6F3A25",
"6< c #6F3A27",
"6= c #6F3A28",
"6> c #6F3B27",
"6? c #6F3C29",
"6@ c #6F3C2A",
"6A c #6F3C2D",
"6B c #6F3D28",
"6C c #6F3D29",
"6D c #6F3D2A",
"6E c #6F3E29",
"6F c #6F3E2A",
"6G c #6F3E2B",
"6H c #6F3E2C",
"6I c #6F3F2B",
"6J c #6F3F2F",
"6K c #6F402A",
"6L c #6F402B",
"6M c #6F402C",
"6N c #6F402D",
"6O c #6F402E",
"6P c #6F402F",
"6Q c #6F4129",
"6R c #6F412B",
"6S c #6F412F",
"6T c #6F4131",
"6U c #6F4136",
"6V c #6F422D",
"6W c #6F422E",
"6X c #6F432D",
"6Y c #6F4331",
"6Z c #6F452D",
"6[ c #6F452F",
"6] c #6F462E",
"6^ c #6F4630",
"6_ c #6F4738",
"6` c #6F4830",
"6a c #6F4836",
"6b c #6F4A33",
"6c c #703726",
"6d c #703727",
"6e c #703823",
"6f c #703825",
"6g c #703829",
"6h c #703B27",
"6i c #703B29",
"6j c #703B2D",
"6k c #703C2A",
"6l c #703C2C",
"6m c #703C31",
"6n c #703D2A",
"6o c #703E2B",
"6p c #703F28",
"6q c #703F2A",
"6r c #703F2B",
"6s c #703F2D",
"6t c #70422B",
"6u c #70422C",
"6v c #70422D",
"6w c #70422E",
"6x c #70432B",
"6y c #70432F",
"6z c #70452E",
"6{ c #70452F",
"6| c #70472F",
"6} c #704A39",
"6~ c #704B3B",
"7! c #713829",
"7# c #713924",
"7$ c #71392B",
"7% c #713A24",
"7& c #713A25",
"7' c #713A27",
"7( c #713A2B",
"7) c #713B26",
"7* c #713B27",
"7+ c #713B28",
"7, c #713B2C",
"7- c #713C24",
"7. c #713C26",
"7/ c #713C28",
"70 c #713D26",
"71 c #713D29",
"72 c #713D2E",
"73 c #713E2B",
"74 c #713E2F",
"75 c #713F27",
"76 c #713F2A",
"77 c #713F2C",
"78 c #713F2F",
"79 c #714027",
"7: c #714029",
"7; c #71402F",
"7< c #71412B",
"7= c #71412C",
"7> c #714229",
"7? c #71422F",
"7@ c #714230",
"7A c #71432C",
"7B c #71432E",
"7C c #714433",
"7D c #71452F",
"7E c #71462C",
"7F c #714637",
"7G c #71472F",
"7H c #714730",
"7I c #71482E",
"7J c #714830",
"7K c #714835",
"7L c #714B3A",
"7M c #723725",
"7N c #723826",
"7O c #723924",
"7P c #723926",
"7Q c #723927",
"7R c #723928",
"7S c #723A22",
"7T c #723A27",
"7U c #723A28",
"7V c #723A2B",
"7W c #723B24",
"7X c #723B26",
"7Y c #723B28",
"7Z c #723C29",
"7[ c #723D29",
"7] c #723D2A",
"7^ c #723D2C",
"7_ c #723E25",
"7` c #723E27",
"7a c #723F28",
"7b c #723F29",
"7c c #72402A",
"7d c #72412A",
"7e c #72412B",
"7f c #72422B",
"7g c #72432F",
"7h c #724433",
"7i c #72452C",
"7j c #724631",
"7k c #72472F",
"7l c #724731",
"7m c #724830",
"7n c #724838",
"7o c #724A36",
"7p c #724B2F",
"7q c #724B3A",
"7r c #733725",
"7s c #733728",
"7t c #733828",
"7u c #733926",
"7v c #733A24",
"7w c #733A2C",
"7x c #733C28",
"7y c #733D27",
"7z c #733D2A",
"7{ c #733E2A",
"7| c #733E2D",
"7} c #733F2A",
"7~ c #733F2B",
"8! c #734029",
"8# c #73402A",
"8$ c #73402C",
"8% c #73412A",
"8& c #73422E",
"8' c #73432D",
"8( c #73462E",
"8) c #734633",
"8* c #734731",
"8+ c #734735",
"8, c #73482F",
"8- c #734831",
"8. c #734A2F",
"8/ c #734A35",
"80 c #734B36",
"81 c #734B38",
"82 c #734E37",
"83 c #743826",
"84 c #743A2A",
"85 c #743B29",
"86 c #743D26",
"87 c #743D27",
"88 c #743E28",
"89 c #743E29",
"8: c #743F29",
"8; c #74402C",
"8< c #74412E",
"8= c #74412F",
"8> c #74422A",
"8? c #74422B",
"8@ c #74432C",
"8A c #74442E",
"8B c #74442F",
"8C c #74462D",
"8D c #74462E",
"8E c #74472D",
"8F c #74472E",
"8G c #744731",
"8H c #744733",
"8I c #74482D",
"8J c #744833",
"8K c #744837",
"8L c #744935",
"8M c #744937",
"8N c #744A30",
"8O c #753827",
"8P c #753925",
"8Q c #753A2C",
"8R c #753B26",
"8S c #753C26",
"8T c #753C29",
"8U c #753D28",
"8V c #753E29",
"8W c #753F28",
"8X c #75402A",
"8Y c #75402B",
"8Z c #75402E",
"8[ c #754128",
"8] c #754229",
"8^ c #754329",
"8_ c #75432E",
"8` c #754629",
"8a c #75462B",
"8b c #75472F",
"8c c #75482F",
"8d c #754835",
"8e c #75492F",
"8f c #754934",
"8g c #763925",
"8h c #763A28",
"8i c #763B26",
"8j c #763B28",
"8k c #763C26",
"8l c #763E27",
"8m c #763E28",
"8n c #763F2A",
"8o c #763F2B",
"8p c #76402A",
"8q c #76402B",
"8r c #764127",
"8s c #76412A",
"8t c #76422D",
"8u c #764230",
"8v c #76442D",
"8w c #76442E",
"8x c #764631",
"8y c #764634",
"8z c #76472B",
"8{ c #764730",
"8| c #76482D",
"8} c #76482E",
"8~ c #76482F",
"9! c #764831",
"9# c #76492F",
"9$ c #764A30",
"9% c #764B2F",
"9& c #773C28",
"9' c #773E2B",
"9( c #773E2C",
"9) c #773F2A",
"9* c #774028",
"9+ c #77412B",
"9, c #77412C",
"9- c #77422A",
"9. c #77422D",
"9/ c #77432D",
"90 c #77442D",
"91 c #77462D",
"92 c #774730",
"93 c #77482D",
"94 c #77482E",
"95 c #774832",
"96 c #774A35",
"97 c #774C2F",
"98 c #774D2D",
"99 c #774D32",
"9: c #774E36",
"9; c #783926",
"9< c #783C23",
"9= c #783C2A",
"9> c #783E2A",
"9? c #783F29",
"9@ c #78412A",
"9A c #78412E",
"9B c #78412F",
"9C c #784229",
"9D c #78422F",
"9E c #78442C",
"9F c #78442F",
"9G c #784634",
"9H c #78482F",
"9I c #78492E",
"9J c #784934",
"9K c #784A35",
"9L c #784A38",
"9M c #784B35",
"9N c #793C28",
"9O c #793D28",
"9P c #793E29",
"9Q c #793E2A",
"9R c #794029",
"9S c #79402A",
"9T c #79402B",
"9U c #79412C",
"9V c #79422D",
"9W c #79442E",
"9X c #794629",
"9Y c #79472E",
"9Z c #79482E",
"9[ c #79482F",
"9] c #794935",
"9^ c #794936",
"9_ c #794A2F",
"9` c #794A34",
"9a c #794B2E",
"9b c #794C37",
"9c c #794D37",
"9d c #794F34",
"9e c #7A4934",
"9f c #7A4936",
"9g c #7A4B34",
"9h c #7A4B35",
"9i c #7A4C34",
"9j c #7A4D38",
"9k c #7B3928",
"9l c #7B4329",
"9m c #7B462C",
"9n c #7C4129",
"9o c #7C412A",
"9p c #7C432B",
"9q c #7C462D",
"9r c #7C4635",
"9s c #7C4734",
"9t c #7C4839",
"9u c #7C4B2D",
"9v c #7C4B31",
"9w c #7C4B34",
"9x c #7C4D3B",
"9y c #7C4F34",
"9z c #7D3D27",
"9{ c #7D3E27",
"9| c #7D3F27",
"9} c #7D402C",
"9~ c #7D422C",
":! c #7D432D",
":# c #7D4732",
":$ c #7D482C",
":% c #7D482F",
":& c #7D4831",
":' c #7D4834",
":( c #7D4A2C",
":) c #7D4A30",
":* c #7D4C2F",
":+ c #7D4E34",
":, c #7E3D2B",
":- c #7E402B",
":. c #7E4125",
":/ c #7E4128",
":0 c #7E432B",
":1 c #7E442B",
":2 c #7E442E",
":3 c #7E462F",
":4 c #7E492C",
":5 c #7E492F",
":6 c #7E4930",
":7 c #7E4934",
":8 c #7E4A2E",
":9 c #7E4A32",
":: c #7E4C36",
":; c #7E4D2E",
":< c #7E4D36",
":= c #7E4D3A",
":> c #7E4F36",
":? c #7E5035",
":@ c #7F3E27",
":A c #7F482E",
":B c #7F4834",
":C c #7F4A32",
":D c #7F4B30",
":E c #7F4C35",
":F c #7F4D35",
":G c #7F4D3A",
":H c #7F4F34",
":I c #7F5035",
":J c #7F5036",
":K c #803B23",
":L c #803E24",
":M c #804029",
":N c #804228",
":O c #80432A",
":P c #804629",
":Q c #804632",
":R c #804730",
":S c #804930",
":T c #804932",
":U c #804A2D",
":V c #804A35",
":W c #804B2E",
":X c #804C32",
":Y c #804C36",
":Z c #804D38",
":[ c #804E37",
":] c #805032",
":^ c #80503B",
":_ c #80543D",
":` c #813B28",
":a c #813D29",
":b c #814428",
":c c #81482C",
":d c #814B30",
":e c #814C2E",
":f c #814C30",
":g c #814E31",
":h c #814E37",
":i c #815232",
":j c #824129",
":k c #82462C",
":l c #824631",
":m c #82472E",
":n c #824732",
":o c #824830",
":p c #824C34",
":q c #824D35",
":r c #824D3B",
":s c #82503C",
":t c #825236",
":u c #825338",
":v c #834434",
":w c #83472E",
":x c #834B34",
":y c #835037",
":z c #835038",
":{ c #83583A",
":| c #84432C",
":} c #84472B",
":~ c #844C32",
";! c #844C35",
";# c #844C38",
";$ c #844E31",
";% c #844E39",
";& c #84512F",
";' c #845130",
";( c #845139",
";) c #85462A",
";* c #854830",
";+ c #85492D",
";, c #854B2C",
";- c #854B31",
";. c #854F34",
";/ c #855334",
";0 c #855638",
";1 c #86472E",
";2 c #864C38",
";3 c #864D32",
";4 c #864D36",
";5 c #864F35",
";6 c #87462C",
";7 c #874632",
";8 c #874A2C",
";9 c #875038",
";: c #883F2E",
";; c #884730",
";< c #88492F",
";= c #884C30",
";> c #88533E",
";? c #89442C",
";@ c #894A2F",
";A c #894E34",
";B c #89503B",
";C c #89533B",
";D c #8A4930",
";E c #8A4C37",
";F c #8A4D35",
";G c #8A4E32",
";H c #8A4F35",
";I c #8A523C",
";J c #8A543A",
";K c #8B432C",
";L c #8B462E",
";M c #8B4A2F",
";N c #8B502F",
";O c #8B533C",
";P c #8B563B",
";Q c #8D4128",
";R c #8D4B30",
";S c #8D4C30",
";T c #8E492F",
";U c #8E5D43",
";V c #8F543B",
";W c #8F5A3D",
";X c #904A2F",
";Y c #905331",
";Z c #905436",
";[ c #90563B",
";] c #914E30",
";^ c #914F2F",
";_ c #915035",
";` c #915440",
";a c #925031",
";b c #92543B",
";c c #935439",
";d c #935B39",
";e c #944C37",
";f c #955232",
";g c #964B31",
";h c #974D36",
";i c #9A4D30",
";j c #9E4E32",
";k c #A95A3C",
";l c #A96142",
";m c #AE5B38",
/* pixels */
"2$3|8-%w!!!!!!!!!!!!!!!!%@-928.E+x-*&9$_!!!!!!!!!!!!!!!!%0/.9,6e79/%,g/1!!!!!!!!!!!!!!!!'1;);47U9^1}4#&]!!!!!!!!!!!!!!!!%^*,0|5B",
"1G&k:i/M0v!!!!!!!!!!!!){+H.j8D(')o%-0=(~'R!!!!!!!!!!!!+!.~81:36q5c4X5N0-2{!!!!!!!!!!!!%u%6*e5A.x9e(a3y.i,S!!!!!!!!!!!!)N%5'60a1p",
"'g%z/)&S%2*3!!!!!!!!+O'?494D+p&w(S-S+J/F)t1L!!!!!!!!)9'h-O9b:70{7x5w45+8+=+e!!!!!!!!*h&5())(.;(T*f/-5M/Y'E,v!!!!!!!!,)(j0t-g2h$s",
"#Q(^0h'*%/%a$n!!!!*t'&3]-c1s+O!Z!l)U080`2q*I*x!!!!(u$`';0~-),`!W!o+<48,0&Z)k,B!!!!(Q&&1t*5-+.N!q!c(V2,0w/I0g.1!!!!(I%1&p2**[.z!:",
"!!#B)t*H+N,l&Q*%(-)C0Q-3+N,V!8!!!!!'(~+#)4(P$['F(O%V'>'e,/&X!(!!!!#?*8-((r1%'D*N%+#e*_)a&|'s$)!!!!#f)A3>&r3K+w-L(i$-%P&B(l-I!p!!",
"!!!!!l%D2A.P2B/E'M.i.,'=,L!|!!!!!!!!#C*0+b0s/H*c)g'39-.U&G!O!!!!!!!!#s&~3M2P+$(,%t,++T-a*i!e!!!!!!!!!i.4&q8^3r(E'.(h&b$^'8#0!!!!",
"!!!!!!#)1|(f-i./1J,x(5(q!k!!!!!!!!!!!!%;&z.&+;2+1O0w3q+/!P!!!!!!!!!!!!!s)j,0/d/$1M1*4P&;!E!!!!!!!!!!!!#g(n)9+m&A/q'N(-%]!U!!!!!!",
"!!!!!!!!$9,K-e756,4Q*P$~!!!!!!!!!!!!!!!!$6)e*R8)7g+_0x#l!!!!!!!!!!!!!!!!#q,_0C1M++.+(Y%i!!!!!!!!!!!!!!!!#{-K)w('&V(#%<!w!!!!!!!!",
"!!!!!!!!%Y/{1#0>,H/p'2#D!!!!!!!!!!!!!!!!#r$Q)l7o643R(F$O!!!!!!!!!!!!!!!!#^(97m6p0'&Y)h&F!!!!!!!!!!!!!!!!#[(X,])+4S)='q$>!!!!!!!!",
"!!!!!!0<)~6!5f133l/y-='*1k!!!!!!!!!!!!&8%:'n+33N/B3G1r$u(R!!!!!!!!!!!!&J$w+i9]9`-B0+0.1!2!!!!!!!!!!!!!&G&h3J3z.[1z1W0('c(o!!!!!!",
"!!!!/:*'2W9W73-W0432:b-Y156B!!!!!!!!(U)c/')82z+6)_&f-D%`%b1{!!!!!!!!,.':&m2T-R5`5~6a8K,I(/+2!!!!!!!!+?*k,z*l1)-w+P2Q51.=)@+1!!!!",
"!!,P'62V7#+!+s#@!0+F9l,92X+A7N!!!!(=%2/*2K&x&1!D#2%c%*&46T*j)Z!!!!&H%L'#*l$v$8!/#5-v3C,o5',T1@!!!!*b'U1Q-x(73I#E!s'u5!4m61+81[!!",
")*%I(C3'2.2/!F!!!!!I'x/9:L/]0Z10-o'y'G-y/z-Q!,!!!!!g't'90M8*(8'5$I$S+:4}.E$i!]!!!!$G)5468|:~(N6-&e.H'/+}'.$4!>!!!!$.)71:/c9h.p&C",
"0_%A'),b0R$M!!!!!!!!#R'i689<7S:O1y3(,E:_/^#]!!!!!!!!!t$x6v.T-w.V%d'Y2x.])(!H!!!!!!!!!r4d2i1C.c-s5}-!*+-}%K!)!!!!!!!!!*,=8S5L0G+P",
"4D0S,a*C!^!!!!!!!!!!!!!-0y3v0U;,:y9f9I0m#o!!!!!!!!!!!!#G*S0d-;*()V-s*E(t!a!!!!!!!!!!!!#-&X+7365U8X7x26&%!Q!!!!!!!!!!!!!f,t:?-P.Y",
";=;f;g'd!!!!!!!!!!!!!!!!'b8`869z8{4?,C%X!!!!!!!!!!!!!!!!%F&u)_.t2C%U0l%[!!!!!!!!!!!!!!!!%M&K.}9m.;*z,~%&!!!!!!!!!!!!!!!!%r.l.W3Y",
";?:k7W+Q!!!!!!!!!!!!!!!!&E2m5|9E4d4$,G%]!!!!!!!!!!!!!!!!%'&$(g5=:U&N*G%_!!!!!!!!!!!!!!!!'%.R+}-`2>+%$j%)!!!!!!!!!!!!!!!!%H5/.):^",
")d8W;C/E'S!!!!!!!!!!!!4s1d:T;k4@0J'w.$&'0+!!!!!!!!!!!!'O%|%e,[5o.%$z,u%x2-!!!!!!!!!!!!;E7K:[1<(D.t.-5r'{+{!!!!!!!!!!!!.v(l1$'V63",
"%h+K,$47(p4R!!!!!!!!'C6&;8:K:o2c+y)I3O,}/W2H!!!!!!!!2#(Z0!*o&(([%,$l)u(r%:+s!!!!!!!!*I5s7G3k2^,t(|+|9506&n0?!!!!!!!!5z)i,~,~0)-.",
"!n*g1R)&03)42}!!!!2p+L5A9q7|'|$2#L%s-{4E44&i/(!!!!7L+n8G5D+X'3!J!L%A*6)]+M%n,>!!!!+5+g3C701i.y!v!?)q8Y:A87(**{!!!!,-'p/L.u(*.L#-",
"!!#i%J&P.:)3&y.I9B5X8i:e;R.`#|!!!!!c/k-}3X5b,24U3[/&4Z;d2y+d#!!!!!!'$,${8z)|%3'a'+'<&L7i,1+z!y!!!!!`+*8h92-#(>)W%7%**n---'&y!b!!",
"!!!!!4$o,~8,6o.56?:|9{:/5E$5!!!!!!!!$k&l(9:w9:3Z*s(]//;.-q!z!!!!!!!!#H'Q3t-U-/.k7e*;*q.(%O#;!!!!!!!!$2;-8A8t6i76-A+..V,{*:#!!!!!",
"!!!!!!#+1i9K88,n;67O4:-2$r!!!!!!!!!!!!!t'W2S8/5y54.')U+-$L!!!!!!!!!!!!!=&I(W/?*C6J9j&x%v!<!!!!!!!!!!!!#F4y8;;K9>5-.E+&%Y!N!!!!!!",
"!!!!!!!!%m005>6%:k4h4>)r!!!!!!!!!!!!!!!!%9+a+97I2U9d6~'c!!!!!!!!!!!!!!!!%((b4~6S8H4M*/$H!!!!!!!!!!!!!!!!'K*B;:7P9$0I.:'p!!!!!!!!",
"!!!!!!!!$Y:};j:a:M;@:d2>!!!!!!!!!!!!!!!!&15H6b5n*m,Z'[%]!!!!!!!!!!!!!!!!&!)X7;*}7u40%2%C!!!!!!!!!!!!!!!!*>4g5>3-8'9v65%E!!!!!!!!",
"!!!!!!0[7Z3(:j7{9N90:G2(*7!!!!!!!!!!!!4J,R-k;%5j433P-u*-6U!!!!!!!!!!!!/Q)`50/+38,;1+({1V6}!!!!!!!!!!!!8y6(3B2_'L6]9696)O1T!!!!!!",
"!!!!9r0c7);':Y.v7T;X;l3w/~3K!!!!!!!!*Y.F1H0}-I1M(;0o3W2).|3T!!!!!!!!%y'.5%4a1(1N-6/n4(6k(s/,!!!!!!!!*13#'0$;&o'0/o6Z8_8u*g-p!!!!",
"!!.@8Z;2372|1F$c$&2*7p/G3!+c2D!!!!72);8v*]*4-(#h#,+40$'),**p-?!!!!)[&}5Q4{)&%|!o!x*Z,w/i0H*d-o!!!!,!1Y41(!2].`$?!N)y5@2t0&-T6A!!",
"(}&.0^74;M5.$e!!!!#14V-54.4K5k2R-%+(4s8N1g'T!g!!!!$B(e&6&7*p*a*#-<*)&M(w)G&/#&!!!!!V'l,,.R/P(+.K,^%T4v,7']$/#(!!!!#d,J-t9y5W6n'r",
"$_0_2::v8<'Z!!!!!!!!#u&v/Z4^8(/e%I(>0K+[$7!Y!!!!!!!!!d&m-'0N:V)a-|)a/[0P'R!#!!!!!!!!!=/j2F8.,i)Y*U+V.{2Z&>!+!!!!!!!!!^)N5t9g7B'4",
"4H-].h)^$P!!!!!!!!!!!!!X)g5u.s5g+26@&A%.!*!!!!!!!!!!!!!P&j,Z1Z5**r-^2f(3!{!!!!!!!!!!!!$#5$*m-$+>-}(81L,?$:!!!!!!!!!!!!$</l;B8x1X",
"(c0Z*y#n!!!!!!!!!!!!!!!!%N3#-c-G1w02)B$@!!!!!!!!!!!!!!!!%]3Q1_5U(K6g8}'|!!!!!!!!!!!!!!!!$h)i*Q53)a'6(32g!!!!!!!!!!!!!!!!%Q7@0f&{",
"9.&t&c!B!!!!!!!!!!!!!!!!%%5G/C*?2<:!3&&[!!!!!!!!!!!!!!!!)+8L5x2p.z3I0u.q!!!!!!!!!!!!!!!!%4%{2O603A((.p(:!!!!!!!!!!!!!!!!$C6@2%3e",
"(E*I&{,N6/!!!!!!!!!!!!),(x6G4j)(.f6H9x0%0]!!!!!!!!!!!!2d/U6`2'30942e5(-~.a!!!!!!!!!!!!0r&a5P.G:D.n0Y+^+$3d!!!!!!!!!!!!7$3`6=7c)&",
"%!/83S3D6I7A!!!!!!!!$t+r:X209_+4'm'd452o(65T!!!!!!!!,y)m80+@+Y0>+Z.v5o6N+I7,!!!!!!!!*!1]:+:z-H.r%m0T(M.F-_.J!!!!!!!!7V6m7!3.5p&+",
"!5%~0n.m:).Z:r!!!!9t1~/G9P:,6$!~!K%C,o21-d869J!!!!(v&3(l52-M1R#~![)$2s6u2k-:+~!!!!)M/b:u3@9w5R#<#$%?*i4W-8'!46!!!!4+074b8Q)J)}#b",
"!!!T)0-f627n6D7F7+(B,q:H:c-[!6!!!!!$4[4i+v.f9%7(5J)n1=,3/V(M#.!!!!!K1;:&+{7]4'2u/X7/8T:t5S+k$K!!!!!1%v1>9Z1'&,.%)<*T,F3m4<'_#V!!",
"!!!!!}*^0b3U:<3F/g0;2n4U1x%$!!!!!!!!#M5]'})'019V)Q/m+t1^'X#P!!!!!!!!#z)?2E6#7r2&7=:{8I6y0*!h!!!!!!!!#''I827o.g3%5?5v->6W)p#_!!!!",
"!!!!!!$$1v4L4~91:'3:.0*_#8!!!!!!!!!!!!$V$]*D:.0W237X$0*K!@!!!!!!!!!!!!#t)1:n:B6k:I:F::1M$J!!!!!!!!!!!!!t&!;(4l6>8R1,2r,W!%!!!!!!",
"!!!!!!!!)./x;79/2[*W(!%q!!!!!!!!!!!!!!!!$U)E8[9q5&8:*X$V!!!!!!!!!!!!!!!!'@3,;+:$;Y:h44)6!!!!!!!!!!!!!!!!'H/s)x5]1/83*|'-!!!!!!!!",
"!!!!!!!!%81P8f-h)H2k1&'o!!!!!!!!!!!!!!!!&,*@;T;;;e;L-0$9!!!!!!!!!!!!!!!!$p29;N349I:(8b*$!!!!!!!!!!!!!!!!*M/N7M6:,79p7Y0q!!!!!!!!",
"!!!!!!2K)+1U0@2w9u8w8&***L!!!!!!!!!!!!2j5Y3+9~;S;m;i;a'w$y!!!!!!!!!!!!,z'y/;:x196'5m1q4r4w!!!!!!!!!!!!:Z4B0z-W9Y9&7/6l%l'y!!!!!!",
"!!!!;W/N0697;J6M4]9Q5a.C+y;9!!!!!!!!&_7[:>9'8>*F7Y7Q9C-Z+G/O!!!!!!!!20+`,84f6E6N:R3o:S1f7';O!!!!!!!!3?*V6*4;7~.w*27?7<,T)#:E!!!!",
"!!3*:J:2719c:Q$T#>/_0G2'6V,M73!!!!1:(A8C;$8k4N'k#y.;9X:*16/j+U!!!!7^,g6N3;;18=#m#92`/f9?:W6^2g!!!!070>:=2?4O.D#/#g)-9+8}4H7J9=!!",
"-l-b;[;F;I4G%X!!!!#Y0N3$-z9M6r7w)s(<-@5e7%.b$1!!!!#T1b4!+S:;1j0B+|&:1A8~9o9V$3!!!!$L427_;<;_/69}.B%R,A8P-r)!$q!!!!#Z-J4G8L8t5}/5",
"'p0Z7k;G4&#r!!!!!!!!#O+?5P9a6R9O)D*A5.-&'P#}!!!!!!!!#64T)):]6;5+.^/>8a2N/=#c!!!!!!!!#l0t;#0/5{.83W;U8s1X+Z##!!!!!!!!#--,5n5)/A&W",
"0k1u;V4`$a!!!!!!!!!!!!!.&#6>:f1E1e4,.o&B!H!!!!!!!!!!!!#U)P9U6|:f:N8]*w3i$(!!!!!!!!!!!!$R+d/2%f/e:67}19*`!t!!!!!!!!!!!!!u4C.X/t8E",
",'5I5l&g!!!!!!!!!!!!!!!!%W'J2;7d3~0Y)x%o!!!!!!!!!!!!!!!!!l,{/}6[4F4;.2#x!!!!!!!!!!!!!!!!$d2<571o:84.4e(4!!!!!!!!!!!!!!!!'$,X,%2G",
",P5?/t&:!!!!!!!!!!!!!!!!%k(&3^7.-1)F(L(S!!!!!!!!!!!!!!!!$D%p7J4|4I3c-C%G!!!!!!!!!!!!!!!!)>-X9S8p-E)t22(%!!!!!!!!!!!!!!!!&U8F7j7b",
"+-,O-M*c/I!!!!!!!!!!!!.7.#(1117v8?'z7>)).q!!!!!!!!!!!!&D&?*~.X-z0E;*3=);,J!!!!!!!!!!!!3L,i0>5&5_898g:16_2g!!!!!!!!!!!!9F271l7f*J",
"+d-m;A,e-g1Z!!!!!!!!(m.!-G.<3E,m.30j9[1I,j.e!!!!!!!!(`)J/n0C*9,Y(H*K6O7h(z,r!!!!!!!!/4..05359L1C4%*=;M9D'^85!!!!!!!!;D,58O3_+'&0",
"#X)z7C5:5<7q:s!!!!/Q(72M7E4x,&#:!M+%/E6K4-/<4z!!!!6c*<*.(0*d,Y#%!&)$2v6+&^)v5C!!!!*&0V416*+*)S#p$X2b3}691c137t!!!!1u4u+q:-1K,U!o",
"!!!y/R6F8r:C6P9s1Q)=994)0L2J#S!!!!#*3t4t)%2[3g6k29051.,:-)-G#=!!!!$'1-/u1b-n)8,(/#,k1a8B;`5O$b!!!!$%-[._;S;34A22-N+]9|:m-r3V#k!!",
"!!!!#J3u1D0~8d8~3x)f66-z5F#v!!!!!!!!#W-]3b(_33163}0X3a/P(m!3!!!!!!!!#j/!.{,@:p+g1z2@0r6Y2L$=!!!!!!!!#w253j/@3E)v0a7D6'6<.>#I!!!!",
"!!!!!!$f'`2I6C5d4_901n24$n!!!!!!!!!!!!$A4n6f5Z7-:#4p/0'h!U!!!!!!!!!!!!$E'f,p7&7:8@3/1k-i$g!!!!!!!!!!!!%>78-4396V4q:P5^8'$N!!!!!!",
"!!!!!!!!&*9i:49#6x;>.W/a!!!!!!!!!!!!!!!!&d5c9*7`+~/D)t#4!!!!!!!!!!!!!!!!&R,;8q9!9);b7i',!!!!!!!!!!!!!!!!&s.9915[6);Q8U'7!!!!!!!!",
"!!!!!!!!&<774$-98#&0,h$U!!!!!!!!!!!!!!!!%S+E5L3<4=4c,D#A!!!!!!!!!!!!!!!!(.%j;&8o:%;55K'K!!!!!!!!!!!!!!!!$2-7/B2Y+u;]+)%#!!!!!!!!",
"!!!!!!0D)L8%+R0i;H;Z:0+l.A!!!!!!!!!!!!5h-e/w2a(?1B3{,#%=(-!!!!!!!!!!!!)b%5&=;0;^/@;c0F/o))!!!!!!!!!!!!5;)T.M:96h*u6L0e%Z(J!!!!!!",
"!!!!5,(-+F6{/h*N:9,s1h+O)K)S!!!!!!!!)z-|8J3{-r$W,d.Q0p'v(k/J!!!!!!!!09%l/K+B9!5H,<9G8+.d'A3)!!!!!!!!*C(y8n;!8j/`'}/v4k*C&T9A!!!!",
"!!4'2~+H267@&2!G#p&-8!+T8c&x.t!!!!+!(@+h:q;P6X#3!)-F5V6z,{)/)&!!!!)}'~*o9n+C3s#`!m/|3H6.+,):6j!!!!1S*O:5587x'j!A!b%B1`147s6d1f!!",
"(`(e.z6%/s&E!@!!!!!70A314/+j)e3f+B+o1t9H:l4Y#a!!!!!S+f.S0O/S$m.O&x-j''+D6Q9T$6!!!!!j1m3h7R8$/r7z(G&@,49;-B-7$+!!!!!2(_:@187=-V56",
"'()25#8w)R#K!!!!!!!!!l'B/T)_,|,c2=3n:g7H*Q![!!!!!!!!#s'K9`+`+1.o0#6w0`0:,f#W!!!!!!!!#7.69k7l6I.(,Q.v598V&O!;!!!!!!!!!96s4*2l/7/3",
"-[5q6t+g#e!!!!!!!!!!!!!C(20,.*8m7a7y19($!R!!!!!!!!!!!!#N(E+012849(8e15*v!_!!!!!!!!!!!!$}29;;;h9@5i93,61x$F!!!!!!!!!!!!$!+W1?4o5<",
"7*98-F$*!!!!!!!!!!!!!!!!#w.?0A9$4i9R%}$Z!!!!!!!!!!!!!!!!#y(i(d673p;/17&)!!!!!!!!!!!!!!!!$|9?:`558M-Z/`&`!!!!!!!!!!!!!!!!%g/B8l1e"
};
