/* XPM */
static char *metal_01[] = {
/* columns rows colors chars-per-pixel */
"64 64 2340 2",
/* colors */
"!! c #1E140E",
"!# c #1F130E",
"!$ c #21150E",
"!% c #221910",
"!& c #231911",
"!' c #241712",
"!( c #241812",
"!) c #241912",
"!* c #241D11",
"!+ c #251912",
"!, c #251C13",
"!- c #251D12",
"!. c #251D14",
"!/ c #251E12",
"!0 c #251F13",
"!1 c #261814",
"!2 c #261913",
"!3 c #261A13",
"!4 c #261A14",
"!5 c #261A15",
"!6 c #261B15",
"!7 c #261C13",
"!8 c #261C14",
"!9 c #262014",
"!: c #271914",
"!; c #271A12",
"!< c #271A14",
"!= c #271B12",
"!> c #271B13",
"!? c #271B14",
"!@ c #271C14",
"!A c #271E14",
"!B c #272119",
"!C c #281812",
"!D c #281915",
"!E c #281A12",
"!F c #281A15",
"!G c #281B15",
"!H c #281C14",
"!I c #281C15",
"!J c #281C16",
"!K c #281D16",
"!L c #281E16",
"!M c #281F15",
"!N c #281F16",
"!O c #282015",
"!P c #282315",
"!Q c #291A15",
"!R c #291B15",
"!S c #291B16",
"!T c #291C16",
"!U c #291C17",
"!V c #291C18",
"!W c #291C19",
"!X c #291D16",
"!Y c #291D17",
"!Z c #291E16",
"![ c #291E17",
"!] c #291F14",
"!^ c #291F16",
"!_ c #291F17",
"!` c #292014",
"!a c #292115",
"!b c #292216",
"!c c #292217",
"!d c #2A1A13",
"!e c #2A1B17",
"!f c #2A1C15",
"!g c #2A1C17",
"!h c #2A1D15",
"!i c #2A1D16",
"!j c #2A1D17",
"!k c #2A1E14",
"!l c #2A1E16",
"!m c #2A1E17",
"!n c #2A1E18",
"!o c #2A2016",
"!p c #2A2018",
"!q c #2A2118",
"!r c #2A2216",
"!s c #2B1B15",
"!t c #2B1B16",
"!u c #2B1C15",
"!v c #2B1C16",
"!w c #2B1C18",
"!x c #2B1D14",
"!y c #2B1D15",
"!z c #2B1D16",
"!{ c #2B1D17",
"!| c #2B1D18",
"!} c #2B1E16",
"!~ c #2B1E17",
"#! c #2B1E18",
"## c #2B1F15",
"#$ c #2B1F16",
"#% c #2B1F17",
"#& c #2B1F18",
"#' c #2B2015",
"#( c #2B2017",
"#) c #2B2018",
"#* c #2B2019",
"#+ c #2B2116",
"#, c #2B2117",
"#- c #2B2118",
"#. c #2B2119",
"#/ c #2B211B",
"#0 c #2B2215",
"#1 c #2B2216",
"#2 c #2B2217",
"#3 c #2B2319",
"#4 c #2C1C18",
"#5 c #2C1D17",
"#6 c #2C1D18",
"#7 c #2C1E14",
"#8 c #2C1E17",
"#9 c #2C1E18",
"#: c #2C1E19",
"#; c #2C1E1A",
"#< c #2C1F15",
"#= c #2C1F17",
"#> c #2C1F18",
"#? c #2C2014",
"#@ c #2C2015",
"#A c #2C2017",
"#B c #2C2018",
"#C c #2C2019",
"#D c #2C2116",
"#E c #2C2117",
"#F c #2C2118",
"#G c #2C2216",
"#H c #2C231A",
"#I c #2C2417",
"#J c #2C241A",
"#K c #2C251A",
"#L c #2D1C18",
"#M c #2D1D14",
"#N c #2D1D17",
"#O c #2D1D18",
"#P c #2D1E16",
"#Q c #2D1E17",
"#R c #2D1E18",
"#S c #2D1F17",
"#T c #2D1F18",
"#U c #2D1F19",
"#V c #2D1F1A",
"#W c #2D2016",
"#X c #2D2017",
"#Y c #2D2018",
"#Z c #2D201B",
"#[ c #2D2119",
"#] c #2D211A",
"#^ c #2D2215",
"#_ c #2D2216",
"#` c #2D2217",
"#a c #2D221A",
"#b c #2D2316",
"#c c #2D2318",
"#d c #2D2319",
"#e c #2D231A",
"#f c #2D231B",
"#g c #2D2419",
"#h c #2D261B",
"#i c #2D261C",
"#j c #2E1D15",
"#k c #2E1D17",
"#l c #2E1D18",
"#m c #2E1E17",
"#n c #2E1E18",
"#o c #2E1F17",
"#p c #2E1F18",
"#q c #2E1F19",
"#r c #2E1F1A",
"#s c #2E2017",
"#t c #2E2018",
"#u c #2E2019",
"#v c #2E201A",
"#w c #2E2116",
"#x c #2E2117",
"#y c #2E2118",
"#z c #2E2119",
"#{ c #2E211A",
"#| c #2E2215",
"#} c #2E2216",
"#~ c #2E2218",
"$! c #2E2219",
"$# c #2E221B",
"$$ c #2E2316",
"$% c #2E2317",
"$& c #2E2318",
"$' c #2E2319",
"$( c #2E231A",
"$) c #2E231B",
"$* c #2E231E",
"$+ c #2E2418",
"$, c #2E2419",
"$- c #2E241A",
"$. c #2E241C",
"$/ c #2E2517",
"$0 c #2E2519",
"$1 c #2E251B",
"$2 c #2E2717",
"$3 c #2E2719",
"$4 c #2E2919",
"$5 c #2F1D17",
"$6 c #2F1D18",
"$7 c #2F1E17",
"$8 c #2F1E18",
"$9 c #2F1E19",
"$: c #2F1F16",
"$; c #2F1F17",
"$< c #2F1F18",
"$= c #2F1F19",
"$> c #2F1F1A",
"$? c #2F2015",
"$@ c #2F2017",
"$A c #2F2018",
"$B c #2F2019",
"$C c #2F201B",
"$D c #2F2115",
"$E c #2F2117",
"$F c #2F2118",
"$G c #2F2119",
"$H c #2F211B",
"$I c #2F2216",
"$J c #2F2218",
"$K c #2F2219",
"$L c #2F221A",
"$M c #2F221B",
"$N c #2F2316",
"$O c #2F2317",
"$P c #2F2319",
"$Q c #2F231C",
"$R c #2F231E",
"$S c #2F2418",
"$T c #2F2419",
"$U c #2F241A",
"$V c #2F241B",
"$W c #2F241C",
"$X c #2F2519",
"$Y c #2F251A",
"$Z c #2F251D",
"$[ c #2F2619",
"$] c #2F261A",
"$^ c #2F261B",
"$_ c #2F2717",
"$` c #2F271B",
"$a c #2F271D",
"$b c #2F281A",
"$c c #2F291D",
"$d c #301D18",
"$e c #301E16",
"$f c #301F17",
"$g c #301F18",
"$h c #301F1B",
"$i c #302015",
"$j c #302018",
"$k c #30201A",
"$l c #30201B",
"$m c #302115",
"$n c #302116",
"$o c #302118",
"$p c #302119",
"$q c #30211A",
"$r c #302218",
"$s c #302219",
"$t c #30221A",
"$u c #30221B",
"$v c #30221C",
"$w c #30221D",
"$x c #302317",
"$y c #302318",
"$z c #30231A",
"${ c #30231E",
"$| c #302417",
"$} c #302418",
"$~ c #30241A",
"%! c #30241D",
"%# c #302519",
"%$ c #30251D",
"%% c #30251E",
"%& c #302616",
"%' c #302619",
"%( c #30261A",
"%) c #302717",
"%* c #30271A",
"%+ c #30271B",
"%, c #30291D",
"%- c #311F18",
"%. c #312017",
"%/ c #312018",
"%0 c #312019",
"%1 c #31201A",
"%2 c #31201C",
"%3 c #312116",
"%4 c #312119",
"%5 c #31211A",
"%6 c #31211B",
"%7 c #31211C",
"%8 c #312216",
"%9 c #312218",
"%: c #312219",
"%; c #31221A",
"%< c #31221C",
"%= c #31221D",
"%> c #312317",
"%? c #312318",
"%@ c #312319",
"%A c #31231A",
"%B c #31231B",
"%C c #31231C",
"%D c #312416",
"%E c #312417",
"%F c #312418",
"%G c #312419",
"%H c #31241A",
"%I c #31241C",
"%J c #312518",
"%K c #312519",
"%L c #31251A",
"%M c #31251B",
"%N c #31251C",
"%O c #31251E",
"%P c #312616",
"%Q c #312619",
"%R c #31261A",
"%S c #31261C",
"%T c #31271A",
"%U c #31271B",
"%V c #31281A",
"%W c #31281D",
"%X c #312919",
"%Y c #31291D",
"%Z c #312A1E",
"%[ c #322018",
"%] c #32201A",
"%^ c #322117",
"%_ c #322118",
"%` c #322119",
"%a c #32211A",
"%b c #32211B",
"%c c #32211E",
"%d c #322217",
"%e c #322219",
"%f c #32221A",
"%g c #32221B",
"%h c #32221C",
"%i c #322316",
"%j c #322318",
"%k c #322319",
"%l c #32231A",
"%m c #32231B",
"%n c #32231C",
"%o c #322417",
"%p c #322418",
"%q c #322419",
"%r c #32241A",
"%s c #32241B",
"%t c #32241C",
"%u c #322420",
"%v c #322518",
"%w c #322519",
"%x c #32251A",
"%y c #32251B",
"%z c #32251D",
"%{ c #322618",
"%| c #322619",
"%} c #32261A",
"%~ c #32261B",
"&! c #32261C",
"&# c #32261E",
"&$ c #322621",
"&% c #322718",
"&& c #322719",
"&' c #32271A",
"&( c #32271D",
"&) c #322817",
"&* c #322818",
"&+ c #32281C",
"&, c #322918",
"&- c #32291D",
"&. c #322A1B",
"&/ c #322A1C",
"&0 c #322A1F",
"&1 c #322B19",
"&2 c #322B1C",
"&3 c #332018",
"&4 c #332119",
"&5 c #33211A",
"&6 c #33211B",
"&7 c #33211C",
"&8 c #332217",
"&9 c #332218",
"&: c #33221A",
"&; c #33221B",
"&< c #33221C",
"&= c #33221D",
"&> c #332316",
"&? c #332318",
"&@ c #332319",
"&A c #33231B",
"&B c #33231C",
"&C c #332417",
"&D c #332418",
"&E c #332419",
"&F c #33241A",
"&G c #33241B",
"&H c #33241C",
"&I c #33241D",
"&J c #332518",
"&K c #332519",
"&L c #33251A",
"&M c #33251B",
"&N c #33251C",
"&O c #33251D",
"&P c #332618",
"&Q c #332619",
"&R c #33261A",
"&S c #33261B",
"&T c #33261D",
"&U c #33261E",
"&V c #332718",
"&W c #332719",
"&X c #33271A",
"&Y c #33271B",
"&Z c #33271D",
"&[ c #332819",
"&] c #33281A",
"&^ c #33281B",
"&_ c #33281C",
"&` c #332919",
"&a c #33291A",
"&b c #33291D",
"&c c #332A1B",
"&d c #332A1E",
"&e c #332A20",
"&f c #332B1E",
"&g c #332C1C",
"&h c #332C1E",
"&i c #332D1D",
"&j c #342019",
"&k c #342119",
"&l c #34211A",
"&m c #34211D",
"&n c #342218",
"&o c #342219",
"&p c #34221A",
"&q c #34221B",
"&r c #34221C",
"&s c #342318",
"&t c #34231A",
"&u c #34231B",
"&v c #34231C",
"&w c #34241A",
"&x c #34241B",
"&y c #34241C",
"&z c #34241F",
"&{ c #342519",
"&| c #34251A",
"&} c #34251D",
"&~ c #34251E",
"'! c #342619",
"'# c #34261A",
"'$ c #34261B",
"'% c #34261C",
"'& c #34261D",
"'' c #34261E",
"'( c #342718",
"') c #342719",
"'* c #34271A",
"'+ c #34271B",
"', c #34271C",
"'- c #34271D",
"'. c #34271E",
"'/ c #34271F",
"'0 c #342720",
"'1 c #342819",
"'2 c #34281B",
"'3 c #34281C",
"'4 c #34281D",
"'5 c #34281F",
"'6 c #342919",
"'7 c #34291A",
"'8 c #34291B",
"'9 c #34291C",
"': c #34291D",
"'; c #34291E",
"'< c #342A19",
"'= c #342A1A",
"'> c #342A1B",
"'? c #342A1F",
"'@ c #342A22",
"'A c #342B1A",
"'B c #342C1B",
"'C c #342C1C",
"'D c #342C1F",
"'E c #352017",
"'F c #35211A",
"'G c #35211B",
"'H c #352219",
"'I c #35221A",
"'J c #35221B",
"'K c #35221C",
"'L c #352319",
"'M c #35231A",
"'N c #35231B",
"'O c #35231C",
"'P c #352419",
"'Q c #35241A",
"'R c #35241B",
"'S c #35241C",
"'T c #35241E",
"'U c #352519",
"'V c #35251A",
"'W c #35251B",
"'X c #35251C",
"'Y c #35251D",
"'Z c #35251E",
"'[ c #35251F",
"'] c #35261A",
"'^ c #35261B",
"'_ c #35261C",
"'` c #35261D",
"'a c #35261E",
"'b c #35261F",
"'c c #35271A",
"'d c #35271B",
"'e c #35271C",
"'f c #35271D",
"'g c #35271E",
"'h c #35271F",
"'i c #352721",
"'j c #352819",
"'k c #35281A",
"'l c #35281B",
"'m c #35281C",
"'n c #35281D",
"'o c #35281E",
"'p c #35281F",
"'q c #35291A",
"'r c #35291B",
"'s c #35291D",
"'t c #35291E",
"'u c #352A1A",
"'v c #352A1B",
"'w c #352A1C",
"'x c #352A1E",
"'y c #352B1B",
"'z c #352B1E",
"'{ c #352B1F",
"'| c #352B20",
"'} c #352B21",
"'~ c #352C1C",
"(! c #352C20",
"(# c #352D1D",
"($ c #36221A",
"(% c #36221B",
"(& c #36221C",
"(' c #36231B",
"(( c #36231D",
"() c #36241B",
"(* c #36241C",
"(+ c #36241D",
"(, c #36241F",
"(- c #362517",
"(. c #362518",
"(/ c #36251A",
"(0 c #36251B",
"(1 c #36251C",
"(2 c #36251D",
"(3 c #36261B",
"(4 c #36261C",
"(5 c #36261D",
"(6 c #36261E",
"(7 c #36261F",
"(8 c #362620",
"(9 c #36271A",
"(: c #36271B",
"(; c #36271C",
"(< c #36271D",
"(= c #36271E",
"(> c #36271F",
"(? c #362720",
"(@ c #362721",
"(A c #36281B",
"(B c #36281C",
"(C c #36281D",
"(D c #36281E",
"(E c #36281F",
"(F c #362820",
"(G c #36291A",
"(H c #36291B",
"(I c #36291C",
"(J c #36291D",
"(K c #36291E",
"(L c #362921",
"(M c #362A19",
"(N c #362A1B",
"(O c #362A1C",
"(P c #362A1D",
"(Q c #362A1E",
"(R c #362A1F",
"(S c #362B1B",
"(T c #362B1C",
"(U c #362B1E",
"(V c #362B1F",
"(W c #362B20",
"(X c #362C1C",
"(Y c #362C1D",
"(Z c #362C1F",
"([ c #362C20",
"(] c #37221D",
"(^ c #37241C",
"(_ c #37241D",
"(` c #37241E",
"(a c #37251A",
"(b c #37251C",
"(c c #37251D",
"(d c #37251E",
"(e c #37261A",
"(f c #37261B",
"(g c #37261C",
"(h c #37261D",
"(i c #37261E",
"(j c #372719",
"(k c #37271C",
"(l c #37271D",
"(m c #37271F",
"(n c #372720",
"(o c #372818",
"(p c #37281A",
"(q c #37281B",
"(r c #37281C",
"(s c #37281D",
"(t c #372821",
"(u c #37291C",
"(v c #37291D",
"(w c #37291E",
"(x c #372921",
"(y c #372A19",
"(z c #372A1B",
"({ c #372A1C",
"(| c #372A1D",
"(} c #372A1E",
"(~ c #372A1F",
")! c #372A20",
")# c #372A22",
")$ c #372B1B",
")% c #372B1C",
")& c #372B1D",
")' c #372B1F",
")( c #372C1B",
")) c #372C1C",
")* c #372C1D",
")+ c #372C1E",
"), c #372C23",
")- c #372D1C",
"). c #372D1D",
")/ c #37301D",
")0 c #382319",
")1 c #38231D",
")2 c #382320",
")3 c #38241C",
")4 c #38241D",
")5 c #38241E",
")6 c #38251A",
")7 c #38251D",
")8 c #38251E",
")9 c #38251F",
"): c #38261A",
"); c #38261C",
")< c #38261D",
")= c #38261E",
")> c #382621",
")? c #382719",
")@ c #38271A",
")A c #38271B",
")B c #38271C",
")C c #38271D",
")D c #38271E",
")E c #38271F",
")F c #382722",
")G c #38281B",
")H c #38281C",
")I c #38281D",
")J c #38281E",
")K c #38281F",
")L c #38291D",
")M c #38291E",
")N c #38291F",
")O c #382920",
")P c #382923",
")Q c #382A1B",
")R c #382A1C",
")S c #382A1D",
")T c #382A1E",
")U c #382A20",
")V c #382A22",
")W c #382B19",
")X c #382B1D",
")Y c #382B1E",
")Z c #382B1F",
")[ c #382B20",
")] c #382C1D",
")^ c #382C1E",
")_ c #382C1F",
")` c #382C20",
")a c #382D1D",
")b c #382D1E",
")c c #382D22",
")d c #382E1D",
")e c #382E1E",
")f c #382E22",
")g c #382F1C",
")h c #382F1E",
")i c #382F1F",
")j c #382F21",
")k c #392419",
")l c #39241C",
")m c #39241E",
")n c #39241F",
")o c #39251D",
")p c #39261E",
")q c #39261F",
")r c #392620",
")s c #39271C",
")t c #39271D",
")u c #39271E",
")v c #39271F",
")w c #392819",
")x c #39281B",
")y c #39281C",
")z c #39281D",
"){ c #39281E",
")| c #39281F",
")} c #392820",
")~ c #39291C",
"*! c #39291D",
"*# c #39291E",
"*$ c #39291F",
"*% c #392A1B",
"*& c #392A1D",
"*' c #392A1E",
"*( c #392A1F",
"*) c #392A20",
"** c #392A21",
"*+ c #392B1C",
"*, c #392B1D",
"*- c #392B1E",
"*. c #392B1F",
"*/ c #392B20",
"*0 c #392B21",
"*1 c #392B22",
"*2 c #392B23",
"*3 c #392C1C",
"*4 c #392C1D",
"*5 c #392C1E",
"*6 c #392C1F",
"*7 c #392C20",
"*8 c #392C21",
"*9 c #392C22",
"*: c #392C23",
"*; c #392D1C",
"*< c #392D1D",
"*= c #392D1E",
"*> c #392D1F",
"*? c #392D20",
"*@ c #392D21",
"*A c #392E1E",
"*B c #392E1F",
"*C c #392E20",
"*D c #392F1D",
"*E c #392F1F",
"*F c #393020",
"*G c #39321E",
"*H c #3A241A",
"*I c #3A251D",
"*J c #3A251F",
"*K c #3A261E",
"*L c #3A271C",
"*M c #3A271F",
"*N c #3A2720",
"*O c #3A2819",
"*P c #3A281B",
"*Q c #3A281D",
"*R c #3A281E",
"*S c #3A281F",
"*T c #3A2820",
"*U c #3A291C",
"*V c #3A291D",
"*W c #3A291E",
"*X c #3A291F",
"*Y c #3A2920",
"*Z c #3A2921",
"*[ c #3A2924",
"*] c #3A2A1C",
"*^ c #3A2A1E",
"*_ c #3A2A1F",
"*` c #3A2A20",
"*a c #3A2A22",
"*b c #3A2B1C",
"*c c #3A2B1D",
"*d c #3A2B1F",
"*e c #3A2B20",
"*f c #3A2B21",
"*g c #3A2B23",
"*h c #3A2C1C",
"*i c #3A2C1D",
"*j c #3A2C1E",
"*k c #3A2C1F",
"*l c #3A2C20",
"*m c #3A2C21",
"*n c #3A2D1C",
"*o c #3A2D1D",
"*p c #3A2D1E",
"*q c #3A2D1F",
"*r c #3A2D20",
"*s c #3A2D21",
"*t c #3A2D22",
"*u c #3A2E1D",
"*v c #3A2E1E",
"*w c #3A2E1F",
"*x c #3A2E20",
"*y c #3A2E21",
"*z c #3A301F",
"*{ c #3A3121",
"*| c #3A3320",
"*} c #3B241D",
"*~ c #3B2620",
"+! c #3B271F",
"+# c #3B2720",
"+$ c #3B281B",
"+% c #3B281D",
"+& c #3B281E",
"+' c #3B281F",
"+( c #3B2820",
"+) c #3B291B",
"+* c #3B291C",
"++ c #3B291D",
"+, c #3B291E",
"+- c #3B291F",
"+. c #3B2920",
"+/ c #3B2921",
"+0 c #3B2923",
"+1 c #3B2A1D",
"+2 c #3B2A1E",
"+3 c #3B2A1F",
"+4 c #3B2A20",
"+5 c #3B2A21",
"+6 c #3B2A23",
"+7 c #3B2B1A",
"+8 c #3B2B1C",
"+9 c #3B2B1F",
"+: c #3B2B20",
"+; c #3B2B21",
"+< c #3B2C1C",
"+= c #3B2C1D",
"+> c #3B2C1E",
"+? c #3B2C1F",
"+@ c #3B2C20",
"+A c #3B2C21",
"+B c #3B2C22",
"+C c #3B2C23",
"+D c #3B2D1C",
"+E c #3B2D1E",
"+F c #3B2D1F",
"+G c #3B2D20",
"+H c #3B2D21",
"+I c #3B2D22",
"+J c #3B2D23",
"+K c #3B2D25",
"+L c #3B2D26",
"+M c #3B2E1B",
"+N c #3B2E1C",
"+O c #3B2E1E",
"+P c #3B2E20",
"+Q c #3B2E22",
"+R c #3B2E24",
"+S c #3B2E26",
"+T c #3B2E27",
"+U c #3B2F1E",
"+V c #3B2F20",
"+W c #3B2F21",
"+X c #3B2F23",
"+Y c #3B3020",
"+Z c #3B3021",
"+[ c #3B3022",
"+] c #3B311D",
"+^ c #3B311E",
"+_ c #3B3120",
"+` c #3B3123",
"+a c #3B3126",
"+b c #3B3220",
"+c c #3B3320",
"+d c #3B3421",
"+e c #3C251D",
"+f c #3C2521",
"+g c #3C271F",
"+h c #3C2722",
"+i c #3C281F",
"+j c #3C2820",
"+k c #3C291D",
"+l c #3C291E",
"+m c #3C291F",
"+n c #3C2920",
"+o c #3C2921",
"+p c #3C2923",
"+q c #3C2A1D",
"+r c #3C2A1E",
"+s c #3C2A1F",
"+t c #3C2A20",
"+u c #3C2A21",
"+v c #3C2B1C",
"+w c #3C2B1D",
"+x c #3C2B1E",
"+y c #3C2B1F",
"+z c #3C2B20",
"+{ c #3C2B21",
"+| c #3C2B23",
"+} c #3C2C1C",
"+~ c #3C2C1D",
",! c #3C2C1E",
",# c #3C2C20",
",$ c #3C2C21",
",% c #3C2C22",
",& c #3C2C23",
",' c #3C2D1D",
",( c #3C2D1E",
",) c #3C2D20",
",* c #3C2D21",
",+ c #3C2D22",
",, c #3C2D23",
",- c #3C2E1D",
",. c #3C2E1F",
",/ c #3C2E21",
",0 c #3C2E22",
",1 c #3C2E23",
",2 c #3C2E24",
",3 c #3C2F1B",
",4 c #3C2F1F",
",5 c #3C2F20",
",6 c #3C2F21",
",7 c #3C2F22",
",8 c #3C2F23",
",9 c #3C301E",
",: c #3C301F",
",; c #3C3020",
",< c #3C3021",
",= c #3C3023",
",> c #3C311F",
",? c #3C3121",
",@ c #3C3122",
",A c #3C3124",
",B c #3C3125",
",C c #3C3220",
",D c #3C3222",
",E c #3C3421",
",F c #3D251E",
",G c #3D261D",
",H c #3D271C",
",I c #3D271E",
",J c #3D291D",
",K c #3D291F",
",L c #3D2920",
",M c #3D2921",
",N c #3D2923",
",O c #3D2A1D",
",P c #3D2A1E",
",Q c #3D2A1F",
",R c #3D2A20",
",S c #3D2A21",
",T c #3D2A22",
",U c #3D2B1C",
",V c #3D2B1D",
",W c #3D2B1E",
",X c #3D2B1F",
",Y c #3D2B20",
",Z c #3D2B22",
",[ c #3D2B23",
",] c #3D2C1D",
",^ c #3D2C1E",
",_ c #3D2C1F",
",` c #3D2C20",
",a c #3D2C21",
",b c #3D2C22",
",c c #3D2C23",
",d c #3D2D1B",
",e c #3D2D1C",
",f c #3D2D1E",
",g c #3D2D1F",
",h c #3D2D20",
",i c #3D2D21",
",j c #3D2D22",
",k c #3D2D23",
",l c #3D2D24",
",m c #3D2E1E",
",n c #3D2E1F",
",o c #3D2E20",
",p c #3D2E22",
",q c #3D2E23",
",r c #3D2E24",
",s c #3D2E28",
",t c #3D2F1F",
",u c #3D2F20",
",v c #3D2F21",
",w c #3D2F22",
",x c #3D2F23",
",y c #3D2F24",
",z c #3D3021",
",{ c #3D3022",
",| c #3D3023",
",} c #3D3024",
",~ c #3D3025",
"-! c #3D3121",
"-# c #3D3122",
"-$ c #3D3123",
"-% c #3D321F",
"-& c #3D3220",
"-' c #3D3221",
"-( c #3D3222",
"-) c #3D3223",
"-* c #3D331D",
"-+ c #3D3423",
"-, c #3D3426",
"-- c #3E281F",
"-. c #3E291D",
"-/ c #3E291F",
"-0 c #3E2921",
"-1 c #3E2A1E",
"-2 c #3E2A21",
"-3 c #3E2A22",
"-4 c #3E2B1E",
"-5 c #3E2B20",
"-6 c #3E2B21",
"-7 c #3E2B22",
"-8 c #3E2B23",
"-9 c #3E2C1D",
"-: c #3E2C1E",
"-; c #3E2C1F",
"-< c #3E2C20",
"-= c #3E2C21",
"-> c #3E2C22",
"-? c #3E2C24",
"-@ c #3E2C25",
"-A c #3E2D1D",
"-B c #3E2D1E",
"-C c #3E2D1F",
"-D c #3E2D20",
"-E c #3E2D21",
"-F c #3E2D22",
"-G c #3E2D23",
"-H c #3E2D24",
"-I c #3E2E1F",
"-J c #3E2E20",
"-K c #3E2E21",
"-L c #3E2E22",
"-M c #3E2E23",
"-N c #3E2E24",
"-O c #3E2F1D",
"-P c #3E2F1F",
"-Q c #3E2F20",
"-R c #3E2F22",
"-S c #3E2F23",
"-T c #3E2F24",
"-U c #3E3021",
"-V c #3E3022",
"-W c #3E3023",
"-X c #3E3024",
"-Y c #3E3026",
"-Z c #3E311C",
"-[ c #3E311E",
"-] c #3E311F",
"-^ c #3E3122",
"-_ c #3E3123",
"-` c #3E3124",
"-a c #3E3125",
"-b c #3E321C",
"-c c #3E321F",
"-d c #3E3220",
"-e c #3E3222",
"-f c #3E3223",
"-g c #3E3224",
"-h c #3E3228",
"-i c #3E3320",
"-j c #3E3322",
"-k c #3E341F",
"-l c #3E3424",
"-m c #3E3426",
"-n c #3E371F",
"-o c #3F2722",
"-p c #3F2820",
"-q c #3F291D",
"-r c #3F291E",
"-s c #3F291F",
"-t c #3F2A1B",
"-u c #3F2A1D",
"-v c #3F2A1E",
"-w c #3F2A21",
"-x c #3F2A22",
"-y c #3F2A24",
"-z c #3F2B1D",
"-{ c #3F2B1E",
"-| c #3F2B22",
"-} c #3F2B23",
"-~ c #3F2B26",
".! c #3F2C1D",
".# c #3F2C1E",
".$ c #3F2C1F",
".% c #3F2C20",
".& c #3F2C21",
".' c #3F2C22",
".( c #3F2D1D",
".) c #3F2D1E",
".* c #3F2D1F",
".+ c #3F2D22",
"., c #3F2D23",
".- c #3F2E1F",
".. c #3F2E20",
"./ c #3F2E21",
".0 c #3F2E22",
".1 c #3F2E23",
".2 c #3F2E24",
".3 c #3F2F1F",
".4 c #3F2F20",
".5 c #3F2F21",
".6 c #3F2F22",
".7 c #3F2F23",
".8 c #3F2F24",
".9 c #3F3020",
".: c #3F3022",
".; c #3F3023",
".< c #3F3024",
".= c #3F3025",
".> c #3F311F",
".? c #3F3122",
".@ c #3F3123",
".A c #3F3124",
".B c #3F3125",
".C c #3F321E",
".D c #3F3223",
".E c #3F3224",
".F c #3F3225",
".G c #3F3323",
".H c #3F3422",
".I c #3F3522",
".J c #3F3525",
".K c #3F3625",
".L c #402721",
".M c #402820",
".N c #402823",
".O c #40291E",
".P c #40291F",
".Q c #402920",
".R c #402A20",
".S c #402A25",
".T c #402B1F",
".U c #402B22",
".V c #402C1F",
".W c #402C20",
".X c #402C21",
".Y c #402C23",
".Z c #402C24",
".[ c #402D1E",
".] c #402D1F",
".^ c #402D20",
"._ c #402D21",
".` c #402D22",
".a c #402D23",
".b c #402D24",
".c c #402D25",
".d c #402D26",
".e c #402E1E",
".f c #402E1F",
".g c #402E20",
".h c #402E21",
".i c #402E22",
".j c #402E23",
".k c #402E24",
".l c #402E26",
".m c #402F1F",
".n c #402F20",
".o c #402F21",
".p c #402F23",
".q c #403020",
".r c #403021",
".s c #403022",
".t c #403023",
".u c #403024",
".v c #403025",
".w c #40311E",
".x c #40311F",
".y c #403120",
".z c #403121",
".{ c #403122",
".| c #403123",
".} c #403124",
".~ c #403125",
"/! c #403128",
"/# c #40321F",
"/$ c #403220",
"/% c #403222",
"/& c #403223",
"/' c #403224",
"/( c #403225",
"/) c #403226",
"/* c #40331F",
"/+ c #403323",
"/, c #403324",
"/- c #403325",
"/. c #403328",
"// c #403421",
"/0 c #403424",
"/1 c #403425",
"/2 c #403426",
"/3 c #403522",
"/4 c #403528",
"/5 c #403625",
"/6 c #403726",
"/7 c #412A1F",
"/8 c #412A20",
"/9 c #412A22",
"/: c #412B1F",
"/; c #412B20",
"/< c #412B23",
"/= c #412C1F",
"/> c #412C20",
"/? c #412C21",
"/@ c #412C23",
"/A c #412D1F",
"/B c #412D20",
"/C c #412D21",
"/D c #412D23",
"/E c #412D25",
"/F c #412E21",
"/G c #412E22",
"/H c #412E23",
"/I c #412E24",
"/J c #412E25",
"/K c #412E26",
"/L c #412F1F",
"/M c #412F20",
"/N c #412F21",
"/O c #412F22",
"/P c #412F23",
"/Q c #412F25",
"/R c #412F26",
"/S c #413020",
"/T c #413021",
"/U c #413022",
"/V c #413025",
"/W c #413026",
"/X c #413027",
"/Y c #41311F",
"/Z c #413121",
"/[ c #413122",
"/] c #413124",
"/^ c #413125",
"/_ c #413126",
"/` c #413220",
"/a c #413222",
"/b c #413223",
"/c c #413224",
"/d c #413227",
"/e c #413228",
"/f c #41331F",
"/g c #413320",
"/h c #413321",
"/i c #413323",
"/j c #413324",
"/k c #413325",
"/l c #413326",
"/m c #413327",
"/n c #413328",
"/o c #413421",
"/p c #413423",
"/q c #413425",
"/r c #413426",
"/s c #41351F",
"/t c #413625",
"/u c #413626",
"/v c #422820",
"/w c #422A21",
"/x c #422B20",
"/y c #422B23",
"/z c #422B26",
"/{ c #422C1F",
"/| c #422C20",
"/} c #422C24",
"/~ c #422D20",
"0! c #422D21",
"0# c #422D25",
"0$ c #422E20",
"0% c #422E21",
"0& c #422E22",
"0' c #422E23",
"0( c #422E26",
"0) c #422F20",
"0* c #422F21",
"0+ c #422F22",
"0, c #422F23",
"0- c #422F24",
"0. c #422F26",
"0/ c #422F27",
"00 c #423022",
"01 c #423023",
"02 c #423024",
"03 c #423025",
"04 c #423028",
"05 c #423121",
"06 c #423122",
"07 c #423123",
"08 c #423220",
"09 c #423222",
"0: c #423223",
"0; c #423224",
"0< c #423226",
"0= c #423322",
"0> c #423324",
"0? c #423325",
"0@ c #423327",
"0A c #423328",
"0B c #423421",
"0C c #423422",
"0D c #423424",
"0E c #423425",
"0F c #423427",
"0G c #423428",
"0H c #423524",
"0I c #423526",
"0J c #423528",
"0K c #423627",
"0L c #423724",
"0M c #423725",
"0N c #423727",
"0O c #423926",
"0P c #423928",
"0Q c #423A27",
"0R c #432822",
"0S c #432B1F",
"0T c #432B23",
"0U c #432B24",
"0V c #432C21",
"0W c #432D1F",
"0X c #432D24",
"0Y c #432D25",
"0Z c #432D26",
"0[ c #432E21",
"0] c #432E22",
"0^ c #432E23",
"0_ c #432E26",
"0` c #432F21",
"0a c #432F22",
"0b c #432F23",
"0c c #432F24",
"0d c #432F26",
"0e c #432F27",
"0f c #432F28",
"0g c #433021",
"0h c #433022",
"0i c #433023",
"0j c #433024",
"0k c #433025",
"0l c #433028",
"0m c #433121",
"0n c #433122",
"0o c #433123",
"0p c #433124",
"0q c #433125",
"0r c #433126",
"0s c #433127",
"0t c #433129",
"0u c #433220",
"0v c #433221",
"0w c #433222",
"0x c #433223",
"0y c #433224",
"0z c #433225",
"0{ c #433227",
"0| c #433321",
"0} c #433322",
"0~ c #433324",
"1! c #433326",
"1# c #433327",
"1$ c #433328",
"1% c #433421",
"1& c #433422",
"1' c #433423",
"1( c #433425",
"1) c #433426",
"1* c #433427",
"1+ c #433428",
"1, c #433429",
"1- c #433520",
"1. c #433524",
"1/ c #433525",
"10 c #433529",
"11 c #43352C",
"12 c #433621",
"13 c #433622",
"14 c #433627",
"15 c #433722",
"16 c #433723",
"17 c #433926",
"18 c #442B23",
"19 c #442C20",
"1: c #442C25",
"1; c #442D24",
"1< c #442D25",
"1= c #442E20",
"1> c #442E22",
"1? c #442E23",
"1@ c #442E27",
"1A c #442F1F",
"1B c #442F20",
"1C c #442F21",
"1D c #442F22",
"1E c #442F23",
"1F c #442F24",
"1G c #442F25",
"1H c #442F27",
"1I c #44301F",
"1J c #443021",
"1K c #443022",
"1L c #443023",
"1M c #443024",
"1N c #443026",
"1O c #443027",
"1P c #44302A",
"1Q c #443122",
"1R c #443123",
"1S c #443124",
"1T c #443125",
"1U c #443126",
"1V c #443222",
"1W c #443223",
"1X c #443225",
"1Y c #443226",
"1Z c #443227",
"1[ c #443228",
"1] c #443229",
"1^ c #443321",
"1_ c #443322",
"1` c #443323",
"1a c #443324",
"1b c #443325",
"1c c #443326",
"1d c #443327",
"1e c #443328",
"1f c #443329",
"1g c #443423",
"1h c #443424",
"1i c #443425",
"1j c #443426",
"1k c #443427",
"1l c #443428",
"1m c #443526",
"1n c #443527",
"1o c #443624",
"1p c #443625",
"1q c #443627",
"1r c #443725",
"1s c #44372B",
"1t c #443829",
"1u c #443B28",
"1v c #452C23",
"1w c #452C24",
"1x c #452C25",
"1y c #452D22",
"1z c #452D24",
"1{ c #452E22",
"1| c #452E25",
"1} c #452F23",
"1~ c #452F24",
"2! c #453021",
"2# c #453023",
"2$ c #453024",
"2% c #453028",
"2& c #453123",
"2' c #453124",
"2( c #453125",
"2) c #453126",
"2* c #453128",
"2+ c #453221",
"2, c #453223",
"2- c #453224",
"2. c #453226",
"2/ c #453227",
"20 c #453320",
"21 c #453323",
"22 c #453324",
"23 c #453325",
"24 c #453326",
"25 c #453327",
"26 c #453422",
"27 c #453423",
"28 c #453424",
"29 c #453425",
"2: c #453426",
"2; c #453428",
"2< c #453429",
"2= c #45342A",
"2> c #453524",
"2? c #453526",
"2@ c #453527",
"2A c #453528",
"2B c #453529",
"2C c #453623",
"2D c #453626",
"2E c #453627",
"2F c #45362A",
"2G c #45362B",
"2H c #453724",
"2I c #453727",
"2J c #45372B",
"2K c #453822",
"2L c #453823",
"2M c #453824",
"2N c #453825",
"2O c #45382A",
"2P c #462D23",
"2Q c #462D24",
"2R c #462E24",
"2S c #462F23",
"2T c #462F24",
"2U c #462F25",
"2V c #462F26",
"2W c #463022",
"2X c #463024",
"2Y c #463025",
"2Z c #463124",
"2[ c #463125",
"2] c #463126",
"2^ c #463220",
"2_ c #463223",
"2` c #463224",
"2a c #463225",
"2b c #463227",
"2c c #463324",
"2d c #463325",
"2e c #463326",
"2f c #463327",
"2g c #463328",
"2h c #463329",
"2i c #463421",
"2j c #463424",
"2k c #463425",
"2l c #463427",
"2m c #463428",
"2n c #463429",
"2o c #463522",
"2p c #463523",
"2q c #463524",
"2r c #463526",
"2s c #463529",
"2t c #46352A",
"2u c #463624",
"2v c #463625",
"2w c #463626",
"2x c #463627",
"2y c #463628",
"2z c #46362A",
"2{ c #463724",
"2| c #463725",
"2} c #463729",
"2~ c #46372B",
"3! c #463826",
"3# c #463828",
"3$ c #463829",
"3% c #463925",
"3& c #463929",
"3' c #46392A",
"3( c #46392B",
"3) c #472E24",
"3* c #472F25",
"3+ c #472F26",
"3, c #472F27",
"3- c #473023",
"3. c #473025",
"3/ c #473026",
"30 c #473122",
"31 c #473124",
"32 c #473125",
"33 c #473127",
"34 c #473222",
"35 c #473225",
"36 c #473226",
"37 c #47322A",
"38 c #473323",
"39 c #473324",
"3: c #473325",
"3; c #473326",
"3< c #473327",
"3= c #473328",
"3> c #473424",
"3? c #473425",
"3@ c #473426",
"3A c #473427",
"3B c #473428",
"3C c #473429",
"3D c #47342B",
"3E c #473522",
"3F c #473523",
"3G c #473524",
"3H c #473525",
"3I c #473526",
"3J c #473527",
"3K c #473624",
"3L c #473625",
"3M c #473626",
"3N c #473627",
"3O c #473628",
"3P c #473629",
"3Q c #47362A",
"3R c #47362C",
"3S c #473728",
"3T c #47372C",
"3U c #473826",
"3V c #473829",
"3W c #47382C",
"3X c #473924",
"3Y c #473925",
"3Z c #473926",
"3[ c #473928",
"3] c #473929",
"3^ c #47392A",
"3_ c #473A27",
"3` c #473A28",
"3a c #473B25",
"3b c #473B2B",
"3c c #482E22",
"3d c #482F24",
"3e c #482F26",
"3f c #483027",
"3g c #483123",
"3h c #483124",
"3i c #483125",
"3j c #483225",
"3k c #483226",
"3l c #483227",
"3m c #483324",
"3n c #483325",
"3o c #483326",
"3p c #483327",
"3q c #483328",
"3r c #483421",
"3s c #483425",
"3t c #483426",
"3u c #483427",
"3v c #483429",
"3w c #483525",
"3x c #483526",
"3y c #483527",
"3z c #483528",
"3{ c #483529",
"3| c #483623",
"3} c #483624",
"3~ c #483626",
"4! c #483627",
"4# c #483629",
"4$ c #48362C",
"4% c #48362D",
"4& c #483720",
"4' c #483724",
"4( c #483725",
"4) c #483727",
"4* c #483729",
"4+ c #483826",
"4, c #483827",
"4- c #483828",
"4. c #48382A",
"4/ c #48382B",
"40 c #483925",
"41 c #483926",
"42 c #483927",
"43 c #48392A",
"44 c #48392E",
"45 c #483A2B",
"46 c #483B28",
"47 c #483B2C",
"48 c #483C2D",
"49 c #492F27",
"4: c #493021",
"4; c #493024",
"4< c #493028",
"4= c #493124",
"4> c #493126",
"4? c #493128",
"4@ c #493129",
"4A c #493226",
"4B c #493228",
"4C c #49322A",
"4D c #493327",
"4E c #493328",
"4F c #493329",
"4G c #493424",
"4H c #493425",
"4I c #493426",
"4J c #493427",
"4K c #493428",
"4L c #493429",
"4M c #49342A",
"4N c #493525",
"4O c #493526",
"4P c #493527",
"4Q c #493528",
"4R c #493529",
"4S c #49352A",
"4T c #493625",
"4U c #493626",
"4V c #493627",
"4W c #49362A",
"4X c #493721",
"4Y c #493727",
"4Z c #493728",
"4[ c #493729",
"4] c #49372B",
"4^ c #49372C",
"4_ c #49372F",
"4` c #493826",
"4a c #493827",
"4b c #493828",
"4c c #493829",
"4d c #49382A",
"4e c #49382D",
"4f c #493925",
"4g c #493927",
"4h c #49392B",
"4i c #49392D",
"4j c #493A27",
"4k c #493A2D",
"4l c #493B2A",
"4m c #493C2B",
"4n c #493D27",
"4o c #493D28",
"4p c #493F2F",
"4q c #49402D",
"4r c #4A3028",
"4s c #4A3225",
"4t c #4A3324",
"4u c #4A3325",
"4v c #4A3425",
"4w c #4A3426",
"4x c #4A3428",
"4y c #4A3523",
"4z c #4A3526",
"4{ c #4A3528",
"4| c #4A3529",
"4} c #4A3628",
"4~ c #4A3629",
"5! c #4A362A",
"5# c #4A362B",
"5$ c #4A3726",
"5% c #4A3728",
"5& c #4A3729",
"5' c #4A372C",
"5( c #4A372D",
"5) c #4A3828",
"5* c #4A3829",
"5+ c #4A382C",
"5, c #4A3926",
"5- c #4A3927",
"5. c #4A3928",
"5/ c #4A3929",
"50 c #4A392A",
"51 c #4A392D",
"52 c #4A3A27",
"53 c #4A3A28",
"54 c #4A3B2C",
"55 c #4A3C2D",
"56 c #4A3D2C",
"57 c #4B312C",
"58 c #4B3229",
"59 c #4B3326",
"5: c #4B3328",
"5; c #4B3427",
"5< c #4B3429",
"5= c #4B3525",
"5> c #4B3527",
"5? c #4B3529",
"5@ c #4B352A",
"5A c #4B352B",
"5B c #4B3623",
"5C c #4B3625",
"5D c #4B3626",
"5E c #4B3627",
"5F c #4B3628",
"5G c #4B362A",
"5H c #4B362E",
"5I c #4B372A",
"5J c #4B372B",
"5K c #4B3824",
"5L c #4B3828",
"5M c #4B3829",
"5N c #4B382A",
"5O c #4B382D",
"5P c #4B3830",
"5Q c #4B3926",
"5R c #4B3927",
"5S c #4B3928",
"5T c #4B3929",
"5U c #4B392A",
"5V c #4B392B",
"5W c #4B392D",
"5X c #4B3A27",
"5Y c #4B3A28",
"5Z c #4B3A2A",
"5[ c #4B3A2B",
"5] c #4B3B26",
"5^ c #4B3B29",
"5_ c #4B3B30",
"5` c #4B3C28",
"5a c #4B3C2A",
"5b c #4B3C2B",
"5c c #4B3D28",
"5d c #4B3D29",
"5e c #4B3D2B",
"5f c #4B3D31",
"5g c #4B3E2E",
"5h c #4C3227",
"5i c #4C322A",
"5j c #4C3326",
"5k c #4C3428",
"5l c #4C3429",
"5m c #4C3523",
"5n c #4C3527",
"5o c #4C352A",
"5p c #4C352B",
"5q c #4C3626",
"5r c #4C3628",
"5s c #4C3629",
"5t c #4C362A",
"5u c #4C362B",
"5v c #4C3728",
"5w c #4C372A",
"5x c #4C3822",
"5y c #4C3829",
"5z c #4C382A",
"5{ c #4C382B",
"5| c #4C382C",
"5} c #4C382F",
"5~ c #4C3927",
"6! c #4C3928",
"6# c #4C392A",
"6$ c #4C392B",
"6% c #4C392C",
"6& c #4C392D",
"6' c #4C392E",
"6( c #4C392F",
"6) c #4C3A27",
"6* c #4C3A2A",
"6+ c #4C3A2B",
"6, c #4C3B28",
"6- c #4C3B29",
"6. c #4C3B30",
"6/ c #4C3C28",
"60 c #4C3C2A",
"61 c #4C3C2B",
"62 c #4C3C2C",
"63 c #4C3D28",
"64 c #4C3D2A",
"65 c #4C3D2B",
"66 c #4C3E29",
"67 c #4C3E2B",
"68 c #4C402F",
"69 c #4D3127",
"6: c #4D3328",
"6; c #4D332B",
"6< c #4D3427",
"6= c #4D3428",
"6> c #4D342C",
"6? c #4D3525",
"6@ c #4D3526",
"6A c #4D3529",
"6B c #4D362A",
"6C c #4D362B",
"6D c #4D362D",
"6E c #4D3724",
"6F c #4D3727",
"6G c #4D3728",
"6H c #4D3729",
"6I c #4D372B",
"6J c #4D372C",
"6K c #4D3825",
"6L c #4D3827",
"6M c #4D3829",
"6N c #4D382A",
"6O c #4D382B",
"6P c #4D3929",
"6Q c #4D392A",
"6R c #4D392B",
"6S c #4D392C",
"6T c #4D3A29",
"6U c #4D3A2B",
"6V c #4D3A2C",
"6W c #4D3A2F",
"6X c #4D3B26",
"6Y c #4D3B2B",
"6Z c #4D3B2C",
"6[ c #4D3B2F",
"6] c #4D3C29",
"6^ c #4D3C2A",
"6_ c #4D3C2B",
"6` c #4D3C2C",
"6a c #4D3D28",
"6b c #4D3D2A",
"6c c #4D3D2C",
"6d c #4D3D2D",
"6e c #4D3D30",
"6f c #4D3E2E",
"6g c #4D402B",
"6h c #4D402C",
"6i c #4E3325",
"6j c #4E3425",
"6k c #4E352A",
"6l c #4E352C",
"6m c #4E3626",
"6n c #4E3627",
"6o c #4E3628",
"6p c #4E3629",
"6q c #4E3728",
"6r c #4E372B",
"6s c #4E3827",
"6t c #4E3829",
"6u c #4E382C",
"6v c #4E3925",
"6w c #4E3926",
"6x c #4E3928",
"6y c #4E392A",
"6z c #4E392B",
"6{ c #4E392D",
"6| c #4E3A27",
"6} c #4E3A2B",
"6~ c #4E3A2C",
"7! c #4E3B26",
"7# c #4E3B27",
"7$ c #4E3B28",
"7% c #4E3B2C",
"7& c #4E3C29",
"7' c #4E3C2A",
"7( c #4E3C2C",
"7) c #4E3C2D",
"7* c #4E3C2F",
"7+ c #4E3C31",
"7, c #4E3D2A",
"7- c #4E3D2B",
"7. c #4E3D2E",
"7/ c #4E3D31",
"70 c #4E3E2B",
"71 c #4E3E2D",
"72 c #4E3F2B",
"73 c #4E3F2C",
"74 c #4E402C",
"75 c #4E442A",
"76 c #4E4430",
"77 c #4F3529",
"78 c #4F3625",
"79 c #4F3627",
"7: c #4F3729",
"7; c #4F372C",
"7< c #4F3825",
"7= c #4F3827",
"7> c #4F3829",
"7? c #4F382D",
"7@ c #4F382E",
"7A c #4F3925",
"7B c #4F3926",
"7C c #4F392A",
"7D c #4F392B",
"7E c #4F392E",
"7F c #4F3A25",
"7G c #4F3A27",
"7H c #4F3A29",
"7I c #4F3A2D",
"7J c #4F3A2E",
"7K c #4F3B27",
"7L c #4F3B2B",
"7M c #4F3B2C",
"7N c #4F3B2D",
"7O c #4F3C29",
"7P c #4F3C2A",
"7Q c #4F3C2C",
"7R c #4F3C2E",
"7S c #4F3D28",
"7T c #4F3D2A",
"7U c #4F3D2D",
"7V c #4F3D2E",
"7W c #4F3E2D",
"7X c #4F3E2E",
"7Y c #4F3F2C",
"7Z c #4F3F30",
"7[ c #4F402B",
"7] c #4F412F",
"7^ c #4F422D",
"7_ c #503326",
"7` c #503629",
"7a c #50362B",
"7b c #50372C",
"7c c #50372E",
"7d c #50372F",
"7e c #503828",
"7f c #50382C",
"7g c #503927",
"7h c #50392A",
"7i c #50392C",
"7j c #50392E",
"7k c #50392F",
"7l c #503A29",
"7m c #503A2B",
"7n c #503A2C",
"7o c #503B28",
"7p c #503B2A",
"7q c #503B2B",
"7r c #503B2C",
"7s c #503B2D",
"7t c #503C2E",
"7u c #503C31",
"7v c #503D2A",
"7w c #503D2C",
"7x c #503D2E",
"7y c #503D2F",
"7z c #503E29",
"7{ c #503E2B",
"7| c #503E2F",
"7} c #503F2C",
"7~ c #503F30",
"8! c #504029",
"8# c #50402A",
"8$ c #50412B",
"8% c #50412E",
"8& c #504131",
"8' c #50432D",
"8( c #513429",
"8) c #51352E",
"8* c #51362D",
"8+ c #513827",
"8, c #51382A",
"8- c #51382D",
"8. c #513927",
"8/ c #51392A",
"80 c #51392F",
"81 c #513A27",
"82 c #513A29",
"83 c #513A2B",
"84 c #513A2C",
"85 c #513A2F",
"86 c #513A30",
"87 c #513B25",
"88 c #513B2B",
"89 c #513B2C",
"8: c #513B2E",
"8; c #513B30",
"8< c #513C32",
"8= c #513D2C",
"8> c #513D2D",
"8? c #513E2D",
"8@ c #513F2A",
"8A c #513F2C",
"8B c #513F2F",
"8C c #51402A",
"8D c #51412F",
"8E c #523628",
"8F c #523728",
"8G c #523828",
"8H c #523829",
"8I c #52382C",
"8J c #523830",
"8K c #52392C",
"8L c #523A2B",
"8M c #523A2D",
"8N c #523B28",
"8O c #523B2F",
"8P c #523B30",
"8Q c #523C2D",
"8R c #523C31",
"8S c #523D29",
"8T c #523D2A",
"8U c #523D2E",
"8V c #523D2F",
"8W c #523E2B",
"8X c #523E2F",
"8Y c #523E30",
"8Z c #523E32",
"8[ c #523F29",
"8] c #523F31",
"8^ c #52412C",
"8_ c #52412D",
"8` c #524134",
"8a c #524136",
"8b c #52432E",
"8c c #52452F",
"8d c #53372B",
"8e c #533829",
"8f c #53382C",
"8g c #53392A",
"8h c #53392C",
"8i c #533A29",
"8j c #533A2E",
"8k c #533A31",
"8l c #533B2A",
"8m c #533B2D",
"8n c #533B2E",
"8o c #533C2A",
"8p c #533C2E",
"8q c #533C2F",
"8r c #533C30",
"8s c #533C32",
"8t c #533D2D",
"8u c #533D2E",
"8v c #533D2F",
"8w c #533D33",
"8x c #533E2A",
"8y c #533E2B",
"8z c #533E2D",
"8{ c #533E2F",
"8| c #533E30",
"8} c #533F2C",
"8~ c #533F33",
"9! c #53402F",
"9# c #53412D",
"9$ c #53412E",
"9% c #53442E",
"9& c #54362A",
"9' c #54392B",
"9( c #54392F",
"9) c #543B2D",
"9* c #543C2B",
"9+ c #543D2A",
"9, c #543D2C",
"9- c #543D2E",
"9. c #543D2F",
"9/ c #543E31",
"90 c #543E32",
"91 c #543F30",
"92 c #54402A",
"93 c #54402F",
"94 c #54412D",
"95 c #544132",
"96 c #544134",
"97 c #54432D",
"98 c #55382C",
"99 c #553830",
"9: c #55392E",
"9; c #553C2A",
"9< c #553C2E",
"9= c #553D2D",
"9> c #553D2E",
"9? c #553D30",
"9@ c #553D31",
"9A c #553E2A",
"9B c #553E2F",
"9C c #553E33",
"9D c #553F31",
"9E c #55402C",
"9F c #55402D",
"9G c #554030",
"9H c #554034",
"9I c #554035",
"9J c #55422F",
"9K c #554334",
"9L c #55452F",
"9M c #56352E",
"9N c #56392C",
"9O c #563930",
"9P c #563A2B",
"9Q c #563B29",
"9R c #563D2E",
"9S c #563D30",
"9T c #563E34",
"9U c #563F2A",
"9V c #563F2D",
"9W c #563F2E",
"9X c #563F2F",
"9Y c #563F30",
"9Z c #56402C",
"9[ c #56402D",
"9] c #56402F",
"9^ c #564131",
"9_ c #564231",
"9` c #564235",
"9a c #56452F",
"9b c #573B2C",
"9c c #573D2B",
"9d c #573E2E",
"9e c #573F2E",
"9f c #57402D",
"9g c #574034",
"9h c #57412C",
"9i c #574132",
"9j c #57422E",
"9k c #574231",
"9l c #574335",
"9m c #574532",
"9n c #583C2D",
"9o c #583E2F",
"9p c #583F2D",
"9q c #583F30",
"9r c #58402F",
"9s c #584030",
"9t c #58412A",
"9u c #58412B",
"9v c #584131",
"9w c #584137",
"9x c #58422E",
"9y c #58422F",
"9z c #584230",
"9{ c #584233",
"9| c #584335",
"9} c #584431",
"9~ c #58462F",
":! c #584631",
":# c #584734",
":$ c #593D2E",
":% c #593D30",
":& c #593F2E",
":' c #59412F",
":( c #594230",
":) c #594231",
":* c #594237",
":+ c #59432D",
":, c #594537",
":- c #594538",
":. c #59462C",
":/ c #59472F",
":0 c #59482E",
":1 c #5A3C31",
":2 c #5A3F2F",
":3 c #5A4031",
":4 c #5A4032",
":5 c #5A4033",
":6 c #5A4331",
":7 c #5A4332",
":8 c #5A4333",
":9 c #5A4432",
":: c #5A482C",
":; c #5B3C2E",
":< c #5B3F30",
":= c #5B4130",
":> c #5B4133",
":? c #5B4232",
":@ c #5B4431",
":A c #5B4432",
":B c #5B462D",
":C c #5B4632",
":D c #5B4636",
":E c #5B4732",
":F c #5B4733",
":G c #5B4739",
":H c #5B4833",
":I c #5C3D2F",
":J c #5C4036",
":K c #5C4133",
":L c #5C4231",
":M c #5C4234",
":N c #5C4336",
":O c #5C4531",
":P c #5C4533",
":Q c #5D3D2D",
":R c #5D4137",
":S c #5D4237",
":T c #5D4335",
":U c #5D4536",
":V c #5D4637",
":W c #5D4835",
":X c #5D4A32",
":Y c #5E3F32",
":Z c #5E3F33",
":[ c #5E412E",
":] c #5E4236",
":^ c #5E4333",
":_ c #5E4434",
":` c #5E4435",
":a c #5E4538",
":b c #5E4A33",
":c c #5E4B2E",
":d c #5E4B34",
":e c #5E4E39",
":f c #5F3C31",
":g c #5F4234",
":h c #5F4335",
":i c #5F4432",
":j c #5F452F",
":k c #5F4536",
":l c #5F4634",
":m c #5F4739",
":n c #5F4836",
":o c #5F493C",
":p c #5F4B31",
":q c #5F4C39",
":r c #5F4E38",
":s c #5F4F38",
":t c #603D32",
":u c #604237",
":v c #604535",
":w c #604736",
":x c #60483A",
":y c #604A36",
":z c #604B32",
":{ c #604B38",
":| c #604E39",
":} c #614531",
":~ c #614532",
";! c #614733",
";# c #614736",
";$ c #61473C",
";% c #614935",
";& c #614C32",
";' c #624433",
";( c #624531",
";) c #624537",
";* c #624636",
";+ c #634C37",
";, c #644131",
";- c #64413A",
";. c #644939",
";/ c #654835",
";0 c #654839",
";1 c #664938",
";2 c #664C35",
";3 c #664D37",
";4 c #66503B",
";5 c #66503C",
";6 c #674C37",
";7 c #674D37",
";8 c #674F38",
";9 c #684B3B",
";: c #685336",
";; c #694D3B",
";< c #694F39",
";= c #6A4A3E",
";> c #6A4D3B",
";? c #6C513B",
";@ c #6C523E",
";A c #6D4B39",
";B c #6D4C3A",
";C c #6D4F3D",
";D c #6E4E38",
";E c #6F593F",
";F c #715041",
";G c #735240",
";H c #765E49",
";I c #7F5A46",
/* pixels */
"*(,67324+.!#$x8~6V)*,'7^1p/f(-0J0j,q0^4J(s)p)I1n'm'#/Y1Q1`2K%4+I'd-I(:#]#z*1*0+W*'-h3(.#&?-F$P8Q5F8i)R0{->+H,p+H,a,p2w*=,Z0~,!07",
"&L%`$A1Z(1!3!5(?/T(#/a#t#d&{:c8p&6+()M9<,L*K$h3p6M-I(^(r,3/c6y(*226V)1'F+o/|$d$x&t%E$f'$&%#c-H*(-X1o3/$E&:3n-2+9%q,^%P$B*B..+^)y",
"(0,P$R%m'W._#>%l1b:v*w#?!%0&9#9E0a3k+G0Y0l.+/O1f3`;<5~))&26Y;86K',(J7z)M-V1b#I/d&A%w*'$Y+V+/(C*N.`7k.7#[)s4~,A*f+/)B-&6z9*6i,$.Y",
"5Q.r*S+-'Q$M2$+x2c1@*q#'4N$x2g3{5q6`0c#:)=33:g#x.));+:*s3m,+3V5O(c(_2l.v3t.Z8J$W4=2c&9+;.49!&{(:5s1A*^,O:$(l.&2$)t-W3@1<7T,/(2%r",
"#/(W-6'#$J$)6A/k2[,<%>(|:I6a4?3K5%01*W&{%L:_:9*>(/.J$b17(h1W-$-m.-1g3J/J1u,p,x+1+W6Z4^$S3C4i-N$z+,5#+s4Q:L%`*(/(6+,u0!&E.j0J+x.3",
"*Y#(!.+G.0'd1I+6's+2#^(q&Q-72>.>!h-v++&`+{,m2q.15L/Z6@&|5y7D%y&u,D./-S#f,84m4?$D)p*%4E(;#B4Y1S*!4l*j*m0%5*9z,G&:1[4v4W(0#l-<3_*E",
"*_(1$t/)4w9B*U)()I5V(l*6('5E3y%k&5.f+c,53u4X#|2C9155%02`.t5N*b('(D3T*D%S$!5V*{,.!j-N*s)X&O$;,b'51R1T(0+(.3;.%,)T!G9l:e3u)l*M1O(D",
"#d$$,`(D%X(54B6q1-,*1Y1H1!+F3?(x-?%x#F/+3[3P'R(9;:0(0-0Y0W.1,b+9(1(g-I$Y*W0b'`-#7C0F/z,0)A1'*$*`(A/h0p(;.$3;1+&>*N*(5J)p5/81+,0e",
"'c$~)^*<)(#F2,3Z+s1x0]4+1w-3(h2}0q&Y$[&10M52+~.y){355{6$/9+u3I3#4I%B't,:)$#Q3D*&566U+K*?7+8&2A)X*e036b/$4P+o0;9/3P+:(_68843x'$,`",
"-B/[%+-f-R%K+M.h5;9M/P1W1L9(1$,p-I.40p)]*=1%:B*>0n*(1R0t828f.T.G7Q-F98'!6x1R,`'n,K-f911!+(6Y1>.32k:l8+.<:G5z9s2!0/.64{)z+u)L%x'R",
"$`$v)Q&*:.1K(:.i3t;>)2!1-07i5k(_$o208b-d*M0v'64Z(w'g&A3;5#7C%f$g(A-+2c)7+4(u$`+:%1#r)f2r)<2z*C&}3x29)p*#7L;='V&j(&9|0A&:&A),$s!o",
"&d!w%(:i:p0g-x(c/,2o+!$H$>+56`4P*e'J*_7q:}&t#8+/3B2]'N)}2R.t-o.Y+f9K4],&%f(s$L7)*/!1!E4)2'&F0R/R4<4j2f*T*+6^':'k%G6E6O-S/U&7-)'l",
"01(O'c2@9>.n3U0B'i+#:>7l2a*W3l7(311g(Y3#1W7N7!,71j:^.j(c/m7P8O1Q6#-R:q5%'o(n5f2n/1&F!p2b649-6>3v7{8=8|0#(K0,.B6~11'M7I;5;*,,%$10",
",#3k-j/G&C!z5,+v2W*a./488M%^'7/R.q9d-^!K(.5y9o'S/s8g3H-T!u(/.g,80[1?*Q/b-U%B8Q)=(z,|07)70`:T8)/O7c/?/H,$*Z'R0w1_3o&/(m,j;B9i(+)>",
"+u-?1d*q(z#j(t%E3@6m/27'4|3r.[,n5'4,*(**!H6^-u%T&L/S4-+P#{!}'.,(8a,$$A+o,*3S*u*g$t*C5U+($=5r%W)^:t)|*!-X8A)E&{0b/F4h2?&:.f:P2('q",
"3~)<%92)1q/g%j&U)`-*0n,a*p*j:'0[)d(,1W9w.{&8)X&#2e4G0})8,v7y)J2U8>-E'^0_1?82*p,<,6.X/M3W*9&@*)*(8k4;!}.+:X92*4/q%#4,;6&'*|0]1J1D",
"86#=#Q*'8P(;&5%}*.&J%L.r//,5'#.w#=$k0h:3'W#;!_+X*>0v)p)&:0)/%O18(r'B'd$j)o.U,f.@.9%n)U'm1d+y(m&|7/2L)8(71s0N5/*l)p-},//Z->#R(;/C",
"2**g%H7G(0'g/c#s-I'z)*/t4a&{0B.n+,0i*#6C/U/^*l$F'A+*065z-n,J,-.c-.(3#',S1I.%)<+7,E7~)P+u3a:W5!5i044),j+z%B,i.{058}2?*x3t9,4x'88h",
"+(9@0.*W,$._7x0:'d&s1241(O-{#_9_7l79'N&m4M3y1k',#e$2178$.|)B0o9k+:#5$].b8t,w(V!U&u.K.20k239[4k6)+{5[2F+`,a1$-T+L3g4x,o5T9+9=%t9X",
"*b%'32)F(c$k6y3{14)M$X,4/3!P1D$A(j'd*#&$'_&q)L2G3b--*o456a(s4&)I/'/D*Q6;4e$o(30s,Q'R*w47%p'K(S3Z7y3c(h)T:-%a+!(:(I+;2;-G*;'l*')V",
"${#p'Y-f'$'N,i-#:[7O+>%e0m6g7}+!#u$H.t-r1T!S#H*@9G%{'2(U5:0Q$y&9388c7Z#q(B)T*/.F(6'+,g3%.&%e(;,<95.?'I)#4c14+9)'-F4$8y'W)u'%+=4g",
")M!B$@'k/}8L5E)80q:+6X*<').p7m.H3x%C.O:+.,)I#%%($[-q%>(}&g'*$x#o(N0v5&#C)88d/K(P,|,#5;/@-k7Y'j'J+2*F.P&p5-;G1|+#8:3F5$._$O*d+D2L",
"+.4D)D)T.08V:P'93A7V2)8T06)v,_8%)S49+?5G)]-:)Z*`2y'(0g2~$P*q4U-,0,5N3y2*/!'X1)-D0X:65*/F(g9E(!#!-C7N1E5M2(6p0G6T4D'x,=/O6G*-%6+F",
"!A,>6M4@$T-x7Q7@'c4s3}8z.3*x%S*6,q0C.-,V&%'_-4&=-Z.O(1/K).%#1r430x2P0O.v0G#~&G/86%4V9Y$.-b4`+Q.F*X-R5T6u8<(c(h3-1H(w%B)L08-]'q/R",
"%t!m)B,m1K!'*2%~)C'H4D0E)q']0<(c$O$4)!(3*=#($*&](%'L*X'3*Y!R&S*>1K(N,y*r%Z$y1P*X1e4t&B3$1#)[)^1m83%t)U(Q4x*_%z&Z5_2?2Z(}2='`1]/,",
"-J%l#U2[/M(:!h!h#{(l)@(32(,/9/4O!`%o&+2v*4%:$+)e8j'G3E7$)I'*4(!z&Q.h2,$o$]&|/N9Z-='R;&890o&0(z)J:b3W+n%H2I5v/Q%B(>1g8T*X*-%N0~24",
"3u%4!x6c-c1M%k)<(B8;#L($2m3<9]*=#,!?*w1t*.$/!j5P4}6F&:)93p71+9%a&I/j1g)J'R2H8n:;*}1z/^+@,Y1!)K%g1G9j/v(^'s9G(L.]'-6',l4T0-(m)q)c",
"#J-y*O)w(:2i4((D(:)W9q80*N4:.u4g$a(g#F4(/5)%%|#)+U8D99*M-M(A&(953V)z'~8{(['e2r(P3x9},F)L%(5%-937*-2<3X/I&M&b0>3x1*/[/B1N.B&Y$r)Y",
"*#%I!]!H!l.V0z+|#6%8/x9O9S#=#t%M1&*E+A'G/A9J#a!U$O8-)Z7k!L!e&e4[-e$s*A+2.o!_'b1h6}6u5M%b4e9V8w7b.Z.0.&,{03&r+@5`6e.X'N,q:R$Q$C#-",
")~$,$%%;)w)T5B,)3C&M%d%G&~9:'&#}$A3>0H,:);*z4b#i0v*R0--g/G);2E)I)<.r-#,M*%#`7T&|,U)^7r)M.L:h3@0j7S0q0V(5/0/S)@&k6|2D$i!}$p4Q&L4<",
".8&q$o/V5a%e'O*q;!4C-H#-,89R7T!V'?6E3|2t+D+!-B7.3L-@,*6[-`6R,D*N,y5]2M'J%.5c2c'}1L*v4H4*51.%-H547x4~->*~/i:d*()3601m.8'#06*d9./e",
".:%-'W4Z$I.:(G&j(_8!*=$F#~(a&Q0.)%(:$L+Z+d70,x'w)a+I(P'N#s'm&E(*'>0'$0!o*z4u&y/.+G1?)]-w0K.}&5/92..7$}+(345C+G67,R/^*d*d2~1F.n)s",
"&A4r;1$U&!$f6S'R#W*w+m%5(H'v&;2f5%)K0r,c,n9[2|(i(H0=#3!|#+':(d,$278H)=&<.<%n1K*95Y)L$((4004j&w)m7t6/-5(5,q*N,*63.=#Z&+)Z:V:m())G",
",v6I4Z6k(B!c&.*M,X%G/$'|+}4@8@5-*!1P1t3!*:/o3&'p)&+P/b!N)b)z3?8u:],b3^4)+/$Y2c.V,C0?%j$S/*2c24:&;3887C3h4H!_*e6@/G&-%=/&;+;C*`'$",
"..-6.;6L/r!W#g-G*_+m*$-'%!&3.T4?&Z,s+<%c%}6(&,)C&M%A$/-_&p&a(O8R'W1a)I)4%k9I%}(=+/)f1G'n#$%)6&5M-O,Q*)*>%}2A%%*['#&Y+5/]9E'm(<22",
"1(('&X2l44*i$6'M147%/L$e&[!*(j'g#A'*1l+I&f&D#p%Y4p(*$}'u75%t(r%f+O5D53(_,/2`#o*`-^-/%U.~)h&M/]&A7w&9#y!Z/15&&B(+#~.%(r+''v&u.53f",
",r!Q!70d.o(@2k%90u2B,[&5$O!-%9!~&v%2,v5}&^!e!_%m2{6#'c%]1i2l%7)7(f+o0h-=)7$E'l/R0k(B!z(J8I,%+s,f-R7%#8!n(Q1Z2_';&w/K*5-i']!J&E,|",
"0L)L*,!d':.a7|/7&t2$.}4Z,;%v+8;E:s/R,/-A(Q2$&O$u+W8/5e.t.0({2m-F3z'2*S1}:'0$)M&E2'7h6o%;2p:n,d$:/T-#1U+%/^3z4V6=:13C8*,]*h)N!~-U",
"7C4z*l6##s-F7])O%M1y*(6N7~'O3e9e5Z)r,(!~#D*6)-&O*74d4o:440)6+85H8N*^&K-F5^*a$c(B5K908>0U7<:H-S#X&&13/r.1,}!S/n6#:!-T%h*K5m(3!v.]",
"(u+l,_5s6R%B$s-s%**Q$D&P!O6'5d)a!$%~*n6V#(!l!Z7u/6*w,W.;*G(A*c0P7T6n+Y+;)T/%-14R:#0*/L4S161~1V,~6D:U&N.<,23P!k:Q,0*_%D-w#1$N-`5u",
"3M&4()1/8b/X&M(B&R-=1W!F(p$n;%)8!f!Q6f6{%x#=!m,B9{-x#v+h.i!;)M/<2T,|'r&:&_*d+t8,7#+e&D:585((+j-Q;@,l&:!T;77f(N#X!L1E8#*_..#49v:,",
"-L&E'E'R*b3O4z#q+N/C3N5w*.$I3~7R%V$''U'^'3(2)x%e9$1:(X,9)|$I3M+2'z2j4}(T5R(h4Z9u7=&*,@&@+o.B)t+)1c+a+(')5=9p01++0|,e0n*##@!K/>:M",
"9R's/l4F+S%R23:Y)H4L0r776!+43?5M*s)J!q'a)T97*k+j%y5*,n/9/&8G.?2s.(5S9a9H4'.E769<285y-(%<'s6{,r!8595X4Z3j.w&K7e;/8'5o/H6j/A!i(D8Y",
"&^(*)H6q%4!&'<9;/~3i42.4(R2Z39*p$V)5#X,u7O9c'v$9)X/$.}-?(v+E7X/i/_2[(v2&61(B5.&:1c:74,!T$.7*!r#P3o5o'l(;%N$n4T7g*t1U(P/{015t!g.M",
"$?!G*$*d&K!(!M5z+u5v'd)S(:.8+x$J$_+J*e(+)72g(8%G#O!w!_9W(s%/,I,T,a2O&4!U+;5A$y*4'm)71;.^!L%;*$5<:f(l!^![4v(b&),%*52/&K/y9b.k#M$&",
"3t!S+E2n(M%w'a-C6-014!):(B+z89+k'_)B4n7k,^'d015!06'%9^65:k6I93&x*'88:A#A)T2253)M1B#0505*30)*7v;,9U/-+u#S-P;D'd%K8A423G:622-10z8P",
"1n%;)M5o'x$w!j(^$P/_*X'^0&*s.z7j!D%y21;0'+)8%[*M,7,a2Q.s15;')%#T!I:76d+p'75*,h3,*i*P(O1*8C6G%1'1946.#*!F2u96'/#o*b3=/c.f/M!t+R:o",
"7[9`7K/;#n$P28%J!2&k3]7h+$$l'c;(1`$J)0'k726R%d!{%@8B:y-D)8,.3?(F%l%6&H4#1.''+-)T7n8Z'w)73K:C.C2P1g2&&+,R(C&q't1K*_)K%p0a3x5+)q6<",
"2E;I;25j0g+g:~;$%z#=8u:{9m-))8*'9y7:&o$5.x9s/I-s$C-%:z.o*s+b-=9C;#+s'R-~3D-M5W&F.)4h*q$B(k7U0:7a27&D)R:S:J#k5;5?.~/V06)I:r;H)]1X",
"3U2Y7,9g6J&L,i6W+A)+0S&l+:;9870*!C3).e2x4>#m+G1,8l,;1R%?.h.;8H,H0j800i%q0Y+56k2d(3(z(e/%/`,5*<5M,z#b01588u5F0+58)p(|.^%Q*v0i9L.A",
".f)p$^4~'!&z#x+!5|3R)'&F(1467p0`!s!y8x8e.R.S#A4Y1h5h.!*+'=6]:/)C+i:8,(%[!q;F'+6Q)*#o0v/,2N!j+Z.I8_%l(r)q-[:a+u)4%0,b3'+?$x#N*y8?",
"4+-M)E.!#2.c*Y)q1W7E6Q*^9Q$5,o'P'v#w,R6U)a3C,[)_3;3p2S2#3>)C:?)C2Y9x'C#[#w3T$t&h0j*^!'/_)%%k2V,j5g:Z24,t6*:u*K/:5;:%-p5l9f#t*^7_",
"032x01'%&c&#5y.D*50r0w9r9&-;#s,z6r)M/>)M*32:4z#9&F;49A*e%S-a:20>2^*Y+m+3%8!:1i1v3p4,'#$G5M,}()4R.43.7`9T6P*K5v:E5z+3.p9D:w2?!l+t",
",<']4j;A5%&K,*5n){)p/O7;9)3l*'3t,1._*j)G06+[4b!?'V5E9F3p*M-S.v4})&(r+{+Y/p'4.h(s8I5b8();+&1R!a'0/c(y)'6R7)!b.+4A-4,%.l.r,(/H%p5I",
".%#,-Y:@.%#(,?']06*m0-6:4.0)3*)n**+:3U$I&F2x+])~%w5@2-5>2J(|(B'Z*e.4#G!|(S&|$S(E$-8`/M)y/L&M%G8L4~$m(H0d*A/C#h&W099W,%&}+@*N$#'c",
"+,$8)z:`7M4!$7-t2|8q-F$p,6-?8U$s!i#o7H9%*=(l%10?7)*M/8+o)~'h(6!H!Z3S+F#Y!,2q#|$3/m&;*I5z)7!)690T3d+w$|,'*r7-+V8./[7>%H(b4/*M.77d",
"7J!@+q8^:F:)&V'13u9G0D'o*H*J5s:*$B&:9~::'m'y#<$12g,p*_(F&}/E5p(O)p0b2I(o&n&D%&&E)X#V$}5!6r!+-8../B.+2e&E#_*V/49[3@.*)Y4#:K'T7h8]",
"!0+:1=5s+Z(q53%:/b/w7W5v;)#m/}:x:|)i1D)?8?3Y7B#=%F3q62+P.'9N8o746Q-!6?5.:j3~2_%i(J46,k/7)C:O1?,j6s3w782r21%U8[,f3s+~2x.c.~7r+o2%",
"(2'p3'(s(%(v9?.!,)6O.c8K3{0Z!<2c0@:N$`%e#m9m6g&D!X'{-X)s'@1>'#7s+B*'436h3],!+_!=!N*g,o%a225N#K(Z8Q&t(z9V;?.U*d77.^2h#&%3*W4_+0(/",
"36'[!^/_,a)L$E#=0D:=6B('%p,+/>']&x&7+3%p0[$f('#F*#(:%a%b-6*d57$q%-*7(]$;'%.g##$y!6$y!9%H)M)=!Z!o3+3:(')k5S/#,//=+G4U1K#o$Z,N'],Q",
"3Q#:#Y5(5)2,!4#2,&9.-z,x+@0~8E(~&6'D,J6~%L*w&B4q02-B$j0g1t-Q*#*_(06c-`#S%H;;-X%u*4#E#o6p:<)7!l(C,)2E*).d#74I)b)Z'Z3p6w6,.s&},f7|",
"+Q$A#./W.<$K(|!!0h&S/u8W9'!g4f8v.:-.6_1<0y656Z%y/S1C5*665x'k7t,z.V6y4x'#199h,c/[7F.w,q:(8S-l0_-8.507;-..%5(k4-257&*q&i8m6t*.,P6l",
".W%;3C'f(2)8#o!S&T8X%$6v8F2>#s26+&0f(s.k(`:D*n$<!Y0}.m1^*L+l)T)X![+T'd$s29)j)++C':0n1B*K,^2X&S(B3A8s2r3y5q&6&O2a6?/P$8%_7o28#N*'",
"*&8r7)6H&U*(*]*r4%*(0A-)5K-;1M+34++(/B-|5;7?4y!>*T1a7A-!+r2x.{!/)4'K.N1{.Q%s0d.`0&2E9t-f)y22+P'q9n9P/H-.8-&',q4K0I)w-K*8)g2+&L&D"
};
