/* XPM */
static char *metal_grille_01[] = {
/* columns rows colors chars-per-pixel */
"64 64 2343 2",
/* colors */
"!! c #000000",
"!# c #090A14",
"!$ c #1B0D08",
"!% c #1C0F0B",
"!& c #20120C",
"!' c #20120D",
"!( c #20130D",
"!) c #20130F",
"!* c #20170C",
"!+ c #21140C",
"!, c #21160F",
"!- c #22120B",
"!. c #22140D",
"!/ c #22150E",
"!0 c #23140E",
"!1 c #231510",
"!2 c #23160E",
"!3 c #24150D",
"!4 c #24150E",
"!5 c #24170F",
"!6 c #24190E",
"!7 c #25140C",
"!8 c #25140E",
"!9 c #25180E",
"!: c #251810",
"!; c #251911",
"!< c #261510",
"!= c #26160E",
"!> c #26170F",
"!? c #261710",
"!@ c #261711",
"!A c #261713",
"!B c #26190F",
"!C c #27150D",
"!D c #27150F",
"!E c #271611",
"!F c #27170F",
"!G c #271710",
"!H c #271711",
"!I c #27180F",
"!J c #271911",
"!K c #271B10",
"!L c #271B11",
"!M c #281510",
"!N c #28160F",
"!O c #281810",
"!P c #281811",
"!Q c #281812",
"!R c #281814",
"!S c #28190F",
"!T c #281910",
"!U c #281911",
"!V c #281912",
"!W c #281913",
"!X c #281B0F",
"!Y c #281B12",
"!Z c #29160E",
"![ c #291710",
"!] c #291A12",
"!^ c #291B12",
"!_ c #291C11",
"!` c #291E14",
"!a c #2A1711",
"!b c #2A1812",
"!c c #2A1910",
"!d c #2A1911",
"!e c #2A1912",
"!f c #2A1913",
"!g c #2A1A0F",
"!h c #2A1A10",
"!i c #2A1B10",
"!j c #2A1C13",
"!k c #2A1D12",
"!l c #2B160F",
"!m c #2B170E",
"!n c #2B170F",
"!o c #2B1810",
"!p c #2B1811",
"!q c #2B1913",
"!r c #2B1A0F",
"!s c #2B1A10",
"!t c #2B1A11",
"!u c #2B1A12",
"!v c #2B1A14",
"!w c #2B1B10",
"!x c #2B1B11",
"!y c #2B1B12",
"!z c #2B1C11",
"!{ c #2B1D11",
"!| c #2B1E12",
"!} c #2C1610",
"!~ c #2C1711",
"#! c #2C1810",
"## c #2C190F",
"#$ c #2C1910",
"#% c #2C1912",
"#& c #2C1A10",
"#' c #2C1A12",
"#( c #2C1A13",
"#) c #2C1A14",
"#* c #2C1B11",
"#+ c #2C1B12",
"#, c #2C1B13",
"#- c #2C1C11",
"#. c #2C1C13",
"#/ c #2C1D13",
"#0 c #2C1D14",
"#1 c #2C2217",
"#2 c #2D1611",
"#3 c #2D170F",
"#4 c #2D180F",
"#5 c #2D1810",
"#6 c #2D1811",
"#7 c #2D1910",
"#8 c #2D1911",
"#9 c #2D1912",
"#: c #2D1A0F",
"#; c #2D1A11",
"#< c #2D1A12",
"#= c #2D1B10",
"#> c #2D1B12",
"#? c #2D1C0F",
"#@ c #2D1C12",
"#A c #2D1C14",
"#B c #2D1E12",
"#C c #2D1E13",
"#D c #2D1E14",
"#E c #2D1E16",
"#F c #2D1F13",
"#G c #2D1F15",
"#H c #2D2013",
"#I c #2E1910",
"#J c #2E1911",
"#K c #2E1912",
"#L c #2E1A10",
"#M c #2E1A13",
"#N c #2E1A14",
"#O c #2E1B0F",
"#P c #2E1B12",
"#Q c #2E1C12",
"#R c #2E1C13",
"#S c #2E1D12",
"#T c #2E1D13",
"#U c #2E1D15",
"#V c #2E1E13",
"#W c #2E1E14",
"#X c #2E1E15",
"#Y c #2E2012",
"#Z c #2E2113",
"#[ c #2F1811",
"#] c #2F1812",
"#^ c #2F1910",
"#_ c #2F1914",
"#` c #2F1A11",
"#a c #2F1A12",
"#b c #2F1B10",
"#c c #2F1B12",
"#d c #2F1B13",
"#e c #2F1C10",
"#f c #2F1C11",
"#g c #2F1C12",
"#h c #2F1C13",
"#i c #2F1C15",
"#j c #2F1D11",
"#k c #2F1D12",
"#l c #2F1D13",
"#m c #2F1E12",
"#n c #2F1E13",
"#o c #2F1E14",
"#p c #2F1E15",
"#q c #2F1F11",
"#r c #2F1F13",
"#s c #2F1F16",
"#t c #30180E",
"#u c #301812",
"#v c #301911",
"#w c #301A10",
"#x c #301A11",
"#y c #301A12",
"#z c #301A13",
"#{ c #301B12",
"#| c #301B13",
"#} c #301B14",
"#~ c #301C12",
"$! c #301C13",
"$# c #301C14",
"$$ c #301D10",
"$% c #301D11",
"$& c #301D14",
"$' c #301D15",
"$( c #301E11",
"$) c #301E12",
"$* c #301E13",
"$+ c #301E14",
"$, c #301E15",
"$- c #301F12",
"$. c #301F14",
"$/ c #301F17",
"$0 c #302012",
"$1 c #302014",
"$2 c #302015",
"$3 c #302113",
"$4 c #302216",
"$5 c #31170F",
"$6 c #311710",
"$7 c #311811",
"$8 c #311A12",
"$9 c #311A13",
"$: c #311C0F",
"$; c #311C10",
"$< c #311C12",
"$= c #311C13",
"$> c #311D12",
"$? c #311D13",
"$@ c #311D14",
"$A c #311E10",
"$B c #311E13",
"$C c #311E14",
"$D c #311E15",
"$E c #311F14",
"$F c #312013",
"$G c #312015",
"$H c #312115",
"$I c #312116",
"$J c #312118",
"$K c #312214",
"$L c #312315",
"$M c #312415",
"$N c #321A11",
"$O c #321B0F",
"$P c #321B11",
"$Q c #321B13",
"$R c #321B14",
"$S c #321B15",
"$T c #321C10",
"$U c #321C12",
"$V c #321C13",
"$W c #321D11",
"$X c #321D12",
"$Y c #321D13",
"$Z c #321D14",
"$[ c #321E12",
"$] c #321E13",
"$^ c #321E15",
"$_ c #321E16",
"$` c #321F14",
"$a c #321F17",
"$b c #322015",
"$c c #322113",
"$d c #322114",
"$e c #322115",
"$f c #322216",
"$g c #322315",
"$h c #322317",
"$i c #322619",
"$j c #331A13",
"$k c #331B11",
"$l c #331B12",
"$m c #331B13",
"$n c #331B14",
"$o c #331C12",
"$p c #331C13",
"$q c #331C14",
"$r c #331C15",
"$s c #331D12",
"$t c #331D13",
"$u c #331D14",
"$v c #331D15",
"$w c #331D16",
"$x c #331E13",
"$y c #331E16",
"$z c #331F13",
"${ c #331F14",
"$| c #331F15",
"$} c #331F16",
"$~ c #332011",
"%! c #332013",
"%# c #332014",
"%$ c #332015",
"%% c #332017",
"%& c #332114",
"%' c #332117",
"%( c #332214",
"%) c #332216",
"%* c #332315",
"%+ c #332414",
"%, c #332415",
"%- c #341A11",
"%. c #341B15",
"%/ c #341C11",
"%0 c #341C12",
"%1 c #341C14",
"%2 c #341C15",
"%3 c #341D13",
"%4 c #341D16",
"%5 c #341E14",
"%6 c #341E16",
"%7 c #341F12",
"%8 c #341F14",
"%9 c #341F15",
"%: c #341F16",
"%; c #342013",
"%< c #342014",
"%= c #342015",
"%> c #342016",
"%? c #342019",
"%@ c #342114",
"%A c #342116",
"%B c #342214",
"%C c #342215",
"%D c #342216",
"%E c #342217",
"%F c #342218",
"%G c #342315",
"%H c #342417",
"%I c #342418",
"%J c #342516",
"%K c #351A12",
"%L c #351C13",
"%M c #351C15",
"%N c #351D12",
"%O c #351D14",
"%P c #351D15",
"%Q c #351D16",
"%R c #351E11",
"%S c #351E13",
"%T c #351E14",
"%U c #351E15",
"%V c #351E18",
"%W c #351F14",
"%X c #351F15",
"%Y c #351F16",
"%Z c #351F17",
"%[ c #352012",
"%] c #352014",
"%^ c #352015",
"%_ c #352016",
"%` c #352018",
"%a c #352113",
"%b c #352114",
"%c c #352116",
"%d c #352215",
"%e c #352216",
"%f c #352217",
"%g c #352218",
"%h c #352219",
"%i c #352316",
"%j c #352317",
"%k c #352318",
"%l c #352415",
"%m c #352418",
"%n c #352515",
"%o c #352518",
"%p c #361B13",
"%q c #361C14",
"%r c #361D11",
"%s c #361D13",
"%t c #361D15",
"%u c #361E10",
"%v c #361E13",
"%w c #361E15",
"%x c #361E16",
"%y c #361F13",
"%z c #361F14",
"%{ c #361F15",
"%| c #361F18",
"%} c #362014",
"%~ c #362015",
"&! c #362016",
"&# c #362018",
"&$ c #362113",
"&% c #362115",
"&& c #362117",
"&' c #362214",
"&( c #362216",
"&) c #362218",
"&* c #362315",
"&+ c #362317",
"&, c #362414",
"&- c #362418",
"&. c #362419",
"&/ c #362619",
"&0 c #362819",
"&1 c #362A1A",
"&2 c #371B13",
"&3 c #371B15",
"&4 c #371C11",
"&5 c #371D14",
"&6 c #371D16",
"&7 c #371E12",
"&8 c #371E14",
"&9 c #371E15",
"&: c #371E16",
"&; c #371F12",
"&< c #371F14",
"&= c #372013",
"&> c #372014",
"&? c #372015",
"&@ c #372016",
"&A c #372017",
"&B c #372112",
"&C c #372113",
"&D c #372114",
"&E c #372115",
"&F c #372117",
"&G c #372215",
"&H c #372217",
"&I c #372219",
"&J c #37221A",
"&K c #372314",
"&L c #372315",
"&M c #372316",
"&N c #372317",
"&O c #372318",
"&P c #372414",
"&Q c #372416",
"&R c #372417",
"&S c #372418",
"&T c #372419",
"&U c #372514",
"&V c #372517",
"&W c #372519",
"&X c #372615",
"&Y c #372618",
"&Z c #37261B",
"&[ c #37261C",
"&] c #372817",
"&^ c #381D12",
"&_ c #381D15",
"&` c #381E14",
"&a c #381E16",
"&b c #381E18",
"&c c #381F15",
"&d c #381F17",
"&e c #382012",
"&f c #382014",
"&g c #382016",
"&h c #382017",
"&i c #382019",
"&j c #382113",
"&k c #382116",
"&l c #382117",
"&m c #382214",
"&n c #382215",
"&o c #382216",
"&p c #382217",
"&q c #382219",
"&r c #382315",
"&s c #382316",
"&t c #382317",
"&u c #382319",
"&v c #38231A",
"&w c #382413",
"&x c #382415",
"&y c #382418",
"&z c #382419",
"&{ c #38241A",
"&| c #382516",
"&} c #382517",
"&~ c #38251A",
"'! c #382618",
"'# c #382819",
"'$ c #382918",
"'% c #391D14",
"'& c #391E12",
"'' c #391E13",
"'( c #391E15",
"') c #391E16",
"'* c #391F16",
"'+ c #391F17",
"', c #391F18",
"'- c #392015",
"'. c #392113",
"'/ c #392115",
"'0 c #392116",
"'1 c #392117",
"'2 c #392214",
"'3 c #392215",
"'4 c #392216",
"'5 c #392217",
"'6 c #392218",
"'7 c #392219",
"'8 c #392313",
"'9 c #392315",
"': c #392316",
"'; c #392317",
"'< c #392318",
"'= c #392319",
"'> c #392415",
"'? c #392416",
"'@ c #392417",
"'A c #392418",
"'B c #39241A",
"'C c #392517",
"'D c #392518",
"'E c #392616",
"'F c #392617",
"'G c #392619",
"'H c #39261A",
"'I c #392818",
"'J c #392819",
"'K c #39281B",
"'L c #392917",
"'M c #392A1A",
"'N c #3A1D16",
"'O c #3A1E15",
"'P c #3A1E16",
"'Q c #3A1F13",
"'R c #3A1F14",
"'S c #3A1F16",
"'T c #3A2013",
"'U c #3A2014",
"'V c #3A2015",
"'W c #3A2016",
"'X c #3A2113",
"'Y c #3A2115",
"'Z c #3A2116",
"'[ c #3A2117",
"'] c #3A2118",
"'^ c #3A2119",
"'_ c #3A2213",
"'` c #3A2214",
"'a c #3A2215",
"'b c #3A2216",
"'c c #3A2217",
"'d c #3A2218",
"'e c #3A2315",
"'f c #3A2316",
"'g c #3A2317",
"'h c #3A2318",
"'i c #3A2319",
"'j c #3A231A",
"'k c #3A231B",
"'l c #3A2414",
"'m c #3A2417",
"'n c #3A2418",
"'o c #3A241A",
"'p c #3A241C",
"'q c #3A2515",
"'r c #3A2517",
"'s c #3A2518",
"'t c #3A251A",
"'u c #3A2617",
"'v c #3A2618",
"'w c #3A2619",
"'x c #3A261B",
"'y c #3A2718",
"'z c #3A2719",
"'{ c #3A2818",
"'| c #3A281C",
"'} c #3A2918",
"'~ c #3A2919",
"(! c #3A291D",
"(# c #3A2A17",
"($ c #3A2A18",
"(% c #3A2B16",
"(& c #3B1C13",
"(' c #3B1D14",
"(( c #3B1E15",
"() c #3B1F14",
"(* c #3B1F16",
"(+ c #3B1F17",
"(, c #3B2012",
"(- c #3B2014",
"(. c #3B2015",
"(/ c #3B2111",
"(0 c #3B2112",
"(1 c #3B2113",
"(2 c #3B2114",
"(3 c #3B2116",
"(4 c #3B2117",
"(5 c #3B2118",
"(6 c #3B2212",
"(7 c #3B2214",
"(8 c #3B2216",
"(9 c #3B2217",
"(: c #3B2218",
"(; c #3B2315",
"(< c #3B2316",
"(= c #3B2317",
"(> c #3B2318",
"(? c #3B231A",
"(@ c #3B2415",
"(A c #3B2416",
"(B c #3B2417",
"(C c #3B241A",
"(D c #3B241B",
"(E c #3B2515",
"(F c #3B2516",
"(G c #3B2517",
"(H c #3B2518",
"(I c #3B2519",
"(J c #3B251A",
"(K c #3B251B",
"(L c #3B2617",
"(M c #3B2618",
"(N c #3B261A",
"(O c #3B2714",
"(P c #3B2718",
"(Q c #3B2719",
"(R c #3B271C",
"(S c #3B271D",
"(T c #3B2818",
"(U c #3B2915",
"(V c #3B291B",
"(W c #3C1D13",
"(X c #3C1E13",
"(Y c #3C1E14",
"(Z c #3C1F11",
"([ c #3C1F14",
"(] c #3C1F16",
"(^ c #3C2012",
"(_ c #3C2016",
"(` c #3C2017",
"(a c #3C2112",
"(b c #3C2115",
"(c c #3C2116",
"(d c #3C2117",
"(e c #3C2213",
"(f c #3C2214",
"(g c #3C2215",
"(h c #3C2216",
"(i c #3C2217",
"(j c #3C2219",
"(k c #3C221A",
"(l c #3C2313",
"(m c #3C2316",
"(n c #3C2319",
"(o c #3C2417",
"(p c #3C2418",
"(q c #3C2419",
"(r c #3C241A",
"(s c #3C241B",
"(t c #3C241C",
"(u c #3C2516",
"(v c #3C2517",
"(w c #3C2518",
"(x c #3C2519",
"(y c #3C251A",
"(z c #3C251B",
"({ c #3C2615",
"(| c #3C2618",
"(} c #3C2619",
"(~ c #3C261A",
")! c #3C261C",
")# c #3C2717",
")$ c #3C2718",
")% c #3C271A",
")& c #3C271D",
")' c #3C2817",
")( c #3C2918",
")) c #3C291A",
")* c #3C291C",
")+ c #3C2A17",
"), c #3C2D1E",
")- c #3D1F11",
"). c #3D2016",
")/ c #3D2115",
")0 c #3D2116",
")1 c #3D2117",
")2 c #3D2118",
")3 c #3D2211",
")4 c #3D2215",
")5 c #3D2216",
")6 c #3D2217",
")7 c #3D2218",
")8 c #3D2314",
")9 c #3D2315",
"): c #3D2316",
"); c #3D2317",
")< c #3D2318",
")= c #3D2319",
")> c #3D231B",
")? c #3D2415",
")@ c #3D2416",
")A c #3D2417",
")B c #3D241A",
")C c #3D241B",
")D c #3D241C",
")E c #3D2515",
")F c #3D2516",
")G c #3D2517",
")H c #3D2518",
")I c #3D2519",
")J c #3D251B",
")K c #3D251C",
")L c #3D2617",
")M c #3D2618",
")N c #3D2619",
")O c #3D261C",
")P c #3D2715",
")Q c #3D2717",
")R c #3D2718",
")S c #3D271A",
")T c #3D271C",
")U c #3D2815",
")V c #3D2818",
")W c #3D2819",
")X c #3D281C",
")Y c #3D291B",
")Z c #3D2A18",
")[ c #3D2A1A",
")] c #3D2A1B",
")^ c #3D2C1A",
")_ c #3D2C1E",
")` c #3E1E12",
")a c #3E2015",
")b c #3E201A",
")c c #3E2115",
")d c #3E2116",
")e c #3E2117",
")f c #3E2118",
")g c #3E2213",
")h c #3E2214",
")i c #3E2215",
")j c #3E2219",
")k c #3E2316",
")l c #3E2317",
")m c #3E2318",
")n c #3E2319",
")o c #3E231A",
")p c #3E2414",
")q c #3E2417",
")r c #3E2418",
")s c #3E2419",
")t c #3E241A",
")u c #3E2516",
")v c #3E2518",
")w c #3E2519",
")x c #3E2617",
")y c #3E2618",
")z c #3E2619",
"){ c #3E261A",
")| c #3E261B",
")} c #3E261D",
")~ c #3E2715",
"*! c #3E2717",
"*# c #3E2718",
"*$ c #3E2719",
"*% c #3E271A",
"*& c #3E271B",
"*' c #3E2818",
"*( c #3E281A",
"*) c #3E281B",
"** c #3E281C",
"*+ c #3E281D",
"*, c #3E2917",
"*- c #3E291C",
"*. c #3E291D",
"*/ c #3E2A16",
"*0 c #3E2A17",
"*1 c #3E2A18",
"*2 c #3E2A1B",
"*3 c #3E2A1C",
"*4 c #3E2B1D",
"*5 c #3E2C1F",
"*6 c #3F1E14",
"*7 c #3F1E15",
"*8 c #3F1F13",
"*9 c #3F1F15",
"*: c #3F2116",
"*; c #3F2117",
"*< c #3F2118",
"*= c #3F2215",
"*> c #3F2216",
"*? c #3F2217",
"*@ c #3F2219",
"*A c #3F2314",
"*B c #3F2318",
"*C c #3F2319",
"*D c #3F231A",
"*E c #3F2415",
"*F c #3F2416",
"*G c #3F2417",
"*H c #3F241A",
"*I c #3F2514",
"*J c #3F2515",
"*K c #3F2516",
"*L c #3F2517",
"*M c #3F2518",
"*N c #3F2519",
"*O c #3F251A",
"*P c #3F2617",
"*Q c #3F2618",
"*R c #3F2619",
"*S c #3F261A",
"*T c #3F261B",
"*U c #3F261C",
"*V c #3F2719",
"*W c #3F271A",
"*X c #3F2818",
"*Y c #3F2819",
"*Z c #3F281B",
"*[ c #3F2917",
"*] c #3F2919",
"*^ c #3F291A",
"*_ c #3F291B",
"*` c #3F291D",
"*a c #3F2A1A",
"*b c #3F2A20",
"*c c #3F2B1B",
"*d c #3F2C1B",
"*e c #3F2C1C",
"*f c #3F2D1B",
"*g c #402117",
"*h c #402215",
"*i c #402216",
"*j c #402218",
"*k c #402219",
"*l c #402315",
"*m c #402316",
"*n c #402317",
"*o c #402318",
"*p c #402319",
"*q c #402415",
"*r c #402416",
"*s c #402417",
"*t c #402418",
"*u c #40241A",
"*v c #402516",
"*w c #402517",
"*x c #402518",
"*y c #402519",
"*z c #40251A",
"*{ c #402617",
"*| c #402618",
"*} c #402619",
"*~ c #40261A",
"+! c #40261B",
"+# c #402714",
"+$ c #402716",
"+% c #402717",
"+& c #40271B",
"+' c #40271C",
"+( c #402816",
"+) c #402818",
"+* c #40281A",
"++ c #40281B",
"+, c #40281D",
"+- c #402820",
"+. c #402917",
"+/ c #402919",
"+0 c #40291A",
"+1 c #40291B",
"+2 c #40291D",
"+3 c #402A19",
"+4 c #402A1C",
"+5 c #402A1D",
"+6 c #402A1E",
"+7 c #402A20",
"+8 c #402B16",
"+9 c #402B19",
"+: c #402B1D",
"+; c #402C1E",
"+< c #412115",
"+= c #412116",
"+> c #412214",
"+? c #412215",
"+@ c #412216",
"+A c #412313",
"+B c #41231A",
"+C c #41231B",
"+D c #412415",
"+E c #412416",
"+F c #412417",
"+G c #412419",
"+H c #41241A",
"+I c #412516",
"+J c #412517",
"+K c #412518",
"+L c #412519",
"+M c #41251A",
"+N c #412616",
"+O c #412617",
"+P c #412618",
"+Q c #41261A",
"+R c #41261B",
"+S c #412716",
"+T c #412717",
"+U c #412718",
"+V c #41271B",
"+W c #41271D",
"+X c #412817",
"+Y c #412818",
"+Z c #412819",
"+[ c #41281A",
"+] c #41281B",
"+^ c #41281C",
"+_ c #41281E",
"+` c #412918",
"+a c #412919",
"+b c #41291A",
"+c c #41291B",
"+d c #41291D",
"+e c #41291E",
"+f c #412A19",
"+g c #412A1B",
"+h c #412A1E",
"+i c #412B16",
"+j c #412B1A",
"+k c #412C1B",
"+l c #412C1D",
"+m c #412C1F",
"+n c #412D1B",
"+o c #412D1D",
"+p c #41301E",
"+q c #41311C",
"+r c #41321C",
"+s c #422115",
"+t c #422116",
"+u c #42211A",
"+v c #422218",
"+w c #422315",
"+x c #422316",
"+y c #422318",
"+z c #42231A",
"+{ c #42231B",
"+| c #422417",
"+} c #422418",
"+~ c #422419",
",! c #42241A",
",# c #422518",
",$ c #422519",
",% c #422617",
",& c #422618",
",' c #422619",
",( c #42261A",
",) c #42261B",
",* c #422716",
",+ c #422717",
",, c #422719",
",- c #42271A",
",. c #42271B",
",/ c #422817",
",0 c #422818",
",1 c #422819",
",2 c #42281B",
",3 c #422916",
",4 c #422918",
",5 c #422A19",
",6 c #422A1A",
",7 c #422A1D",
",8 c #422A1F",
",9 c #422B1A",
",: c #422B1B",
",; c #422B1C",
",< c #422B1D",
",= c #422B20",
",> c #422C1A",
",? c #422D1D",
",@ c #422E19",
",A c #422E1B",
",B c #43211A",
",C c #432218",
",D c #432317",
",E c #432416",
",F c #432417",
",G c #432516",
",H c #432517",
",I c #432518",
",J c #43251A",
",K c #432617",
",L c #432618",
",M c #432619",
",N c #43261A",
",O c #43261B",
",P c #43261C",
",Q c #432718",
",R c #432719",
",S c #43271A",
",T c #43271B",
",U c #43271C",
",V c #432816",
",W c #432817",
",X c #432818",
",Y c #43281A",
",Z c #43281B",
",[ c #43281C",
",] c #43281D",
",^ c #432917",
",_ c #432919",
",` c #43291A",
",a c #43291B",
",b c #43291C",
",c c #432A18",
",d c #432A1B",
",e c #432A1D",
",f c #432B19",
",g c #432B1A",
",h c #432B1C",
",i c #432B1D",
",j c #432B1E",
",k c #432C18",
",l c #432C1A",
",m c #432C1B",
",n c #432C1C",
",o c #432C1D",
",p c #432C1E",
",q c #432D18",
",r c #432D1A",
",s c #432D1C",
",t c #433021",
",u c #442017",
",v c #442217",
",w c #442218",
",x c #44221B",
",y c #442418",
",z c #44241C",
",{ c #442514",
",| c #44251C",
",} c #442619",
",~ c #44261C",
"-! c #442718",
"-# c #442719",
"-$ c #44271A",
"-% c #44271B",
"-& c #44271C",
"-' c #442817",
"-( c #442818",
"-) c #442819",
"-* c #442919",
"-+ c #44291A",
"-, c #44291B",
"-- c #44291C",
"-. c #442A19",
"-/ c #442A1B",
"-0 c #442A1C",
"-1 c #442A1D",
"-2 c #442A1E",
"-3 c #442B18",
"-4 c #442B1B",
"-5 c #442B1D",
"-6 c #442B1F",
"-7 c #442B20",
"-8 c #442C17",
"-9 c #442C1D",
"-: c #442C1E",
"-; c #442C1F",
"-< c #442D1D",
"-= c #442D1F",
"-> c #442D23",
"-? c #442E1D",
"-@ c #442E1E",
"-A c #44311C",
"-B c #44321D",
"-C c #44321F",
"-D c #452115",
"-E c #452315",
"-F c #452318",
"-G c #452417",
"-H c #452517",
"-I c #452518",
"-J c #45251A",
"-K c #452617",
"-L c #452618",
"-M c #45261A",
"-N c #45261B",
"-O c #452717",
"-P c #452719",
"-Q c #45271A",
"-R c #45271C",
"-S c #452817",
"-T c #452818",
"-U c #452819",
"-V c #45281A",
"-W c #45281B",
"-X c #45281C",
"-Y c #45281D",
"-Z c #45281E",
"-[ c #452916",
"-] c #452919",
"-^ c #45291A",
"-_ c #45291B",
"-` c #45291C",
"-a c #45291D",
"-b c #452A17",
"-c c #452A18",
"-d c #452A1B",
"-e c #452A1C",
"-f c #452A1D",
"-g c #452A1E",
"-h c #452A1F",
"-i c #452B18",
"-j c #452B19",
"-k c #452B1A",
"-l c #452B1B",
"-m c #452B1D",
"-n c #452C1A",
"-o c #452C20",
"-p c #452D1C",
"-q c #452D1D",
"-r c #452D22",
"-s c #452E1E",
"-t c #452F1A",
"-u c #452F1B",
"-v c #452F1D",
"-w c #452F1F",
"-x c #45311E",
"-y c #45311F",
"-z c #462318",
"-{ c #462418",
"-| c #46241A",
"-} c #462519",
"-~ c #462617",
".! c #462618",
".# c #462619",
".$ c #46261B",
".% c #462716",
".& c #462718",
".' c #46271C",
".( c #46271D",
".) c #462818",
".* c #46281C",
".+ c #46281D",
"., c #462918",
".- c #46291A",
".. c #46291B",
"./ c #462A18",
".0 c #462A1A",
".1 c #462A1B",
".2 c #462A1C",
".3 c #462B19",
".4 c #462B1A",
".5 c #462B1B",
".6 c #462B1C",
".7 c #462B1D",
".8 c #462B1E",
".9 c #462B1F",
".: c #462B20",
".; c #462C17",
".< c #462C1A",
".= c #462C1B",
".> c #462C1C",
".? c #462C1D",
".@ c #462D1B",
".A c #462D1C",
".B c #462D1D",
".C c #462D1E",
".D c #462E1B",
".E c #462E1D",
".F c #462E1E",
".G c #462F1B",
".H c #462F1D",
".I c #462F1E",
".J c #463021",
".K c #46311C",
".L c #472116",
".M c #472319",
".N c #472417",
".O c #472518",
".P c #472519",
".Q c #47251A",
".R c #472618",
".S c #472619",
".T c #47261B",
".U c #47261F",
".V c #472715",
".W c #47271A",
".X c #472816",
".Y c #472818",
".Z c #472819",
".[ c #47281A",
".] c #47281B",
".^ c #47281C",
"._ c #47281D",
".` c #47281E",
".a c #472918",
".b c #472919",
".c c #47291A",
".d c #47291B",
".e c #47291D",
".f c #472A19",
".g c #472A1A",
".h c #472A1B",
".i c #472A1C",
".j c #472A1D",
".k c #472A1E",
".l c #472A20",
".m c #472B1A",
".n c #472B1B",
".o c #472B1C",
".p c #472B1D",
".q c #472B1E",
".r c #472B20",
".s c #472C1A",
".t c #472C1B",
".u c #472C1C",
".v c #472C1D",
".w c #472C1F",
".x c #472D1B",
".y c #472D1C",
".z c #472E1B",
".{ c #472E1D",
".| c #472F1D",
".} c #472F1E",
".~ c #47301D",
"/! c #473220",
"/# c #47331E",
"/$ c #47331F",
"/% c #473423",
"/& c #482317",
"/' c #48241A",
"/( c #48261B",
"/) c #482719",
"/* c #48271A",
"/+ c #48271B",
"/, c #482816",
"/- c #482817",
"/. c #48281B",
"// c #48281E",
"/0 c #48291A",
"/1 c #48291B",
"/2 c #48291D",
"/3 c #48291E",
"/4 c #482A1B",
"/5 c #482A1C",
"/6 c #482A1D",
"/7 c #482B1A",
"/8 c #482B1C",
"/9 c #482B1E",
"/: c #482C17",
"/; c #482C1B",
"/< c #482C1C",
"/= c #482C1E",
"/> c #482D1D",
"/? c #482D1E",
"/@ c #482E1D",
"/A c #482F1A",
"/B c #482F1F",
"/C c #482F22",
"/D c #48331B",
"/E c #483320",
"/F c #49231B",
"/G c #49251D",
"/H c #492618",
"/I c #49261B",
"/J c #49261C",
"/K c #492719",
"/L c #49271B",
"/M c #492819",
"/N c #49281A",
"/O c #492821",
"/P c #492917",
"/Q c #49291B",
"/R c #49291C",
"/S c #49291D",
"/T c #492920",
"/U c #492A18",
"/V c #492A19",
"/W c #492A1A",
"/X c #492A1B",
"/Y c #492A1C",
"/Z c #492B19",
"/[ c #492B1A",
"/] c #492B1C",
"/^ c #492B1D",
"/_ c #492B1E",
"/` c #492B22",
"/a c #492C19",
"/b c #492C1A",
"/c c #492C1B",
"/d c #492C1C",
"/e c #492C1D",
"/f c #492D1B",
"/g c #492D1D",
"/h c #492E19",
"/i c #492E1A",
"/j c #492E1D",
"/k c #492E1F",
"/l c #492E20",
"/m c #492F1E",
"/n c #492F1F",
"/o c #492F21",
"/p c #49301B",
"/q c #49301D",
"/r c #49311B",
"/s c #49311D",
"/t c #493120",
"/u c #493122",
"/v c #493223",
"/w c #4A231B",
"/x c #4A2417",
"/y c #4A2418",
"/z c #4A2517",
"/{ c #4A251B",
"/| c #4A2717",
"/} c #4A2819",
"/~ c #4A281F",
"0! c #4A291A",
"0# c #4A291B",
"0$ c #4A291D",
"0% c #4A2A16",
"0& c #4A2A1B",
"0' c #4A2A1C",
"0( c #4A2A1D",
"0) c #4A2A1F",
"0* c #4A2B1A",
"0+ c #4A2B1B",
"0, c #4A2B1C",
"0- c #4A2B1D",
"0. c #4A2B1E",
"0/ c #4A2B1F",
"00 c #4A2C1A",
"01 c #4A2C1B",
"02 c #4A2C1C",
"03 c #4A2C1D",
"04 c #4A2C1F",
"05 c #4A2C20",
"06 c #4A2D1B",
"07 c #4A2D1C",
"08 c #4A2D1E",
"09 c #4A2D1F",
"0: c #4A2D20",
"0; c #4A2E19",
"0< c #4A2E1B",
"0= c #4A2E1D",
"0> c #4A2E1E",
"0? c #4A2F1D",
"0@ c #4A2F1E",
"0A c #4A2F20",
"0B c #4A301E",
"0C c #4A311E",
"0D c #4A311F",
"0E c #4A3121",
"0F c #4A3123",
"0G c #4A321F",
"0H c #4A3220",
"0I c #4A3224",
"0J c #4A331E",
"0K c #4A3321",
"0L c #4A3324",
"0M c #4A3525",
"0N c #4B2317",
"0O c #4B2516",
"0P c #4B251D",
"0Q c #4B2619",
"0R c #4B261B",
"0S c #4B2819",
"0T c #4B281A",
"0U c #4B281B",
"0V c #4B281E",
"0W c #4B2918",
"0X c #4B2919",
"0Y c #4B291B",
"0Z c #4B291D",
"0[ c #4B291E",
"0] c #4B2A1C",
"0^ c #4B2A1D",
"0_ c #4B2B19",
"0` c #4B2B1A",
"0a c #4B2B1D",
"0b c #4B2B1E",
"0c c #4B2B20",
"0d c #4B2C19",
"0e c #4B2C1A",
"0f c #4B2C1B",
"0g c #4B2C1D",
"0h c #4B2C1E",
"0i c #4B2C20",
"0j c #4B2D19",
"0k c #4B2D1A",
"0l c #4B2D1C",
"0m c #4B2D1D",
"0n c #4B2D1E",
"0o c #4B2D22",
"0p c #4B2E1D",
"0q c #4B2E1F",
"0r c #4B2E20",
"0s c #4B2F1D",
"0t c #4B2F1E",
"0u c #4B2F1F",
"0v c #4B3018",
"0w c #4B301D",
"0x c #4B3020",
"0y c #4B3021",
"0z c #4B311C",
"0{ c #4B311E",
"0| c #4B3220",
"0} c #4B341C",
"0~ c #4B341F",
"1! c #4B351E",
"1# c #4B361E",
"1$ c #4C2219",
"1% c #4C2518",
"1& c #4C271C",
"1' c #4C271D",
"1( c #4C291A",
"1) c #4C291C",
"1* c #4C291E",
"1+ c #4C2A1A",
"1, c #4C2A1E",
"1- c #4C2A1F",
"1. c #4C2B18",
"1/ c #4C2B1A",
"10 c #4C2B1B",
"11 c #4C2B1D",
"12 c #4C2B20",
"13 c #4C2C19",
"14 c #4C2C1A",
"15 c #4C2C1B",
"16 c #4C2C1C",
"17 c #4C2C1D",
"18 c #4C2C1E",
"19 c #4C2C1F",
"1: c #4C2D1A",
"1; c #4C2D1D",
"1< c #4C2D1E",
"1= c #4C2E1B",
"1> c #4C2E1E",
"1? c #4C2E1F",
"1@ c #4C2E21",
"1A c #4C2F1B",
"1B c #4C2F1C",
"1C c #4C2F1E",
"1D c #4C311D",
"1E c #4C311F",
"1F c #4C3122",
"1G c #4C321C",
"1H c #4C3221",
"1I c #4C3222",
"1J c #4C3320",
"1K c #4C3321",
"1L c #4C3324",
"1M c #4C341F",
"1N c #4C3421",
"1O c #4D2717",
"1P c #4D2719",
"1Q c #4D2819",
"1R c #4D281B",
"1S c #4D291D",
"1T c #4D2920",
"1U c #4D2A1B",
"1V c #4D2A1D",
"1W c #4D2B18",
"1X c #4D2B19",
"1Y c #4D2B1A",
"1Z c #4D2B1B",
"1[ c #4D2B1C",
"1] c #4D2B1F",
"1^ c #4D2C1B",
"1_ c #4D2C1C",
"1` c #4D2C20",
"1a c #4D2D19",
"1b c #4D2D1A",
"1c c #4D2D1C",
"1d c #4D2D1D",
"1e c #4D2D1E",
"1f c #4D2D1F",
"1g c #4D2D24",
"1h c #4D2E19",
"1i c #4D2E1A",
"1j c #4D2E1B",
"1k c #4D2E1D",
"1l c #4D2E1E",
"1m c #4D2E1F",
"1n c #4D2E20",
"1o c #4D2F1C",
"1p c #4D2F1F",
"1q c #4D301B",
"1r c #4D301F",
"1s c #4D311D",
"1t c #4D321E",
"1u c #4D3220",
"1v c #4D3221",
"1w c #4D3226",
"1x c #4D3320",
"1y c #4D3323",
"1z c #4D3422",
"1{ c #4D3423",
"1| c #4D351F",
"1} c #4E261B",
"1~ c #4E271D",
"2! c #4E2819",
"2# c #4E281A",
"2$ c #4E281D",
"2% c #4E2918",
"2& c #4E291D",
"2' c #4E2A17",
"2( c #4E2A1B",
"2) c #4E2A1C",
"2* c #4E2A1F",
"2+ c #4E2A20",
"2, c #4E2B1A",
"2- c #4E2B1B",
"2. c #4E2B1C",
"2/ c #4E2B1F",
"20 c #4E2C1D",
"21 c #4E2D1B",
"22 c #4E2D1C",
"23 c #4E2D1D",
"24 c #4E2D1E",
"25 c #4E2D20",
"26 c #4E2D21",
"27 c #4E2D22",
"28 c #4E2E23",
"29 c #4E2F1A",
"2: c #4E2F1B",
"2; c #4E2F1D",
"2< c #4E2F21",
"2= c #4E301B",
"2> c #4E301F",
"2? c #4E3020",
"2@ c #4E311E",
"2A c #4E3122",
"2B c #4E321D",
"2C c #4E3221",
"2D c #4E3324",
"2E c #4E3423",
"2F c #4E3524",
"2G c #4E3620",
"2H c #4F2618",
"2I c #4F291B",
"2J c #4F2A1D",
"2K c #4F2A1E",
"2L c #4F2B1D",
"2M c #4F2D1A",
"2N c #4F2D1C",
"2O c #4F2D1E",
"2P c #4F2D1F",
"2Q c #4F2D20",
"2R c #4F2D21",
"2S c #4F2E1C",
"2T c #4F2E1F",
"2U c #4F2F1A",
"2V c #4F2F1D",
"2W c #4F2F1E",
"2X c #4F2F20",
"2Y c #4F2F21",
"2Z c #4F2F22",
"2[ c #4F301C",
"2] c #4F3020",
"2^ c #4F3022",
"2_ c #4F311B",
"2` c #4F311C",
"2a c #4F311D",
"2b c #4F311F",
"2c c #4F3121",
"2d c #4F3222",
"2e c #4F3223",
"2f c #4F331F",
"2g c #4F341F",
"2h c #4F3420",
"2i c #4F3421",
"2j c #4F3425",
"2k c #4F3521",
"2l c #4F3528",
"2m c #4F3826",
"2n c #50291C",
"2o c #502A19",
"2p c #502B1B",
"2q c #502C19",
"2r c #502C1C",
"2s c #502C1E",
"2t c #502C1F",
"2u c #502D1B",
"2v c #502D1D",
"2w c #502D21",
"2x c #502E1D",
"2y c #502E1E",
"2z c #502E21",
"2{ c #502F1B",
"2| c #502F1C",
"2} c #502F1D",
"2~ c #502F1E",
"3! c #502F20",
"3# c #502F21",
"3$ c #50301A",
"3% c #50301D",
"3& c #50301F",
"3' c #503020",
"3( c #503021",
"3) c #50311D",
"3* c #503120",
"3+ c #503121",
"3, c #50321C",
"3- c #503221",
"3. c #503224",
"3/ c #50331D",
"30 c #503320",
"31 c #503321",
"32 c #503420",
"33 c #50351F",
"34 c #503520",
"35 c #503523",
"36 c #503527",
"37 c #503722",
"38 c #503725",
"39 c #51261C",
"3: c #512A1B",
"3; c #512C1B",
"3< c #512C1D",
"3= c #512C1E",
"3> c #512D20",
"3? c #512E1A",
"3@ c #512E1B",
"3A c #512F1D",
"3B c #512F1E",
"3C c #512F20",
"3D c #512F22",
"3E c #51301C",
"3F c #51301E",
"3G c #51301F",
"3H c #513020",
"3I c #513023",
"3J c #513025",
"3K c #513121",
"3L c #513220",
"3M c #513222",
"3N c #513321",
"3O c #513326",
"3P c #513420",
"3Q c #513421",
"3R c #513423",
"3S c #513426",
"3T c #51361F",
"3U c #513621",
"3V c #513622",
"3W c #513820",
"3X c #52281C",
"3Y c #522919",
"3Z c #52291B",
"3[ c #522A1E",
"3] c #522B1C",
"3^ c #522C1B",
"3_ c #522C1C",
"3` c #522C1E",
"3a c #522D1B",
"3b c #522D1E",
"3c c #522D1F",
"3d c #522E1D",
"3e c #522E20",
"3f c #522F1D",
"3g c #522F22",
"3h c #522F24",
"3i c #52301F",
"3j c #523020",
"3k c #523022",
"3l c #52311C",
"3m c #52311F",
"3n c #523122",
"3o c #52321B",
"3p c #52321E",
"3q c #52321F",
"3r c #523221",
"3s c #523322",
"3t c #523324",
"3u c #523327",
"3v c #523420",
"3w c #523421",
"3x c #523424",
"3y c #523427",
"3z c #52351F",
"3{ c #523520",
"3| c #523621",
"3} c #523720",
"3~ c #532919",
"4! c #53291C",
"4# c #532A1F",
"4$ c #532B1E",
"4% c #532C1E",
"4& c #532D1A",
"4' c #532D1D",
"4( c #532D1E",
"4) c #532E1C",
"4* c #532F1C",
"4+ c #532F20",
"4, c #533019",
"4- c #53301C",
"4. c #53301E",
"4/ c #533020",
"40 c #53311C",
"41 c #53311F",
"42 c #533121",
"43 c #533122",
"44 c #53321D",
"45 c #533220",
"46 c #533222",
"47 c #53331E",
"48 c #533320",
"49 c #533323",
"4: c #53341E",
"4; c #53341F",
"4< c #533425",
"4= c #533520",
"4> c #533525",
"4? c #533724",
"4@ c #533823",
"4A c #533A23",
"4B c #54281F",
"4C c #542B1B",
"4D c #542C1D",
"4E c #542D1D",
"4F c #542D1F",
"4G c #542E1A",
"4H c #542E1E",
"4I c #542F1C",
"4J c #542F1D",
"4K c #542F1E",
"4L c #542F21",
"4M c #542F24",
"4N c #54301E",
"4O c #543020",
"4P c #543021",
"4Q c #54311F",
"4R c #543120",
"4S c #543123",
"4T c #543221",
"4U c #543224",
"4V c #54331D",
"4W c #54331F",
"4X c #543320",
"4Y c #543321",
"4Z c #543322",
"4[ c #543423",
"4] c #543425",
"4^ c #543519",
"4_ c #543525",
"4` c #543526",
"4a c #543622",
"4b c #543623",
"4c c #543826",
"4d c #543921",
"4e c #543A2B",
"4f c #543B23",
"4g c #552B1C",
"4h c #552B1D",
"4i c #552C1E",
"4j c #552D1C",
"4k c #552E1D",
"4l c #552E1E",
"4m c #552F21",
"4n c #553020",
"4o c #553023",
"4p c #55311F",
"4q c #553120",
"4r c #553123",
"4s c #553124",
"4t c #55321E",
"4u c #553220",
"4v c #553222",
"4w c #553320",
"4x c #553322",
"4y c #553323",
"4z c #553325",
"4{ c #55341F",
"4| c #553420",
"4} c #553422",
"4~ c #553425",
"5! c #553426",
"5# c #55351F",
"5$ c #553521",
"5% c #553522",
"5& c #553523",
"5' c #55361F",
"5( c #553724",
"5) c #562D1C",
"5* c #562D20",
"5+ c #562E1C",
"5, c #562E22",
"5- c #562F23",
"5. c #56301E",
"5/ c #563020",
"50 c #563023",
"51 c #56311E",
"52 c #563120",
"53 c #563122",
"54 c #563220",
"55 c #563223",
"56 c #56331F",
"57 c #563320",
"58 c #563321",
"59 c #563322",
"5: c #563423",
"5; c #56351B",
"5< c #563522",
"5= c #563523",
"5> c #563623",
"5? c #563624",
"5@ c #56371B",
"5A c #563722",
"5B c #563822",
"5C c #563824",
"5D c #563922",
"5E c #572A1D",
"5F c #572D1D",
"5G c #572D1F",
"5H c #572D21",
"5I c #572E20",
"5J c #572F1E",
"5K c #572F20",
"5L c #57301B",
"5M c #57301E",
"5N c #573021",
"5O c #57311D",
"5P c #573120",
"5Q c #573121",
"5R c #57321D",
"5S c #57321E",
"5T c #573222",
"5U c #573321",
"5V c #573328",
"5W c #57341F",
"5X c #573421",
"5Y c #573422",
"5Z c #573423",
"5[ c #57351E",
"5] c #573623",
"5^ c #573625",
"5_ c #573626",
"5` c #573924",
"5a c #573925",
"5b c #582D1D",
"5c c #582D1E",
"5d c #582D21",
"5e c #582E1E",
"5f c #582E21",
"5g c #582F1D",
"5h c #583022",
"5i c #583023",
"5j c #58311E",
"5k c #58331E",
"5l c #583323",
"5m c #58341E",
"5n c #583420",
"5o c #583421",
"5p c #583423",
"5q c #583425",
"5r c #58351E",
"5s c #583521",
"5t c #583522",
"5u c #583523",
"5v c #583623",
"5w c #583624",
"5x c #583627",
"5y c #583721",
"5z c #583723",
"5{ c #583726",
"5| c #583820",
"5} c #583925",
"5~ c #583B28",
"6! c #58412A",
"6# c #592F1F",
"6$ c #592F22",
"6% c #59301F",
"6& c #593020",
"6' c #59311F",
"6( c #59321D",
"6) c #593225",
"6* c #593226",
"6+ c #59331E",
"6, c #593323",
"6- c #593324",
"6. c #593326",
"6/ c #59341E",
"60 c #593420",
"61 c #593422",
"62 c #593423",
"63 c #593523",
"64 c #593524",
"65 c #593527",
"66 c #59361F",
"67 c #593620",
"68 c #593624",
"69 c #593722",
"6: c #593825",
"6; c #593826",
"6< c #59391F",
"6= c #593925",
"6> c #593A25",
"6? c #593C25",
"6@ c #5A2C20",
"6A c #5A2F20",
"6B c #5A2F22",
"6C c #5A301E",
"6D c #5A311E",
"6E c #5A311F",
"6F c #5A3222",
"6G c #5A3223",
"6H c #5A331B",
"6I c #5A3320",
"6J c #5A3323",
"6K c #5A341C",
"6L c #5A3425",
"6M c #5A3429",
"6N c #5A3522",
"6O c #5A3528",
"6P c #5A3620",
"6Q c #5A3622",
"6R c #5A3623",
"6S c #5A3720",
"6T c #5A3726",
"6U c #5A381F",
"6V c #5A3826",
"6W c #5A3922",
"6X c #5A392B",
"6Y c #5A3A22",
"6Z c #5A3A25",
"6[ c #5A3C22",
"6] c #5A3D27",
"6^ c #5A3F24",
"6_ c #5A3F2B",
"6` c #5B2B1F",
"6a c #5B2E1D",
"6b c #5B2F1F",
"6c c #5B3020",
"6d c #5B3122",
"6e c #5B321F",
"6f c #5B3226",
"6g c #5B3420",
"6h c #5B3424",
"6i c #5B351F",
"6j c #5B3521",
"6k c #5B3522",
"6l c #5B3523",
"6m c #5B3524",
"6n c #5B3621",
"6o c #5B3723",
"6p c #5B3724",
"6q c #5B3821",
"6r c #5B3921",
"6s c #5B3924",
"6t c #5B3A2D",
"6u c #5B3B23",
"6v c #5B3E24",
"6w c #5C2E1F",
"6x c #5C2F1C",
"6y c #5C311F",
"6z c #5C3221",
"6{ c #5C331D",
"6| c #5C331E",
"6} c #5C3520",
"6~ c #5C3521",
"7! c #5C3524",
"7# c #5C3526",
"7$ c #5C361F",
"7% c #5C3623",
"7& c #5C3625",
"7' c #5C3722",
"7( c #5C3723",
"7) c #5C3924",
"7* c #5C3926",
"7+ c #5C3D27",
"7, c #5C3D29",
"7- c #5C3E23",
"7. c #5D2F1C",
"7/ c #5D2F1D",
"70 c #5D3020",
"71 c #5D3021",
"72 c #5D3226",
"73 c #5D3228",
"74 c #5D331C",
"75 c #5D3420",
"76 c #5D3423",
"77 c #5D342B",
"78 c #5D351F",
"79 c #5D3520",
"7: c #5D3523",
"7; c #5D3526",
"7< c #5D3620",
"7= c #5D3621",
"7> c #5D3622",
"7? c #5D3722",
"7@ c #5D381B",
"7A c #5D3820",
"7B c #5D3821",
"7C c #5D3926",
"7D c #5D3A24",
"7E c #5D3A26",
"7F c #5D3B25",
"7G c #5D3C27",
"7H c #5D3D27",
"7I c #5D3E25",
"7J c #5D3E27",
"7K c #5D402B",
"7L c #5E3120",
"7M c #5E331F",
"7N c #5E3320",
"7O c #5E341C",
"7P c #5E3421",
"7Q c #5E3423",
"7R c #5E3521",
"7S c #5E3522",
"7T c #5E3523",
"7U c #5E3622",
"7V c #5E362A",
"7W c #5E371E",
"7X c #5E3721",
"7Y c #5E3725",
"7Z c #5E3726",
"7[ c #5E3825",
"7] c #5E3923",
"7^ c #5E3929",
"7_ c #5E3A27",
"7` c #5E3C20",
"7a c #5E3C28",
"7b c #5E3C2E",
"7c c #5E3D29",
"7d c #5E442E",
"7e c #5F3021",
"7f c #5F3321",
"7g c #5F3322",
"7h c #5F3323",
"7i c #5F3324",
"7j c #5F341F",
"7k c #5F3421",
"7l c #5F3424",
"7m c #5F3524",
"7n c #5F3525",
"7o c #5F3526",
"7p c #5F3527",
"7q c #5F361F",
"7r c #5F3825",
"7s c #5F3828",
"7t c #5F3922",
"7u c #5F3926",
"7v c #5F3B26",
"7w c #5F3C24",
"7x c #5F3C26",
"7y c #5F3C27",
"7z c #5F3C2C",
"7{ c #5F3E2A",
"7| c #5F3F23",
"7} c #5F4127",
"7~ c #603122",
"8! c #603220",
"8# c #603423",
"8$ c #603521",
"8% c #603525",
"8& c #603620",
"8' c #603623",
"8( c #603626",
"8) c #60371B",
"8* c #603722",
"8+ c #603824",
"8, c #603922",
"8- c #603928",
"8. c #603A21",
"8/ c #603A28",
"80 c #603B23",
"81 c #603C25",
"82 c #603D27",
"83 c #603D2C",
"84 c #603E25",
"85 c #603F28",
"86 c #604025",
"87 c #60422B",
"88 c #60462D",
"89 c #613322",
"8: c #613423",
"8; c #613425",
"8< c #613524",
"8= c #613621",
"8> c #613624",
"8? c #613724",
"8@ c #613A24",
"8A c #613A28",
"8B c #613D27",
"8C c #613D29",
"8D c #614224",
"8E c #614230",
"8F c #61442C",
"8G c #62321F",
"8H c #623228",
"8I c #623320",
"8J c #623523",
"8K c #623524",
"8L c #623623",
"8M c #623624",
"8N c #623626",
"8O c #62371D",
"8P c #623721",
"8Q c #623828",
"8R c #623924",
"8S c #623A21",
"8T c #623A25",
"8U c #623B25",
"8V c #623B26",
"8W c #623C24",
"8X c #623C28",
"8Y c #623D24",
"8Z c #623D28",
"8[ c #623E28",
"8] c #623E2A",
"8^ c #62452C",
"8_ c #633323",
"8` c #633823",
"8a c #633929",
"8b c #63392B",
"8c c #633A26",
"8d c #633A27",
"8e c #633A28",
"8f c #633A2B",
"8g c #633C26",
"8h c #633C27",
"8i c #633D27",
"8j c #633E25",
"8k c #633E27",
"8l c #633F2B",
"8m c #634124",
"8n c #63412C",
"8o c #63412D",
"8p c #634429",
"8q c #643420",
"8r c #643422",
"8s c #643623",
"8t c #643723",
"8u c #64372A",
"8v c #643B23",
"8w c #643C23",
"8x c #643C29",
"8y c #643D29",
"8z c #643E2A",
"8{ c #643E2C",
"8| c #643F27",
"8} c #64412D",
"8~ c #64422C",
"9! c #653524",
"9# c #653627",
"9$ c #65371F",
"9% c #653725",
"9& c #653822",
"9' c #653826",
"9( c #653924",
"9) c #653A29",
"9* c #653B26",
"9+ c #653B28",
"9, c #653C25",
"9- c #653C26",
"9. c #653E29",
"9/ c #65402B",
"90 c #663926",
"91 c #663B21",
"92 c #663B25",
"93 c #663B28",
"94 c #663E2B",
"95 c #663F28",
"96 c #663F2B",
"97 c #664222",
"98 c #673420",
"99 c #673624",
"9: c #673720",
"9; c #673826",
"9< c #673A23",
"9= c #673B27",
"9> c #673C28",
"9? c #673C2B",
"9@ c #673D28",
"9A c #673E23",
"9B c #673E26",
"9C c #673E2B",
"9D c #673F2D",
"9E c #674128",
"9F c #674226",
"9G c #67422E",
"9H c #683B24",
"9I c #683C24",
"9J c #683C26",
"9K c #683D2B",
"9L c #683E2C",
"9M c #683F25",
"9N c #68402D",
"9O c #684127",
"9P c #68412A",
"9Q c #68412C",
"9R c #68422A",
"9S c #68432B",
"9T c #68492E",
"9U c #684A2B",
"9V c #693924",
"9W c #693B20",
"9X c #693E27",
"9Y c #694026",
"9Z c #69432A",
"9[ c #69432D",
"9] c #6A3629",
"9^ c #6A3823",
"9_ c #6A3925",
"9` c #6A3A26",
"9a c #6A3B24",
"9b c #6A3D2A",
"9c c #6A3D2B",
"9d c #6A3E25",
"9e c #6A4129",
"9f c #6A4130",
"9g c #6A4230",
"9h c #6A432B",
"9i c #6A452A",
"9j c #6B3425",
"9k c #6B3526",
"9l c #6B3827",
"9m c #6B3A27",
"9n c #6B3C29",
"9o c #6B3C2B",
"9p c #6B3D23",
"9q c #6B3F28",
"9r c #6B4025",
"9s c #6B412D",
"9t c #6B422D",
"9u c #6B422F",
"9v c #6B4427",
"9w c #6B4428",
"9x c #6B442F",
"9y c #6B4B30",
"9z c #6C3020",
"9{ c #6C3C25",
"9| c #6C3E26",
"9} c #6C4130",
"9~ c #6D3D29",
":! c #6D3F29",
":# c #6D412B",
":$ c #6D432C",
":% c #6D472C",
":& c #6E3B29",
":' c #6E3C27",
":( c #6E3C29",
":) c #6E3F27",
":* c #6E412B",
":+ c #6E412F",
":, c #6E452D",
":- c #6F3A29",
":. c #6F3F2B",
":/ c #6F4026",
":0 c #6F402B",
":1 c #6F4129",
":2 c #6F422A",
":3 c #6F4330",
":4 c #6F442A",
":5 c #6F4524",
":6 c #6F4529",
":7 c #6F482E",
":8 c #703E23",
":9 c #70432B",
":: c #704427",
":; c #704631",
":< c #713F2C",
":= c #714029",
":> c #71402A",
":? c #71402D",
":@ c #71432D",
":A c #714628",
":B c #71462B",
":C c #71462F",
":D c #71472A",
":E c #71482A",
":F c #723C21",
":G c #723E2A",
":H c #724128",
":I c #72412D",
":J c #724130",
":K c #72432C",
":L c #72442C",
":M c #72442E",
":N c #724431",
":O c #724631",
":P c #72482C",
":Q c #724A2F",
":R c #724B33",
":S c #733F2A",
":T c #734225",
":U c #734328",
":V c #73442F",
":W c #73482A",
":X c #73492C",
":Y c #734B29",
":Z c #74422F",
":[ c #744626",
":] c #744A30",
":^ c #744D2F",
":_ c #753B27",
":` c #753D25",
":a c #754029",
":b c #75442C",
":c c #75462F",
":d c #754A2B",
":e c #754C2C",
":f c #763D2B",
":g c #763F27",
":h c #763F2B",
":i c #76412A",
":j c #76412F",
":k c #76422B",
":l c #76432B",
":m c #76472B",
":n c #76492F",
":o c #764E35",
":p c #765132",
":q c #77422F",
":r c #77432D",
":s c #77442A",
":t c #77452A",
":u c #774831",
":v c #774A31",
":w c #774C2C",
":x c #775136",
":y c #78462E",
":z c #794229",
":{ c #79442E",
":| c #794733",
":} c #794A2C",
":~ c #7A452E",
";! c #7A4930",
";# c #7A502A",
";$ c #7B462D",
";% c #7B4834",
";& c #7B4F2E",
";' c #7B4F37",
";( c #7C4432",
";) c #7C472E",
";* c #7C4A30",
";+ c #7C4C2B",
";, c #7D482D",
";- c #7D4B33",
";. c #7D5134",
";/ c #7F5237",
";0 c #7F5D3E",
";1 c #804E38",
";2 c #814B2C",
";3 c #814E33",
";4 c #825134",
";5 c #825137",
";6 c #83502F",
";7 c #84462E",
";8 c #844930",
";9 c #844B2A",
";: c #844E2C",
";; c #845844",
";< c #85482F",
";= c #855737",
";> c #864632",
";? c #864C35",
";@ c #865A49",
";A c #87543A",
";B c #88452E",
";C c #895139",
";D c #8A4E2F",
";E c #8A5C3B",
";F c #8B5A3F",
";G c #8C6048",
";H c #8D6043",
";I c #8F5336",
";J c #975133",
";K c #A06446",
";L c #BF6B47",
/* pixels */
"(7(;3@(U'w(H%u(})|$J#F5i)c,T19:'&C019V4l.t5[.F5F3:6&+K6b706@+v/'$A-/3!'-*Y0e.1%t!&.02Z4+2t,Z-R7X.S/N0X6/075V&4-Y-)4G4I3.5/6749%@",
"00!#9A!#*l!#5C!#7T!#1}!#4H!#8Q!##m!#.d!#$q!#-*!#$/!#&/!#$`!#-r!#.3!#4g!#7B!#4d!##%!#8{!#-%!#)K!#5L!#.y!#)L!#0a!#!'!#!<!##c!##h!#",
"6$+?(m2-8J$M#C)W*S&+#c!q+*9]*P*P.e2s349I:s6-8|7$7?1S9M3Y)h3<9(/X,d8a'97W2h1>,R&n!t/>/@(p-J32+?0`8K6U$n7f6i.H$B1Z!70f&</e3C%8%0,d",
"9X!#(c!#5#!#6s!#,Y!#7L!#*U!#0?!#)4!#(n!#5N!#!c!#!R!#3t!#!.!#-@!#/d!#.~!#/d!#0e!#4@!#/f!#/k!#))!#'4!#++!#)s!#,a!#!5!#&t!#-2!#!H!#",
"2((f,z$##x,S-9%D&?%c066k&^#M1p._#B#f/S)N/W#q1i);+D(^3a-K#;'N&G#z%U8H(v)<%1#a#*${!/!p&^0&!S%X',!]&m-~'A+N.O4D511B!o$k0S5g--%a)m7Q",
"%v!#2w!#+A!#0r!#99!#-z!#;2!#%S!#+f!#5w!#%P!#)C!#!-!#+I!#-x!#(H!#3R!#6&!#/}!#,d!##b!#1v!#%~!#6X!#/4!#-Z!#+'!#(z!#$T!##Q!##/!##0!#",
"/J5E6m-g)>0m,*&k2u7A'f1+2W2y0t/j.v8r:n4H:b7%:e/d.V8&3f9a4{1Z.z625D5M3b,}(v/B5N$z!41o/A7u(@%k&12m9L5*'(:j805B8q7A%N2B'`(T7S+D*P!*",
"4]!#3X!#5o!#,G!#:t!#,K!#*E!#2c!#-l!#!4!#3n!#!W!#'&!#%r!#(l!#*t!#)F!#0.!#*R!#3B!##l!#'E!#8D!#'<!#65!#+z!#'<!#(R!#!X!#-/!#2@!#!+!#",
"6f,&'S3K*>&>7k)R,_(L57,h1i,+-)1'2$9z&4)f8>3Z+t8~$3)32:$W#{*Q1k#`#t(_(9$s%q*6&20h'G$v'0'F9v6j#g#$'Q9=3D4--D/87l5'742I:8:i;<*m.L1(",
"*A!#.M!#,D!#;D!#*J!#/V!#6F!#(e!#76!#%A!#&<!#1w!#!u!##4!#!a!#2q!#%1!#&'!#4k!#8_!#.&!#5}!#'.!#*%!#)b!#.5!#0$!#%A!##S!#!O!#2V!#%!!#",
"9n&7+Q,W,Q(?(C*G0$-%!z.J4>+4&w/d*D#B1d4F/z71319_566')k0j(F+G,E*q/Y*&)r,w,a.m-I&^!02C$i,g(A(M)v.?5j*^8:;?7n4W(.2p:`1_*r54;B1t'21s",
"3]!#3P!#:r!#0n!#:1!#4i!#:<!#7h!#4Z!#-0!##,!#-<!#-N!#!)!#-#!#-}!#2;!#/?!#-/!#7K!#'*!#1u!#-f!#,-!#2|!#.[!#7*!#-2!#*c!#&u!#,&!#)[!#",
"6w,Q#!9,4r/{6.-`+<&d6M,t'C3!:j5~.o5H&83T2T$5,L4/'{,#09$%,Q*,5s*o)d:S)a'e&H*?-%&O'z(5--&]0y(>!s,f+>1/$69|8k:]8e9&7~8>6G&|6(/318.I",
"7w!##J!#.)!#8%!#*7!#:I!#3Z!#''!#-i!#!d!#1r!##8!#0x!#9}!#'(!#8x!#%5!#4;!#*[!#11!#,a!#,x!#7/!##I!#2N!#/s!##P!#->!#*O!#'^!#76!#&g!#",
"+[:6-#-j&K){'C(*,|);,$559k-P$:-]4q-.,,1b.x-L,3/|:o:_5G4$(23d:h+K(X8!,}*F#f*M,l3G&.${!l/(1C-S2&!n-]8S9K0]+s:&4f8Z;G6Q.b8f:|9i0&.z",
"6C!#;L!#0W!#7a!#:z!#%-!#:Z!#'&!#9!!#9q!#$l!#6R!#$<!#(~!#)b!#(i!#8N!#,q!#/W!#1G!#.W!#:k!#$9!#4O!#&y!#-q!#5_!##!!#6t!#%Z!#58!#9u!#",
"7g'P4v6~.[%}&)$&%c$.#y#T)m&+10-j.P3$8B6+-F./;@:(8C98/*5R4l)a$Q'Y'i10+T%P(o6;4[%8!8$;-e-v&'$U!x0B8R#O#N1O8`9O-P#J-89r,Q/x1Q9d9?0G",
"4e!#('!#.%!#:y!#$k!#8-!#$7!#9`!#'8!#7U!#7_!#-T!#3[!#5Z!#&i!#6G!##y!#6l!#/;!#/5!#,O!#)e!#:;!#$2!#0o!#+b!#$<!#)J!##}!#!v!#,e!##+!#",
"3g4Q.R.n7r.f0C,o$.#Q9s'?!o0U-w.{9;69+$5+30;4+#9$3l8v8P1/#f8+4N(<,I:=464<6s9*'Z)G)|&%'e%;-7-B$|#+2%:!-`&s,%:72x;99p4O,0/:8c-(!},'",
"$)!#3!!#4!!#3*!#5Q!#/y!#+^!#-$!#53!#%9!#/V!#)1!#'>!#4s!#!D!#24!#(+!##J!#6Z!#%.!#&f!#7!!#*z!#1F!#$U!#24!#'n!#(x!#,7!#!(!#%f!##^!#",
"-z#66,-V/K&V-g&z)$'D#w#s)H&'3>(:#^!|;-)I,N:X;K:c5c:/-(5C4J*L.^-1*'1E&'&D+W*4,A*!#]!{-+.y&}!T%Q#G&*1o5))S.m7`7e8I7=.;$T+G:a2M.N(u",
"8/!##x!#3;!#9C!#;,!#,{!#6z!#5n!##P!#9b!#!f!#6s!#4z!#&R!#49!#3d!#/6!#7R!#.$!#6:!#9K!#86!#'d!#(p!#3i!#)w!#04!#*z!#2R!#!_!#2w!#'3!#",
"9b6x#c#=$C+P(,({${&H2b0l1.%4*.1m.Y/)8y6*3^9T0}:u:U9w0T6g+%0,1c*'-!4X!h$D+(-i1&85#>'3$'!k)u#e!L&,683q&e)%8d;0932_(b:Q5<)8-G)`.Y,`",
"8A!#$9!#.c!#4E!#%y!#9%!#'S!#.+!#':!#)f!#7s!#&a!#7&!#-d!#%K!#);!#,u!#!m!#1~!#1-!#/v!#)i!#9b!#!~!#'S!#%/!#!M!#,y!#%<!#,P!#*V!#(W!#",
"8<7D&B'8/*$$'<&t3b!3*&)T,p%:9N8b2e/c4n6[:0474Y;=964'9Z/X,N0{6#7q,r-O'X)+&S'b'y+p36!:!]!>3x+.,6!C+93}9+%a1D(e3g,f6A/M5x;)9m163~2U",
"&r!#*K!#2#!#5o!#;3!#,!!#-5!#/r!#!y!#7E!#/G!#:?!#&D!#(j!#*y!#,Q!#0)!#-E!#9L!#1y!#(~!#.B!#)w!#&J!#0A!#'*!#4_!#+}!#%F!#,2!#2T!#3d!#",
".s$!*N.30`2+-727-f&-2A/n,F43%()y#~,39x8Y,}:>;5;!,%-^5.:90-/+'9*`)<0('9&.)N1K2Y%o$_&I,['w0d)Y)K88;E5m-O81:v8X/Y.#89;A1)&%([-''/+q",
"0E!#&@!#6<!#:+!#7d!#2j!#(s!#1I!#'@!#+,!#&%!#$b!#12!#!F!#&l!#*;!#+=!#,e!#((!#3s!#/=!#!b!#7V!##_!#!G!#!6!#$w!#-o!#!y!#'k!#+R!##u!#",
"5h0t(_(L,C'g+&!^#)!Q08'J!J!U#7+1#'4T(w'$/m,97^6Y(=$o,M+*+v3F8$-(%w*=$&1##q!B#</%#1%6(0$4%E-;$[!c)62'#?)P():p;H9E.]4#.49D9>'2*9-p",
"%D!#'v!#:R!#6]!#77!#9G!#,g!#1[!#*&!#)P!#$E!#&~!##,!#5!!#&a!#9:!#0c!#&x!#-p!#)5!#'<!#2l!#&b!#(t!#)o!##v!#&0!#(r!#)T!#!A!#41!#/N!#",
"#S/0;%:C*(%V%m,254#D!]-e0'4y-,4b5U/g3L,q$F$]*5'L/-2S':,!8*4}+~:-3e.Z*G$d!2&N%$%&&&38'{(S6W4b/~&<0=::720k-=3z)A2r5K/p)(488s/e0:$f",
")?!#7z!#/;!#,U!#;#!#1T!#/Q!#1|!#1$!#+n!#(i!#';!#%%!#$r!#%M!#6#!#(x!#2}!#&_!#+3!#4(!#9B!#&v!#*H!#05!#$K!#,O!#*2!#$=!##L!#$]!#5,!#",
"*s.f2./=%9%d-m%X2k*-5o6j2*#r&T.k+H%q*$'K)t,56y5W5&$u4k1q%y+N3=%B(d'T*#$x#K%b&p&*&Q+21J-A*d#A'b130i$c,G*L(p4a:Y6%1%299R(64T%5$m.5",
"*b!#'4!#.m!#8U!#,v!#9P!#0V!#:0!#1v!#2r!#,j!#)V!##X!#(P!#$8!#2`!#.M!#7Y!#4U!#-R!#2F!#']!#/o!#1a!#!1!#4x!#!j!#)!!#%i!#$t!#-X!#-{!#",
"/T+U8?%X$@#&/t3N#K&E'w),(:/L/91x-W3'9o/w%=35+k)F$x7t!w-i*C-4*V&9'Y9<&`)s%H+L&g'C$23-%n%{,c5`.g!P%7-a7p,])x22(q:J9H;68[8w/1$-$*#n",
"$e!#%Y!#63!#:M!#:w!#7b!#3Q!#5M!#.(!#5=!#$w!#3I!#(L!#!,!#(<!#)0!#5l!##2!#4o!#7;!#+M!#:^!#$q!#/s!##o!#!J!#3h!##k!#%?!#,M!##;!#'=!#",
"0w%y)R,<6d..+b'|-:*Z%)#p+_*f,8$*)D)94w(w,6*@:x8k-c.u$B-<5^#Y)l455{%^(;%>&:.U2E-j!P#-%i/E2b#R%5!`/E*)7M4M9f8}6^8F6o;&3,0_1W.X//%I",
")_!#.'!#22!#;1!#4*!#:*!#5d!#:m!##d!#*)!#(x!#1`!#1f!#)#!#$,!#/e!#!b!#7v!#+B!#8R!#;;!#,q!#7+!#!=!#%l!#1e!#&5!#)&!#&F!#/_!#7J!#%T!#",
"7C5$'c(B&A7F-l%h!@+R1l*3%<,),=1N'<%,'!5Y1?:E2L.68W-l+P%G'U6I-Q%7#!2{(f(82a1j&67#.D)u%3+Z5A&S%R!67]8l*P*}(g5k1U2z,I,H*{784p'd$?(Q",
"84!#)m!#7'!#:B!#.2!#.d!#-*!#%5!#4?!#&o!#*)!#.1!#%_!##k!#)H!#,V!#/Z!#$j!#-]!#/}!#/h!#&(!#23!##Z!#*o!#'/!#+g!#$p!#%$!#!D!#5r!#)5!#",
"4P,^0z0<'a%{%D.r+F(_(`3u6L02(8%3'A*(.@5@&);$5a830Z)s,17G3+.K4h0!611o'2(u.`-%/K+8'+%]+c&U,%/b2B+d(M)N0p6i:L8.3d.,:f:22/,99#7y-t#j",
"+a!#.t!#2~!#6!!#9e!#;F!#1H!#5p!##;!#2h!#'n!#8n!#0|!#/.!#)O!#3j!#-?!#)L!#3k!#0v!#3O!#:%!#:N!#6B!#7H!#%Z!#2f!#/u!##r!#4U!#'g!#9^!#",
"-t0;/g&G.70H*e3S2$,~9g,s/&-M+j,L%p'86?/D4+8V3w9y*]3J42+H&p5t+X'l%L&;+S$0)q$((3#H'y$B/>*+:d5b)=6p2g7m2v)p8p:[:W4u)79h9{0[,V(.!Y,&",
"4:!#3m!#1l!#:3!#5]!#6v!#(z!#/q!#'~!##>!#0J!#%i!#.F!#$H!##z!#3W!#'R!#2G!#'r!#0%!#6p!#-N!#5)!##i!#%x!#4A!##>!#,n!#*a!#%P!#/m!#%L!#",
"&)0*'C($+h+6%g$f$.#M#M3y+U*:0Q7s3},k*<+Y873/*t3b4S*w&f1L6)'/2O*R(-6H&f.s8@+.,J0K3t)G$v*G)!(B&L,W&@4p%+9U3o*J107x947)+y2J287:*1+`",
"5:!#90!#8g!#:~!#8(!#8o!#'I!#8i!#.{!#2i!#(y!#'M!#!<!#,%!#'7!#(Y!#6p!#)k!#:A!#+i!#3p!#;*!#+u!#8'!#0M!#4j!#.|!##^!#%e!#.[!#,,!#:.!#",
"4~%,2?.E,d'#)*1z(L&s&F$!(i,a.>+-/`0F6_1!,..:7,/#4,(b2!/P*j!g'Y*i1*'_&<(%.80+)i)~$Y/n0u7'6h3&03+E1o8O(1791M,0*X1=3B:P5u*h:T-(/^(K",
",(!#(*!#9W!#8#!#.A!#7I!#-|!#*[!#$x!#%A!##n!#&!!#,i!#%M!##5!#*0!#3[!#-8!#0d!#:F!#3H!#+C!#:G!#'O!#1h!#+/!#(|!#$[!##V!#$]!#.c!##$!#",
",Y)M17+r%*4c)]!i*_(E3)6=/6#{*p1g*Z+V#@&W6T4&,',l*^,48=2).'(f-#7>(4$V1n)@'P)V/d.2$@.f(Z/[;(6D+{3/5):),/-3,L1:4^6q.*/77-8W:O0O1Q7j",
"&P!#:4!#'W!#9P!#:K!#6O!#3r!#+~!#'!!#5T!#)j!#&R!#'j!#*_!#(_!#0#!#+)!#$N!#2V!#7O!#-b!#95!#-&!#4|!#1Y!#3?!#/<!#/X!#&j!#!N!#/f!#4L!#",
"$w&h8z;7'A)B%J2],m+0!e&#*~-Q(d5i0-739)3;.Q248,(G(j5?%X-n56*n*x/4,;.c$X#3&Z.>7Z,@&94v5v+D$++o8t146c*I*8:g:,4u3`5e2o:}(X)g4K0~3A.m",
"+m!#1@!#;/!#4C!#:l!#8h!#5q!#92!#64!#3M!#-o!#'4!#+7!#%`!#,b!#1c!#-U!#6N!#);!#;8!#/@!#:S!#8^!#6P!#6V!#)0!#)%!#%2!#)'!#0*!#1p!#+)!#",
")?$g)24.0m2X.<%#%C%j,?)Q&q1<,:6`(D/F(h0-3{!Z&3/=7{$I(H,S0q4x2D0P1,4B2>1R#U!e+e.w']#9#|6>-s(o')-e*W7(4%(])n2n4V/W-F.T4);:;J%B#[.s",
"#:!#'B!#'O!#:V!#0N!#;C!#7[!#/j!#'[!#/C!#-4!##}!#'V!##f!#*g!#'}!#(&!#5P!#6E!#11!#6}!#2=!#5|!#1A!#'%!#3#!#!%!#9c!#'c!#&>!#$~!#$n!#",
"%{*|'m+!):2<'G)}-+5=2?8E**4Y8]0=0s0g;'1]2d9Q/!5I,13_2175&$7i.h3&2[2H9l54+-.i&t'm&Y6u,>&V$L,b-k,X1;3(;>6e5S.-9j8L2N7@/,5166)G9Y1X",
"1Z!#6R!#;.!#9@!#9t!#/S!#6K!#0Y!#'>!#7{!#*2!#7c!#&=!#!l!#*]!#(i!#3v!#*B!#:#!#9V!#8m!#:D!#)+!#2M!#-6!#2*!#4a!#,B!#)Z!#$Y!#+S!#$X!#",
"'p&?5k5>#d,7#W$y!x&[/=.[':2>'F'e-`&S37'Y+5/O1{6J3|/R2}+J$F.3&c'R-H(>+!-H(k2P.l;+&s$,+;3V-y#0&s-h'o3N3)5%3c2W/c5;:H2K)5*//N7.(/#+",
"&S!#(9!#1l!#9/!#6q!#:$!#.T!#5P!##E!#!V!#)x!#*&!#+0!#,e!#$]!#.*!#)d!#.o!#/}!#9S!#9F!#8)!#5y!#6{!#${!#.i!#)q!#3H!#!X!#52!#*T!#1%!#",
")^-C%e!E$t.90+*U&`$R-q+:'s(N*v0D%~/l0H#T*M.j(u(4(a8;82.u#.0>23%l$=%#1?.p$x1P%d/]18.0*q'5&X0&,E$P.G33*~1h*L&B6a*{'6-[/a3A*^!r##'[",
"6S!#5(!#2,!#.4!#3N!#*:!#8T!#4R!#!;!#0I!#'u!#0L!#&M!#'s!#)o!#40!#(V!#.g!#7|!#6r!#8j!#:{!#)F!#15!#.=!#/$!#,,!#&R!#'H!#!V!#):!#)z!#",
"%^$^$G3U%|%>&O$u'h'g*G9'%W%$.f1V!t,%9[.{0^+x9-8M+]8u501m.C.C.',$4`+l&+'b$h%'&!&s#>7o.')e!a.q5z7N-%2X%[/f$O.a/I1^1/3%#P)/2v,F3E91",
"0b!#8G!#9.!#/H!#,(!#4}!#&k!#4m!#,w!#*O!#$1!#&L!#'x!#1C!#-_!#-`!#4t!#5X!#/i!#;I!#3I!#5f!#2K!#5J!#4;!#+@!#!9!#--!#!?!#%z!#%L!#.!!#",
"5O(#+O&|![!X%#!I%X(*(9#(#k2Q(P4T-,'t&r'q'g%s&$$Z)E*k205-0R39:@60).5948(O#l$8'F)X-`$S%O&g2^(I'1#|8':5)-$>%16|-u6n/2$}&7+|9J+w)i,+",
".}!!44!!7}!!5.!!*R!!26!#25!#7P!#9~!#(J!#*r!#(!!#(M!#&{!#$a!#-^!#/Y!#97!#7<!#/U!#59!#*u!#:q!#3!!#0@!#)U!#4=!#!K!#0/!#!$!#,Y!#,g!!"
};
