/* XPM */
static char *metal_09[] = {
/* columns rows colors chars-per-pixel */
"64 64 2703 2",
/* colors */
"!! c #546970",
"!# c #556F74",
"!$ c #557F8B",
"!% c #566C72",
"!& c #56747D",
"!' c #567683",
"!( c #576D71",
"!) c #576F74",
"!* c #57707C",
"!+ c #57727C",
"!, c #57747E",
"!- c #57757F",
"!. c #57767F",
"!/ c #577E7D",
"!0 c #586869",
"!1 c #586B71",
"!2 c #586D74",
"!3 c #586D76",
"!4 c #587176",
"!5 c #58717B",
"!6 c #587780",
"!7 c #587D86",
"!8 c #596B6C",
"!9 c #596B6D",
"!: c #596B71",
"!; c #596F78",
"!< c #597073",
"!= c #597075",
"!> c #597078",
"!? c #597582",
"!@ c #597680",
"!A c #597880",
"!B c #597A89",
"!C c #597F88",
"!D c #5A6B6D",
"!E c #5A6C72",
"!F c #5A6F71",
"!G c #5A6F76",
"!H c #5A7074",
"!I c #5A7079",
"!J c #5A717B",
"!K c #5A7275",
"!L c #5A7378",
"!M c #5A737A",
"!N c #5A737D",
"!O c #5A747D",
"!P c #5A7584",
"!Q c #5A7680",
"!R c #5A777F",
"!S c #5A7782",
"!T c #5A787F",
"!U c #5A7884",
"!V c #5A7887",
"!W c #5A7987",
"!X c #5A7A83",
"!Y c #5A7A85",
"!Z c #5A7A87",
"![ c #5A7B84",
"!] c #5A7B8A",
"!^ c #5A7D8A",
"!_ c #5B6A6B",
"!` c #5B6F74",
"!a c #5B6F75",
"!b c #5B7077",
"!c c #5B7177",
"!d c #5B727A",
"!e c #5B737C",
"!f c #5B7479",
"!g c #5B747B",
"!h c #5B747D",
"!i c #5B7579",
"!j c #5B757E",
"!k c #5B7580",
"!l c #5B7581",
"!m c #5B7587",
"!n c #5B767F",
"!o c #5B7779",
"!p c #5B777C",
"!q c #5B787C",
"!r c #5B7981",
"!s c #5B7984",
"!t c #5B7A81",
"!u c #5B7A87",
"!v c #5B7B86",
"!w c #5B7C89",
"!x c #5B7F87",
"!y c #5B7F8D",
"!z c #5B818C",
"!{ c #5C6A6F",
"!| c #5C6B6A",
"!} c #5C6B73",
"!~ c #5C6C70",
"#! c #5C7075",
"## c #5C7177",
"#$ c #5C717B",
"#% c #5C7273",
"#& c #5C7376",
"#' c #5C7377",
"#( c #5C737B",
"#) c #5C737C",
"#* c #5C747B",
"#+ c #5C757C",
"#, c #5C7680",
"#- c #5C777F",
"#. c #5C7887",
"#/ c #5C7981",
"#0 c #5C7A7F",
"#1 c #5C7A82",
"#2 c #5C7A84",
"#3 c #5C7A86",
"#4 c #5C7A87",
"#5 c #5C7A89",
"#6 c #5C7C87",
"#7 c #5C7C89",
"#8 c #5C7D81",
"#9 c #5C7D86",
"#: c #5C7E86",
"#; c #5C7E87",
"#< c #5C7F89",
"#= c #5C8289",
"#> c #5C828C",
"#? c #5D6C6F",
"#@ c #5D6C70",
"#A c #5D6C72",
"#B c #5D727B",
"#C c #5D737A",
"#D c #5D737B",
"#E c #5D7578",
"#F c #5D757E",
"#G c #5D767E",
"#H c #5D767F",
"#I c #5D777C",
"#J c #5D777E",
"#K c #5D7780",
"#L c #5D7781",
"#M c #5D7785",
"#N c #5D787C",
"#O c #5D7881",
"#P c #5D7882",
"#Q c #5D7887",
"#R c #5D797F",
"#S c #5D7980",
"#T c #5D7981",
"#U c #5D7982",
"#V c #5D7A81",
"#W c #5D7A85",
"#X c #5D7A86",
"#Y c #5D7B7E",
"#Z c #5D7B88",
"#[ c #5D7B89",
"#] c #5D7C86",
"#^ c #5D7D8D",
"#_ c #5D7D8F",
"#` c #5D7E86",
"#a c #5D7E88",
"#b c #5D7E89",
"#c c #5D7E90",
"#d c #5D7F8D",
"#e c #5D8091",
"#f c #5D8189",
"#g c #5D8190",
"#h c #5D8287",
"#i c #5D828B",
"#j c #5D838B",
"#k c #5D8490",
"#l c #5D8893",
"#m c #5D8994",
"#n c #5E6A6E",
"#o c #5E6C6D",
"#p c #5E6E6E",
"#q c #5E6F73",
"#r c #5E6F74",
"#s c #5E7071",
"#t c #5E7074",
"#u c #5E7075",
"#v c #5E7079",
"#w c #5E7174",
"#x c #5E7176",
"#y c #5E7179",
"#z c #5E7276",
"#{ c #5E7374",
"#| c #5E7379",
"#} c #5E737A",
"#~ c #5E737C",
"$! c #5E7474",
"$# c #5E747B",
"$$ c #5E747C",
"$% c #5E757A",
"$& c #5E757B",
"$' c #5E757E",
"$( c #5E767D",
"$) c #5E767E",
"$* c #5E767F",
"$+ c #5E7680",
"$, c #5E7681",
"$- c #5E7779",
"$. c #5E777D",
"$/ c #5E777E",
"$0 c #5E7780",
"$1 c #5E7782",
"$2 c #5E7880",
"$3 c #5E7881",
"$4 c #5E7882",
"$5 c #5E797C",
"$6 c #5E7985",
"$7 c #5E798A",
"$8 c #5E7A80",
"$9 c #5E7A81",
"$: c #5E7A82",
"$; c #5E7A83",
"$< c #5E7B86",
"$= c #5E7C83",
"$> c #5E7C84",
"$? c #5E7C86",
"$@ c #5E7C89",
"$A c #5E7C8B",
"$B c #5E7D86",
"$C c #5E7D8A",
"$D c #5E7E89",
"$E c #5E7F89",
"$F c #5E7F8C",
"$G c #5E7F90",
"$H c #5E7F91",
"$I c #5E8089",
"$J c #5E818F",
"$K c #5E8293",
"$L c #5E838D",
"$M c #5E8391",
"$N c #5E8393",
"$O c #5E8395",
"$P c #5E848E",
"$Q c #5E8493",
"$R c #5E8591",
"$S c #5F6969",
"$T c #5F6C6F",
"$U c #5F6D6E",
"$V c #5F6E75",
"$W c #5F6F6F",
"$X c #5F6F72",
"$Y c #5F7075",
"$Z c #5F7175",
"$[ c #5F7274",
"$] c #5F727A",
"$^ c #5F7375",
"$_ c #5F7377",
"$` c #5F737A",
"$a c #5F737E",
"$b c #5F747A",
"$c c #5F747B",
"$d c #5F7578",
"$e c #5F757A",
"$f c #5F757B",
"$g c #5F757C",
"$h c #5F757D",
"$i c #5F767B",
"$j c #5F767E",
"$k c #5F767F",
"$l c #5F7680",
"$m c #5F7684",
"$n c #5F7779",
"$o c #5F777C",
"$p c #5F777E",
"$q c #5F777F",
"$r c #5F7780",
"$s c #5F7782",
"$t c #5F787C",
"$u c #5F787D",
"$v c #5F787E",
"$w c #5F7881",
"$x c #5F7882",
"$y c #5F7885",
"$z c #5F7980",
"${ c #5F7982",
"$| c #5F7A83",
"$} c #5F7A84",
"$~ c #5F7A86",
"%! c #5F7A87",
"%# c #5F7A8B",
"%$ c #5F7B80",
"%% c #5F7B82",
"%& c #5F7B83",
"%' c #5F7B86",
"%( c #5F7C83",
"%) c #5F7C84",
"%* c #5F7C85",
"%+ c #5F7C86",
"%, c #5F7C8B",
"%- c #5F7D88",
"%. c #5F7D89",
"%/ c #5F7E83",
"%0 c #5F7E84",
"%1 c #5F7E87",
"%2 c #5F7E89",
"%3 c #5F7E8D",
"%4 c #5F7F83",
"%5 c #5F7F8B",
"%6 c #5F7F8D",
"%7 c #5F7F8E",
"%8 c #5F8090",
"%9 c #5F8187",
"%: c #5F818D",
"%; c #5F8191",
"%< c #5F8192",
"%= c #5F8291",
"%> c #5F8393",
"%? c #5F8594",
"%@ c #5F868D",
"%A c #5F8791",
"%B c #5F8894",
"%C c #5F898E",
"%D c #606D6B",
"%E c #606F6E",
"%F c #606F75",
"%G c #607172",
"%H c #607176",
"%I c #607179",
"%J c #607376",
"%K c #607377",
"%L c #607379",
"%M c #60737B",
"%N c #60747D",
"%O c #607481",
"%P c #60757B",
"%Q c #60757C",
"%R c #60757D",
"%S c #60757F",
"%T c #60767C",
"%U c #60767D",
"%V c #60767E",
"%W c #607779",
"%X c #60777B",
"%Y c #60777E",
"%Z c #607781",
"%[ c #607783",
"%] c #607785",
"%^ c #60787D",
"%_ c #607882",
"%` c #607884",
"%a c #607980",
"%b c #607981",
"%c c #607982",
"%d c #607983",
"%e c #607A7D",
"%f c #607A81",
"%g c #607A83",
"%h c #607A85",
"%i c #607A87",
"%j c #607A8B",
"%k c #607B84",
"%l c #607B85",
"%m c #607B8B",
"%n c #607C80",
"%o c #607C81",
"%p c #607C83",
"%q c #607C85",
"%r c #607C87",
"%s c #607C88",
"%t c #607C89",
"%u c #607C8A",
"%v c #607C8C",
"%w c #607D83",
"%x c #607D87",
"%y c #607D89",
"%z c #607D8B",
"%{ c #607D8E",
"%| c #607D8F",
"%} c #607E84",
"%~ c #607E86",
"&! c #607E87",
"&# c #607E89",
"&$ c #607E8D",
"&% c #607E8F",
"&& c #607F83",
"&' c #607F86",
"&( c #607F88",
"&) c #607F89",
"&* c #607F8B",
"&+ c #607F8C",
"&, c #607F8D",
"&- c #607F8F",
"&. c #608088",
"&/ c #608089",
"&0 c #60808E",
"&1 c #60808F",
"&2 c #60818E",
"&3 c #60818F",
"&4 c #608289",
"&5 c #60828F",
"&6 c #608290",
"&7 c #608292",
"&8 c #608388",
"&9 c #60838F",
"&: c #608390",
"&; c #608391",
"&< c #608392",
"&= c #60848E",
"&> c #608492",
"&? c #608594",
"&@ c #60868F",
"&A c #608691",
"&B c #608791",
"&C c #608792",
"&D c #608795",
"&E c #616C6D",
"&F c #616D6F",
"&G c #616E6E",
"&H c #616E70",
"&I c #616F76",
"&J c #617075",
"&K c #617077",
"&L c #617174",
"&M c #617175",
"&N c #617179",
"&O c #617274",
"&P c #617278",
"&Q c #617377",
"&R c #61737A",
"&S c #617478",
"&T c #617479",
"&U c #61747A",
"&V c #617578",
"&W c #617579",
"&X c #61757A",
"&Y c #617580",
"&Z c #61767B",
"&[ c #61777C",
"&] c #61777E",
"&^ c #61787D",
"&_ c #61787F",
"&` c #617880",
"&a c #617886",
"&b c #617980",
"&c c #617983",
"&d c #617985",
"&e c #617A7E",
"&f c #617A80",
"&g c #617A82",
"&h c #617A84",
"&i c #617A85",
"&j c #617B80",
"&k c #617B81",
"&l c #617B82",
"&m c #617B83",
"&n c #617B84",
"&o c #617B85",
"&p c #617B86",
"&q c #617B87",
"&r c #617B89",
"&s c #617B8C",
"&t c #617C7E",
"&u c #617C7F",
"&v c #617C81",
"&w c #617C82",
"&x c #617C85",
"&y c #617C87",
"&z c #617C88",
"&{ c #617C8C",
"&| c #617D86",
"&} c #617D88",
"&~ c #617D8B",
"'! c #617E83",
"'# c #617E85",
"'$ c #617E86",
"'% c #617E87",
"'& c #617E8A",
"'' c #617E8C",
"'( c #617F83",
"') c #617F84",
"'* c #617F85",
"'+ c #617F87",
"', c #617F88",
"'- c #617F89",
"'. c #617F8B",
"'/ c #617F8C",
"'0 c #617F8D",
"'1 c #617F90",
"'2 c #618084",
"'3 c #618087",
"'4 c #618089",
"'5 c #61808C",
"'6 c #61808D",
"'7 c #61808E",
"'8 c #61808F",
"'9 c #618090",
"': c #618091",
"'; c #618183",
"'< c #618189",
"'= c #61818C",
"'> c #618191",
"'? c #618193",
"'@ c #61828A",
"'A c #61828C",
"'B c #61828F",
"'C c #618291",
"'D c #618292",
"'E c #61838F",
"'F c #618390",
"'G c #618391",
"'H c #618393",
"'I c #618491",
"'J c #618493",
"'K c #618495",
"'L c #618592",
"'M c #618593",
"'N c #618793",
"'O c #626C6B",
"'P c #626F79",
"'Q c #627070",
"'R c #627173",
"'S c #627178",
"'T c #627274",
"'U c #627277",
"'V c #627279",
"'W c #627375",
"'X c #627376",
"'Y c #627377",
"'Z c #627378",
"'[ c #62737A",
"'] c #62737C",
"'^ c #627477",
"'_ c #627478",
"'` c #627479",
"'a c #62747A",
"'b c #62757A",
"'c c #62757E",
"'d c #627676",
"'e c #62767A",
"'f c #62767B",
"'g c #62767C",
"'h c #62767D",
"'i c #627682",
"'j c #62777B",
"'k c #62777C",
"'l c #62777D",
"'m c #62777E",
"'n c #62777F",
"'o c #62787C",
"'p c #62787D",
"'q c #62787E",
"'r c #62787F",
"'s c #627880",
"'t c #627881",
"'u c #62797C",
"'v c #62797D",
"'w c #62797E",
"'x c #62797F",
"'y c #627980",
"'z c #627981",
"'{ c #627985",
"'| c #627A83",
"'} c #627A84",
"'~ c #627A87",
"(! c #627A88",
"(# c #627B80",
"($ c #627B82",
"(% c #627B84",
"(& c #627B85",
"(' c #627C7E",
"(( c #627C81",
"() c #627C82",
"(* c #627C83",
"(+ c #627C84",
"(, c #627C85",
"(- c #627C87",
"(. c #627C88",
"(/ c #627C8B",
"(0 c #627D82",
"(1 c #627D85",
"(2 c #627D86",
"(3 c #627D88",
"(4 c #627D8C",
"(5 c #627E84",
"(6 c #627E86",
"(7 c #627E87",
"(8 c #627E88",
"(9 c #627E8B",
"(: c #627E8C",
"(; c #627E8D",
"(< c #627E8E",
"(= c #627F82",
"(> c #627F85",
"(? c #627F86",
"(@ c #627F87",
"(A c #627F89",
"(B c #627F8A",
"(C c #627F8B",
"(D c #627F8C",
"(E c #627F8D",
"(F c #627F8E",
"(G c #627F90",
"(H c #628085",
"(I c #628087",
"(J c #62808A",
"(K c #62808C",
"(L c #628188",
"(M c #628189",
"(N c #62818A",
"(O c #62818C",
"(P c #62818D",
"(Q c #62818E",
"(R c #62818F",
"(S c #628190",
"(T c #628191",
"(U c #62828A",
"(V c #628291",
"(W c #628293",
"(X c #62838E",
"(Y c #628390",
"(Z c #628391",
"([ c #628392",
"(] c #628393",
"(^ c #628489",
"(_ c #62848E",
"(` c #628491",
"(a c #628493",
"(b c #628496",
"(c c #62858B",
"(d c #62858F",
"(e c #628593",
"(f c #628595",
"(g c #628693",
"(h c #628696",
"(i c #628697",
"(j c #62878F",
"(k c #628791",
"(l c #628793",
"(m c #628993",
"(n c #636D71",
"(o c #636E70",
"(p c #63706C",
"(q c #63706E",
"(r c #637073",
"(s c #637171",
"(t c #637376",
"(u c #637378",
"(v c #63737C",
"(w c #63747B",
"(x c #63747C",
"(y c #637573",
"(z c #637577",
"({ c #637578",
"(| c #637579",
"(} c #63757A",
"(~ c #63757C",
")! c #63757D",
")# c #637679",
")$ c #63767A",
")% c #63767C",
")& c #63767D",
")' c #63767E",
")( c #63777C",
")) c #63777D",
")* c #63777E",
")+ c #63787C",
"), c #63787D",
")- c #63787F",
"). c #637881",
")/ c #637882",
")0 c #63797D",
")1 c #63797E",
")2 c #63797F",
")3 c #637981",
")4 c #637982",
")5 c #637985",
")6 c #637986",
")7 c #637A7C",
")8 c #637A80",
")9 c #637A81",
"): c #637A82",
"); c #637A83",
")< c #637A84",
")= c #637A86",
")> c #637A87",
")? c #637B7F",
")@ c #637B81",
")A c #637B82",
")B c #637B84",
")C c #637B85",
")D c #637B86",
")E c #637B89",
")F c #637C80",
")G c #637C81",
")H c #637C83",
")I c #637C84",
")J c #637C85",
")K c #637C86",
")L c #637C87",
")M c #637C88",
")N c #637C89",
")O c #637D84",
")P c #637D86",
")Q c #637D87",
")R c #637D88",
")S c #637D8B",
")T c #637D8C",
")U c #637E85",
")V c #637E86",
")W c #637E87",
")X c #637E88",
")Y c #637E8A",
")Z c #637E8E",
")[ c #637F80",
")] c #637F84",
")^ c #637F85",
")_ c #637F87",
")` c #637F88",
")a c #637F89",
")b c #637F8B",
")c c #638086",
")d c #638087",
")e c #638089",
")f c #63808A",
")g c #63808F",
")h c #638184",
")i c #638188",
")j c #638189",
")k c #63818A",
")l c #63818B",
")m c #63818D",
")n c #638190",
")o c #638191",
")p c #638287",
")q c #63828A",
")r c #63828D",
")s c #638290",
")t c #638291",
")u c #638292",
")v c #638293",
")w c #638294",
")x c #63838D",
")y c #63838E",
")z c #63838F",
"){ c #638391",
")| c #638392",
")} c #638393",
")~ c #63848D",
"*! c #638490",
"*# c #638491",
"*$ c #638492",
"*% c #638494",
"*& c #638591",
"*' c #638592",
"*( c #638594",
"*) c #638595",
"** c #638596",
"*+ c #63868D",
"*, c #63868F",
"*- c #638690",
"*. c #638693",
"*/ c #638696",
"*0 c #638697",
"*1 c #638794",
"*2 c #638894",
"*3 c #638991",
"*4 c #638992",
"*5 c #638994",
"*6 c #638A93",
"*7 c #638C97",
"*8 c #646E6F",
"*9 c #646F6F",
"*: c #647171",
"*; c #647172",
"*< c #647375",
"*= c #647377",
"*> c #647477",
"*? c #647478",
"*@ c #64747B",
"*A c #64757A",
"*B c #64757B",
"*C c #64757D",
"*D c #64757E",
"*E c #647679",
"*F c #64767A",
"*G c #64767B",
"*H c #64767C",
"*I c #647680",
"*J c #64777A",
"*K c #64777B",
"*L c #64777E",
"*M c #647782",
"*N c #64787C",
"*O c #64787D",
"*P c #64787E",
"*Q c #64787F",
"*R c #647881",
"*S c #647882",
"*T c #64797E",
"*U c #64797F",
"*V c #647980",
"*W c #647981",
"*X c #647982",
"*Y c #647983",
"*Z c #647986",
"*[ c #647A7D",
"*] c #647A7E",
"*^ c #647A7F",
"*_ c #647A80",
"*` c #647A81",
"*a c #647A82",
"*b c #647A83",
"*c c #647A86",
"*d c #647B7B",
"*e c #647B7E",
"*f c #647B7F",
"*g c #647B80",
"*h c #647B81",
"*i c #647B82",
"*j c #647B83",
"*k c #647B84",
"*l c #647B87",
"*m c #647B88",
"*n c #647C7E",
"*o c #647C80",
"*p c #647C82",
"*q c #647C84",
"*r c #647C85",
"*s c #647C86",
"*t c #647C87",
"*u c #647D83",
"*v c #647D86",
"*w c #647D87",
"*x c #647D88",
"*y c #647D8C",
"*z c #647E80",
"*{ c #647E81",
"*| c #647E85",
"*} c #647E86",
"*~ c #647E88",
"+! c #647E89",
"+# c #647E8B",
"+$ c #647E8C",
"+% c #647E8E",
"+& c #647F83",
"+' c #647F85",
"+( c #647F86",
"+) c #647F87",
"+* c #647F88",
"++ c #647F8A",
"+, c #647F8B",
"+- c #647F8D",
"+. c #647F8E",
"+/ c #648085",
"+0 c #648088",
"+1 c #648089",
"+2 c #64808D",
"+3 c #64808E",
"+4 c #648186",
"+5 c #648187",
"+6 c #648188",
"+7 c #648189",
"+8 c #64818A",
"+9 c #64818C",
"+: c #64818D",
"+; c #64818E",
"+< c #648190",
"+= c #648288",
"+> c #64828A",
"+? c #64828B",
"+@ c #64828D",
"+A c #648292",
"+B c #64838B",
"+C c #64838C",
"+D c #64838D",
"+E c #64838F",
"+F c #648391",
"+G c #648392",
"+H c #648393",
"+I c #648394",
"+J c #64848C",
"+K c #64848D",
"+L c #64848F",
"+M c #648490",
"+N c #648492",
"+O c #648493",
"+P c #648494",
"+Q c #648495",
"+R c #648591",
"+S c #648594",
"+T c #648595",
"+U c #64868B",
"+V c #648692",
"+W c #648693",
"+X c #648695",
"+Y c #648697",
"+Z c #648793",
"+[ c #648794",
"+] c #648795",
"+^ c #648796",
"+_ c #648797",
"+` c #64888D",
"+a c #648893",
"+b c #648895",
"+c c #648896",
"+d c #648997",
"+e c #648A92",
"+f c #648A95",
"+g c #648D97",
"+h c #657075",
"+i c #657274",
"+j c #657277",
"+k c #657377",
"+l c #657379",
"+m c #65747C",
"+n c #65757C",
"+o c #65757D",
"+p c #657677",
"+q c #657679",
"+r c #65767C",
"+s c #65767E",
"+t c #657776",
"+u c #657777",
"+v c #65777A",
"+w c #65777C",
"+x c #65777D",
"+y c #65777E",
"+z c #65777F",
"+{ c #65787B",
"+| c #65787C",
"+} c #65787E",
"+~ c #65787F",
",! c #657880",
",# c #657882",
",$ c #65797C",
",% c #65797F",
",& c #657980",
",' c #657984",
",( c #657A7F",
",) c #657A81",
",* c #657A82",
",+ c #657A83",
",, c #657A85",
",- c #657A87",
",. c #657B7F",
",/ c #657B80",
",0 c #657B82",
",1 c #657B83",
",2 c #657B85",
",3 c #657B87",
",4 c #657C7D",
",5 c #657C81",
",6 c #657C84",
",7 c #657C85",
",8 c #657C86",
",9 c #657C88",
",: c #657D7F",
",; c #657D81",
",< c #657D82",
",= c #657D83",
",> c #657D84",
",? c #657D85",
",@ c #657D86",
",A c #657D87",
",B c #657D8A",
",C c #657E82",
",D c #657E83",
",E c #657E84",
",F c #657E85",
",G c #657E86",
",H c #657E87",
",I c #657E88",
",J c #657E8A",
",K c #657F83",
",L c #657F84",
",M c #657F85",
",N c #657F86",
",O c #657F87",
",P c #657F89",
",Q c #657F8A",
",R c #657F8B",
",S c #657F8D",
",T c #657F8E",
",U c #658086",
",V c #658087",
",W c #658088",
",X c #658089",
",Y c #65808A",
",Z c #65808C",
",[ c #65808D",
",] c #65808E",
",^ c #65808F",
",_ c #658185",
",` c #658187",
",a c #658189",
",b c #65818A",
",c c #65818B",
",d c #65818E",
",e c #65818F",
",f c #658190",
",g c #65828B",
",h c #65828C",
",i c #65828D",
",j c #65828E",
",k c #658291",
",l c #658292",
",m c #658293",
",n c #65838B",
",o c #65838C",
",p c #65838D",
",q c #65838E",
",r c #658391",
",s c #658392",
",t c #658393",
",u c #658489",
",v c #65848D",
",w c #65848F",
",x c #658492",
",y c #658493",
",z c #658495",
",{ c #658589",
",| c #65858C",
",} c #65858D",
",~ c #65858E",
"-! c #65858F",
"-# c #658590",
"-$ c #658591",
"-% c #658592",
"-& c #658595",
"-' c #65868B",
"-( c #65868D",
"-) c #65868F",
"-* c #658692",
"-+ c #658695",
"-, c #658696",
"-- c #65878E",
"-. c #658792",
"-/ c #658793",
"-0 c #658796",
"-1 c #65888E",
"-2 c #658897",
"-3 c #658995",
"-4 c #658996",
"-5 c #658997",
"-6 c #658A93",
"-7 c #658A95",
"-8 c #658A96",
"-9 c #658C93",
"-: c #658C96",
"-; c #658C97",
"-< c #667272",
"-= c #667276",
"-> c #667376",
"-? c #667378",
"-@ c #667475",
"-A c #667477",
"-B c #667479",
"-C c #66757C",
"-D c #667676",
"-E c #667677",
"-F c #667679",
"-G c #66767A",
"-H c #66767C",
"-I c #66767D",
"-J c #66767E",
"-K c #66777F",
"-L c #667780",
"-M c #66787A",
"-N c #667880",
"-O c #667881",
"-P c #667884",
"-Q c #667976",
"-R c #66797A",
"-S c #66797E",
"-T c #66797F",
"-U c #667980",
"-V c #667981",
"-W c #667982",
"-X c #667A7D",
"-Y c #667A80",
"-Z c #667A81",
"-[ c #667A82",
"-] c #667A85",
"-^ c #667B7F",
"-_ c #667B80",
"-` c #667B81",
"-a c #667B83",
"-b c #667B85",
"-c c #667B87",
"-d c #667C80",
"-e c #667C81",
"-f c #667C82",
"-g c #667C83",
"-h c #667C85",
"-i c #667C86",
"-j c #667C88",
"-k c #667D7F",
"-l c #667D80",
"-m c #667D81",
"-n c #667D82",
"-o c #667D83",
"-p c #667D84",
"-q c #667D85",
"-r c #667D86",
"-s c #667D87",
"-t c #667D88",
"-u c #667D8B",
"-v c #667E81",
"-w c #667E82",
"-x c #667E84",
"-y c #667E85",
"-z c #667E86",
"-{ c #667E87",
"-| c #667E88",
"-} c #667E8A",
"-~ c #667E8B",
".! c #667E8C",
".# c #667E8D",
".$ c #667F80",
".% c #667F83",
".& c #667F84",
".' c #667F85",
".( c #667F86",
".) c #667F87",
".* c #667F88",
".+ c #667F89",
"., c #667F8A",
".- c #667F8C",
".. c #667F8D",
"./ c #668086",
".0 c #668087",
".1 c #668089",
".2 c #66808B",
".3 c #66808C",
".4 c #66808D",
".5 c #66808F",
".6 c #668187",
".7 c #668188",
".8 c #668189",
".9 c #66818A",
".: c #66818B",
".; c #66818C",
".< c #66818D",
".= c #66818F",
".> c #668190",
".? c #668284",
".@ c #668287",
".A c #668289",
".B c #66828B",
".C c #66828C",
".D c #66828D",
".E c #66828E",
".F c #66828F",
".G c #668290",
".H c #668387",
".I c #66838B",
".J c #66838C",
".K c #66838D",
".L c #66838E",
".M c #66838F",
".N c #668392",
".O c #668488",
".P c #668489",
".Q c #66848B",
".R c #66848C",
".S c #66848D",
".T c #66848F",
".U c #668490",
".V c #668491",
".W c #668493",
".X c #668494",
".Y c #66858D",
".Z c #66858E",
".[ c #66858F",
".] c #668592",
".^ c #668593",
"._ c #668594",
".` c #668595",
".a c #66868E",
".b c #66868F",
".c c #668691",
".d c #668692",
".e c #668694",
".f c #66878E",
".g c #668790",
".h c #668791",
".i c #668792",
".j c #668793",
".k c #668796",
".l c #668797",
".m c #66888B",
".n c #668896",
".o c #668897",
".p c #668898",
".q c #668899",
".r c #66898D",
".s c #668996",
".t c #668997",
".u c #668998",
".v c #668999",
".w c #668A97",
".x c #668A99",
".y c #668B93",
".z c #668B99",
".{ c #668C95",
".| c #668D95",
".} c #668D96",
".~ c #668E96",
"/! c #677476",
"/# c #677578",
"/$ c #677579",
"/% c #67767B",
"/& c #67777A",
"/' c #67777C",
"/( c #67777D",
"/) c #67777E",
"/* c #677878",
"/+ c #67787B",
"/, c #67787E",
"/- c #677880",
"/. c #67797C",
"// c #67797E",
"/0 c #67797F",
"/1 c #677980",
"/2 c #677981",
"/3 c #677A7B",
"/4 c #677A7C",
"/5 c #677A7F",
"/6 c #677A81",
"/7 c #677A82",
"/8 c #677A83",
"/9 c #677A84",
"/: c #677B7D",
"/; c #677B7E",
"/< c #677B82",
"/= c #677B83",
"/> c #677B84",
"/? c #677B85",
"/@ c #677C80",
"/A c #677C82",
"/B c #677C83",
"/C c #677C84",
"/D c #677C85",
"/E c #677C86",
"/F c #677D80",
"/G c #677D81",
"/H c #677D82",
"/I c #677D83",
"/J c #677D84",
"/K c #677D85",
"/L c #677D87",
"/M c #677D88",
"/N c #677D8A",
"/O c #677E82",
"/P c #677E84",
"/Q c #677E86",
"/R c #677E87",
"/S c #677E88",
"/T c #677F84",
"/U c #677F85",
"/V c #677F88",
"/W c #677F89",
"/X c #677F8A",
"/Y c #677F8C",
"/Z c #678085",
"/[ c #678087",
"/] c #678088",
"/^ c #678089",
"/_ c #67808D",
"/` c #67808F",
"/a c #678184",
"/b c #678185",
"/c c #678186",
"/d c #678187",
"/e c #678188",
"/f c #678189",
"/g c #67818A",
"/h c #67818D",
"/i c #67818E",
"/j c #67818F",
"/k c #678190",
"/l c #678286",
"/m c #678287",
"/n c #678288",
"/o c #678289",
"/p c #67828B",
"/q c #67828C",
"/r c #67828D",
"/s c #67828E",
"/t c #67828F",
"/u c #678290",
"/v c #678387",
"/w c #678388",
"/x c #678389",
"/y c #67838A",
"/z c #67838B",
"/{ c #67838C",
"/| c #67838D",
"/} c #67838E",
"/~ c #67838F",
"0! c #678390",
"0# c #678391",
"0$ c #678392",
"0% c #678488",
"0& c #67848B",
"0' c #67848D",
"0( c #67848E",
"0) c #67848F",
"0* c #678490",
"0+ c #678491",
"0, c #678492",
"0- c #678493",
"0. c #67858C",
"0/ c #67858D",
"00 c #678590",
"01 c #678592",
"02 c #678593",
"03 c #678594",
"04 c #678595",
"05 c #678687",
"06 c #678689",
"07 c #67868C",
"08 c #67868D",
"09 c #67868E",
"0: c #67868F",
"0; c #678690",
"0< c #678692",
"0= c #678694",
"0> c #678695",
"0? c #678696",
"0@ c #678786",
"0A c #67878E",
"0B c #67878F",
"0C c #678791",
"0D c #678795",
"0E c #678797",
"0F c #67888F",
"0G c #678891",
"0H c #678893",
"0I c #678894",
"0J c #678895",
"0K c #678897",
"0L c #678899",
"0M c #67898E",
"0N c #67898F",
"0O c #678993",
"0P c #678994",
"0Q c #678995",
"0R c #678A8F",
"0S c #678A95",
"0T c #678A97",
"0U c #678B96",
"0V c #678C95",
"0W c #678D93",
"0X c #678D98",
"0Y c #678E97",
"0Z c #687276",
"0[ c #687573",
"0] c #687579",
"0^ c #68767A",
"0_ c #687776",
"0` c #687779",
"0a c #68777B",
"0b c #68777E",
"0c c #687877",
"0d c #68787F",
"0e c #687880",
"0f c #68797B",
"0g c #68797E",
"0h c #687981",
"0i c #687A77",
"0j c #687A7A",
"0k c #687A7E",
"0l c #687A7F",
"0m c #687A80",
"0n c #687A82",
"0o c #687A83",
"0p c #687B7D",
"0q c #687B80",
"0r c #687B82",
"0s c #687B83",
"0t c #687B84",
"0u c #687C7E",
"0v c #687C81",
"0w c #687C82",
"0x c #687C83",
"0y c #687C84",
"0z c #687C88",
"0{ c #687D7F",
"0| c #687D80",
"0} c #687D81",
"0~ c #687D82",
"1! c #687D83",
"1# c #687D84",
"1$ c #687D85",
"1% c #687D86",
"1& c #687E82",
"1' c #687E84",
"1( c #687E86",
"1) c #687E88",
"1* c #687E89",
"1+ c #687F81",
"1, c #687F82",
"1- c #687F83",
"1. c #687F84",
"1/ c #687F85",
"10 c #687F86",
"11 c #687F87",
"12 c #687F88",
"13 c #687F8C",
"14 c #687F8D",
"15 c #688082",
"16 c #688083",
"17 c #688084",
"18 c #688085",
"19 c #688086",
"1: c #688087",
"1; c #688088",
"1< c #688089",
"1= c #68808A",
"1> c #68808C",
"1? c #68808D",
"1@ c #68808E",
"1A c #688181",
"1B c #688185",
"1C c #688186",
"1D c #688187",
"1E c #688188",
"1F c #688189",
"1G c #68818C",
"1H c #68818D",
"1I c #68818E",
"1J c #688191",
"1K c #688289",
"1L c #68828A",
"1M c #68828B",
"1N c #68828C",
"1O c #68828D",
"1P c #68828F",
"1Q c #688290",
"1R c #688388",
"1S c #688389",
"1T c #68838A",
"1U c #68838B",
"1V c #68838C",
"1W c #68838E",
"1X c #68838F",
"1Y c #688390",
"1Z c #688391",
"1[ c #688392",
"1] c #68848B",
"1^ c #68848C",
"1_ c #68848D",
"1` c #688490",
"1a c #688491",
"1b c #688492",
"1c c #688493",
"1d c #688494",
"1e c #68858C",
"1f c #68858D",
"1g c #688590",
"1h c #688591",
"1i c #688592",
"1j c #688593",
"1k c #688594",
"1l c #68868A",
"1m c #68868E",
"1n c #688692",
"1o c #688693",
"1p c #688694",
"1q c #688695",
"1r c #688792",
"1s c #688795",
"1t c #688796",
"1u c #688797",
"1v c #68888D",
"1w c #688891",
"1x c #688896",
"1y c #688897",
"1z c #688898",
"1{ c #68898C",
"1| c #688992",
"1} c #688993",
"1~ c #688994",
"2! c #688995",
"2# c #688996",
"2$ c #688998",
"2% c #688A90",
"2& c #688A96",
"2' c #688A99",
"2( c #688A9B",
"2) c #688B91",
"2* c #688B93",
"2+ c #688B95",
"2, c #688B97",
"2- c #688B98",
"2. c #688C98",
"2/ c #688D93",
"20 c #688D94",
"21 c #688D95",
"22 c #688D96",
"23 c #688F96",
"24 c #697372",
"25 c #697477",
"26 c #697579",
"27 c #69767B",
"28 c #69777B",
"29 c #69777D",
"2: c #69787B",
"2; c #69787D",
"2< c #69787E",
"2= c #69797E",
"2> c #69797F",
"2? c #697A7D",
"2@ c #697B7B",
"2A c #697B7C",
"2B c #697B7D",
"2C c #697B80",
"2D c #697B82",
"2E c #697C7F",
"2F c #697C81",
"2G c #697D82",
"2H c #697D83",
"2I c #697D84",
"2J c #697D85",
"2K c #697D86",
"2L c #697E80",
"2M c #697E81",
"2N c #697E82",
"2O c #697E84",
"2P c #697E85",
"2Q c #697E86",
"2R c #697E87",
"2S c #697E89",
"2T c #697F81",
"2U c #697F82",
"2V c #697F83",
"2W c #697F84",
"2X c #697F85",
"2Y c #697F86",
"2Z c #697F89",
"2[ c #698085",
"2] c #698086",
"2^ c #698087",
"2_ c #698088",
"2` c #698089",
"2a c #69808B",
"2b c #698184",
"2c c #698185",
"2d c #698186",
"2e c #698187",
"2f c #698188",
"2g c #698189",
"2h c #69818B",
"2i c #69818C",
"2j c #69818D",
"2k c #698190",
"2l c #698286",
"2m c #698287",
"2n c #698288",
"2o c #69828A",
"2p c #69828B",
"2q c #69828C",
"2r c #698291",
"2s c #698387",
"2t c #698388",
"2u c #698389",
"2v c #69838A",
"2w c #69838B",
"2x c #69838C",
"2y c #698390",
"2z c #698391",
"2{ c #69848A",
"2| c #69848B",
"2} c #69848D",
"2~ c #69848E",
"3! c #69848F",
"3# c #698491",
"3$ c #698492",
"3% c #69858B",
"3& c #69858C",
"3' c #69858D",
"3( c #69858E",
"3) c #69858F",
"3* c #698590",
"3+ c #698591",
"3, c #698592",
"3- c #698593",
"3. c #698594",
"3/ c #69868E",
"30 c #69868F",
"31 c #698690",
"32 c #698691",
"33 c #698692",
"34 c #698693",
"35 c #698694",
"36 c #69878E",
"37 c #69878F",
"38 c #698790",
"39 c #698791",
"3: c #698792",
"3; c #698793",
"3< c #698795",
"3= c #698796",
"3> c #698797",
"3? c #69888E",
"3@ c #69888F",
"3A c #698890",
"3B c #698891",
"3C c #698895",
"3D c #698897",
"3E c #69898E",
"3F c #698991",
"3G c #698993",
"3H c #698994",
"3I c #698A91",
"3J c #698A94",
"3K c #698A95",
"3L c #698A98",
"3M c #698B91",
"3N c #698B94",
"3O c #698B95",
"3P c #698B96",
"3Q c #698B97",
"3R c #698B98",
"3S c #698B9A",
"3T c #698C8F",
"3U c #698C91",
"3V c #698C97",
"3W c #698C98",
"3X c #698D98",
"3Y c #698F94",
"3Z c #698F97",
"3[ c #698F98",
"3] c #699091",
"3^ c #6A6E6D",
"3_ c #6A7679",
"3` c #6A777B",
"3a c #6A787B",
"3b c #6A787D",
"3c c #6A797C",
"3d c #6A797D",
"3e c #6A797F",
"3f c #6A7A79",
"3g c #6A7A7C",
"3h c #6A7A80",
"3i c #6A7B78",
"3j c #6A7B7C",
"3k c #6A7B80",
"3l c #6A7B81",
"3m c #6A7B82",
"3n c #6A7B83",
"3o c #6A7C7E",
"3p c #6A7C7F",
"3q c #6A7C80",
"3r c #6A7C82",
"3s c #6A7C83",
"3t c #6A7D7D",
"3u c #6A7D80",
"3v c #6A7D83",
"3w c #6A7D84",
"3x c #6A7D85",
"3y c #6A7D86",
"3z c #6A7D87",
"3{ c #6A7E7E",
"3| c #6A7E83",
"3} c #6A7E84",
"3~ c #6A7E85",
"4! c #6A7E86",
"4# c #6A7E87",
"4$ c #6A7E88",
"4% c #6A7F82",
"4& c #6A7F83",
"4' c #6A7F84",
"4( c #6A7F85",
"4) c #6A7F86",
"4* c #6A7F87",
"4+ c #6A7F88",
"4, c #6A7F89",
"4- c #6A8080",
"4. c #6A8081",
"4/ c #6A8083",
"40 c #6A8084",
"41 c #6A8088",
"42 c #6A808A",
"43 c #6A808D",
"44 c #6A808E",
"45 c #6A8184",
"46 c #6A8186",
"47 c #6A8188",
"48 c #6A8189",
"49 c #6A818A",
"4: c #6A818B",
"4; c #6A818D",
"4< c #6A8286",
"4= c #6A8288",
"4> c #6A8289",
"4? c #6A828A",
"4@ c #6A828B",
"4A c #6A828F",
"4B c #6A8384",
"4C c #6A8387",
"4D c #6A8388",
"4E c #6A838A",
"4F c #6A838B",
"4G c #6A838E",
"4H c #6A838F",
"4I c #6A8390",
"4J c #6A8391",
"4K c #6A8392",
"4L c #6A8488",
"4M c #6A8489",
"4N c #6A848A",
"4O c #6A848B",
"4P c #6A848C",
"4Q c #6A848D",
"4R c #6A848F",
"4S c #6A8490",
"4T c #6A8491",
"4U c #6A8492",
"4V c #6A858B",
"4W c #6A858D",
"4X c #6A858E",
"4Y c #6A858F",
"4Z c #6A8591",
"4[ c #6A8592",
"4] c #6A8593",
"4^ c #6A868C",
"4_ c #6A868F",
"4` c #6A8690",
"4a c #6A8691",
"4b c #6A8692",
"4c c #6A8693",
"4d c #6A8790",
"4e c #6A8791",
"4f c #6A8792",
"4g c #6A8793",
"4h c #6A8794",
"4i c #6A8795",
"4j c #6A8890",
"4k c #6A8893",
"4l c #6A8894",
"4m c #6A8895",
"4n c #6A8896",
"4o c #6A8897",
"4p c #6A8898",
"4q c #6A898B",
"4r c #6A8990",
"4s c #6A8991",
"4t c #6A8992",
"4u c #6A8993",
"4v c #6A8994",
"4w c #6A8995",
"4x c #6A8996",
"4y c #6A8997",
"4z c #6A8998",
"4{ c #6A8A8C",
"4| c #6A8A8F",
"4} c #6A8A93",
"4~ c #6A8A96",
"5! c #6A8A98",
"5# c #6A8A99",
"5$ c #6A8B90",
"5% c #6A8B95",
"5& c #6A8B97",
"5' c #6A8C91",
"5( c #6A8C97",
"5) c #6A8C98",
"5* c #6A8C9A",
"5+ c #6A8D93",
"5, c #6A8D95",
"5- c #6A8D98",
"5. c #6A8E96",
"5/ c #6A9095",
"50 c #6A9096",
"51 c #6A9098",
"52 c #6B757B",
"53 c #6B7678",
"54 c #6B777D",
"55 c #6B7877",
"56 c #6B797F",
"57 c #6B7A7C",
"58 c #6B7A7D",
"59 c #6B7A7E",
"5: c #6B7B7A",
"5; c #6B7B7F",
"5< c #6B7B81",
"5= c #6B7B83",
"5> c #6B7C7A",
"5? c #6B7C7D",
"5@ c #6B7C7F",
"5A c #6B7C80",
"5B c #6B7C81",
"5C c #6B7C85",
"5D c #6B7D7F",
"5E c #6B7D83",
"5F c #6B7D84",
"5G c #6B7D87",
"5H c #6B7E82",
"5I c #6B7E83",
"5J c #6B7E85",
"5K c #6B7E87",
"5L c #6B7E8A",
"5M c #6B7F80",
"5N c #6B7F82",
"5O c #6B7F84",
"5P c #6B7F85",
"5Q c #6B7F86",
"5R c #6B7F87",
"5S c #6B7F8A",
"5T c #6B8081",
"5U c #6B8082",
"5V c #6B8084",
"5W c #6B8086",
"5X c #6B8089",
"5Y c #6B808A",
"5Z c #6B8185",
"5[ c #6B8186",
"5] c #6B8187",
"5^ c #6B8188",
"5_ c #6B818A",
"5` c #6B818B",
"5a c #6B818C",
"5b c #6B818D",
"5c c #6B8285",
"5d c #6B8289",
"5e c #6B828A",
"5f c #6B828C",
"5g c #6B8387",
"5h c #6B838A",
"5i c #6B838C",
"5j c #6B838D",
"5k c #6B838E",
"5l c #6B838F",
"5m c #6B8391",
"5n c #6B8488",
"5o c #6B8489",
"5p c #6B848B",
"5q c #6B848D",
"5r c #6B848F",
"5s c #6B8490",
"5t c #6B8492",
"5u c #6B8586",
"5v c #6B858A",
"5w c #6B858B",
"5x c #6B858C",
"5y c #6B858D",
"5z c #6B858E",
"5{ c #6B858F",
"5| c #6B8590",
"5} c #6B8591",
"5~ c #6B8592",
"6! c #6B868A",
"6# c #6B868D",
"6$ c #6B868F",
"6% c #6B8690",
"6& c #6B8691",
"6' c #6B8692",
"6( c #6B8693",
"6) c #6B8694",
"6* c #6B878C",
"6+ c #6B878F",
"6, c #6B8790",
"6- c #6B8791",
"6. c #6B8792",
"6/ c #6B8793",
"60 c #6B8794",
"61 c #6B888E",
"62 c #6B888F",
"63 c #6B8890",
"64 c #6B8891",
"65 c #6B8892",
"66 c #6B8893",
"67 c #6B8894",
"68 c #6B8895",
"69 c #6B8897",
"6: c #6B898E",
"6; c #6B898F",
"6< c #6B8990",
"6= c #6B8991",
"6> c #6B8992",
"6? c #6B8993",
"6@ c #6B8994",
"6A c #6B8997",
"6B c #6B8998",
"6C c #6B8A8B",
"6D c #6B8A8E",
"6E c #6B8A94",
"6F c #6B8A98",
"6G c #6B8C91",
"6H c #6B8C95",
"6I c #6B8C98",
"6J c #6B8C9A",
"6K c #6B8D98",
"6L c #6B9095",
"6M c #6B909A",
"6N c #6C7775",
"6O c #6C7777",
"6P c #6C777A",
"6Q c #6C787D",
"6R c #6C797C",
"6S c #6C797F",
"6T c #6C7A7C",
"6U c #6C7B7D",
"6V c #6C7B7F",
"6W c #6C7C80",
"6X c #6C7C81",
"6Y c #6C7D7C",
"6Z c #6C7D7F",
"6[ c #6C7D80",
"6] c #6C7D82",
"6^ c #6C7D83",
"6_ c #6C7D84",
"6` c #6C7D85",
"6a c #6C7E7D",
"6b c #6C7E7F",
"6c c #6C7E80",
"6d c #6C7E81",
"6e c #6C7E84",
"6f c #6C7E87",
"6g c #6C7E88",
"6h c #6C7F84",
"6i c #6C7F86",
"6j c #6C7F87",
"6k c #6C8084",
"6l c #6C8085",
"6m c #6C8086",
"6n c #6C8087",
"6o c #6C8088",
"6p c #6C8183",
"6q c #6C8186",
"6r c #6C8187",
"6s c #6C818A",
"6t c #6C818B",
"6u c #6C8283",
"6v c #6C8284",
"6w c #6C8287",
"6x c #6C8288",
"6y c #6C8289",
"6z c #6C828B",
"6{ c #6C828E",
"6| c #6C8386",
"6} c #6C8387",
"6~ c #6C838A",
"7! c #6C838B",
"7# c #6C838C",
"7$ c #6C8487",
"7% c #6C8489",
"7& c #6C848A",
"7' c #6C848B",
"7( c #6C8490",
"7) c #6C8491",
"7* c #6C8494",
"7+ c #6C858A",
"7, c #6C858B",
"7- c #6C858C",
"7. c #6C858D",
"7/ c #6C858F",
"70 c #6C8590",
"71 c #6C8591",
"72 c #6C8592",
"73 c #6C8593",
"74 c #6C868A",
"75 c #6C868B",
"76 c #6C868C",
"77 c #6C868D",
"78 c #6C868E",
"79 c #6C868F",
"7: c #6C8690",
"7; c #6C8691",
"7< c #6C8692",
"7= c #6C8693",
"7> c #6C8694",
"7? c #6C878B",
"7@ c #6C878D",
"7A c #6C8790",
"7B c #6C8792",
"7C c #6C8793",
"7D c #6C8794",
"7E c #6C8796",
"7F c #6C888D",
"7G c #6C8891",
"7H c #6C8893",
"7I c #6C8894",
"7J c #6C8895",
"7K c #6C8896",
"7L c #6C898B",
"7M c #6C898D",
"7N c #6C8990",
"7O c #6C8991",
"7P c #6C8992",
"7Q c #6C8993",
"7R c #6C8994",
"7S c #6C8995",
"7T c #6C8996",
"7U c #6C8997",
"7V c #6C8A8F",
"7W c #6C8A96",
"7X c #6C8A97",
"7Y c #6C8A9A",
"7Z c #6C8B90",
"7[ c #6C8B91",
"7] c #6C8B92",
"7^ c #6C8B94",
"7_ c #6C8B96",
"7` c #6C8B97",
"7a c #6C8B99",
"7b c #6C8B9A",
"7c c #6C8C94",
"7d c #6C8C97",
"7e c #6C8C99",
"7f c #6C8C9A",
"7g c #6C8D93",
"7h c #6C8D97",
"7i c #6C8E93",
"7j c #6C8E95",
"7k c #6C8E99",
"7l c #6C8F96",
"7m c #6C9097",
"7n c #6D7878",
"7o c #6D7879",
"7p c #6D7A7C",
"7q c #6D7A81",
"7r c #6D7B79",
"7s c #6D7B7E",
"7t c #6D7B7F",
"7u c #6D7B81",
"7v c #6D7C7E",
"7w c #6D7C81",
"7x c #6D7D7E",
"7y c #6D7D7F",
"7z c #6D7D81",
"7{ c #6D7E7F",
"7| c #6D7E83",
"7} c #6D7E84",
"7~ c #6D7F80",
"8! c #6D7F81",
"8# c #6D7F84",
"8$ c #6D7F85",
"8% c #6D7F86",
"8& c #6D7F87",
"8' c #6D8082",
"8( c #6D8084",
"8) c #6D8087",
"8* c #6D8088",
"8+ c #6D808A",
"8, c #6D8183",
"8- c #6D8187",
"8. c #6D8188",
"8/ c #6D8189",
"80 c #6D818A",
"81 c #6D8285",
"82 c #6D8287",
"83 c #6D8288",
"84 c #6D828C",
"85 c #6D828E",
"86 c #6D8387",
"87 c #6D8388",
"88 c #6D838B",
"89 c #6D838C",
"8: c #6D838D",
"8; c #6D8390",
"8< c #6D8486",
"8= c #6D8487",
"8> c #6D8489",
"8? c #6D848B",
"8@ c #6D848D",
"8A c #6D848F",
"8B c #6D8588",
"8C c #6D8589",
"8D c #6D858A",
"8E c #6D858C",
"8F c #6D858D",
"8G c #6D8591",
"8H c #6D8685",
"8I c #6D868C",
"8J c #6D868D",
"8K c #6D868E",
"8L c #6D868F",
"8M c #6D8690",
"8N c #6D8693",
"8O c #6D8694",
"8P c #6D8788",
"8Q c #6D878C",
"8R c #6D878E",
"8S c #6D8790",
"8T c #6D8791",
"8U c #6D8792",
"8V c #6D8794",
"8W c #6D888A",
"8X c #6D888C",
"8Y c #6D8890",
"8Z c #6D8891",
"8[ c #6D8893",
"8] c #6D8894",
"8^ c #6D8895",
"8_ c #6D8896",
"8` c #6D898C",
"8a c #6D898E",
"8b c #6D8991",
"8c c #6D8995",
"8d c #6D8997",
"8e c #6D8A8F",
"8f c #6D8A92",
"8g c #6D8A97",
"8h c #6D8A98",
"8i c #6D8A99",
"8j c #6D8B91",
"8k c #6D8B92",
"8l c #6D8B94",
"8m c #6D8B96",
"8n c #6D8B97",
"8o c #6D8C93",
"8p c #6D8C94",
"8q c #6D8C95",
"8r c #6D8C97",
"8s c #6D8C98",
"8t c #6D8C99",
"8u c #6D8C9A",
"8v c #6D8D94",
"8w c #6D8D97",
"8x c #6D8D99",
"8y c #6D8D9A",
"8z c #6D8E97",
"8{ c #6D8E99",
"8| c #6D8F96",
"8} c #6D8F97",
"8~ c #6D9096",
"9! c #6D9097",
"9# c #6D9098",
"9$ c #6E7577",
"9% c #6E7A7B",
"9& c #6E7C7A",
"9' c #6E7C7D",
"9( c #6E7C80",
"9) c #6E7C82",
"9* c #6E7D7E",
"9+ c #6E7D81",
"9, c #6E7D82",
"9- c #6E7D85",
"9. c #6E7F81",
"9/ c #6E7F83",
"90 c #6E7F84",
"91 c #6E7F85",
"92 c #6E7F89",
"93 c #6E8081",
"94 c #6E8082",
"95 c #6E8083",
"96 c #6E8084",
"97 c #6E8085",
"98 c #6E8086",
"99 c #6E8087",
"9: c #6E8184",
"9; c #6E8185",
"9< c #6E8187",
"9= c #6E8188",
"9> c #6E818E",
"9? c #6E8285",
"9@ c #6E8287",
"9A c #6E8288",
"9B c #6E8289",
"9C c #6E828A",
"9D c #6E828E",
"9E c #6E828F",
"9F c #6E8387",
"9G c #6E8388",
"9H c #6E8389",
"9I c #6E8484",
"9J c #6E8485",
"9K c #6E8488",
"9L c #6E8489",
"9M c #6E848C",
"9N c #6E848D",
"9O c #6E8585",
"9P c #6E858C",
"9Q c #6E858E",
"9R c #6E858F",
"9S c #6E8591",
"9T c #6E868A",
"9U c #6E868B",
"9V c #6E868F",
"9W c #6E8691",
"9X c #6E8787",
"9Y c #6E8789",
"9Z c #6E878C",
"9[ c #6E878D",
"9] c #6E878E",
"9^ c #6E8791",
"9_ c #6E8889",
"9` c #6E888C",
"9a c #6E888E",
"9b c #6E888F",
"9c c #6E8893",
"9d c #6E8894",
"9e c #6E8896",
"9f c #6E898E",
"9g c #6E898F",
"9h c #6E8994",
"9i c #6E8996",
"9j c #6E8997",
"9k c #6E8A90",
"9l c #6E8A94",
"9m c #6E8A97",
"9n c #6E8A98",
"9o c #6E8A99",
"9p c #6E8B94",
"9q c #6E8B96",
"9r c #6E8B97",
"9s c #6E8B99",
"9t c #6E8C90",
"9u c #6E8C94",
"9v c #6E8D8F",
"9w c #6E8D97",
"9x c #6E8D98",
"9y c #6E8D99",
"9z c #6E8D9A",
"9{ c #6E8D9B",
"9| c #6E8E97",
"9} c #6E8E98",
"9~ c #6E8E9A",
":! c #6E8F94",
":# c #6E9099",
":$ c #6F787A",
":% c #6F7B7B",
":& c #6F7C7F",
":' c #6F7C80",
":( c #6F7D7F",
":) c #6F7D80",
":* c #6F7D81",
":+ c #6F7D83",
":, c #6F7F7D",
":- c #6F7F7F",
":. c #6F7F83",
":/ c #6F7F84",
":0 c #6F807E",
":1 c #6F8080",
":2 c #6F8083",
":3 c #6F8084",
":4 c #6F8086",
":5 c #6F8182",
":6 c #6F8185",
":7 c #6F8187",
":8 c #6F818A",
":9 c #6F8288",
":: c #6F8289",
":; c #6F828A",
":< c #6F828B",
":= c #6F8385",
":> c #6F8389",
":? c #6F838A",
":@ c #6F838D",
":A c #6F8488",
":B c #6F8489",
":C c #6F848B",
":D c #6F848C",
":E c #6F848D",
":F c #6F848F",
":G c #6F8585",
":H c #6F858B",
":I c #6F858D",
":J c #6F858E",
":K c #6F858F",
":L c #6F8687",
":M c #6F868C",
":N c #6F868D",
":O c #6F868E",
":P c #6F868F",
":Q c #6F8692",
":R c #6F8789",
":S c #6F878D",
":T c #6F878E",
":U c #6F878F",
":V c #6F8790",
":W c #6F8791",
":X c #6F8792",
":Y c #6F8793",
":Z c #6F888C",
":[ c #6F888D",
":] c #6F8890",
":^ c #6F8894",
":_ c #6F8896",
":` c #6F898B",
":a c #6F898C",
":b c #6F898D",
":c c #6F8990",
":d c #6F8992",
":e c #6F8994",
":f c #6F8995",
":g c #6F8997",
":h c #6F8A8B",
":i c #6F8A90",
":j c #6F8A94",
":k c #6F8A95",
":l c #6F8A97",
":m c #6F8A98",
":n c #6F8B90",
":o c #6F8C94",
":p c #6F8C97",
":q c #6F8C98",
":r c #6F8C99",
":s c #6F8C9A",
":t c #6F8D97",
":u c #6F8D99",
":v c #6F8D9A",
":w c #6F8F94",
":x c #6F8F99",
":y c #6F8F9A",
":z c #6F9195",
":{ c #707371",
":| c #70797E",
":} c #707B81",
":~ c #707C82",
";! c #707D7E",
";# c #707E80",
";$ c #707E81",
";% c #707E84",
";& c #707F80",
";' c #707F83",
";( c #707F84",
";) c #707F87",
";* c #70807F",
";+ c #708083",
";, c #708087",
";- c #70817D",
";. c #708186",
";/ c #708187",
";0 c #70818A",
";1 c #70818B",
";2 c #70818C",
";3 c #708286",
";4 c #708287",
";5 c #708288",
";6 c #708289",
";7 c #708386",
";8 c #708387",
";9 c #708388",
";: c #70838C",
";; c #708489",
";< c #70848A",
";= c #70848B",
";> c #70858A",
";? c #70858B",
";@ c #708590",
";A c #708686",
";B c #70868D",
";C c #70868E",
";D c #70868F",
";E c #708788",
";F c #70878D",
";G c #70878E",
";H c #708790",
";I c #708792",
";J c #708794",
";K c #70888C",
";L c #70888D",
";M c #708890",
";N c #708892",
";O c #708893",
";P c #708895",
";Q c #70898D",
";R c #708992",
";S c #708994",
";T c #708996",
";U c #708997",
";V c #708A8E",
";W c #708A90",
";X c #708A92",
";Y c #708A93",
";Z c #708A94",
";[ c #708A95",
";] c #708A96",
";^ c #708A97",
";_ c #708B8F",
";` c #708B90",
";a c #708B91",
";b c #708B93",
";c c #708B94",
";d c #708B96",
";e c #708B98",
";f c #708C90",
";g c #708C92",
";h c #708C93",
";i c #708C95",
";j c #708C98",
";k c #708C99",
";l c #708C9A",
";m c #708D94",
";n c #708D98",
";o c #708D9A",
";p c #708E94",
";q c #708E96",
";r c #708F90",
";s c #708F94",
";t c #709198",
";u c #717B7C",
";v c #717E80",
";w c #717E82",
";x c #717E84",
";y c #717F7F",
";z c #718080",
";{ c #718180",
";| c #718182",
";} c #718187",
";~ c #718286",
"<! c #718287",
"<# c #718384",
"<$ c #718389",
"<% c #718485",
"<& c #718487",
"<' c #718489",
"<( c #71848B",
"<) c #71848C",
"<* c #718586",
"<+ c #71858A",
"<, c #71858F",
"<- c #718687",
"<. c #718689",
"</ c #71868B",
"<0 c #71868C",
"<1 c #71868F",
"<2 c #71878C",
"<3 c #71878E",
"<4 c #718793",
"<5 c #71888E",
"<6 c #718890",
"<7 c #718892",
"<8 c #718893",
"<9 c #718895",
"<: c #718896",
"<; c #71898A",
"<< c #718990",
"<= c #718993",
"<> c #718A8D",
"<? c #718A90",
"<@ c #718A91",
"<A c #718A93",
"<B c #718B90",
"<C c #718B91",
"<D c #718B95",
"<E c #718B96",
"<F c #718B97",
"<G c #718C95",
"<H c #718C97",
"<I c #718D8E",
"<J c #718D8F",
"<K c #718D95",
"<L c #718D96",
"<M c #718D98",
"<N c #718E99",
"<O c #718E9B",
"<P c #718F99",
"<Q c #719090",
"<R c #719093",
"<S c #719198",
"<T c #719199",
"<U c #719396",
"<V c #719497",
"<W c #727D7F",
"<X c #727F80",
"<Y c #727F81",
"<Z c #728083",
"<[ c #728085",
"<] c #728088",
"<^ c #728289",
"<_ c #72828A",
"<` c #728388",
"<a c #728389",
"<b c #72838B",
"<c c #728487",
"<d c #728488",
"<e c #728489",
"<f c #728585",
"<g c #728589",
"<h c #72858A",
"<i c #72858D",
"<j c #728688",
"<k c #72868B",
"<l c #72868F",
"<m c #72878A",
"<n c #72878C",
"<o c #72878D",
"<p c #72888A",
"<q c #72888D",
"<r c #72888F",
"<s c #728890",
"<t c #728989",
"<u c #72898F",
"<v c #728993",
"<w c #728994",
"<x c #728996",
"<y c #728B94",
"<z c #728B96",
"<{ c #728B97",
"<| c #728D96",
"<} c #728D97",
"<~ c #728E97",
"=! c #728E99",
"=# c #729196",
"=$ c #729199",
"=% c #72939A",
"=& c #737F7F",
"=' c #73807C",
"=( c #738080",
"=) c #738084",
"=* c #738182",
"=+ c #738187",
"=, c #738287",
"=- c #738389",
"=. c #738489",
"=/ c #73848C",
"=0 c #738589",
"=1 c #73858A",
"=2 c #73858E",
"=3 c #738685",
"=4 c #73868B",
"=5 c #73868D",
"=6 c #73868E",
"=7 c #73878A",
"=8 c #73878B",
"=9 c #73878C",
"=: c #73878D",
"=; c #738889",
"=< c #73888B",
"== c #73888D",
"=> c #73888F",
"=? c #738890",
"=@ c #738892",
"=A c #73898E",
"=B c #73898F",
"=C c #738990",
"=D c #738992",
"=E c #738994",
"=F c #738A8F",
"=G c #738B8C",
"=H c #738B91",
"=I c #738B93",
"=J c #738B94",
"=K c #738B95",
"=L c #738C91",
"=M c #738C94",
"=N c #738C97",
"=O c #738D92",
"=P c #738D94",
"=Q c #738D97",
"=R c #738D98",
"=S c #738D9A",
"=T c #738E93",
"=U c #738E96",
"=V c #738E97",
"=W c #738E99",
"=X c #738F99",
"=Y c #738F9A",
"=Z c #738F9B",
"=[ c #739097",
"=] c #739196",
"=^ c #73919A",
"=_ c #73929B",
"=` c #73939C",
"=a c #739499",
"=b c #747E81",
"=c c #747F7B",
"=d c #748081",
"=e c #748181",
"=f c #748386",
"=g c #748487",
"=h c #748589",
"=i c #74858A",
"=j c #74868B",
"=k c #74868D",
"=l c #74868E",
"=m c #74878B",
"=n c #74878C",
"=o c #74888D",
"=p c #74898F",
"=q c #748990",
"=r c #748994",
"=s c #748A8E",
"=t c #748A93",
"=u c #748A94",
"=v c #748B8C",
"=w c #748B93",
"=x c #748B95",
"=y c #748C92",
"=z c #748C94",
"={ c #748C98",
"=| c #748D93",
"=} c #748D94",
"=~ c #748D95",
">! c #748D97",
"># c #748E94",
">$ c #748E9A",
">% c #748F99",
">& c #748F9A",
">' c #748F9B",
">( c #74919A",
">) c #757E7B",
">* c #758381",
">+ c #758384",
">, c #75868A",
">- c #75878B",
">. c #758995",
">/ c #758A8F",
">0 c #758A94",
">1 c #758A95",
">2 c #758B90",
">3 c #758B93",
">4 c #758B97",
">5 c #758C92",
">6 c #758C94",
">7 c #758C95",
">8 c #758C96",
">9 c #758C97",
">: c #758D90",
">; c #758D95",
">< c #758D98",
">= c #758E95",
">> c #758E9A",
">? c #758F8F",
">@ c #75909A",
">A c #75909B",
">B c #75949A",
">C c #76807F",
">D c #76868A",
">E c #76868C",
">F c #76888C",
">G c #768890",
">H c #76898E",
">I c #76898F",
">J c #768992",
">K c #768993",
">L c #768A8F",
">M c #768B94",
">N c #768B95",
">O c #768B96",
">P c #768C96",
">Q c #768D97",
">R c #768D98",
">S c #768E93",
">T c #768E97",
">U c #768E9B",
">V c #768F98",
">W c #768F99",
">X c #768F9A",
">Y c #769098",
">Z c #76909D",
">[ c #769199",
">] c #76919C",
">^ c #769298",
">_ c #769299",
">` c #76929A",
">a c #76979D",
">b c #778485",
">c c #77858A",
">d c #77888E",
">e c #778891",
">f c #77898F",
">g c #778A94",
">h c #778B97",
">i c #778C90",
">j c #778C95",
">k c #778C97",
">l c #778D91",
">m c #778E94",
">n c #778E96",
">o c #778E97",
">p c #778F97",
">q c #778F9A",
">r c #779093",
">s c #779094",
">t c #779099",
">u c #779199",
">v c #77919B",
">w c #77919D",
">x c #77949C",
">y c #78817F",
">z c #788687",
">{ c #788991",
">| c #788A8E",
">} c #788A90",
">~ c #788D98",
"?! c #788F93",
"?# c #788F97",
"?$ c #789098",
"?% c #78919C",
"?& c #789398",
"?' c #798B8E",
"?( c #798B90",
"?) c #798C89",
"?* c #798E93",
"?+ c #798E94",
"?, c #798F99",
"?- c #79929A",
"?. c #79939E",
"?/ c #79949D",
"?0 c #7A8588",
"?1 c #7A8889",
"?2 c #7A8A92",
"?3 c #7A8B91",
"?4 c #7A8D95",
"?5 c #7A8D96",
"?6 c #7A8E90",
"?7 c #7A9198",
"?8 c #7A929A",
"?9 c #7A959C",
"?: c #7B8C91",
"?; c #7B8F99",
"?< c #7B9095",
"?= c #7B9099",
"?> c #7B9196",
"?? c #7B9199",
"?@ c #7C9299",
"?A c #7C969D",
"?B c #7E8D90",
"?C c #7F8885",
"?D c #80959C",
/* pixels */
"6V4$:@7q,2>K8-4Q+]',#8!R!B8u=P5>>/7;?A:~,(/|8j-86H.@9u=T9I;a?$<6>W?.;g<n*F#25H6)=D:N.>7'<^=z=N2]=y63+g:q!_$!##,N3p/]1271-+4n:[6i",
";v4S(P./&i(!%U!,#n'Z-s#K&_$(3@9Y>Y=U;j:F(L=:>W<R<Q<t1+9])9<C>?=O:f;|<Z?(*h6]'g/m0M8F.)2m,x:*5V1K6F3D%r#^%.'@+N*?,L,~-|;3(w4S+90~",
"-]140c+q)E&X#~#Q#o'd&e/:+?5'4u-e=#:T<p>V'x7F-&,V!C!H(>#w2=4L,C,u9`<L>&4u<K2I,**v(0-F>L/n1>&W%$*+/}1..q#22.(?.,,j(N2T<u5Q901S,Y9S",
"*K/i*@&M372d/)*-'u!:0}3/07.{508l4n;o9T6$6*2v0:7R4F&9+1!`!F:V2l:L1G<z:?:K0E7a-~/9*^57<+2l7/7/7X,C4u1x8t.0'v&'+[1u$D6Z0a6x<8</337)",
"7^1;)6+o8(<g/$;**+'5/D/C(Z+e7A5r(a+?1,)91y)x(O3/,g$x%?!X>t6z9H;y9(;~5H'h$v,x5b5Y3l:E!~<'>q62=|-V9s%/(M+D$u.S2e-0+C7Q):1B>8;><s4T",
")I53'b3n9)52-`25/.']*c49!?#D4j7W8g;o6<5h0:./+Z)`*]6x/T9p7R<78A=C:('b7c(n&P546Q4+#r;63h9$%o9V2d*g6[:c.r-4+^0:5+'5(i$;2g=S9^'7341w",
"(o9B9=;#1%6~/u'n*T-Z2a,)#Y4E4</[2*<a7'>Q*a#B)_0I:^5Z/H-2=Y9~5%<i=6?24N/#3`*D%R3}&H::;@<h3a8V'^'b/,:C;W6K(%2Z782v)@!v#/.S)v#W%+'{",
"7u8N1)0t6`8f)[&a*I4#;d.=)$4w-#,T*|4&7':J(3)*(~,v/q.`$.*N467M/v<r=A;,7t8@9h27;$9Q=o<k:K6'(m.>(2*F)@(8)z1}*]0s8S!o!0'p#-1N&7+6#,'P",
"1>/R<=<#3{8M00,K1'/I2k*h$g;J/y+y1b0Q:y67(J&V%K/p4X0,5Q-D8k/c<<8&3l<()S/f6P6N:|>g8,8@-z:I#T/~+23P)q(g%k(E0~4d<O-0!M!U!O.Z'y8@,m2`",
",*6);B-t7#439D/S;:,],i*Q&`9c2`.S)*4H5|9{+U%o,o3S+I1|8Y4c>B?!<M>&;d=l4[0_(p9*+y=*3^<[<49M=>4+,';=7Z?0<q5I692}4e7P*(+)#:+K/C2`6@$|",
"*H-P:V7s2?5c4l9C;1-[/E(R&U$2!S.)+l9+.I1>!6#U60,f-d328}.]2]<s3&6h,6:d8}3|,5&83o2;;Q;u==:G=N2c3q:I2F>b2]:U8B(f/f77&p!K*{,`5S:m%c#q",
"8$1X/Y#s<W/n>x8+89/>,s%m/h*q+x1E6E3(1(-p)?)~;o-2!w%%&A)s2P5q7*5_5h4A7>%t%G&u=R-~*s5R7|>I>U7v>->08[??;S915|8`5g.*'=+Q<+5Y.()o2](7",
"415M)I!l5D,$?3,.7l8!0!9G:D;];40l$P!'5&&|%q(#,G2x#m#=#14Z4z5t,7/5)o4$>R%z0g;v?B5K:b2J/L=B8]$d/-1P1v9v409f?@1,=e%!!E'C5$&2!*%Q:Q7-",
"*o.()Q/t5b*b=+;&0[#u&L-o8z!8!M%@(j7S2-+X'G(1550::w4N285i6M'b'R);%F+m>v'a,J;.9/59<,7(?->J&&,<1W89${1Y#9%W>:=-9f=>%*%1:s''#?#|)8({",
"4=4c%W)K.W2#;L47,8.F(=6s4g!%!#(a=q<l5s,O,y+y/:2V+Z4b)-8Z03/H$X#*6s<,5x0=7(9;<d>d;x>H?;&Q)/%&0C=h9/4h;=3+4R,S0,040t4F848J;49:+x6d",
"/55|'Q2@![6&;e3,<..y-/9n1%*E!c9-3+3'.34z9g2l6#'q6!'-3W4j&|->*E-H3%(Q,N3k3D6^98=,?'86%e$S1($m>.9%6O6f=/>~&r+$1k6(>e.6-9-d,O%u/x89",
",|(Z7}!>2`?58a8!,S/6%k;s.B454%424])T,[%S&j=a=L5p2{7C(b0',{*4.G-j!=$4&X7o8=4G9^83<!<v$z&L'w6q=)9&%E!(2S679>=r7D<>7{1I/_:y?<={=}5h",
"*d/4*M$g1O;U/u2&*$.1873#(C%_!I'U.,5W*A)y2R7,212#3Y:z)o'#$j(Y2+1.+8*S(,0b/(0`0=;0:+>s=4(y2;;(91<X<0;X72135|/`+A-Y.B2Z<|;Y9<6;7X36",
"-@'O240j9r.l,y7J)g3b6c,W#y&*(Q2n/u(}*`8n;4/o#%'k617F<N2+#.#W*!+=)H/?,w4o;.%p($6e>c=81A=32G031=669?6e=r;Y<=1o-d5d-u92<&6w1<9J<K<T",
"2M-?=(:14J3:1f5j%v3k,0-b#t$$%3!k(e%-$8*k5(1S*=2E6,:v40354W#C-!0N#l(:%a)%3s+r6F8_>Z*z(7:W0I,q)u6p)'-=4^<_,O*J:B4)*L-r:.:2>k;f0A2&",
"8<*V<c9.8.0r0r4C/[1{/u5=(s'i0F%d+8%a(&,}+c*a$0'x6(/0$i*&2,-_-E.$#0%$+5'e3g5B.T*S5l#7#69l<A:?<w8)<-6h:&8T-U+h8G.50q2e2q<D>f4d<t:n",
"=I$F$9,a2&0r,>*Y5F0~'1%-#`)}-/1~+x&n.s.n+G.K.Y'J7/%N!+&@.u0u55/F*9)P.C)X.&0m9s6()N0L&)&w8|<z;O2;2t.-:P1[/h)O,A1$+F1q#f,)<x6o=w>=",
"7m+7/V1q.W*P&X/S41/D*s+3*#&-$u'G&c*r1z*(*1,p*23D=Z.P#>*/4l3U&_)7#A$#1<&k+%8]6z=_:l8l+816:S9d(T,%:i2z5W8*/:6i-U7'4Q/O2`4#2f7x<@4Z",
":40d)})V*x-E,?/k-!3-4'2u._'L'>&Z-Z${&3#2!q,K(N&>$@(54!1t4o+-,I*].i,W0*'?%y6r.C6.2.&=+a*0)i0*0F8T<::<4`8O5{-d2I1K1D,&2M8^0s%I&05d",
"58-U0+4c4f.G10'q,j*a&K!J!.,y.=;t)U,3.V4E&x$f%~$J+#$/!2*W0^4F9?(v*|$s4z$R4,4)/z8{0Y'J$O'G.b7I.~9Z:g03,l.U:V1-360-,O(J.B0)!m)m68:;",
"'+$r*Z2z2E-i2]-`4G#@#p'^,7/6$`.?+/(`4h'>#c#e(m#S&g%:#O#)-S9B%P5T2C=A>%/S0v7b3L;l692.3K+b04=V4H9w0H?/>P;@8j204[5!1p9#*t#K5[4i1i#Z",
"0N)b.6*Q%H!e!k,/*S#x#&-^-q%M)0,C/o'$/r,R#2*32(0)$r#<(k,M5W/j%|1#<031/l/f$k,h7`5h4d6B7>8m5/7S!P!49`91;@=u<I3a7'9W2X9^037J+`;R73.M",
"/V%j&g+j'W%y)p&]-T&c$|+3'B$p$f6K/s6<*f)a-&%c/5'o1N%}$6%H;+1@)10}.{,s3+(+(+,V)I'o4^&>0?){0P3F&,$l:c/M6o:Y897r4^!f)#)Q1T$t!/!7<17B",
"(/1[$g-A+w,S.#1))D&6+.*#%g&1$~!z%;8r)j,O.S3'2U-X$:#P%,*R)&1$!}$b/E%>.e){4M3%-E+v2O&;*)-5#_(1*j#!&U-r!&5)<u<%7~)!0n/},X&[)]((6o&$",
"&Y/P'|&V$['X6V8!)#!;&{(l&;+X(a#I111'#X$Z-T+F+1$,'r&s%[)+*U7;*Y+-)_&.*C$T'b7!7!992p.<4/$q$9$*-C'S$E0w!!!Q'z6|6p91:!+f4(%f)U#U2^+m",
"/-(B(B&P$n158C3t$W#G*_*E(9+Q(S-W5_-4*6)P%S,k+M%L!n)Q&b$a-r5m/?44=@(|*;'_$U46841..M'l)C*X&{!G859e;N6z'm/]*e,<4J/Q.K&z3I.)&g&}+'-c",
"1Q)4'c;(;::e5h66*^')%w%U$N%6#k'D$G3[(^3M'G(4,R)m(X.2*Y#$$c)M*B'T-N*80]-L)P1a-X5N1<0{)C,Q.G!57I0e5a,t+W4P/w,w/u+s3h1K0N-).%/]12,_",
"7;/i6R*i,&6z;[835<;v+~.R'x$0(>'69r-J-B+18X=u/j3r.=/N.!0x-l%b-V&F/.(C*k0Z7w9w;-9P;{6$&d,f''%H'l.e)(!-.d)o-/+7(A*G/5;^(d0V4k+<'%'[",
"8.9R,d96:?://s+E,y.I-Y&e#b)J$t.62u%J(z,6>D8>2).M&N&S%O$%'*2h8*4:5X2y2%0*/(;r/o-d77;[)N1`32*F%P7U1Z%e'E(<35.8(&&B&h%]-,0G!r%7%Y&o",
"8O8#1L;D<b83:)7T<U2$/U$5%k&*,U*])|.7%e7i5u,>%V+j'V5Q!}%D!D)*1>*j/B1Y<{>i7n4:#}3'6/7<(q4L&((!'t7U;T8d4i.C2i0F)Z2!1p/t*u/g'45q7H7=",
"3(,W,s/+-v0w9?>!5h-a)^:M,I#a%5(7.`*V's%u6u)7-G5_7Q>49E9/0z)L4;3+6t!s!d;M8D:8,,9R>j3a:59X):1j9r3-8O0#6)2y(.)`7$6n-f#F690Q)F.84K)R",
"*j0<4<266a6U5P-.0R*^%n&^*m$}'Z([)Y)V'j?%/B3c)%/f31;P(H4V/7&}3y93(x!a!h7d+N4i5Y3J5~#'!V2o-y=~3z1F-63.6')t*].77R'H$|!<!^.w(?6_:3:j",
"3r*O5:5;2t5D4N,F2_$e#u$+(C1u0J.=%6,A-k>@5H7,.J(F4&47,7/;%Y1]-X)P!Z#R.B0&,s9A475J:90B$C'0+u;/5v2[/U)d3K(;+;3F2$.>#V!T$H*%/X9N6D<)",
"6W453%4}7+9d2Q2_5h,F3y*u-d).'Y&y/]2|8E=X;`6h8r969m4x9F6Y,:4$-V&5';)h.e(V&~7_8m4P=f:H7`=n6V971#6s/O%k/f)2/y.L/M4*%1&/:[3(9w6K3r:&",
"9]6b2|'85k=E48)>,l-{8J7w's!I!1-h2j+(%e))4q8R4L)_.J.i6}+0(Z-f+N6%%X3j/86z5_9b1l.^'#%g+S*X*:0N:e46'1=J=H0|,%,.(t3v'.&#:O:i+B-'0?2|",
"-_.:(?(E9d:><M1P)f4G'}'s7w#5'>,@-n$V(Q1&6k3O8H6*5A/A0+4o7I.A7A+62e+10y/^8w7V&l4n'9(Q&60/(+4v)<%g5M6#7`&('q+4#J#}&e'H=%#i&@0T.[&h",
"1F&b1V7+0':t1P-{<M8J0E8J0E1c#4%V!d'|-M7C8x<P2i<}9O1R7%772g75/S/A/A:65-5!223Q+L+X%53|8i.W3H:6/H0~;.884k0>&<+b)0,g.0+Z3B'.+?=$0!*p",
"9f&m,;/G1^'^-R<M,l-{%{%{7D6.+}!]2H2].o.E8j2P/O+8+8<+4#<39|,E2:1T579K1m*(5,/n.e&D7Y:j0v/a8~1</V2g:G2`8L%p%8'8,+.;3V)q(g#30.;b5{&n",
"4D.|'!6l(-!j$>%Z*c/M,1'~&q0#3=+,+B'<$A/}7&,/1!7h:t:N814V3x2n0~:i++38617d74/b'F8@<S&>+(0N:t8v(61H!U:J9L9w#J$')t(]0<&y0;.Y/V6>.o2u",
"<F2306,x&f!)!b,-*X&o1?4.%(.-.j.t.m(U(,$J%!!A6(8e3d614s:`5c3E<J%C.h.M5f4~+?#;$?5!5)'2#E5.7D1s.'){$L2W2+%'&w/e*&1t!$!@<|.p&o,W3Z.k",
">$:?)B4e0y6]6^/j,V%h+H)p(M6e/y(?)e/~516A#j><2'.p$w%l-54|4M<;2b!i*~+{*N8=*52~%B'K+Y0)$=8]3;7B9u4_/V>l${-%%X*#&;;j9s#]&!,v'#>,>$7@",
"3R(95Q5}5G*A(r,N2I7w,#,P8N4()Q)W,X+N7(6C=Q>36j,w1y6++T,Z0~,V:N4}8F4V9@6|2,1_0K(f(h4V+k8d3%+!0)-x7L=0(#6?+8$3)w0Q.K$<%=(I17,//K.O",
",?2u=!=k6(<o-^)=.N3!.>2Z(-/W+11X7e3e6n2_(g1C1Y7K4z.I)k+T3?7'7f)r.x6J3'30$D-:*1-,(a8I(&>I0O0i*,'I4m6{2_5_)P450X,H,g+P%))c2A6h$>&m",
"=F7R<~<j0(8h0o#H-//{$11V1n)f;m7$>p-I4D5I9`8S6B3V/@+D1t09/V4t67+b8r7k0U+>*[&40N6G0@5]%v>6033q.5,^7J$F1:'&!t1&&>$Q7b642X<O5-;i1M6=",
"6h6X-m:o+7703C'}&+,r+V!x.p1~0==<8i79-33&9o;f8Y&++E4g4p3>;S=J8w7T9m>^9y2{2b;;05<m2f4>:l?=:f<E-e0N,Z)58V$y%p4F1h$I-w+d.q'M.S2n&w1S",
"959,-m5o<D.';J$].+.W#{$&.c,)&J()>#;n:[<P7[8i,B,22Z7O0#$M!W081y.z8t<=<C4B4{195H3y+V/':h7c3$3#%#)A1J#v!N/W9!48/F)W4o${2?$K+_3]-1)O",
"<?$C9,7w9U1`0J1r,x$7.J<w,D&T($5e6#(K-*)W,g+G#(/*79!Y1y8q*.('3A=m8,>a3T.H(Z,b/=8r:s6w:C;?;7:n2J),5?0`!|3v5X/K0k,&,x2:6k&:%2--3X%<",
",0!y2=0h+S4N:a7./V'D02+Q#w#L,+6?/i+R:k8I0#&%!{5U#M!u!p%_0$'<5z>F3u:u.}7d(S2794=G8?/[.G)C*N+p;,5h)C/?;%<96./]6_3#32476m#g#h.f4z'F",
"&[&b.,<{=`<89q1.3~4O5*3>'N7`+?.D+:+@>;8075>M)W6:)>!g*>/2!39t+L$)**.v5)>];T;c6,5P=;8K-g$g&I,!<w8U..*y3!4Y#Q5~>9;;;J74$0&x8o9s8i%c",
"-m;F9i2c:}=q(G#d)W.9<A1t;h+J7H:p;_;S?,<y>N9M8c5t=K%x1=&h=g6(8^*l2K>'<5>(>w1E6'<F>{>E:'/G)C&12r<+>.5Q4R4)*c8//A%i3-4@&G0$11$B*7-7",
"4d/e7C4[</4-*t#N04<3<5/%+<4:/j:t=[,O;P5E<2>O?4&d4)=5>17E1t,y+*+i3f=.7G=v>A=i8B'&)y&|$^(D$h)l-n/H5L4_7]826v911*'/#w5R-e/V&#&|1z2a",
"(J%s&?+b,z&;2Q5y>[9a;>9F:n8o6I5#7J$6%`=b;w<o6.7:<*?C6{398N)o&_$Y;4<e;A;G3r3m3_,,(c-F%0'`'b*`*T*I;V2X3;,0)V8_0W)A;p:_.^+z#[&[(*&C",
"-m(W0E4y4o5~8X?&9[.Q.n4r.a=^,n,d'5)0=j?*=d976X8;>+?6;Y;O=48P1/<`<)>7>`=s9:7w'f(@5`'e/y6t:0-<%42Z:=%^/J<Y+|;i9j-(-x!L'3.4&]8]2N,.",
"*W'h/}2+:x1f0%<G;I2D4C659z9l;k42<3=h/<:7<f;?<06T>*?);E:2<+1e>5:4/c89;5;z6S+($_-^(14?4?7?97$o+38W'b'>:>;</11i1B.F,=,/4U*w2/1S':&R",
"'A8:-V:Z5^2L76:r9m<!<|5)8s8y9m=M>G=t>h?72]:4>2>C='>|=c>)=7=y<K8Q:]>_:D3`8'<3*<=-=M>>016.:I)1,]1r(W>n<B<V&t3G7H*'.d1Y1Y8p4a4h7g(_",
"6o7:2R2>2Y0p2w+O,c4_3N>:1g2~9u:e#+,>>$4L/l6n;C?16y:,9'=&9_9k;[;q1#0>=2*D5n18+t=?2B)o'r5_/o&E..7-;K=W7j.g651d>T%u.A'>)4:X1V4h:A<y",
"8b6$)3<=+n*L2y3<8c#z)G!97N:A:p2c*<,4>w>r3P?9=|3i:%:c5@9x9}=]9d<H;Z;S>o>X)z-K)I5z/6,9/|:*//7z>u=1<$;':#>o1U6L-}+#-p'Y+-4A)*959r6g",
"/s'-0q:729&O4D;H8%/])</3>S396--O3*/Z6E?#?8;9<@:{;!?D>m?:?+-5%A2s=9>z>y=x;d6?4'4R-n6]:$3k5W,g1j5w*})n9W5O+&'(,W-$0a0f2l:V3g6j3e56",
"0);)<];}6V7p/&*L%T,e%9#N;89V/B7y)W3)9O:t&v/d/!*n<`8E>}?>:-<e6.4I7#:6:.6(-;1j8m;2(u2<5B:<=p9+0D0S0,6A339a$--Q(J-h.X3w*T:R=8=t6_5C"
};
