/* XPM */
static char *non_tiled_texture_09[] = {
/* columns rows colors chars-per-pixel */
"64 64 2479 2",
/* colors */
"!! c #26221E",
"!# c #262220",
"!$ c #28221D",
"!% c #29211C",
"!& c #29221E",
"!' c #29221F",
"!( c #292322",
"!) c #292421",
"!* c #292522",
"!+ c #292725",
"!, c #2A231F",
"!- c #2A2420",
"!. c #2B2420",
"!/ c #2B2421",
"!0 c #2B2422",
"!1 c #2B2522",
"!2 c #2B2523",
"!3 c #2C2420",
"!4 c #2C2422",
"!5 c #2C2522",
"!6 c #2C2523",
"!7 c #2C2524",
"!8 c #2C2622",
"!9 c #2C2623",
"!: c #2C2624",
"!; c #2C2723",
"!< c #2C2824",
"!= c #2D2520",
"!> c #2D2522",
"!? c #2D2523",
"!@ c #2D2622",
"!A c #2D2623",
"!B c #2D2624",
"!C c #2D2720",
"!D c #2D2722",
"!E c #2D2723",
"!F c #2D2724",
"!G c #2D2725",
"!H c #2D2726",
"!I c #2D2822",
"!J c #2D2823",
"!K c #2D2824",
"!L c #2D2826",
"!M c #2E2522",
"!N c #2E2622",
"!O c #2E2722",
"!P c #2E2723",
"!Q c #2E2724",
"!R c #2E2823",
"!S c #2E2824",
"!T c #2E2825",
"!U c #2E2826",
"!V c #2F2722",
"!W c #2F2723",
"!X c #2F2724",
"!Y c #2F2726",
"!Z c #2F2823",
"![ c #2F2824",
"!] c #2F2825",
"!^ c #2F2826",
"!_ c #2F2827",
"!` c #2F2924",
"!a c #2F2925",
"!b c #2F2926",
"!c c #2F2927",
"!d c #302822",
"!e c #302823",
"!f c #302824",
"!g c #302825",
"!h c #302826",
"!i c #302923",
"!j c #302924",
"!k c #302925",
"!l c #302926",
"!m c #302A24",
"!n c #302A26",
"!o c #302A27",
"!p c #302C27",
"!q c #312824",
"!r c #312825",
"!s c #312826",
"!t c #312924",
"!u c #312925",
"!v c #312926",
"!w c #312A24",
"!x c #312A25",
"!y c #312A26",
"!z c #312A27",
"!{ c #312B26",
"!| c #312B27",
"!} c #312B28",
"!~ c #312B2A",
"#! c #312D28",
"## c #322825",
"#$ c #322926",
"#% c #322A25",
"#& c #322A26",
"#' c #322A27",
"#( c #322A29",
"#) c #322B25",
"#* c #322B26",
"#+ c #322B27",
"#, c #322B28",
"#- c #322B29",
"#. c #322C25",
"#/ c #322C27",
"#0 c #322D29",
"#1 c #332825",
"#2 c #332A25",
"#3 c #332A26",
"#4 c #332A27",
"#5 c #332A28",
"#6 c #332B25",
"#7 c #332B26",
"#8 c #332B27",
"#9 c #332B28",
"#: c #332B29",
"#; c #332B2A",
"#< c #332C25",
"#= c #332C27",
"#> c #332C28",
"#? c #332C2A",
"#@ c #332D28",
"#A c #332D29",
"#B c #332D2A",
"#C c #332D2B",
"#D c #332E2A",
"#E c #342B27",
"#F c #342B28",
"#G c #342B29",
"#H c #342C26",
"#I c #342C27",
"#J c #342C28",
"#K c #342C29",
"#L c #342C2A",
"#M c #342D25",
"#N c #342D27",
"#O c #342D28",
"#P c #342D29",
"#Q c #342D2A",
"#R c #342D2B",
"#S c #342E29",
"#T c #342E2A",
"#U c #342E2B",
"#V c #342E2C",
"#W c #342F29",
"#X c #342F2B",
"#Y c #352B26",
"#Z c #352B27",
"#[ c #352C26",
"#] c #352D27",
"#^ c #352D28",
"#_ c #352D29",
"#` c #352D2A",
"#a c #352D2B",
"#b c #352E29",
"#c c #352E2A",
"#d c #352F27",
"#e c #352F2A",
"#f c #362C2A",
"#g c #362D27",
"#h c #362D28",
"#i c #362D29",
"#j c #362D2A",
"#k c #362E26",
"#l c #362E27",
"#m c #362E29",
"#n c #362E2A",
"#o c #362E2B",
"#p c #362F27",
"#q c #362F28",
"#r c #362F29",
"#s c #362F2A",
"#t c #362F2B",
"#u c #362F2C",
"#v c #36302A",
"#w c #36302B",
"#x c #36302C",
"#y c #36302D",
"#z c #36312B",
"#{ c #372E29",
"#| c #372E2A",
"#} c #372E2B",
"#~ c #372F27",
"$! c #372F29",
"$# c #372F2A",
"$$ c #372F2B",
"$% c #373027",
"$& c #373029",
"$' c #37302C",
"$( c #37302D",
"$) c #37302E",
"$* c #37312A",
"$+ c #37312B",
"$, c #37312C",
"$- c #37312D",
"$. c #37322D",
"$/ c #382C26",
"$0 c #382E2A",
"$1 c #382E2B",
"$2 c #382F27",
"$3 c #382F28",
"$4 c #382F29",
"$5 c #382F2A",
"$6 c #383027",
"$7 c #383029",
"$8 c #38302A",
"$9 c #38302B",
"$: c #38302C",
"$; c #38302D",
"$< c #38312A",
"$= c #38312B",
"$> c #38312C",
"$? c #38312D",
"$@ c #38312E",
"$A c #38322C",
"$B c #38322D",
"$C c #392F27",
"$D c #392F28",
"$E c #392F29",
"$F c #392F2A",
"$G c #393029",
"$H c #39302A",
"$I c #39302B",
"$J c #39302C",
"$K c #39302D",
"$L c #393129",
"$M c #39312A",
"$N c #39312B",
"$O c #39312C",
"$P c #39312D",
"$Q c #39312E",
"$R c #39322B",
"$S c #39322C",
"$T c #39322D",
"$U c #39322E",
"$V c #39332F",
"$W c #3A3028",
"$X c #3A3128",
"$Y c #3A312A",
"$Z c #3A312B",
"$[ c #3A312C",
"$] c #3A312D",
"$^ c #3A3229",
"$_ c #3A322A",
"$` c #3A322B",
"$a c #3A322D",
"$b c #3A322E",
"$c c #3A322F",
"$d c #3A332B",
"$e c #3A332E",
"$f c #3B3028",
"$g c #3B3029",
"$h c #3B302B",
"$i c #3B3129",
"$j c #3B312A",
"$k c #3B312B",
"$l c #3B312C",
"$m c #3B312D",
"$n c #3B312E",
"$o c #3B3228",
"$p c #3B3229",
"$q c #3B322A",
"$r c #3B322B",
"$s c #3B322C",
"$t c #3B322D",
"$u c #3B322E",
"$v c #3B3230",
"$w c #3B3329",
"$x c #3B332A",
"$y c #3B332B",
"$z c #3B332C",
"${ c #3B332D",
"$| c #3B332F",
"$} c #3B3331",
"$~ c #3B342B",
"%! c #3B342D",
"%# c #3B342E",
"%$ c #3B342F",
"%% c #3B3430",
"%& c #3B352A",
"%' c #3B352F",
"%( c #3B3531",
"%) c #3B362F",
"%* c #3C3028",
"%+ c #3C302C",
"%, c #3C322B",
"%- c #3C322C",
"%. c #3C332A",
"%/ c #3C332C",
"%0 c #3C332D",
"%1 c #3C332F",
"%2 c #3C3330",
"%3 c #3C342C",
"%4 c #3C342D",
"%5 c #3C342E",
"%6 c #3C342F",
"%7 c #3C3430",
"%8 c #3C3431",
"%9 c #3C352D",
"%: c #3C352E",
"%; c #3C352F",
"%< c #3C3530",
"%= c #3C3531",
"%> c #3C362E",
"%? c #3C362F",
"%@ c #3C3630",
"%A c #3C3631",
"%B c #3C372F",
"%C c #3C3732",
"%D c #3D322D",
"%E c #3D332A",
"%F c #3D332B",
"%G c #3D332E",
"%H c #3D3330",
"%I c #3D342B",
"%J c #3D342C",
"%K c #3D342E",
"%L c #3D342F",
"%M c #3D3430",
"%N c #3D3431",
"%O c #3D352C",
"%P c #3D352D",
"%Q c #3D352E",
"%R c #3D352F",
"%S c #3D3530",
"%T c #3D362C",
"%U c #3D362D",
"%V c #3D362F",
"%W c #3D3630",
"%X c #3D3631",
"%Y c #3D382D",
"%Z c #3D382E",
"%[ c #3D3832",
"%] c #3E342B",
"%^ c #3E342D",
"%_ c #3E352C",
"%` c #3E352D",
"%a c #3E352E",
"%b c #3E352F",
"%c c #3E3530",
"%d c #3E362D",
"%e c #3E362E",
"%f c #3E362F",
"%g c #3E3630",
"%h c #3E3632",
"%i c #3E372E",
"%j c #3E372F",
"%k c #3E3730",
"%l c #3E3731",
"%m c #3E382E",
"%n c #3E3830",
"%o c #3E3832",
"%p c #3F332D",
"%q c #3F3430",
"%r c #3F352C",
"%s c #3F352D",
"%t c #3F352E",
"%u c #3F352F",
"%v c #3F3530",
"%w c #3F3531",
"%x c #3F362D",
"%y c #3F362F",
"%z c #3F3630",
"%{ c #3F3631",
"%| c #3F372E",
"%} c #3F372F",
"%~ c #3F3730",
"&! c #3F3733",
"&# c #3F3734",
"&$ c #3F3830",
"&% c #3F3831",
"&& c #3F3932",
"&' c #3F3A30",
"&( c #40352D",
"&) c #40352E",
"&* c #403530",
"&+ c #40362C",
"&, c #40362D",
"&- c #40362E",
"&. c #40362F",
"&/ c #403630",
"&0 c #403631",
"&1 c #40372C",
"&2 c #40372D",
"&3 c #40372E",
"&4 c #40372F",
"&5 c #403730",
"&6 c #40382F",
"&7 c #403830",
"&8 c #403831",
"&9 c #403832",
"&: c #40392E",
"&; c #40392F",
"&< c #403932",
"&= c #403A30",
"&> c #403A32",
"&? c #403A33",
"&@ c #41362F",
"&A c #413631",
"&B c #41372C",
"&C c #41372F",
"&D c #413730",
"&E c #413731",
"&F c #41382F",
"&G c #413830",
"&H c #413831",
"&I c #413832",
"&J c #413833",
"&K c #413834",
"&L c #413930",
"&M c #413931",
"&N c #413932",
"&O c #413A31",
"&P c #413A32",
"&Q c #413A33",
"&R c #413B35",
"&S c #42362C",
"&T c #423630",
"&U c #42372D",
"&V c #42372E",
"&W c #42372F",
"&X c #42382E",
"&Y c #42382F",
"&Z c #423830",
"&[ c #423832",
"&] c #423834",
"&^ c #42392E",
"&_ c #423930",
"&` c #423931",
"&a c #423932",
"&b c #423934",
"&c c #423A30",
"&d c #423A31",
"&e c #423A32",
"&f c #423A33",
"&g c #423A34",
"&h c #423A36",
"&i c #423B33",
"&j c #43352F",
"&k c #43382F",
"&l c #433830",
"&m c #433832",
"&n c #43392F",
"&o c #433930",
"&p c #433932",
"&q c #433933",
"&r c #433935",
"&s c #433A30",
"&t c #433A31",
"&u c #433A32",
"&v c #433A33",
"&w c #433A34",
"&x c #433A35",
"&y c #433B33",
"&z c #433B35",
"&{ c #433B37",
"&| c #433C34",
"&} c #433C36",
"&~ c #443830",
"'! c #443932",
"'# c #443A2E",
"'$ c #443A30",
"'% c #443A31",
"'& c #443A32",
"'' c #443B31",
"'( c #443B32",
"') c #443B33",
"'* c #443B34",
"'+ c #443B35",
"', c #443C33",
"'- c #443D32",
"'. c #443D33",
"'/ c #453A32",
"'0 c #453A36",
"'1 c #453B32",
"'2 c #453B33",
"'3 c #453B35",
"'4 c #453C33",
"'5 c #453C35",
"'6 c #453C36",
"'7 c #453D33",
"'8 c #453D34",
"'9 c #453D35",
"': c #453F3A",
"'; c #463B32",
"'< c #463B33",
"'= c #463B36",
"'> c #463C31",
"'? c #463C33",
"'@ c #463C35",
"'A c #463C3B",
"'B c #463D32",
"'C c #463D33",
"'D c #463D35",
"'E c #463E34",
"'F c #463E35",
"'G c #463F35",
"'H c #473B33",
"'I c #473B34",
"'J c #473C32",
"'K c #473C3C",
"'L c #473D32",
"'M c #473D33",
"'N c #473D34",
"'O c #473D35",
"'P c #473D3B",
"'Q c #473E32",
"'R c #473F33",
"'S c #473F35",
"'T c #483D33",
"'U c #483D35",
"'V c #483E34",
"'W c #483E3C",
"'X c #483F33",
"'Y c #483F35",
"'Z c #483F37",
"'[ c #483F38",
"'] c #493E33",
"'^ c #493F33",
"'_ c #493F35",
"'` c #493F36",
"'a c #493F37",
"'b c #493F38",
"'c c #494037",
"'d c #49423C",
"'e c #4A3C34",
"'f c #4A3E35",
"'g c #4A3E3B",
"'h c #4A3F34",
"'i c #4A3F3D",
"'j c #4A4038",
"'k c #4A4137",
"'l c #4A4138",
"'m c #4A4139",
"'n c #4A413A",
"'o c #4A413D",
"'p c #4A413E",
"'q c #4A4342",
"'r c #4B3C37",
"'s c #4B3E33",
"'t c #4B3F36",
"'u c #4B3F37",
"'v c #4B4135",
"'w c #4B4137",
"'x c #4B4138",
"'y c #4B4139",
"'z c #4B4238",
"'{ c #4B4239",
"'| c #4B443A",
"'} c #4C3F3B",
"'~ c #4C403C",
"(! c #4C4139",
"(# c #4C413A",
"($ c #4C4140",
"(% c #4C4239",
"(& c #4C423A",
"(' c #4C4243",
"(( c #4C4338",
"() c #4C4339",
"(* c #4C4443",
"(+ c #4D3F3C",
"(, c #4D3F40",
"(- c #4D403C",
"(. c #4D403D",
"(/ c #4D4042",
"(0 c #4D4139",
"(1 c #4D413B",
"(2 c #4D4140",
"(3 c #4D4141",
"(4 c #4D4337",
"(5 c #4D4339",
"(6 c #4D4342",
"(7 c #4D4439",
"(8 c #4D4444",
"(9 c #4D453B",
"(: c #4E403B",
"(; c #4E413B",
"(< c #4E413D",
"(= c #4E4140",
"(> c #4E4142",
"(? c #4E4241",
"(@ c #4E4339",
"(A c #4E433B",
"(B c #4E4546",
"(C c #4E4640",
"(D c #4E4643",
"(E c #4F403A",
"(F c #4F403B",
"(G c #4F403C",
"(H c #4F413B",
"(I c #4F413C",
"(J c #4F413D",
"(K c #4F423E",
"(L c #4F4340",
"(M c #4F4343",
"(N c #4F443A",
"(O c #4F443B",
"(P c #4F4441",
"(Q c #4F4539",
"(R c #4F453C",
"(S c #4F453E",
"(T c #4F4541",
"(U c #4F4745",
"(V c #50413D",
"(W c #50413E",
"(X c #50423A",
"(Y c #50433E",
"(Z c #504340",
"([ c #504341",
"(] c #504342",
"(^ c #504343",
"(_ c #50443D",
"(` c #50443E",
"(a c #504441",
"(b c #504443",
"(c c #504539",
"(d c #504541",
"(e c #504542",
"(f c #504741",
"(g c #504743",
"(h c #504846",
"(i c #51433E",
"(j c #514342",
"(k c #51443C",
"(l c #51443E",
"(m c #514440",
"(n c #51453A",
"(o c #514541",
"(p c #514542",
"(q c #514543",
"(r c #514545",
"(s c #514546",
"(t c #514644",
"(u c #514646",
"(v c #514741",
"(w c #514949",
"(x c #524240",
"(y c #524340",
"(z c #524341",
"({ c #524342",
"(| c #52443A",
"(} c #52443B",
"(~ c #52443D",
")! c #524441",
")# c #524444",
")$ c #524540",
")% c #524541",
")& c #524543",
")' c #524545",
")( c #524642",
")) c #524643",
")* c #524645",
")+ c #524744",
"), c #524747",
")- c #524846",
"). c #53443E",
")/ c #534442",
")0 c #53453E",
")1 c #534540",
")2 c #534541",
")3 c #534543",
")4 c #534544",
")5 c #534640",
")6 c #534643",
")7 c #534646",
")8 c #534647",
")9 c #534741",
"): c #534743",
"); c #534745",
")< c #534746",
")= c #534747",
")> c #534749",
")? c #534843",
")@ c #534845",
")A c #534846",
")B c #534847",
")C c #534848",
")D c #534A47",
")E c #54423C",
")F c #54443C",
")G c #544442",
")H c #544541",
")I c #544542",
")J c #544543",
")K c #544641",
")L c #544642",
")M c #544643",
")N c #544644",
")O c #544645",
")P c #544646",
")Q c #544647",
")R c #544741",
")S c #544745",
")T c #544746",
")U c #54483E",
")V c #544844",
")W c #544846",
")X c #544847",
")Y c #544944",
")Z c #544945",
")[ c #544946",
")] c #544947",
")^ c #544949",
")_ c #544A46",
")` c #544A49",
")a c #544A4A",
")b c #544B46",
")c c #544B49",
")d c #554441",
")e c #55453E",
")f c #554640",
")g c #554642",
")h c #554645",
")i c #554646",
")j c #554740",
")k c #554742",
")l c #554743",
")m c #554744",
")n c #554745",
")o c #554746",
")p c #554747",
")q c #554749",
")r c #554842",
")s c #554845",
")t c #554846",
")u c #554847",
")v c #554848",
")w c #554942",
")x c #554944",
")y c #554946",
")z c #554947",
"){ c #554948",
")| c #554949",
")} c #554A45",
")~ c #554A47",
"*! c #554A48",
"*# c #554A49",
"*$ c #554A4A",
"*% c #554B44",
"*& c #554B49",
"*' c #554C48",
"*( c #554C4A",
"*) c #554D48",
"** c #554D4B",
"*+ c #554D4D",
"*, c #564543",
"*- c #564642",
"*. c #564643",
"*/ c #564647",
"*0 c #564742",
"*1 c #564743",
"*2 c #564744",
"*3 c #564746",
"*4 c #564747",
"*5 c #564841",
"*6 c #564843",
"*7 c #564844",
"*8 c #564845",
"*9 c #564846",
"*: c #564941",
"*; c #564943",
"*< c #564944",
"*= c #564946",
"*> c #564948",
"*? c #56494A",
"*@ c #564A45",
"*A c #564A46",
"*B c #564A47",
"*C c #564A48",
"*D c #564A49",
"*E c #564A4B",
"*F c #564B48",
"*G c #564B4B",
"*H c #564C48",
"*I c #564C49",
"*J c #564D4B",
"*K c #574742",
"*L c #574743",
"*M c #574745",
"*N c #574746",
"*O c #574841",
"*P c #574843",
"*Q c #574844",
"*R c #574845",
"*S c #574847",
"*T c #574942",
"*U c #574943",
"*V c #574945",
"*W c #574946",
"*X c #574947",
"*Y c #574948",
"*Z c #574A45",
"*[ c #574A46",
"*] c #574A47",
"*^ c #574A4A",
"*_ c #574B46",
"*` c #574B47",
"*a c #574B49",
"*b c #574B4A",
"*c c #574B4B",
"*d c #574C48",
"*e c #574C4A",
"*f c #574D47",
"*g c #574D4B",
"*h c #574F4C",
"*i c #584840",
"*j c #584842",
"*k c #584845",
"*l c #584847",
"*m c #584943",
"*n c #584944",
"*o c #584945",
"*p c #584946",
"*q c #584948",
"*r c #584949",
"*s c #58494A",
"*t c #584A44",
"*u c #584A45",
"*v c #584A46",
"*w c #584A47",
"*x c #584A49",
"*y c #584A4A",
"*z c #584B46",
"*{ c #584B47",
"*| c #584B48",
"*} c #584B49",
"*~ c #584B4A",
"+! c #584C47",
"+# c #584C48",
"+$ c #584C49",
"+% c #584C4A",
"+& c #584C4B",
"+' c #584C4C",
"+( c #584C4D",
"+) c #584D44",
"+* c #584D45",
"++ c #584D49",
"+, c #584D4A",
"+- c #584D4B",
"+. c #584E49",
"+/ c #584E4D",
"+0 c #584F4B",
"+1 c #584F4C",
"+2 c #584F4E",
"+3 c #58504D",
"+4 c #594846",
"+5 c #594943",
"+6 c #594944",
"+7 c #594945",
"+8 c #59494A",
"+9 c #594A42",
"+: c #594A44",
"+; c #594A45",
"+< c #594A47",
"+= c #594A48",
"+> c #594A49",
"+? c #594B42",
"+@ c #594B44",
"+A c #594B46",
"+B c #594B47",
"+C c #594B48",
"+D c #594B49",
"+E c #594B4A",
"+F c #594C46",
"+G c #594C47",
"+H c #594C48",
"+I c #594C49",
"+J c #594C4A",
"+K c #594C4C",
"+L c #594C4D",
"+M c #594D47",
"+N c #594D48",
"+O c #594D49",
"+P c #594D4A",
"+Q c #594D4B",
"+R c #594D4D",
"+S c #594D4E",
"+T c #594E48",
"+U c #594E49",
"+V c #594E4C",
"+W c #594E4D",
"+X c #59504C",
"+Y c #59504F",
"+Z c #5A4A43",
"+[ c #5A4A46",
"+] c #5A4A4B",
"+^ c #5A4B45",
"+_ c #5A4B46",
"+` c #5A4B47",
"+a c #5A4B48",
"+b c #5A4B4B",
"+c c #5A4C46",
"+d c #5A4C47",
"+e c #5A4C48",
"+f c #5A4C49",
"+g c #5A4C4A",
"+h c #5A4C4B",
"+i c #5A4C4C",
"+j c #5A4D40",
"+k c #5A4D44",
"+l c #5A4D46",
"+m c #5A4D47",
"+n c #5A4D48",
"+o c #5A4D49",
"+p c #5A4D4A",
"+q c #5A4D4D",
"+r c #5A4E47",
"+s c #5A4E48",
"+t c #5A4E49",
"+u c #5A4E4A",
"+v c #5A4E4B",
"+w c #5A4E4C",
"+x c #5A4E4D",
"+y c #5A4E4E",
"+z c #5A4F4A",
"+{ c #5A4F4B",
"+| c #5A4F4D",
"+} c #5A504C",
"+~ c #5A504E",
",! c #5A514D",
",# c #5B4845",
",$ c #5B4846",
",% c #5B4942",
",& c #5B4945",
",' c #5B4946",
",( c #5B4A49",
",) c #5B4B46",
",* c #5B4B48",
",+ c #5B4C46",
",, c #5B4C47",
",- c #5B4C48",
",. c #5B4C49",
",/ c #5B4C4B",
",0 c #5B4C4C",
",1 c #5B4D47",
",2 c #5B4D48",
",3 c #5B4D49",
",4 c #5B4D4A",
",5 c #5B4D4B",
",6 c #5B4D4C",
",7 c #5B4D4D",
",8 c #5B4E47",
",9 c #5B4E48",
",: c #5B4E49",
",; c #5B4E4A",
",< c #5B4E4B",
",= c #5B4E4C",
",> c #5B4E4E",
",? c #5B4F49",
",@ c #5B4F4B",
",A c #5B4F4C",
",B c #5B4F4D",
",C c #5B4F4E",
",D c #5B4F4F",
",E c #5B504C",
",F c #5B504D",
",G c #5B5052",
",H c #5B514E",
",I c #5B524F",
",J c #5B5250",
",K c #5C4A47",
",L c #5C4A48",
",M c #5C4B47",
",N c #5C4B48",
",O c #5C4B49",
",P c #5C4B4A",
",Q c #5C4C46",
",R c #5C4C47",
",S c #5C4C48",
",T c #5C4C49",
",U c #5C4C4A",
",V c #5C4D46",
",W c #5C4D47",
",X c #5C4D48",
",Y c #5C4D49",
",Z c #5C4D4A",
",[ c #5C4D4C",
",] c #5C4D4F",
",^ c #5C4E48",
",_ c #5C4E49",
",` c #5C4E4A",
",a c #5C4E4B",
",b c #5C4E4C",
",c c #5C4E4D",
",d c #5C4E4E",
",e c #5C4F47",
",f c #5C4F48",
",g c #5C4F49",
",h c #5C4F4A",
",i c #5C4F4B",
",j c #5C4F4D",
",k c #5C4F4E",
",l c #5C4F4F",
",m c #5C4F50",
",n c #5C5049",
",o c #5C504A",
",p c #5C504B",
",q c #5C504C",
",r c #5C504D",
",s c #5C504E",
",t c #5C5148",
",u c #5C514B",
",v c #5C514C",
",w c #5C514E",
",x c #5C514F",
",y c #5C5150",
",z c #5C524C",
",{ c #5C5250",
",| c #5C5452",
",} c #5D4B44",
",~ c #5D4B4A",
"-! c #5D4B4B",
"-# c #5D4C46",
"-$ c #5D4C49",
"-% c #5D4D47",
"-& c #5D4D49",
"-' c #5D4D4A",
"-( c #5D4E48",
"-) c #5D4E49",
"-* c #5D4E4A",
"-+ c #5D4E4B",
"-, c #5D4E4C",
"-- c #5D4F46",
"-. c #5D4F48",
"-/ c #5D4F49",
"-0 c #5D4F4A",
"-1 c #5D4F4B",
"-2 c #5D4F4C",
"-3 c #5D4F4D",
"-4 c #5D4F4E",
"-5 c #5D4F4F",
"-6 c #5D5048",
"-7 c #5D5049",
"-8 c #5D504A",
"-9 c #5D504B",
"-: c #5D504C",
"-; c #5D504D",
"-< c #5D504E",
"-= c #5D504F",
"-> c #5D514B",
"-? c #5D514C",
"-@ c #5D514D",
"-A c #5D514E",
"-B c #5D514F",
"-C c #5D5150",
"-D c #5D524A",
"-E c #5D524C",
"-F c #5D524D",
"-G c #5D524E",
"-H c #5D524F",
"-I c #5D5250",
"-J c #5D5252",
"-K c #5D534D",
"-L c #5D5353",
"-M c #5E4B47",
"-N c #5E4C46",
"-O c #5E4D48",
"-P c #5E4D49",
"-Q c #5E4E49",
"-R c #5E4E4A",
"-S c #5E4E4B",
"-T c #5E4E4C",
"-U c #5E4E4E",
"-V c #5E4F48",
"-W c #5E4F49",
"-X c #5E4F4A",
"-Y c #5E4F4B",
"-Z c #5E4F4C",
"-[ c #5E4F4D",
"-] c #5E4F4E",
"-^ c #5E5048",
"-_ c #5E5049",
"-` c #5E504A",
"-a c #5E504B",
"-b c #5E504C",
"-c c #5E504D",
"-d c #5E504E",
"-e c #5E5050",
"-f c #5E5149",
"-g c #5E514A",
"-h c #5E514B",
"-i c #5E514D",
"-j c #5E514E",
"-k c #5E514F",
"-l c #5E5150",
"-m c #5E5249",
"-n c #5E524B",
"-o c #5E524C",
"-p c #5E524D",
"-q c #5E524E",
"-r c #5E524F",
"-s c #5E5250",
"-t c #5E5253",
"-u c #5E534D",
"-v c #5E534F",
"-w c #5E5350",
"-x c #5E5352",
"-y c #5E5353",
"-z c #5E544E",
"-{ c #5E5453",
"-| c #5F4C45",
"-} c #5F4D47",
"-~ c #5F4D49",
".! c #5F4E48",
".# c #5F4E4B",
".$ c #5F4F47",
".% c #5F4F4B",
".& c #5F4F4E",
".' c #5F5049",
".( c #5F504A",
".) c #5F504B",
".* c #5F504D",
".+ c #5F504E",
"., c #5F504F",
".- c #5F514A",
".. c #5F514B",
"./ c #5F514C",
".0 c #5F514D",
".1 c #5F514E",
".2 c #5F514F",
".3 c #5F5150",
".4 c #5F524B",
".5 c #5F524C",
".6 c #5F524D",
".7 c #5F524E",
".8 c #5F524F",
".9 c #5F5250",
".: c #5F5252",
".; c #5F5253",
".< c #5F534E",
".= c #5F534F",
".> c #5F5350",
".? c #5F5352",
".@ c #5F544E",
".A c #5F5450",
".B c #5F5452",
".C c #5F5453",
".D c #5F5454",
".E c #5F5552",
".F c #5F5555",
".G c #5F5650",
".H c #5F5653",
".I c #604E47",
".J c #604E49",
".K c #604F49",
".L c #604F4B",
".M c #604F4C",
".N c #605046",
".O c #605049",
".P c #60504B",
".Q c #60504C",
".R c #60504D",
".S c #60504F",
".T c #605050",
".U c #605148",
".V c #60514A",
".W c #60514B",
".X c #60514D",
".Y c #60514E",
".Z c #60514F",
".[ c #605152",
".] c #60524C",
".^ c #60524D",
"._ c #60524E",
".` c #60524F",
".a c #605250",
".b c #605252",
".c c #605253",
".d c #605254",
".e c #60534A",
".f c #60534C",
".g c #60534D",
".h c #60534E",
".i c #60534F",
".j c #605350",
".k c #605352",
".l c #605353",
".m c #60544B",
".n c #60544C",
".o c #60544D",
".p c #60544F",
".q c #605450",
".r c #605452",
".s c #605550",
".t c #605552",
".u c #60564F",
".v c #605650",
".w c #605653",
".x c #605656",
".y c #614F47",
".z c #614F4B",
".{ c #61504A",
".| c #61504B",
".} c #61504C",
".~ c #61504E",
"/! c #615050",
"/# c #615149",
"/$ c #61514B",
"/% c #61514C",
"/& c #61514D",
"/' c #61514E",
"/( c #61514F",
"/) c #615249",
"/* c #61524B",
"/+ c #61524C",
"/, c #61524D",
"/- c #61524E",
"/. c #61524F",
"// c #615250",
"/0 c #615252",
"/1 c #615253",
"/2 c #61534C",
"/3 c #61534D",
"/4 c #61534E",
"/5 c #61534F",
"/6 c #615350",
"/7 c #615352",
"/8 c #615354",
"/9 c #61544B",
"/: c #61544D",
"/; c #61544E",
"/< c #61544F",
"/= c #615450",
"/> c #615452",
"/? c #615453",
"/@ c #615454",
"/A c #61554C",
"/B c #61554F",
"/C c #615550",
"/D c #615552",
"/E c #615553",
"/F c #615554",
"/G c #615555",
"/H c #61564E",
"/I c #61564F",
"/J c #615650",
"/K c #615652",
"/L c #615653",
"/M c #615654",
"/N c #615655",
"/O c #615657",
"/P c #61574F",
"/Q c #615850",
"/R c #615853",
"/S c #615854",
"/T c #624F4B",
"/U c #62514A",
"/V c #62514B",
"/W c #62514C",
"/X c #62524B",
"/Y c #62524C",
"/Z c #62524D",
"/[ c #625253",
"/] c #62534A",
"/^ c #62534B",
"/_ c #62534D",
"/` c #62534E",
"/a c #62534F",
"/b c #625350",
"/c c #62544C",
"/d c #62544D",
"/e c #62544E",
"/f c #62544F",
"/g c #625450",
"/h c #625452",
"/i c #625453",
"/j c #625454",
"/k c #62554D",
"/l c #62554E",
"/m c #62554F",
"/n c #625550",
"/o c #625552",
"/p c #625553",
"/q c #625554",
"/r c #62564E",
"/s c #625650",
"/t c #625652",
"/u c #625653",
"/v c #625654",
"/w c #625655",
"/x c #625656",
"/y c #625657",
"/z c #625750",
"/{ c #625752",
"/| c #625753",
"/} c #625855",
"/~ c #625A52",
"0! c #625B58",
"0# c #63504A",
"0$ c #63504C",
"0% c #63514C",
"0& c #63514E",
"0' c #63524E",
"0( c #63524F",
"0) c #635250",
"0* c #635252",
"0+ c #63534D",
"0, c #63534E",
"0- c #635350",
"0. c #63544C",
"0/ c #63544D",
"00 c #63544E",
"01 c #63544F",
"02 c #635450",
"03 c #635452",
"04 c #63554C",
"05 c #63554E",
"06 c #63554F",
"07 c #635550",
"08 c #635552",
"09 c #635553",
"0: c #635556",
"0; c #63564F",
"0< c #635650",
"0= c #635652",
"0> c #635653",
"0? c #635655",
"0@ c #635656",
"0A c #635752",
"0B c #635753",
"0C c #635754",
"0D c #63584F",
"0E c #635850",
"0F c #635854",
"0G c #635855",
"0H c #635858",
"0I c #635954",
"0J c #635955",
"0K c #635959",
"0L c #635B53",
"0M c #635C59",
"0N c #64504A",
"0O c #64514A",
"0P c #64514D",
"0Q c #64524A",
"0R c #64524C",
"0S c #64524E",
"0T c #64524F",
"0U c #645350",
"0V c #645352",
"0W c #645354",
"0X c #64544E",
"0Y c #64544F",
"0Z c #645450",
"0[ c #645454",
"0] c #64554E",
"0^ c #64554F",
"0_ c #645550",
"0` c #645552",
"0a c #645553",
"0b c #645554",
"0c c #64564C",
"0d c #64564D",
"0e c #64564E",
"0f c #645650",
"0g c #645652",
"0h c #645653",
"0i c #645654",
"0j c #645655",
"0k c #64574F",
"0l c #645750",
"0m c #645752",
"0n c #645753",
"0o c #645754",
"0p c #645755",
"0q c #645756",
"0r c #645757",
"0s c #645758",
"0t c #645850",
"0u c #645852",
"0v c #645854",
"0w c #645856",
"0x c #645857",
"0y c #645858",
"0z c #645954",
"0{ c #645955",
"0| c #645956",
"0} c #645957",
"0~ c #645A56",
"1! c #645C54",
"1# c #645E5F",
"1$ c #646161",
"1% c #65534C",
"1& c #65534E",
"1' c #65534F",
"1( c #65544C",
"1) c #65544D",
"1* c #65544E",
"1+ c #655450",
"1, c #655452",
"1- c #655453",
"1. c #65554E",
"1/ c #65554F",
"10 c #655550",
"11 c #655552",
"12 c #655553",
"13 c #65564F",
"14 c #655650",
"15 c #655652",
"16 c #655653",
"17 c #655654",
"18 c #655655",
"19 c #65574F",
"1: c #655750",
"1; c #655752",
"1< c #655753",
"1= c #655754",
"1> c #655755",
"1? c #655757",
"1@ c #655852",
"1A c #655853",
"1B c #655854",
"1C c #655855",
"1D c #655856",
"1E c #655858",
"1F c #655953",
"1G c #655955",
"1H c #655956",
"1I c #655957",
"1J c #655958",
"1K c #655A55",
"1L c #655A59",
"1M c #655A5A",
"1N c #665352",
"1O c #66544E",
"1P c #66544F",
"1Q c #665452",
"1R c #66554E",
"1S c #66554F",
"1T c #665550",
"1U c #66564E",
"1V c #66564F",
"1W c #665650",
"1X c #665652",
"1Y c #665654",
"1Z c #665655",
"1[ c #66574F",
"1] c #665750",
"1^ c #665752",
"1_ c #665753",
"1` c #665754",
"1a c #665755",
"1b c #665756",
"1c c #665757",
"1d c #665850",
"1e c #665852",
"1f c #665853",
"1g c #665854",
"1h c #665855",
"1i c #665856",
"1j c #665950",
"1k c #665952",
"1l c #665953",
"1m c #665954",
"1n c #665955",
"1o c #665956",
"1p c #665957",
"1q c #665959",
"1r c #665A54",
"1s c #665A55",
"1t c #665A56",
"1u c #665A57",
"1v c #665A58",
"1w c #665A59",
"1x c #665B54",
"1y c #665B56",
"1z c #665B58",
"1{ c #665B59",
"1| c #665C55",
"1} c #665C57",
"1~ c #665C58",
"2! c #665D54",
"2# c #675A57",
"2$ c #675F65",
"2% c #676161",
"2& c #68554F",
"2' c #685550",
"2( c #68564F",
"2) c #685652",
"2* c #685653",
"2+ c #685654",
"2, c #68574E",
"2- c #685750",
"2. c #685752",
"2/ c #685753",
"20 c #685755",
"21 c #685757",
"22 c #68584E",
"23 c #685850",
"24 c #685853",
"25 c #685854",
"26 c #685855",
"27 c #685856",
"28 c #685952",
"29 c #685953",
"2: c #685954",
"2; c #685955",
"2< c #685956",
"2= c #685957",
"2> c #685A53",
"2? c #685A54",
"2@ c #685A55",
"2A c #685A56",
"2B c #685A57",
"2C c #685A58",
"2D c #685A59",
"2E c #685B55",
"2F c #685B56",
"2G c #685B57",
"2H c #685B58",
"2I c #685B59",
"2J c #685C56",
"2K c #685C57",
"2L c #685C58",
"2M c #685C59",
"2N c #685D56",
"2O c #685D58",
"2P c #685D5B",
"2Q c #685E61",
"2R c #685F5E",
"2S c #686464",
"2T c #69564F",
"2U c #695650",
"2V c #695653",
"2W c #695750",
"2X c #695752",
"2Y c #695753",
"2Z c #695754",
"2[ c #695755",
"2] c #695756",
"2^ c #695850",
"2_ c #695853",
"2` c #695854",
"2a c #695855",
"2b c #695859",
"2c c #695950",
"2d c #695953",
"2e c #695954",
"2f c #695955",
"2g c #695956",
"2h c #695957",
"2i c #69595A",
"2j c #695A53",
"2k c #695A54",
"2l c #695A55",
"2m c #695A56",
"2n c #695A57",
"2o c #695A58",
"2p c #695A59",
"2q c #695B54",
"2r c #695B55",
"2s c #695B56",
"2t c #695B57",
"2u c #695B58",
"2v c #695B59",
"2w c #695C55",
"2x c #695C57",
"2y c #695C58",
"2z c #695C59",
"2{ c #695C5B",
"2| c #695D55",
"2} c #695D56",
"2~ c #695D57",
"3! c #695D5A",
"3# c #695D5B",
"3$ c #695E5D",
"3% c #6A5653",
"3& c #6A5655",
"3' c #6A574E",
"3( c #6A5750",
"3) c #6A5753",
"3* c #6A5755",
"3+ c #6A5853",
"3, c #6A5854",
"3- c #6A5855",
"3. c #6A5857",
"3/ c #6A5952",
"30 c #6A5953",
"31 c #6A5954",
"32 c #6A5955",
"33 c #6A5956",
"34 c #6A5958",
"35 c #6A5A53",
"36 c #6A5A54",
"37 c #6A5A55",
"38 c #6A5A56",
"39 c #6A5A57",
"3: c #6A5A58",
"3; c #6A5B54",
"3< c #6A5B55",
"3= c #6A5B56",
"3> c #6A5B57",
"3? c #6A5B58",
"3@ c #6A5B59",
"3A c #6A5C54",
"3B c #6A5C55",
"3C c #6A5C56",
"3D c #6A5C57",
"3E c #6A5C58",
"3F c #6A5C59",
"3G c #6A5C5A",
"3H c #6A5C5B",
"3I c #6A5D56",
"3J c #6A5D57",
"3K c #6A5D58",
"3L c #6A5D59",
"3M c #6A5D5A",
"3N c #6A5D5B",
"3O c #6A5E59",
"3P c #6A5E5A",
"3Q c #6A5F59",
"3R c #6B5752",
"3S c #6B5853",
"3T c #6B5854",
"3U c #6B5855",
"3V c #6B5954",
"3W c #6B5955",
"3X c #6B5956",
"3Y c #6B5A53",
"3Z c #6B5A55",
"3[ c #6B5A56",
"3] c #6B5A58",
"3^ c #6B5A59",
"3_ c #6B5B53",
"3` c #6B5B54",
"3a c #6B5B55",
"3b c #6B5B56",
"3c c #6B5B57",
"3d c #6B5B58",
"3e c #6B5B59",
"3f c #6B5C54",
"3g c #6B5C55",
"3h c #6B5C56",
"3i c #6B5C57",
"3j c #6B5C58",
"3k c #6B5C5A",
"3l c #6B5C5B",
"3m c #6B5D54",
"3n c #6B5D58",
"3o c #6B5D59",
"3p c #6B5D5A",
"3q c #6B5D5B",
"3r c #6B5D5C",
"3s c #6B5E58",
"3t c #6B5E59",
"3u c #6B5E5A",
"3v c #6B5E5C",
"3w c #6B5E5D",
"3x c #6B5F5C",
"3y c #6B5F5F",
"3z c #6B5F62",
"3{ c #6B605C",
"3| c #6B6565",
"3} c #6B6567",
"3~ c #6B6569",
"4! c #6C5954",
"4# c #6C5956",
"4$ c #6C5A54",
"4% c #6C5A55",
"4& c #6C5A57",
"4' c #6C5A58",
"4( c #6C5B50",
"4) c #6C5B54",
"4* c #6C5B55",
"4+ c #6C5B56",
"4, c #6C5B57",
"4- c #6C5B59",
"4. c #6C5C54",
"4/ c #6C5C56",
"40 c #6C5C57",
"41 c #6C5C58",
"42 c #6C5C59",
"43 c #6C5C5A",
"44 c #6C5C5C",
"45 c #6C5D56",
"46 c #6C5D57",
"47 c #6C5D58",
"48 c #6C5D59",
"49 c #6C5D5A",
"4: c #6C5D5B",
"4; c #6C5E56",
"4< c #6C5E57",
"4= c #6C5E58",
"4> c #6C5E59",
"4? c #6C5E5A",
"4@ c #6C5E5B",
"4A c #6C5F5C",
"4B c #6C5F5D",
"4C c #6C5F5E",
"4D c #6C6058",
"4E c #6C6059",
"4F c #6C605C",
"4G c #6C605D",
"4H c #6C615E",
"4I c #6C6260",
"4J c #6D5653",
"4K c #6D5854",
"4L c #6D5A55",
"4M c #6D5B55",
"4N c #6D5C56",
"4O c #6D5C57",
"4P c #6D5C58",
"4Q c #6D5C59",
"4R c #6D5D55",
"4S c #6D5D56",
"4T c #6D5D58",
"4U c #6D5D59",
"4V c #6D5D5A",
"4W c #6D5D5C",
"4X c #6D5E53",
"4Y c #6D5E54",
"4Z c #6D5E56",
"4[ c #6D5E57",
"4] c #6D5E58",
"4^ c #6D5E59",
"4_ c #6D5E5A",
"4` c #6D5E5B",
"4a c #6D5E5D",
"4b c #6D5E5E",
"4c c #6D5F57",
"4d c #6D5F58",
"4e c #6D5F5B",
"4f c #6D5F5C",
"4g c #6D5F5D",
"4h c #6D5F5E",
"4i c #6D5F60",
"4j c #6D605C",
"4k c #6D6260",
"4l c #6D6261",
"4m c #6D6263",
"4n c #6D6562",
"4o c #6D656C",
"4p c #6E5854",
"4q c #6E5953",
"4r c #6E5958",
"4s c #6E5A56",
"4t c #6E5A57",
"4u c #6E5B54",
"4v c #6E5B55",
"4w c #6E5B56",
"4x c #6E5C53",
"4y c #6E5C54",
"4z c #6E5C58",
"4{ c #6E5D57",
"4| c #6E5D58",
"4} c #6E5D59",
"4~ c #6E5D5A",
"5! c #6E5D5D",
"5# c #6E5E56",
"5$ c #6E5E57",
"5% c #6E5E58",
"5& c #6E5E59",
"5' c #6E5E5A",
"5( c #6E5E5B",
"5) c #6E5E5C",
"5* c #6E5F58",
"5+ c #6E5F59",
"5, c #6E5F5A",
"5- c #6E5F5B",
"5. c #6E5F5C",
"5/ c #6E5F5D",
"50 c #6E605A",
"51 c #6E605B",
"52 c #6E605C",
"53 c #6E605E",
"54 c #6E605F",
"55 c #6E615C",
"56 c #6E615D",
"57 c #6E625D",
"58 c #6E625E",
"59 c #6E6261",
"5: c #6E6464",
"5; c #6E6467",
"5< c #6E6567",
"5= c #6E656C",
"5> c #6E6667",
"5? c #6F5857",
"5@ c #6F5954",
"5A c #6F5B55",
"5B c #6F5B56",
"5C c #6F5C56",
"5D c #6F5C59",
"5E c #6F5D55",
"5F c #6F5D57",
"5G c #6F5D58",
"5H c #6F5D59",
"5I c #6F5D5A",
"5J c #6F5E56",
"5K c #6F5E57",
"5L c #6F5E58",
"5M c #6F5E59",
"5N c #6F5E5A",
"5O c #6F5F57",
"5P c #6F5F58",
"5Q c #6F5F59",
"5R c #6F5F5A",
"5S c #6F5F5B",
"5T c #6F5F5C",
"5U c #6F5F5D",
"5V c #6F5F5E",
"5W c #6F6059",
"5X c #6F605A",
"5Y c #6F605B",
"5Z c #6F605C",
"5[ c #6F605D",
"5] c #6F605E",
"5^ c #6F615A",
"5_ c #6F615C",
"5` c #6F615D",
"5a c #6F615E",
"5b c #6F615F",
"5c c #6F6160",
"5d c #6F625C",
"5e c #6F625D",
"5f c #6F625F",
"5g c #6F6262",
"5h c #6F635D",
"5i c #6F6460",
"5j c #6F6462",
"5k c #6F6464",
"5l c #6F6565",
"5m c #6F6664",
"5n c #6F6665",
"5o c #6F6867",
"5p c #705B55",
"5q c #705D59",
"5r c #705D5C",
"5s c #705E5A",
"5t c #705E5B",
"5u c #705E5F",
"5v c #705F5A",
"5w c #705F5B",
"5x c #705F5D",
"5y c #706057",
"5z c #70605A",
"5{ c #70605B",
"5| c #70605C",
"5} c #706159",
"5~ c #70615A",
"6! c #70615C",
"6# c #70615D",
"6$ c #70615E",
"6% c #70615F",
"6& c #706160",
"6' c #70625B",
"6( c #70625E",
"6) c #70625F",
"6* c #706260",
"6+ c #706261",
"6, c #706262",
"6- c #706263",
"6. c #706361",
"6/ c #706460",
"60 c #706560",
"61 c #706865",
"62 c #715954",
"63 c #715956",
"64 c #715A55",
"65 c #715A56",
"66 c #715C56",
"67 c #715E57",
"68 c #715E58",
"69 c #715E5A",
"6: c #715F59",
"6; c #715F5A",
"6< c #715F5C",
"6= c #715F5E",
"6> c #71605A",
"6? c #71605B",
"6@ c #71605C",
"6A c #71605E",
"6B c #716159",
"6C c #71615D",
"6D c #71625A",
"6E c #71625B",
"6F c #71625C",
"6G c #71625D",
"6H c #71625E",
"6I c #716260",
"6J c #71635E",
"6K c #71635F",
"6L c #716460",
"6M c #716461",
"6N c #716462",
"6O c #716561",
"6P c #716562",
"6Q c #716660",
"6R c #716669",
"6S c #716765",
"6T c #71686A",
"6U c #71686D",
"6V c #71696D",
"6W c #725D57",
"6X c #725E59",
"6Y c #725F59",
"6Z c #726058",
"6[ c #72605A",
"6] c #72605C",
"6^ c #72605E",
"6_ c #72615D",
"6` c #72615E",
"6a c #72615F",
"6b c #726160",
"6c c #72625D",
"6d c #72625E",
"6e c #726260",
"6f c #72635A",
"6g c #72635C",
"6h c #72635D",
"6i c #72635E",
"6j c #72635F",
"6k c #72645E",
"6l c #726460",
"6m c #726561",
"6n c #726564",
"6o c #726660",
"6p c #726661",
"6q c #726662",
"6r c #726663",
"6s c #726665",
"6t c #726766",
"6u c #726865",
"6v c #726B6C",
"6w c #726B70",
"6x c #726E6C",
"6y c #726E70",
"6z c #726F6F",
"6{ c #726F70",
"6| c #735C57",
"6} c #735F58",
"6~ c #73605B",
"7! c #73605C",
"7# c #73605E",
"7$ c #736158",
"7% c #73615C",
"7& c #73615E",
"7' c #73625B",
"7( c #73625D",
"7) c #73635C",
"7* c #73635D",
"7+ c #73635E",
"7, c #736360",
"7- c #736361",
"7. c #73645D",
"7/ c #73645E",
"70 c #73645F",
"71 c #736460",
"72 c #736463",
"73 c #736464",
"74 c #736564",
"75 c #736565",
"76 c #736664",
"77 c #736667",
"78 c #736764",
"79 c #736766",
"7: c #736860",
"7; c #736865",
"7< c #736869",
"7= c #736B6D",
"7> c #736C6C",
"7? c #736C6D",
"7@ c #745E57",
"7A c #745F5D",
"7B c #74605C",
"7C c #746261",
"7D c #746360",
"7E c #74645E",
"7F c #74655A",
"7G c #74655C",
"7H c #74655F",
"7I c #746560",
"7J c #746562",
"7K c #74665E",
"7L c #746664",
"7M c #746666",
"7N c #746761",
"7O c #746764",
"7P c #746867",
"7Q c #746966",
"7R c #746967",
"7S c #746969",
"7T c #74696B",
"7U c #755D57",
"7V c #75615C",
"7W c #75625D",
"7X c #75625F",
"7Y c #75635C",
"7Z c #75635D",
"7[ c #75635F",
"7] c #75645C",
"7^ c #75645F",
"7_ c #756460",
"7` c #756461",
"7a c #75655F",
"7b c #756561",
"7c c #756565",
"7d c #75665E",
"7e c #756660",
"7f c #756662",
"7g c #756664",
"7h c #756666",
"7i c #756765",
"7j c #756966",
"7k c #756968",
"7l c #756B67",
"7m c #756B68",
"7n c #756B6A",
"7o c #756C6D",
"7p c #756E6D",
"7q c #756E6F",
"7r c #765E59",
"7s c #765F59",
"7t c #76635D",
"7u c #766360",
"7v c #766362",
"7w c #76645B",
"7x c #76645F",
"7y c #76655E",
"7z c #76655F",
"7{ c #766560",
"7| c #766565",
"7} c #76665E",
"7~ c #76665F",
"8! c #766661",
"8# c #76675D",
"8$ c #766761",
"8% c #766764",
"8& c #766765",
"8' c #766862",
"8( c #766865",
"8) c #766866",
"8* c #766868",
"8+ c #766966",
"8, c #766967",
"8- c #766A66",
"8. c #766B6A",
"8/ c #766B6D",
"80 c #766C6A",
"81 c #766C70",
"82 c #766C74",
"83 c #766D69",
"84 c #766E69",
"85 c #767274",
"86 c #77615A",
"87 c #77635E",
"88 c #776461",
"89 c #776464",
"8: c #77655B",
"8; c #77655F",
"8< c #776564",
"8= c #77665D",
"8> c #77665F",
"8? c #776660",
"8@ c #776665",
"8A c #77675C",
"8B c #77675F",
"8C c #776760",
"8D c #776761",
"8E c #776764",
"8F c #776861",
"8G c #776868",
"8H c #776964",
"8I c #776965",
"8J c #77696D",
"8K c #776A69",
"8L c #776A6B",
"8M c #776B65",
"8N c #776B6C",
"8O c #776D6B",
"8P c #776D6E",
"8Q c #776E6D",
"8R c #776E6F",
"8S c #776E72",
"8T c #776F6F",
"8U c #776F70",
"8V c #776F7A",
"8W c #77706F",
"8X c #777272",
"8Y c #777275",
"8Z c #78625C",
"8[ c #78655D",
"8] c #786560",
"8^ c #78665E",
"8_ c #786665",
"8` c #78675F",
"8a c #786761",
"8b c #786764",
"8c c #786767",
"8d c #786864",
"8e c #786866",
"8f c #786868",
"8g c #786B65",
"8h c #786B67",
"8i c #786B6C",
"8j c #786D6C",
"8k c #79625C",
"8l c #79645E",
"8m c #79655F",
"8n c #79665F",
"8o c #796761",
"8p c #796762",
"8q c #796866",
"8r c #796867",
"8s c #796962",
"8t c #796964",
"8u c #796967",
"8v c #796969",
"8w c #796B69",
"8x c #796B6B",
"8y c #796C69",
"8z c #796C6D",
"8{ c #796D69",
"8| c #796E6D",
"8} c #796E6E",
"8~ c #796F6C",
"9! c #796F6D",
"9# c #796F6F",
"9$ c #796F70",
"9% c #797070",
"9& c #797074",
"9' c #79726E",
"9( c #797270",
"9) c #797278",
"9* c #797374",
"9+ c #7A615E",
"9, c #7A6561",
"9- c #7A665F",
"9. c #7A6762",
"9/ c #7A6864",
"90 c #7A6865",
"91 c #7A6866",
"92 c #7A6867",
"93 c #7A6961",
"94 c #7A6964",
"95 c #7A6A61",
"96 c #7A6A62",
"97 c #7A6A65",
"98 c #7A6A66",
"99 c #7A6A68",
"9: c #7A6B65",
"9; c #7A6B68",
"9< c #7A6B69",
"9= c #7A6B6A",
"9> c #7A6C68",
"9? c #7A6C6A",
"9@ c #7A6D69",
"9A c #7A6D6C",
"9B c #7A6E6B",
"9C c #7A6E6E",
"9D c #7A6F6C",
"9E c #7A6F6D",
"9F c #7A6F6F",
"9G c #7A7074",
"9H c #7A7075",
"9I c #7A7270",
"9J c #7A7375",
"9K c #7A7575",
"9L c #7A767C",
"9M c #7B6961",
"9N c #7B6962",
"9O c #7B6A64",
"9P c #7B6A67",
"9Q c #7B6B64",
"9R c #7B6B65",
"9S c #7B6D69",
"9T c #7B6D6D",
"9U c #7B6E6B",
"9V c #7B6E6C",
"9W c #7B706A",
"9X c #7B706D",
"9Y c #7B706E",
"9Z c #7B706F",
"9[ c #7B7070",
"9] c #7B7072",
"9^ c #7B7270",
"9_ c #7B7372",
"9` c #7B7374",
"9a c #7B7377",
"9b c #7B7570",
"9c c #7B7572",
"9d c #7B7575",
"9e c #7B7577",
"9f c #7C6967",
"9g c #7C6A64",
"9h c #7C6A65",
"9i c #7C6A66",
"9j c #7C6A68",
"9k c #7C6B64",
"9l c #7C6B66",
"9m c #7C6D6B",
"9n c #7C6D6D",
"9o c #7C6E6D",
"9p c #7C6E6E",
"9q c #7C6F6F",
"9r c #7C706B",
"9s c #7C706D",
"9t c #7C706E",
"9u c #7C706F",
"9v c #7C7070",
"9w c #7C7071",
"9x c #7C7371",
"9y c #7D6B66",
"9z c #7D6B68",
"9{ c #7D6C66",
"9| c #7D6C69",
"9} c #7D6D68",
"9~ c #7D6D6B",
":! c #7D6E66",
":# c #7D6E69",
":$ c #7D6E6D",
":% c #7D706C",
":& c #7D706E",
":' c #7D706F",
":( c #7D726C",
":) c #7D726F",
":* c #7D7270",
":+ c #7D7271",
":, c #7D7273",
":- c #7D7275",
":. c #7D7371",
":/ c #7D7373",
":0 c #7D7473",
":1 c #7D7574",
":2 c #7D7577",
":3 c #7D7675",
":4 c #7D767D",
":5 c #7D797C",
":6 c #7E6C6A",
":7 c #7E6D67",
":8 c #7E6E68",
":9 c #7E6E6A",
":: c #7E6F6B",
":; c #7E706B",
":< c #7E706F",
":= c #7E7070",
":> c #7E7072",
":? c #7E716D",
":@ c #7E7274",
":A c #7E7370",
":B c #7E7572",
":C c #7E7574",
":D c #7E7577",
":E c #7E7675",
":F c #7E7677",
":G c #7E7775",
":H c #7E7778",
":I c #7E777A",
":J c #7E7A7F",
":K c #7F6764",
":L c #7F6D6C",
":M c #7F6E6A",
":N c #7F6F69",
":O c #7F706E",
":P c #7F706F",
":Q c #7F7273",
":R c #7F7373",
":S c #7F7573",
":T c #7F7575",
":U c #7F7775",
":V c #80675E",
":W c #806C64",
":X c #806E6A",
":Y c #80706C",
":Z c #807169",
":[ c #807270",
":] c #807271",
":^ c #807273",
":_ c #807275",
":` c #807277",
":a c #807371",
":b c #807373",
":c c #807374",
":d c #807375",
":e c #807475",
":f c #80756C",
":g c #80756F",
":h c #807570",
":i c #807571",
":j c #807572",
":k c #807573",
":l c #807777",
":m c #807778",
":n c #807779",
":o c #80777A",
":p c #80797F",
":q c #816760",
":r c #816E68",
":s c #817067",
":t c #81716B",
":u c #81716D",
":v c #817370",
":w c #817472",
":x c #817575",
":y c #817674",
":z c #817777",
":{ c #817778",
":| c #81777A",
":} c #817C78",
":~ c #817C7A",
";! c #817D7F",
";# c #826E6B",
";$ c #826F6A",
";% c #827470",
";& c #827475",
";' c #827573",
";( c #827577",
";) c #827672",
";* c #827775",
";+ c #827778",
";, c #827779",
";- c #827875",
";. c #82787A",
";/ c #827975",
";0 c #82797D",
";1 c #827A78",
";2 c #827A7A",
";3 c #827C78",
";4 c #827C7D",
";5 c #837573",
";6 c #837773",
";7 c #837777",
";8 c #837877",
";9 c #837878",
";: c #847674",
";; c #847678",
";< c #84767A",
";= c #847877",
";> c #847878",
";? c #84787C",
";@ c #847977",
";A c #847978",
";B c #847A78",
";C c #847A7A",
";D c #847A7D",
";E c #847C7A",
";F c #847D7D",
";G c #847D7F",
";H c #847D80",
";I c #847E83",
";J c #84807A",
";K c #85746D",
";L c #857675",
";M c #857775",
";N c #857977",
";O c #857A78",
";P c #857A79",
";Q c #857C7D",
";R c #857C80",
";S c #857D7D",
";T c #857D7F",
";U c #857D80",
";V c #857E7A",
";W c #867273",
";X c #86756E",
";Y c #867572",
";Z c #867674",
";[ c #867A7A",
";] c #867C7A",
";^ c #867C7C",
";_ c #867D7A",
";` c #867D7C",
";a c #867D7D",
";b c #867D80",
";c c #867E7F",
";d c #877574",
";e c #877875",
";f c #877A79",
";g c #877E81",
";h c #88756E",
";i c #887C77",
";j c #887C7A",
";k c #887C7C",
";l c #887C7E",
";m c #887C7F",
";n c #887E82",
";o c #887F81",
";p c #888082",
";q c #888083",
";r c #888183",
";s c #888380",
";t c #888382",
";u c #897978",
";v c #897C7D",
";w c #897D7D",
";x c #897D7F",
";y c #898183",
";z c #898185",
";{ c #898380",
";| c #898382",
";} c #89847F",
";~ c #8A7770",
"<! c #8A7C7D",
"<# c #8A7D7C",
"<$ c #8A7E7E",
"<% c #8A8080",
"<& c #8A817C",
"<' c #8A8187",
"<( c #8A8382",
"<) c #8A8383",
"<* c #8A8387",
"<+ c #8A8485",
"<, c #8A8488",
"<- c #8B7C7E",
"<. c #8B7D7A",
"</ c #8B7E7E",
"<0 c #8B807E",
"<1 c #8C7A72",
"<2 c #8C7C7D",
"<3 c #8C7E7B",
"<4 c #8C7E7C",
"<5 c #8C7E80",
"<6 c #8C817F",
"<7 c #8C8180",
"<8 c #8C8485",
"<9 c #8C8487",
"<: c #8C8788",
"<; c #8D807D",
"<< c #8D8180",
"<= c #8D8182",
"<> c #8D837F",
"<? c #8D8380",
"<@ c #8D8383",
"<A c #8D8388",
"<B c #8D8483",
"<C c #8D8484",
"<D c #8D8485",
"<E c #8D8488",
"<F c #8D8585",
"<G c #8D8787",
"<H c #8E8482",
"<I c #8E8584",
"<J c #8E8783",
"<K c #8E8785",
"<L c #8F8585",
"<M c #907D80",
"<N c #908383",
"<O c #908483",
"<P c #908487",
"<Q c #908488",
"<R c #908788",
"<S c #91807F",
"<T c #918583",
"<U c #918587",
"<V c #918887",
"<W c #918888",
"<X c #91898A",
"<Y c #92898B",
"<Z c #938A8A",
"<[ c #938A8D",
"<] c #938B8C",
"<^ c #948783",
"<_ c #948887",
"<` c #948B8A",
"<a c #948B8B",
"<b c #958785",
"<c c #958A8A",
"<d c #958C8F",
"<e c #958C90",
"<f c #958E8B",
"<g c #958E8D",
"<h c #95918D",
"<i c #978380",
"<j c #978587",
"<k c #978B87",
"<l c #978B88",
"<m c #988B8A",
"<n c #988C8B",
"<o c #988C8D",
"<p c #988F8F",
"<q c #988F90",
"<r c #98918F",
"<s c #998F90",
"<t c #99938F",
"<u c #9B9293",
"<v c #9C8E88",
"<w c #9C8E90",
"<x c #9D9595",
"<y c #A0999A",
/* pixels */
"#9&+&E&a&.%K$k&D&)%}%b&a&.&q&E'&%^$l$O&4%F%P%O&6%U&;&|'.'.'-'C'a'!'4'E&u%t&[&H&G&*'I'a(A'`'k'T(!'<'&%R%b%z&8$z$z$D&D&V'J%E$j%a%a",
"!h%r&4%J$x%u%Q%P$M$&%a'+&5$z%R&P$<!i%~&a%Y&=%&&:&:'.'7'R'4&i'C&t%O&2&t'?&C&G%t&_&n%x$i$*#6#r&Z%p&+&o&-&<&5%I%|&`%u&5$5$z#2#<%a%G",
"!y!n7o8T9_5n859I;g<]<q<Y<X;o:J9K6z4m3y736u4G6P6P797P9C;a82:{;b9_;c:1:D9c9C6*8K785`3p534B2#4a6+6,8P6t6N;8<L<I<L<C<R;m;.6T5<8S&5&+",
"!k!S4n*9,h*_-?.5+_.b.[1c,/.Z.[.D(,)),H.3+%,c+h(q(u(8)b*H-k.=.?.a,_/`0m*],u.i..,n,W(T(6*e(?*X*s-U/>+v0F,o,T,S/_.h./*M+G+=)H9]&F&3",
"!O!Z9V+6-1212)-/,_.l2i/'.0-2,w.E)z(p+d,h+J(>,`+K+x*}-H,r,j.r+p/>090`,3+o+H+l+7.*(a'p(M'o(b,m1i/[,6.+-:0^-S-(2d/+*<'}*o({(G8/$p&-",
"!A!>3w,N-T%t'//W)O(J*@,:/--Z*Y.?+h*P*O,W+@+f+J-s*C+p-j+g)&*9+m/q,7.d.a,s-c,Y*I(`)?(g)S*H-x-4/h.M*w-c,;2h*,.J2e)!)J#M$2)N+L6R#g$E",
"!8!58N.Q.^%/$2*p+8(W)6*u,-,++H*W+n.)0X.V.e+f)-+w+w,6-]*/)])z,C,5///8,<,k+-+Q,C*F(l(U);)_+0*#*N)I*w)M(I.S,U(i)2(+(:#_%/)**x5;$H$Y",
"!/!'77(x*18z4l-1,3*m,h/k*T3a091n*[)2-).i)%,X*c+w+0+{-r.B+~-C/D,].,+q-<0:-3+,)@),(P*()c.H)<)P-4,0*|*8)L*2+5*1*0*2)!4o5=+%*l9$$N%R",
"!.!75g+<,Z+b,/,`-),8/d4^2K5x2f5|51./.1.v,h*D+//G,x,w-s.=0x/w1D-l+K)q-I'~)C)`*h+3**){-=-J++(t/!-i*v-1*w(F'}(;)$,_)k(W(.)i)h2Q#r%.",
"!4!B5j-+*7,2*<+d+;0h1<3P1z2F2G1;5R,j0?-z*_,Z+q.A*a.;+]-4)Q-<*~*g*c*c+S+2)**+,J(w(h0:-{0H)V)Z0V0f1=1;-8+>(Y*n)1)(-9,g,S)3(y2R$i%,",
"!v!>6q*72//Z-Q.66#1p4F6$6H554U4]1A0j0p/>-d-9,C-<.?(=*y)#(3)'-e),)])=,>+n(*'q(B)D,|/y.:+$+'.2+s.]/D+N+.+z*L*7+O+t-`,e,_+C*q;9$q$W",
"!,!38+7$7%0X5M3C3B2r4]5T5S482s560n.a,[.9,b*}0q.&//'i+i(r(^)8(])~)o+q)7(/'K'P'A(D0M0!1?*}/g.7-:1n1;-1-D/P)G*t.Z./-0)Y-q*<+|;C%P&G",
"![!@4k5v5^4Z1V1m1<6E296(6)572G2K582h3d1q,{+J-l-3*y)p(Z(<([)~*F+h)4)T)|(>)`($)a)c1z3$.3-L0?-r,l6I,4+J+e)/*-.*,_,9,h,:)2*w.B;^&I$G",
"!E!E7Q412`6f0^3W4%071g3F4@0g197J4:/g3:2D-y,I+&,=)i)O,j*A+D*9)n-5+y*?)u+Y0J+v.?-5+i/}0@1M,@*[0G2M6Q,@+g.%*;.g-?+M11/(/i2.387j&5%J",
"!]!l:i5M1_0o,,1^4$7(7z8$4V2e--4h.l.71H1A+X.w-I)z)Z/j*r)t)W+f(2([+h,d*&*J0~.k1L.c+R(p*4-v+V*V0{3O3{2O/I)H)L.</D2h5,/(257'5L:b$j%T",
"#8#n;l7_/3,V,W-V1U4P8C952l4{4.2H,p/B.f,?*`*B*b(j-&+P-j-B(L'W*'+++g.C,F.x+1,Y-?-;-B-A6$541u0o,v3n0<60*|-@+e*z+!,h0b010m4N4,:Y%`%Q",
"#c#&9Y40+7!e!@!j#b$9%5$|#Q#D$'$)#o#+!F!b!1!)!K!!!G!^!L!:!*!#!<#;#B#V!_!U#U#U$-#T#+#P#t#o#t$@!|%=$9#)!I!v#8!y!k!f!l%##8/X.L:v$_&Z",
"#8#P9o-Y+n$%#k#M&u&u&L&P%~%~'+'F$I$T#q#N!w#r#q$-$?%$#w#0#!!+!p%A%@%C%[$A%o&R'6':&{%g%V'*'9')'G'F%f%T&='.%:%f%:$=&m'@'%-P-'6n$M%x",
"#>#P9T,2-.7:8{9B:k9>9r9q;k<u<E<c<J9e6x5:5>5:9&3}8Y806V2S5l2%1$8X9L:49G3|:o<,;G:m:F7?;T;2<+<R<r<h<_<T:%9B:]9F:l:T9p<-;11,-[5)$G&c",
"#=!y9V-W,++_.]3,0C004&487`9.998q510w-o)g(e)y*C)],i+m/u-J+$(v(C*!)X)v,=*}4f8)6e0>03,B)S+#0h6K9l94704N4+7(8!4A4A3F3G-i381+)d2D%E'(",
"!v!r9V0g,2/d*u/c;u9Q7e8(:::X9/8r6n1~0v(3+(+o*$,j+#0C/x0K-C)t(S)A/>5b+v1H7i6n5V49)9+U)Y-@-b5f6F6C4[300]1[0Y/?-c._(_*A-8+r-;6v%_&,",
"!n#n9@1]5Q070f92;d:N5R9;9S:u9R9R1v3F2P)+(',G-t/O(u)}+W-y+x)B)y0F0i1D2v.14B.A0w277f*z(-):-:4f6<365{:78s7)6c5+2B-b,P,~+d.t.E9($x$d",
"!T#=9o375X5_248@:L9{8H9}:#979~8b5&547M(d)^+',A*E)>+P/x/O/N(s/R/62p7553+H+{/|1}5-3d1C(o(1/D0>5h6@8?8F7a5X6!6G4g1u,;,*,L(E*2:C&D$L",
"!`!y:)0f0h$m%{&0&!&[%q%H%7&K&h&9#n#8#b#w!b!c!c!~!2!5#C#V!6!(!F!p#A#-$;$,#:#Q$B#e#v#y!m!x#A$]%5$|%N&J%M$P#n$O#A#c#S#c#n1h/{8.&F%O",
"!j#t:0-a3*(!(N't'y(O'u(#'n'b'c&u&@$Z%6&}&z%<$@$(#@#+$;$:#W$N$I$S%;%?&&&'&$$z%y&9&O%Z'8'Z'm(R()'l'D'x'z'1'2'2$^$L%f%f&y3p1k:~#~%d",
"!g#Q9Y1A3>8w:.:R8L9w:e:o<'<A;y<W<)9H;D;Q9G8S8V6U2$6{6w3~9)7q9a;z;08Q8U9J;J7p:1:3;}<(<V<x<y<o<s:}7l6r7m:;</8h837Q8|:k76.@0=8W$L#~",
"#u#n:?3Y5N7D2]._8e6#7e2o182a3q1g4d2;3H3u09/@*c-r*),</D*H09.j-A1v.i,2+a1|0L/t.@.s2}3Q2m070f0n-u/J6k6G0z2E/#4d,i-m3i3J-R,&.i:2$q&a",
"$P$P8y8n918<8D6d7[:Z9:-`0e/V2W1e4S4.454=+`+x/?-r)?.=,i)y-b,a+p.`-2.t.G2!1!,z/C4<8g5h0g,n0<.4*%.s1@563E3a31..2k3g2@2@/T)E0V9F'J'V",
"$Q$K:w8[9P9h8d7+4T7g7h0_24206`302^2c4629/d*a,>-s([/u,E*G,y-4-H-3+e-F.u/S2L/B-K2w4D6o,i.h1x/l+G030I5e6K2Y2;.n.s.]0k1B-M1428;/'M%Q",
"!y$;9U9M9-9k8>4$427,/p-r/5/F6[8a.O3X.]0g(f)[,D(Z'g*|+&.F+y-B-r,!+}0A/:/{/t)w*d/~2N7;6M7O4>/z/;-00B3v.u4?37364-2'3C2J1G6?37:)%3%K",
"#K!f714M5A%v$H#n$U#n!;!0!>!n!=#g!D#$#:!^!G!}#V!}#9#X!U!:!H!9![!S!J#J#8!k#8!`!J!D$.%(#t$U$'!P!$!a![!R#e%%%$$=$'#4#:#/$I5(3G:h$C$z",
"!v#h7J-1/&%0'O%f&v$s#r%4%a$s$3#r#H$a$t#w#e$t&x%X&z%?%)%S$S&Q%n&>%;&w'&&H%3$r$r$y'|'8&%'5&u#d%'%W$7#p%B'd&e%:%V$7$z%a'18&3>9W%]$Y",
"#n#h7-/a+<9v9w7k:,8*;%:d;R;{9#8/7>9%8S6y1#9$:{9#8R;I:p:I;r;H;|<::c;E<H<&;i<P<@<K<t;s:|:G;w5o:x;<9n;&9x9';'9[7S768x8|:a/J1G;B'<&p",
"#h$[9Y5M7W5s6]/'6?0X4y4|5w2h03*x,q0i.9*>-?,i+C0r,b-L-w,x0}0a2m5R0l3Z1W/:7+5w5F7%7J5`0h.p1h/a-+341-6=2*1[5z4/+C+=-?/{317x3Z9X'U&k",
"$M${;7167#4,4#413e3d3Z4|,;1=-1+#*B+p/M,r+$,E-G-<*Y*#0w,A/E0{323[/$.(192X:r7y7]5K7E4_0_.02;2`.R3l.~4&+7/X1^,X(K*R.#1K4z7B3X;O'''_",
"$|$0;e434716424j2u708%5R7H3j0[,4,U.T/16,4_161D1u+E*^-v)[/M2z6(7H2_6~333U;X8?5F5p/31s401g4t3c4&4U1y-[/02<29-E0A2F.h2e5Q5~6C;_'`'Y",
"$P%7<02Z6l3E473=4>3E7I6c5-484317/i1J8v4b9|7c8f5-/n,v0~-z2O1t415~949y8o6X4v5C7V6W1^5Y5Z6%425T,A-A/n1u5i3#533N4,1B/4375'7/3c;1'`'S",
"$t%S;>4,4,1601/*1a3b.p4`3e7b49-&.92h2f9;:99i;#;K905Z1d3;1F0E0|2G6c7~9O3c3T3+8]3W6Y6d3(0#0+0v3M0G0i2B1{2I/}.91;-a6J2s/B2~1l<%'N&^",
"%c&!<$416C$:#8#o#n$Q$##m$F%8$c#+#:#:#U#j&*%w&r&]%{$:$I#N#m#,#T#T$n&#$v#c$1#i#i$b$Q#j#7#h#m#o#Q#T#y#t#B!n#8!y#=$9$##s#A3>0m<7']'L",
"$s%h:*6C4]%0&7&p%f&6%i%_&Y'5%o${$S%?$`%s&u%n'[&y%!%k%:%4%4%>&<&P%9'3&/&T&j&~'<'/&Y%Q$g%D$s$R&C&?&f&v%l%5$N$H&e&`&l&_&C5y5v<;(c(Q",
"#i#n;P08-)9A9X9u:':/;*:[:Q:U:S5k61796S:w:O;5<3<.<4<l<k<v:E;!;q;F8I8'6p<<<M<i<j<S;Y:%9E;(8.;;<!<U<*;n;U;F:59b<F;-9o;=;@7G6B<m)U(5",
"$+$:;*263b155I3]021*5q3Z2x1o4901-g-0969-8?9z;h<1;~9k8t8u8E+k1n3s-W).-$+99+:K4p5@4K1P.|-}1O,).y2C695B52-h-9/H3n3h191B35/;37<7(((7",
"%1%M<#4}1'6_98492<1P372e065v1b192,4.5E:s7*:M9j7Z8$7.6h7)40,g,p3?/&/-,1*U4Q7&65640N1X/Y0R301.0Q2{2;5Y1m.h3,6O3i2y,p1n0m0/5%<a(0(O",
"$=$J;=6j5r5U9m6L-A1D/>.a2a4f3k-7677]6Z9g8;8p7^;$9N7Y7)354?3`*v-p-20>/m.K4'637r4J6266,},%313D2&1R0?.//B-21n0v4d2l0m0;3b254+<W(9'_",
"#c$9;k5s2[176+1o.>/s0^/43g2_5K4x8:7w7]7X939g87:W8m8`7'46500d5.0B1u5,2t5B:q:V8k7U7s7@.I2T4q2(0S6}-#.q/I2r48477N4;/+/d3b4,4T<N'w'{",
"#n$u;?3e2<5`6n0y/q.s,;/;0n1_0_4|8^8=3)4!4[3V4O4v1j5#/n0v1o2s5d3L3P4^5D2V7A868Z6|8l0739-N0$-O/./J/v4G.>-H0>/L3P3>2s/k4^3348;`'H'j",
"#n#n<Q3D2B$}$V$@!K!8!I![!y#[#8#E$N%L$u#7#I&h&g#=!d#S#*#N#^#o#S$e#s#c#f#1#j##!q#G#n$9#l#Y#3#T#7#9!E![!}!^![!K!z!y#O#n#>.00h9`&W',",
"#`#Q<O3>1i&b%u&A#]#d#.%e$Z%]%u'$&s(%&a&d&@(&(S'y'c'1%f%}'?&N%j%V#{%+%*$/$4$h%-&I&m&n&($f$p&M&[$~$6#p$~%m%]'1&6$~$k&$%z.^/f:z&_$w",
"#9#L<55)398J9w4i:&8i<9;a:A:f:g<b<^;N:j:B;:;M<<;f:a:b;*7j8E6j6P746-7P5g7T:&8G727o8R:$;Z<2;L:y<=;3849^9D;V;[<><g9Z8O8O:k2x2?;*'('_",
"#I$U:=0-,..}-!1+1+1i1o2=25/U5H4v68/)6:/%2-5v415G7!0U1B0,0h+T*f-E0)1Y0`0h5?1N,'*[+B-|1&2g0%/`04/4,X2F/^+^2A4_3o/n-n._/B3n2@<8'O'h",
"$5$><p2f0Y+e*A)s2C-@/71C0j1(1/2W5G2U4*+?1(4w4U4P4~3h5*13.h)x.o-0,S-P.R/b4r.z,#-Q)e/U4L4s1&0P08-p/20^1%*j4(6d6%3g2^2.366g47<d&X&1",
"$K$9<`3:3c1i0(2+2A*A*7(}2I4C.'2(,Q0.*i1V4)5]1D0f3K2_4*1m.h(`+M2G+70*0Z129f9,,$,K1U)K4,3&1Q.#.P1^5r2(1O1)4u4(5J3m2,2/503n2:;t'B''",
"#=!|;p2l0e,13%0,-*)m-i-(0m1I1@-61:/+1;1/2m.>3q3b2r2e0g1D.g-i*[3F3^3w3./g/e.{1f-/1<+F/4/?0T2b1S4z1`6;7t6[5v4Y3_3'/].'6k3C/;:3'('N",
"#n#c;D4`2?,M422h0b-,/i-;/G3G2@,f5X4?1h0]3`1h3L3I5^0t/=+v*Z)l-G0o1r.p4=5v0//d6'/f403R.-0g02-1/.3r3@/a3-5G32+[-^.$4R2k000,,19!'(&3",
"#>#P;S5Z0W1o5(3e2=.S/<-7/F4A.@.<403<1w545M3=2n7d0_/Q0G,<,h)m,r3!4j3=5W7)3B4T35393`0O3S3j0g.)4g7C5/4-3q533p*6*5/22e4T.]3[0'8~')'?",
"!|$P<[5a3f6D5/1E.?0a.Y440s.t.A5`494:5.477{3b5c5{)},u+l*=.p+m3x4F3=2m5q4<5z3i8B3Z4.5O2:1^.4134'6^/h2;1626/r-(.^-_14412l3C10:<&u';",
"$($e<e7L1e3;3_485u7|6A4W0x2F3K5-475N7!5[23/A)r-f/4/B+I,r(m1H2L/K+a1n4f,(.U4X8A7F:t8#4/0f.Q2e41/&0(.}1T3I)R)0)5-7/$2U+Z500k9?'N'f",
"&a!n:j2V5Q'v(56b;W7v8c/g,g+*2|3=426@7V4e5P26.</40o+u.1/B,n0u,E-9-E+t-k+f+A223A:8:!8--c/%0f/%+4,O.g-9+;*=+N(X(k)0/,&F$o+9)f5f'Y(4",
"'=$Q<D.P5L'w']5x6a:65!/o,;+C,t+t*.06/m/94E2f0i.6/w/<.6-p-1*:,^,=->/o/=/C,5-%.N,X7}-X,-.Y.0,R)I(z*k.Z,4*3+H,^+c(~)R$X&B717[<O'>(n",
"'0#x;v5!39;x;]2j5t8_89/'18,E/n2>.m3+0X255$0D2q4S1k3t1s1r1@1m.4050g2m.<+P.X+d,1.W.]*0-;*{)H(H*K(I)F(<*S*X4`1>*w,X)j8M<n6_88<w'^+j",
"$H!{9*1b1Z.X28-~.M7u6.5921+)160c3`6>3/4d0e455}4c7K0u/J2}1k/;1;6i4|240C-q0v081g0`3]0&,2+A*u(V+:.!'e'r*Q.8*_+$..-`(@(|+56:4$;)'Q's",
"$0!F81:`;78,5a6&4k4H:n;,7<5n7k:(:b9s:P<B;j:h<f<r<?9r;69t<6:H;4<G<Z;A9d8j:,8}:-:_;+:+:^7R7R6s6/4I5m5n5j7n7=3z6u7l:>:@9=8(6m9<&S'X",
"#E!X!q#%!W!u#3!Q!-!-!5!@!F!g!5$:$s#{$$$O$##c#7$9#O$[$!#c!x#n#o$U#n#8#P#8#'#Q#B#T#y$(#>#:!s#(#t#9#'#J#,!o!>!?!q#3#j#J!&!N!W!%!C'#",
"#Z$#!u!t#3#n!M#8!z!b!7!Y![#:#:#?#z%R#s$=!l!D!{#n#w#S#*$?$##P#P#Q!h#t#b!s#'#5#a#R#B#o#}%2$8#o$P#|#8#K#;#9#'!v#3#3#&#n#F#i#&!V#3&U"
};
