/* XPM */
static char *non_tiled_texture_01[] = {
/* columns rows colors chars-per-pixel */
"64 64 1680 2",
/* colors */
"!! c #0A0606",
"!# c #0B0706",
"!$ c #0D0807",
"!% c #0D0908",
"!& c #0E0808",
"!' c #0E0908",
"!( c #0E0A07",
"!) c #0E0A08",
"!* c #0E0B0B",
"!+ c #0F0908",
"!, c #0F0909",
"!- c #0F0A08",
"!. c #0F0B08",
"!/ c #100A08",
"!0 c #100A09",
"!1 c #100A0A",
"!2 c #100B08",
"!3 c #100B09",
"!4 c #100B0A",
"!5 c #100F0B",
"!6 c #110A08",
"!7 c #110A09",
"!8 c #110A0A",
"!9 c #110B09",
"!: c #110B0A",
"!; c #110C09",
"!< c #110C0A",
"!= c #110C0B",
"!> c #110D0A",
"!? c #110D0B",
"!@ c #110E0B",
"!A c #110E0C",
"!B c #110F0C",
"!C c #120A09",
"!D c #120A0A",
"!E c #120A0B",
"!F c #120B08",
"!G c #120B09",
"!H c #120B0A",
"!I c #120C09",
"!J c #120C0A",
"!K c #120C0B",
"!L c #120D09",
"!M c #120D0A",
"!N c #120E0C",
"!O c #120F0B",
"!P c #120F0C",
"!Q c #12110C",
"!R c #130B09",
"!S c #130B0A",
"!T c #130B0B",
"!U c #130B0C",
"!V c #130C09",
"!W c #130C0A",
"!X c #130C0B",
"!Y c #130D0A",
"!Z c #130D0B",
"![ c #130E09",
"!] c #130E0A",
"!^ c #130E0B",
"!_ c #130E0C",
"!` c #130E0D",
"!a c #130F0C",
"!b c #130F0D",
"!c c #13100C",
"!d c #13100D",
"!e c #13120C",
"!f c #140B0B",
"!g c #140B0C",
"!h c #140C0A",
"!i c #140C0B",
"!j c #140D09",
"!k c #140D0A",
"!l c #140D0B",
"!m c #140D0F",
"!n c #140E0C",
"!o c #140F0C",
"!p c #140F0D",
"!q c #14100D",
"!r c #14110C",
"!s c #14120C",
"!t c #14120D",
"!u c #150C0B",
"!v c #150C0C",
"!w c #150D0A",
"!x c #150D0B",
"!y c #150D0C",
"!z c #150D0D",
"!{ c #150D0E",
"!| c #150E0A",
"!} c #150E0B",
"!~ c #150E0C",
"#! c #150E0D",
"## c #150F0B",
"#$ c #150F0C",
"#% c #150F0D",
"#& c #150F0E",
"#' c #15100B",
"#( c #15100C",
"#) c #15100D",
"#* c #15100E",
"#+ c #15100F",
"#, c #15110C",
"#- c #15110D",
"#. c #15110E",
"#/ c #15120C",
"#0 c #15120D",
"#1 c #15120E",
"#2 c #15120F",
"#3 c #15140D",
"#4 c #15140E",
"#5 c #160C0A",
"#6 c #160C0B",
"#7 c #160D09",
"#8 c #160D0A",
"#9 c #160D0B",
"#: c #160D0C",
"#; c #160E0A",
"#< c #160E0B",
"#= c #160E0C",
"#> c #160F0B",
"#? c #160F0C",
"#@ c #160F0D",
"#A c #16100C",
"#B c #16100D",
"#C c #16100E",
"#D c #16100F",
"#E c #16110C",
"#F c #16110D",
"#G c #16110E",
"#H c #16120C",
"#I c #16120D",
"#J c #16120E",
"#K c #16120F",
"#L c #16130D",
"#M c #16130E",
"#N c #16140E",
"#O c #16140F",
"#P c #170C0E",
"#Q c #170D0B",
"#R c #170D0C",
"#S c #170D0D",
"#T c #170E0A",
"#U c #170E0B",
"#V c #170E0C",
"#W c #170E0D",
"#X c #170E0E",
"#Y c #170E0F",
"#Z c #170F0A",
"#[ c #170F0B",
"#] c #170F0C",
"#^ c #170F0D",
"#_ c #170F0E",
"#` c #170F10",
"#a c #17100C",
"#b c #17100D",
"#c c #17100E",
"#d c #17100F",
"#e c #171010",
"#f c #171011",
"#g c #17110B",
"#h c #17110C",
"#i c #17110D",
"#j c #17110E",
"#k c #17120D",
"#l c #17130C",
"#m c #17130D",
"#n c #17130E",
"#o c #17130F",
"#p c #17140E",
"#q c #17150D",
"#r c #17150E",
"#s c #180E0C",
"#t c #180F0C",
"#u c #180F0D",
"#v c #180F0E",
"#w c #180F0F",
"#x c #180F12",
"#y c #18100B",
"#z c #18100C",
"#{ c #18100D",
"#| c #18100E",
"#} c #181010",
"#~ c #181011",
"$! c #18110E",
"$# c #18110F",
"$$ c #181111",
"$% c #18120B",
"$& c #18120D",
"$' c #18120E",
"$( c #18120F",
"$) c #18130D",
"$* c #18130E",
"$+ c #18130F",
"$, c #181310",
"$- c #18140E",
"$. c #181410",
"$/ c #18150D",
"$0 c #18150E",
"$1 c #18150F",
"$2 c #181510",
"$3 c #18160F",
"$4 c #190D0B",
"$5 c #190D0C",
"$6 c #190E0B",
"$7 c #190E0C",
"$8 c #190E0D",
"$9 c #190E0E",
"$: c #190F0B",
"$; c #190F0C",
"$< c #190F0D",
"$= c #190F0E",
"$> c #19100B",
"$? c #19100C",
"$@ c #19100D",
"$A c #19100E",
"$B c #19100F",
"$C c #19110C",
"$D c #19110D",
"$E c #19110E",
"$F c #19110F",
"$G c #191110",
"$H c #19120D",
"$I c #19120E",
"$J c #19120F",
"$K c #19130D",
"$L c #19130E",
"$M c #19130F",
"$N c #191310",
"$O c #191311",
"$P c #19140E",
"$Q c #19140F",
"$R c #191411",
"$S c #191414",
"$T c #19150E",
"$U c #19150F",
"$V c #191510",
"$W c #191511",
"$X c #191810",
"$Y c #1A0F0D",
"$Z c #1A0F0E",
"$[ c #1A0F0F",
"$] c #1A100C",
"$^ c #1A100D",
"$_ c #1A100E",
"$` c #1A100F",
"$a c #1A1010",
"$b c #1A1011",
"$c c #1A110C",
"$d c #1A110D",
"$e c #1A110E",
"$f c #1A110F",
"$g c #1A1110",
"$h c #1A1111",
"$i c #1A1112",
"$j c #1A120B",
"$k c #1A120C",
"$l c #1A120D",
"$m c #1A120E",
"$n c #1A120F",
"$o c #1A1210",
"$p c #1A1211",
"$q c #1A130C",
"$r c #1A130D",
"$s c #1A130E",
"$t c #1A130F",
"$u c #1A1310",
"$v c #1A1311",
"$w c #1A140D",
"$x c #1A140E",
"$y c #1A140F",
"$z c #1A1410",
"${ c #1A1412",
"$| c #1A150D",
"$} c #1A160E",
"$~ c #1B0E0D",
"%! c #1B0F0B",
"%# c #1B0F0C",
"%$ c #1B0F0D",
"%% c #1B0F0E",
"%& c #1B100C",
"%' c #1B100D",
"%( c #1B100E",
"%) c #1B1010",
"%* c #1B110C",
"%+ c #1B110D",
"%, c #1B110E",
"%- c #1B110F",
"%. c #1B1110",
"%/ c #1B120C",
"%0 c #1B120E",
"%1 c #1B120F",
"%2 c #1B1210",
"%3 c #1B1212",
"%4 c #1B130C",
"%5 c #1B130D",
"%6 c #1B130E",
"%7 c #1B130F",
"%8 c #1B140E",
"%9 c #1B140F",
"%: c #1B1410",
"%; c #1B1411",
"%< c #1B150D",
"%= c #1B150E",
"%> c #1B150F",
"%? c #1B1510",
"%@ c #1B1512",
"%A c #1B160F",
"%B c #1B1610",
"%C c #1B1712",
"%D c #1B1A12",
"%E c #1C0F0D",
"%F c #1C0F10",
"%G c #1C100C",
"%H c #1C100D",
"%I c #1C100E",
"%J c #1C100F",
"%K c #1C1010",
"%L c #1C110C",
"%M c #1C110D",
"%N c #1C110E",
"%O c #1C110F",
"%P c #1C1111",
"%Q c #1C1113",
"%R c #1C1210",
"%S c #1C130D",
"%T c #1C130E",
"%U c #1C130F",
"%V c #1C1310",
"%W c #1C1311",
"%X c #1C1312",
"%Y c #1C140E",
"%Z c #1C1410",
"%[ c #1C1411",
"%] c #1C1412",
"%^ c #1C1413",
"%_ c #1C150E",
"%` c #1C150F",
"%a c #1C1510",
"%b c #1C1511",
"%c c #1C160E",
"%d c #1C160F",
"%e c #1C1610",
"%f c #1C1611",
"%g c #1C1612",
"%h c #1C1613",
"%i c #1C1710",
"%j c #1C180F",
"%k c #1C1810",
"%l c #1C1812",
"%m c #1D1010",
"%n c #1D110C",
"%o c #1D110D",
"%p c #1D110E",
"%q c #1D110F",
"%r c #1D1110",
"%s c #1D120E",
"%t c #1D120F",
"%u c #1D1211",
"%v c #1D130D",
"%w c #1D130E",
"%x c #1D130F",
"%y c #1D1310",
"%z c #1D1311",
"%{ c #1D1312",
"%| c #1D140E",
"%} c #1D140F",
"%~ c #1D1410",
"&! c #1D1411",
"&# c #1D1414",
"&$ c #1D150F",
"&% c #1D1510",
"&& c #1D1511",
"&' c #1D160F",
"&( c #1D1612",
"&) c #1D1613",
"&* c #1D170F",
"&+ c #1D1710",
"&, c #1D1811",
"&- c #1D1813",
"&. c #1D1910",
"&/ c #1E110D",
"&0 c #1E110E",
"&1 c #1E110F",
"&2 c #1E1110",
"&3 c #1E1111",
"&4 c #1E1113",
"&5 c #1E1211",
"&6 c #1E130D",
"&7 c #1E130E",
"&8 c #1E130F",
"&9 c #1E1310",
"&: c #1E1311",
"&; c #1E1312",
"&< c #1E1313",
"&= c #1E1314",
"&> c #1E140F",
"&? c #1E1410",
"&@ c #1E1411",
"&A c #1E1412",
"&B c #1E1413",
"&C c #1E150E",
"&D c #1E150F",
"&E c #1E1510",
"&F c #1E1511",
"&G c #1E1512",
"&H c #1E160E",
"&I c #1E160F",
"&J c #1E1610",
"&K c #1E1611",
"&L c #1E1612",
"&M c #1E1614",
"&N c #1E170E",
"&O c #1E170F",
"&P c #1E1710",
"&Q c #1E1711",
"&R c #1E1812",
"&S c #1E1911",
"&T c #1F1010",
"&U c #1F110E",
"&V c #1F1110",
"&W c #1F1112",
"&X c #1F130E",
"&Y c #1F130F",
"&Z c #1F1310",
"&[ c #1F1311",
"&] c #1F1312",
"&^ c #1F1313",
"&_ c #1F140F",
"&` c #1F1411",
"&a c #1F1413",
"&b c #1F150E",
"&c c #1F150F",
"&d c #1F1510",
"&e c #1F1511",
"&f c #1F1512",
"&g c #1F1513",
"&h c #1F160E",
"&i c #1F160F",
"&j c #1F1610",
"&k c #1F1611",
"&l c #1F1612",
"&m c #1F1613",
"&n c #1F170F",
"&o c #1F1710",
"&p c #1F1711",
"&q c #1F1712",
"&r c #1F1713",
"&s c #1F1810",
"&t c #1F1811",
"&u c #1F1812",
"&v c #1F1813",
"&w c #1F190F",
"&x c #1F1910",
"&y c #1F1914",
"&z c #1F1916",
"&{ c #1F1A13",
"&| c #1F1A14",
"&} c #1F1B13",
"&~ c #1F1B14",
"'! c #1F1C14",
"'# c #201010",
"'$ c #201111",
"'% c #20130D",
"'& c #20130E",
"'' c #20130F",
"'( c #201310",
"') c #201311",
"'* c #201312",
"'+ c #201313",
"', c #201314",
"'- c #201410",
"'. c #20150E",
"'/ c #20150F",
"'0 c #201510",
"'1 c #201511",
"'2 c #201512",
"'3 c #201513",
"'4 c #20160E",
"'5 c #20160F",
"'6 c #201610",
"'7 c #201611",
"'8 c #201612",
"'9 c #201613",
"': c #201712",
"'; c #201713",
"'< c #201810",
"'= c #201812",
"'> c #201813",
"'? c #201814",
"'@ c #201911",
"'A c #201912",
"'B c #201913",
"'C c #201916",
"'D c #201B14",
"'E c #201D16",
"'F c #211311",
"'G c #211313",
"'H c #211411",
"'I c #211413",
"'J c #211414",
"'K c #211416",
"'L c #211418",
"'M c #21150E",
"'N c #211510",
"'O c #211511",
"'P c #211512",
"'Q c #211513",
"'R c #211514",
"'S c #21160E",
"'T c #21160F",
"'U c #211610",
"'V c #211611",
"'W c #211612",
"'X c #211613",
"'Y c #211614",
"'Z c #211710",
"'[ c #211711",
"'] c #211712",
"'^ c #211713",
"'_ c #211714",
"'` c #211810",
"'a c #211811",
"'b c #211812",
"'c c #211814",
"'d c #211916",
"'e c #211A12",
"'f c #211A16",
"'g c #211B12",
"'h c #211B16",
"'i c #211C13",
"'j c #211C16",
"'k c #211D14",
"'l c #22130F",
"'m c #221310",
"'n c #221311",
"'o c #221312",
"'p c #221315",
"'q c #22150F",
"'r c #221510",
"'s c #221511",
"'t c #221512",
"'u c #221513",
"'v c #22160F",
"'w c #221610",
"'x c #221611",
"'y c #221612",
"'z c #221613",
"'{ c #221614",
"'| c #221710",
"'} c #221711",
"'~ c #221712",
"(! c #221713",
"(# c #221714",
"($ c #221715",
"(% c #22180F",
"(& c #221810",
"(' c #221811",
"(( c #221812",
"() c #221813",
"(* c #221814",
"(+ c #221911",
"(, c #221912",
"(- c #221913",
"(. c #221914",
"(/ c #221A11",
"(0 c #221A12",
"(1 c #221A13",
"(2 c #221A14",
"(3 c #221B12",
"(4 c #221B13",
"(5 c #221E12",
"(6 c #221E14",
"(7 c #231310",
"(8 c #231311",
"(9 c #231313",
"(: c #231510",
"(; c #231511",
"(< c #231512",
"(= c #231610",
"(> c #231611",
"(? c #231612",
"(@ c #231613",
"(A c #231615",
"(B c #231711",
"(C c #231712",
"(D c #231713",
"(E c #231714",
"(F c #23180F",
"(G c #231811",
"(H c #231812",
"(I c #231813",
"(J c #231912",
"(K c #231A11",
"(L c #231A13",
"(M c #231B13",
"(N c #231B14",
"(O c #231B18",
"(P c #231C12",
"(Q c #231C13",
"(R c #231C14",
"(S c #231C15",
"(T c #231D13",
"(U c #231D14",
"(V c #231D16",
"(W c #241417",
"(X c #241611",
"(Y c #241612",
"(Z c #241613",
"([ c #241614",
"(] c #241615",
"(^ c #241710",
"(_ c #241712",
"(` c #241713",
"(a c #241714",
"(b c #241715",
"(c c #241810",
"(d c #241811",
"(e c #241812",
"(f c #241813",
"(g c #241814",
"(h c #241815",
"(i c #241912",
"(j c #241913",
"(k c #241914",
"(l c #241915",
"(m c #241916",
"(n c #241917",
"(o c #241A12",
"(p c #241A13",
"(q c #241A14",
"(r c #241A15",
"(s c #241A17",
"(t c #241B12",
"(u c #241B13",
"(v c #241B16",
"(w c #241B17",
"(x c #241B18",
"(y c #241C12",
"(z c #241C14",
"({ c #241D12",
"(| c #241D13",
"(} c #241D14",
"(~ c #241D18",
")! c #241E16",
")# c #241F12",
")$ c #251310",
")% c #251510",
")& c #251511",
")' c #251512",
")( c #25160F",
")) c #251610",
")* c #251611",
")+ c #251612",
"), c #251613",
")- c #251614",
"). c #251615",
")/ c #251718",
")0 c #251810",
")1 c #251811",
")2 c #251812",
")3 c #251813",
")4 c #251814",
")5 c #251815",
")6 c #25181B",
")7 c #251910",
")8 c #251912",
")9 c #251913",
"): c #251914",
"); c #251A11",
")< c #251A12",
")= c #251A13",
")> c #251A14",
")? c #251A15",
")@ c #251A17",
")A c #251B10",
")B c #251B13",
")C c #251B14",
")D c #251B19",
")E c #251C12",
")F c #251C13",
")G c #251C14",
")H c #251C17",
")I c #251D12",
")J c #251D14",
")K c #251D15",
")L c #251D16",
")M c #251E15",
")N c #251F14",
")O c #251F16",
")P c #251F18",
")Q c #261612",
")R c #261619",
")S c #261713",
")T c #261714",
")U c #261812",
")V c #261813",
")W c #261814",
")X c #261815",
")Y c #261816",
")Z c #261817",
")[ c #261818",
")] c #26181B",
")^ c #261911",
")_ c #261912",
")` c #261913",
")a c #261914",
")b c #261915",
")c c #261916",
")d c #261A13",
")e c #261A14",
")f c #261A15",
")g c #261A16",
")h c #261A17",
")i c #261A18",
")j c #261B13",
")k c #261B14",
")l c #261B15",
")m c #261B16",
")n c #261C13",
")o c #261C16",
")p c #261D13",
")q c #261E16",
")r c #262016",
")s c #271611",
")t c #271612",
")u c #271713",
")v c #271716",
")w c #27171B",
")x c #271810",
")y c #271811",
")z c #271812",
"){ c #271813",
")| c #271814",
")} c #271815",
")~ c #271816",
"*! c #271911",
"*# c #271912",
"*$ c #271913",
"*% c #271914",
"*& c #271915",
"*' c #271916",
"*( c #271919",
"*) c #271A10",
"** c #271A12",
"*+ c #271A13",
"*, c #271A14",
"*- c #271A15",
"*. c #271A16",
"*/ c #271A17",
"*0 c #271B13",
"*1 c #271B14",
"*2 c #271B15",
"*3 c #271B16",
"*4 c #271C13",
"*5 c #271C14",
"*6 c #271C15",
"*7 c #271C16",
"*8 c #271C18",
"*9 c #271D13",
"*: c #271D17",
"*; c #271E13",
"*< c #271E17",
"*= c #271F13",
"*> c #271F18",
"*? c #272115",
"*@ c #272218",
"*A c #281612",
"*B c #281613",
"*C c #281615",
"*D c #281810",
"*E c #281811",
"*F c #281812",
"*G c #281813",
"*H c #281814",
"*I c #281815",
"*J c #281913",
"*K c #281914",
"*L c #281915",
"*M c #281916",
"*N c #281A12",
"*O c #281A13",
"*P c #281A14",
"*Q c #281A15",
"*R c #281A16",
"*S c #281A17",
"*T c #281A18",
"*U c #281B11",
"*V c #281B12",
"*W c #281B13",
"*X c #281B14",
"*Y c #281B15",
"*Z c #281B16",
"*[ c #281B17",
"*] c #281C12",
"*^ c #281C13",
"*_ c #281C14",
"*` c #281C15",
"*a c #281D13",
"*b c #281D14",
"*c c #281D15",
"*d c #281D17",
"*e c #281D19",
"*f c #281E13",
"*g c #281E17",
"*h c #282015",
"*i c #291613",
"*j c #291811",
"*k c #291812",
"*l c #291813",
"*m c #291814",
"*n c #291815",
"*o c #29181C",
"*p c #291913",
"*q c #291914",
"*r c #291915",
"*s c #291916",
"*t c #291917",
"*u c #291A12",
"*v c #291A13",
"*w c #291A14",
"*x c #291A15",
"*y c #291A16",
"*z c #291A17",
"*{ c #291B12",
"*| c #291B13",
"*} c #291B14",
"*~ c #291B15",
"+! c #291B16",
"+# c #291B17",
"+$ c #291B18",
"+% c #291B19",
"+& c #291B1A",
"+' c #291C13",
"+( c #291C14",
"+) c #291C15",
"+* c #291C16",
"++ c #291C18",
"+, c #291C1A",
"+- c #291D16",
"+. c #291D18",
"+/ c #291D19",
"+0 c #291E15",
"+1 c #291E17",
"+2 c #291E18",
"+3 c #291E19",
"+4 c #291F16",
"+5 c #291F18",
"+6 c #292018",
"+7 c #29201A",
"+8 c #292115",
"+9 c #292217",
"+: c #2A1812",
"+; c #2A1813",
"+< c #2A1815",
"+= c #2A1816",
"+> c #2A1914",
"+? c #2A1915",
"+@ c #2A1916",
"+A c #2A1919",
"+B c #2A191A",
"+C c #2A1A11",
"+D c #2A1A12",
"+E c #2A1A13",
"+F c #2A1A14",
"+G c #2A1A15",
"+H c #2A1A16",
"+I c #2A1A17",
"+J c #2A1B12",
"+K c #2A1B13",
"+L c #2A1B14",
"+M c #2A1B15",
"+N c #2A1B16",
"+O c #2A1B18",
"+P c #2A1B19",
"+Q c #2A1B1A",
"+R c #2A1C12",
"+S c #2A1C13",
"+T c #2A1C14",
"+U c #2A1C15",
"+V c #2A1C16",
"+W c #2A1C17",
"+X c #2A1D13",
"+Y c #2A1D14",
"+Z c #2A1D15",
"+[ c #2A1D17",
"+] c #2A1D1D",
"+^ c #2A1E14",
"+_ c #2A1E19",
"+` c #2A1E1C",
"+a c #2A1F17",
"+b c #2A1F19",
"+c c #2A2019",
"+d c #2B1813",
"+e c #2B1917",
"+f c #2B191C",
"+g c #2B1A12",
"+h c #2B1A13",
"+i c #2B1A15",
"+j c #2B1A16",
"+k c #2B1A17",
"+l c #2B1A1A",
"+m c #2B1A1B",
"+n c #2B1B12",
"+o c #2B1B14",
"+p c #2B1B15",
"+q c #2B1B16",
"+r c #2B1B17",
"+s c #2B1B18",
"+t c #2B1B19",
"+u c #2B1B1A",
"+v c #2B1C13",
"+w c #2B1C14",
"+x c #2B1C15",
"+y c #2B1C16",
"+z c #2B1C17",
"+{ c #2B1C18",
"+| c #2B1C19",
"+} c #2B1C1A",
"+~ c #2B1C1C",
",! c #2B1D14",
",# c #2B1D15",
",$ c #2B1D16",
",% c #2B1D17",
",& c #2B1D18",
",' c #2B1D19",
",( c #2B1E15",
",) c #2B1E16",
",* c #2B1E18",
",+ c #2B1F15",
",, c #2B1F16",
",- c #2B2017",
",. c #2B2019",
",/ c #2B2117",
",0 c #2B2219",
",1 c #2C191A",
",2 c #2C191C",
",3 c #2C1A15",
",4 c #2C1A16",
",5 c #2C1A17",
",6 c #2C1A1A",
",7 c #2C1B13",
",8 c #2C1B15",
",9 c #2C1B16",
",: c #2C1B17",
",; c #2C1B18",
",< c #2C1B19",
",= c #2C1B1B",
",> c #2C1B20",
",? c #2C1C13",
",@ c #2C1C15",
",A c #2C1C16",
",B c #2C1C17",
",C c #2C1C18",
",D c #2C1C19",
",E c #2C1C1A",
",F c #2C1C1C",
",G c #2C1C1E",
",H c #2C1D13",
",I c #2C1D15",
",J c #2C1D16",
",K c #2C1D18",
",L c #2C1D19",
",M c #2C1E14",
",N c #2C1E15",
",O c #2C1E16",
",P c #2C1E18",
",Q c #2C1E1A",
",R c #2C1E1D",
",S c #2C1F14",
",T c #2C1F16",
",U c #2C1F17",
",V c #2C1F18",
",W c #2C2016",
",X c #2C2018",
",Y c #2C2019",
",Z c #2C201A",
",[ c #2C2119",
",] c #2C211E",
",^ c #2C221A",
",_ c #2D1815",
",` c #2D1A17",
",a c #2D1A19",
",b c #2D1B13",
",c c #2D1B14",
",d c #2D1B15",
",e c #2D1B16",
",f c #2D1B18",
",g c #2D1B1B",
",h c #2D1B1F",
",i c #2D1C13",
",j c #2D1C15",
",k c #2D1C16",
",l c #2D1C17",
",m c #2D1C18",
",n c #2D1C19",
",o c #2D1C1A",
",p c #2D1C1B",
",q c #2D1D16",
",r c #2D1D17",
",s c #2D1D18",
",t c #2D1D19",
",u c #2D1D1B",
",v c #2D1D1C",
",w c #2D1E13",
",x c #2D1E15",
",y c #2D1E16",
",z c #2D1E17",
",{ c #2D1E18",
",| c #2D1E19",
",} c #2D1E1A",
",~ c #2D1E1B",
"-! c #2D1F15",
"-# c #2D1F16",
"-$ c #2D1F17",
"-% c #2D1F18",
"-& c #2D1F19",
"-' c #2D1F1A",
"-( c #2D1F1B",
"-) c #2D2016",
"-* c #2D2017",
"-+ c #2D2019",
"-, c #2D201A",
"-- c #2D2217",
"-. c #2E1A16",
"-/ c #2E1A17",
"-0 c #2E1A1A",
"-1 c #2E1B15",
"-2 c #2E1B16",
"-3 c #2E1B18",
"-4 c #2E1C15",
"-5 c #2E1C16",
"-6 c #2E1C17",
"-7 c #2E1C18",
"-8 c #2E1C19",
"-9 c #2E1C20",
"-: c #2E1D15",
"-; c #2E1D16",
"-< c #2E1D17",
"-= c #2E1D18",
"-> c #2E1D19",
"-? c #2E1E15",
"-@ c #2E1E16",
"-A c #2E1E17",
"-B c #2E1E1A",
"-C c #2E1E1B",
"-D c #2E1E1C",
"-E c #2E1F17",
"-F c #2E1F18",
"-G c #2E1F1A",
"-H c #2E1F1B",
"-I c #2E1F1C",
"-J c #2E1F1E",
"-K c #2E2015",
"-L c #2E2016",
"-M c #2E2018",
"-N c #2E201A",
"-O c #2E2118",
"-P c #2E211A",
"-Q c #2E211B",
"-R c #2E2216",
"-S c #2E251E",
"-T c #2E261F",
"-U c #2F1C16",
"-V c #2F1C18",
"-W c #2F1C19",
"-X c #2F1D13",
"-Y c #2F1D17",
"-Z c #2F1D18",
"-[ c #2F1D19",
"-] c #2F1D1B",
"-^ c #2F1D1C",
"-_ c #2F1D1D",
"-` c #2F1E16",
"-a c #2F1E17",
"-b c #2F1E19",
"-c c #2F1F16",
"-d c #2F1F17",
"-e c #2F1F18",
"-f c #2F1F19",
"-g c #2F1F1A",
"-h c #2F1F1B",
"-i c #2F1F1D",
"-j c #2F1F20",
"-k c #2F2016",
"-l c #2F2017",
"-m c #2F2018",
"-n c #2F2019",
"-o c #2F201D",
"-p c #2F2118",
"-q c #2F2218",
"-r c #2F2219",
"-s c #2F221A",
"-t c #2F221D",
"-u c #2F2316",
"-v c #2F2318",
"-w c #301310",
"-x c #301C1A",
"-y c #301D19",
"-z c #301D1A",
"-{ c #301D1C",
"-| c #301D1D",
"-} c #301E19",
"-~ c #301E1B",
".! c #301E21",
".# c #301F17",
".$ c #301F19",
".% c #301F1A",
".& c #301F1B",
".' c #301F1C",
".( c #301F1D",
".) c #301F20",
".* c #302016",
".+ c #302017",
"., c #302019",
".- c #30201A",
".. c #30201C",
"./ c #30211A",
".0 c #30221C",
".1 c #30231A",
".2 c #302420",
".3 c #311D16",
".4 c #311D17",
".5 c #311D1C",
".6 c #311E16",
".7 c #311E17",
".8 c #311E18",
".9 c #311E1A",
".: c #311F15",
".; c #311F16",
".< c #311F17",
".= c #311F18",
".> c #311F19",
".? c #311F1A",
".@ c #311F1B",
".A c #311F1C",
".B c #311F1E",
".C c #312015",
".D c #312017",
".E c #312018",
".F c #312019",
".G c #31201A",
".H c #31201B",
".I c #312115",
".J c #312116",
".K c #312119",
".L c #31211C",
".M c #31221A",
".N c #31221C",
".O c #312318",
".P c #312322",
".Q c #31261A",
".R c #321D1D",
".S c #321F19",
".T c #321F1D",
".U c #321F1E",
".V c #322019",
".W c #32201B",
".X c #32201C",
".Y c #32201D",
".Z c #32211E",
".[ c #322218",
".] c #322219",
".^ c #32221B",
"._ c #32221E",
".` c #322318",
".a c #322420",
".b c #331C19",
".c c #331D16",
".d c #331D1A",
".e c #331D1D",
".f c #331F19",
".g c #331F1A",
".h c #331F1B",
".i c #331F1D",
".j c #332016",
".k c #332017",
".l c #332019",
".m c #33201A",
".n c #33201C",
".o c #33201D",
".p c #33201F",
".q c #332023",
".r c #332116",
".s c #332118",
".t c #33211B",
".u c #33221B",
".v c #33221C",
".w c #33221E",
".x c #332221",
".y c #332316",
".z c #332419",
".{ c #33241E",
".| c #332620",
".} c #341E17",
".~ c #341E1A",
"/! c #341E1D",
"/# c #341E1E",
"/$ c #341F1A",
"/% c #342017",
"/& c #34201A",
"/' c #34201C",
"/( c #342117",
"/) c #342118",
"/* c #342119",
"/+ c #34211A",
"/, c #34211C",
"/- c #342120",
"/. c #342220",
"// c #342317",
"/0 c #342319",
"/1 c #34231B",
"/2 c #342417",
"/3 c #34241E",
"/4 c #34251B",
"/5 c #34251E",
"/6 c #342520",
"/7 c #34261E",
"/8 c #342620",
"/9 c #351F18",
"/: c #351F1B",
"/; c #351F1C",
"/< c #351F1D",
"/= c #35201B",
"/> c #352118",
"/? c #35211A",
"/@ c #352217",
"/A c #352219",
"/B c #35221A",
"/C c #35221B",
"/D c #35221C",
"/E c #35221D",
"/F c #35231A",
"/G c #35231C",
"/H c #352519",
"/I c #35251B",
"/J c #361E1C",
"/K c #361E1D",
"/L c #361F1D",
"/M c #362019",
"/N c #36201A",
"/O c #36201D",
"/P c #36201F",
"/Q c #362020",
"/R c #362022",
"/S c #362118",
"/T c #362119",
"/U c #36211A",
"/V c #36211D",
"/W c #36211E",
"/X c #362121",
"/Y c #36221A",
"/Z c #36221C",
"/[ c #36221D",
"/] c #36221E",
"/^ c #36221F",
"/_ c #362319",
"/` c #36231F",
"/a c #362320",
"/b c #362323",
"/c c #36241A",
"/d c #362421",
"/e c #36251E",
"/f c #36251F",
"/g c #36291E",
"/h c #371F22",
"/i c #37201C",
"/j c #37201D",
"/k c #37201E",
"/l c #372020",
"/m c #37211C",
"/n c #372220",
"/o c #372223",
"/p c #37231A",
"/q c #37231D",
"/r c #37231F",
"/s c #372320",
"/t c #37241A",
"/u c #37241C",
"/v c #37241D",
"/w c #372426",
"/x c #37251D",
"/y c #372520",
"/z c #372524",
"/{ c #372622",
"/| c #372721",
"/} c #372724",
"/~ c #372A1E",
"0! c #381D15",
"0# c #38221C",
"0$ c #38221D",
"0% c #38221F",
"0& c #382220",
"0' c #38231A",
"0( c #38231C",
"0) c #38231F",
"0* c #382320",
"0+ c #382322",
"0, c #38251F",
"0- c #382520",
"0. c #38261D",
"0/ c #382621",
"00 c #382719",
"01 c #382721",
"02 c #382A1B",
"03 c #382A22",
"04 c #39201E",
"05 c #39211D",
"06 c #392120",
"07 c #392220",
"08 c #39231E",
"09 c #39231F",
"0: c #392320",
"0; c #392322",
"0< c #39241C",
"0= c #39241E",
"0> c #392420",
"0? c #39251D",
"0@ c #39251F",
"0A c #392520",
"0B c #392522",
"0C c #39261D",
"0D c #39261F",
"0E c #392622",
"0F c #392626",
"0G c #392721",
"0H c #39281C",
"0I c #39281F",
"0J c #39291E",
"0K c #3A1A18",
"0L c #3A1E23",
"0M c #3A201E",
"0N c #3A231D",
"0O c #3A231E",
"0P c #3A241C",
"0Q c #3A241D",
"0R c #3A241E",
"0S c #3A2420",
"0T c #3A2421",
"0U c #3A261C",
"0V c #3A261D",
"0W c #3A261E",
"0X c #3A2C24",
"0Y c #3B2120",
"0Z c #3B2320",
"0[ c #3B2321",
"0] c #3B2323",
"0^ c #3B241C",
"0_ c #3B241D",
"0` c #3B241E",
"0a c #3B2420",
"0b c #3B251C",
"0c c #3B251F",
"0d c #3B2522",
"0e c #3B261D",
"0f c #3B261E",
"0g c #3B261F",
"0h c #3B2620",
"0i c #3B2623",
"0j c #3B271C",
"0k c #3B2720",
"0l c #3B2721",
"0m c #3B281C",
"0n c #3B2921",
"0o c #3B2A21",
"0p c #3C211B",
"0q c #3C251F",
"0r c #3C2523",
"0s c #3C2622",
"0t c #3C2623",
"0u c #3C2723",
"0v c #3C2820",
"0w c #3C2823",
"0x c #3C2825",
"0y c #3C291F",
"0z c #3C2920",
"0{ c #3C2923",
"0| c #3C2A23",
"0} c #3D2620",
"0~ c #3D2621",
"1! c #3D2624",
"1# c #3D2721",
"1$ c #3D2723",
"1% c #3D291E",
"1& c #3D2927",
"1' c #3D2A23",
"1( c #3E231E",
"1) c #3E2321",
"1* c #3E2420",
"1+ c #3E2423",
"1, c #3E2523",
"1- c #3E261F",
"1. c #3E2621",
"1/ c #3E2622",
"10 c #3E2623",
"11 c #3E2625",
"12 c #3E271E",
"13 c #3E2723",
"14 c #3E2820",
"15 c #3E2822",
"16 c #3E2823",
"17 c #3E291D",
"18 c #3E291F",
"19 c #3E2920",
"1: c #3E2925",
"1; c #3E2929",
"1< c #3E2A20",
"1= c #3E2B24",
"1> c #3E2D28",
"1? c #3E2E22",
"1@ c #3F2628",
"1A c #3F2820",
"1B c #3F2822",
"1C c #3F2828",
"1D c #3F291F",
"1E c #3F2920",
"1F c #3F2922",
"1G c #3F2925",
"1H c #3F2926",
"1I c #3F2A25",
"1J c #3F2A26",
"1K c #3F2B20",
"1L c #401F19",
"1M c #402421",
"1N c #402621",
"1O c #402623",
"1P c #402627",
"1Q c #402720",
"1R c #402721",
"1S c #40281E",
"1T c #402921",
"1U c #402A1E",
"1V c #402A24",
"1W c #402E27",
"1X c #41261D",
"1Y c #412624",
"1Z c #412721",
"1[ c #412723",
"1] c #412724",
"1^ c #412823",
"1_ c #41291E",
"1` c #41291F",
"1a c #412920",
"1b c #412923",
"1c c #412924",
"1d c #412925",
"1e c #412A26",
"1f c #412B1E",
"1g c #412B26",
"1h c #412C20",
"1i c #412D23",
"1j c #42231C",
"1k c #422826",
"1l c #422828",
"1m c #422920",
"1n c #422925",
"1o c #422926",
"1p c #422A25",
"1q c #422C23",
"1r c #43241C",
"1s c #43261E",
"1t c #432629",
"1u c #43271E",
"1v c #432723",
"1w c #432828",
"1x c #432923",
"1y c #432925",
"1z c #432926",
"1{ c #432928",
"1| c #432A20",
"1} c #432A21",
"1~ c #432A23",
"2! c #432A24",
"2# c #432A26",
"2$ c #432A27",
"2% c #432B20",
"2& c #432B28",
"2' c #432C22",
"2( c #432C23",
"2) c #432D20",
"2* c #432D24",
"2+ c #43322A",
"2, c #442628",
"2- c #44262A",
"2. c #44282C",
"2/ c #44291F",
"20 c #442921",
"21 c #442923",
"22 c #442924",
"23 c #442927",
"24 c #442A20",
"25 c #442A21",
"26 c #442A24",
"27 c #442A28",
"28 c #442B25",
"29 c #442B26",
"2: c #442B2A",
"2; c #442C23",
"2< c #442C25",
"2= c #442C28",
"2> c #442D26",
"2? c #442F25",
"2@ c #45221D",
"2A c #452A25",
"2B c #452B28",
"2C c #452B2A",
"2D c #452C26",
"2E c #452D29",
"2F c #453026",
"2G c #45322E",
"2H c #462724",
"2I c #462A26",
"2J c #462B24",
"2K c #462D26",
"2L c #463026",
"2M c #463223",
"2N c #463326",
"2O c #46352D",
"2P c #46362A",
"2Q c #472A25",
"2R c #472A26",
"2S c #472A29",
"2T c #472C26",
"2U c #472D26",
"2V c #472E27",
"2W c #472F26",
"2X c #472F28",
"2Y c #47342E",
"2Z c #48261C",
"2[ c #48271C",
"2] c #482B28",
"2^ c #482D24",
"2_ c #482F26",
"2` c #482F28",
"2a c #492929",
"2b c #492A20",
"2c c #492C29",
"2d c #492D26",
"2e c #493029",
"2f c #493324",
"2g c #49332E",
"2h c #4A231A",
"2i c #4A241A",
"2j c #4A2A29",
"2k c #4A2B26",
"2l c #4A2C27",
"2m c #4A2D26",
"2n c #4A2D27",
"2o c #4A2D28",
"2p c #4A2D29",
"2q c #4A2D2A",
"2r c #4A2E24",
"2s c #4A2E26",
"2t c #4A2E29",
"2u c #4A2F26",
"2v c #4A3024",
"2w c #4A3026",
"2x c #4A342C",
"2y c #4A3630",
"2z c #4B2A23",
"2{ c #4B2D1E",
"2| c #4B2D21",
"2} c #4B2D26",
"2~ c #4B2D28",
"3! c #4B2E29",
"3# c #4B2F26",
"3$ c #4B3026",
"3% c #4B3333",
"3& c #4B372D",
"3' c #4B3831",
"3( c #4C392B",
"3) c #4D2924",
"3* c #4D2D21",
"3+ c #4D2D25",
"3, c #4D2D2A",
"3- c #4D3028",
"3. c #4D3030",
"3/ c #4D3129",
"30 c #4D3228",
"31 c #4D322A",
"32 c #4D3428",
"33 c #4D342A",
"34 c #4D3729",
"35 c #4E2E26",
"36 c #4E2E29",
"37 c #4E3125",
"38 c #4F3229",
"39 c #4F322B",
"3: c #4F3328",
"3; c #4F3429",
"3< c #502727",
"3= c #502A21",
"3> c #503020",
"3? c #503027",
"3@ c #503125",
"3A c #503429",
"3B c #503830",
"3C c #503931",
"3D c #512E30",
"3E c #51302A",
"3F c #51302D",
"3G c #513327",
"3H c #513426",
"3I c #513428",
"3J c #513429",
"3K c #513B28",
"3L c #524436",
"3M c #533129",
"3N c #53322B",
"3O c #53332A",
"3P c #533527",
"3Q c #534133",
"3R c #54332A",
"3S c #543528",
"3T c #54352A",
"3U c #543A37",
"3V c #543B28",
"3W c #552D28",
"3X c #563731",
"3Y c #563A32",
"3Z c #57332E",
"3[ c #57342D",
"3] c #573531",
"3^ c #57362C",
"3_ c #573832",
"3` c #58312D",
"3a c #583228",
"3b c #58362A",
"3c c #58382D",
"3d c #583A2B",
"3e c #583F35",
"3f c #59392A",
"3g c #593A2F",
"3h c #593C2D",
"3i c #5A3D33",
"3j c #5B3527",
"3k c #5B3E39",
"3l c #5C392F",
"3m c #5C3A2A",
"3n c #5C3C2F",
"3o c #5C3D35",
"3p c #5C3E33",
"3q c #5C4030",
"3r c #5C4230",
"3s c #5D3730",
"3t c #5D3C2E",
"3u c #5D3D31",
"3v c #5D3E33",
"3w c #5E3931",
"3x c #5E3A2E",
"3y c #5F3A32",
"3z c #5F3B36",
"3{ c #5F3C31",
"3| c #5F422D",
"3} c #603E2D",
"3~ c #603E33",
"4! c #604036",
"4# c #604332",
"4$ c #604530",
"4% c #61402F",
"4& c #614632",
"4' c #623D35",
"4( c #634633",
"4) c #643739",
"4* c #643C37",
"4+ c #644641",
"4, c #654535",
"4- c #674438",
"4. c #684037",
"4/ c #685336",
"40 c #6E4A42",
"41 c #6E4E3C",
"42 c #735743",
"43 c #764C42",
"44 c #7B5C41",
"45 c #7C603F",
"46 c #7F5A51",
"47 c #7F6042",
"48 c #8F6955",
"49 c #906852",
/* pixels */
"$7%x'(&T'm)z,3*H*K(`)1+g)s'y(?%R&`'''w))''%+%!#;$?'M%G%'$?#]#:#S%I#U#T!V!k$7%v%N%%%,%##9$?#V$_%K%N!4!6!#!(!V!w!l#6!y$<#[!w$6!V!W",
"%,%1(;&['P*B+K*v)t&>'r)*&>)+'x'Z&7%w'0&Y%x$5%&!|#]'%%o%M%+%M&8'm''&X!h!j#;$;%M%o%I%o&7#[$e$;%x#b#W!'!!!$!;$6#{!~!x!x$4$7%H%#$^$@",
"%/''&9/d3)4'4,4!3'3C3C4&3e3z3~3(4%3q3K3t2/2^1j243P3I3;3g3h3O3n3u3y3S/~-P1r2|3@2z370X/g/}3*3n3+3N1X(x%^%h+`2P3d1;-S,]0G.%/l'm'm&0",
"$c#V/q2x3%0;/h0L2'/^.U0l2N2f2M0+3j3>2b2h2Z-w0K1L2i2[2@2K1c0~3=130}0V*q*q)S(@+W+z'V'H%Q'X0>/-/o0>0y-8&@$`,n,1.L.d/_+B,61W3&1.'w%N",
"!x!v1>/h1Y1b0r0/1f.x/|031'1?-t/.0d2I1q1x)X/E,4(j/*-[192!1c1]1#1T0k-6+F(X'-'-*%(@&:%y&a)].p.q/b0i0>/O(@&:'I*(->,o,n,2,6)R-0/w#P#R",
"!x!u,2/Q13.w0t/8.2/z2V2U0x.P.|/].a2n21,R010:18/q+{.X1U2v0S0n1V1+/q+A'J&3$[&:(`&a&B)T-r0,.(-j/X-|/E,a&a&G(@&G*M(W,1/W.o(A+W'L!U!u",
"!H!S,t/[-I.R*.%s%Y&c%Z$I%t'V)y%}$f$A&o%`'Z*q'|%x'S%v&7%x%T&7&c%p$<#:!T!G!+!&!G!3!L![#g$q%N%6%($`!y!}!9#[!T!1!h!i$;-70:->(a)Y!W!8",
"!D#9+s/;+m)w&N#%%1(^%U%t&n&$$K&C(>%c%Y-:)d'7&k'F'N'v'/%x%S%6#]%L#U#U$;!W!I!C!7!&!F!I!I$@#$'.$l$@#=!8!W!x%I!f#U!E#<&X/P,L*w+V#8!J",
"!h#Q,<./+,-G$^%f(!&p&k${%f'w$z#p$3&,(t((,*'j)i(m*2,I*W)e()%7&[$C$A$D%I$8#$!~!Z!K!M!}%5#j$y'7$z%Z!m!z#w&e'^'a#h$<$@#8,t'K(j(f#5!7",
"!S#V-Z*e*e-D#s$l%T#B#b#b#b$e$s#m$)#l$K&I$s':)-(f('(c*w'U%S$]!j#;!9!W#;!w!Y!<!9!/!J!|!K!i!^$%!}!}!:!Z!w%v'q%M#<!)!6!J&='K+O+q!x!H",
"!x$7/j+&+].B%t%f(+(G$2$O$.&u.9'E(N(1%D&q&|&v++)M*`*,(p*1$K!}!I!W#?$D%+#b$s$e#^#?#]$&$s#(#-$*#{#%%U$s&$%p&%&o#]!k#[!w(b.5-{/x$e#R",
"'4#W-|+~1K1i&H)>(K*0%?%f$W$V$S(v,Y(r%C*3'i(z'h)P+4)E*<%x&$!}!}!|%U%v#W$<$e$t#d#b!a%6#E%v$*#b#)$&#-%5!`!N$E#W!~!-%*!W+{-(0`/#%F&1",
"''#Y,F-C1*/e$!%@':&r$3#O%d+E-Y.8*g(O'h(T'g'd&|)P-+*@(0+Z$K$r#]$s$t$E#^!~$<%N$E$L%T$H&X#L&c$I$m$I$t$B!A$=!:!Z!K!~#?!k*M,D/q-|'s'*",
"%m$[.0-J.T,G'('b((&L#O!P!q#K)z&R)c'f)N)!&(&)&-)q.Q'h+-&:$f$D$s$t$E$t#i#W#c%,%N$x$*$J$I#j#*$'$x$m#*$n%U!*!>!=!?#,'6$d,D+/.T/.&D%~",
"'2%)/n.{+~0~(=':)+&@'r!t&7!p$X$V&{-=.G.?&M(S/U/m-,&y$v&F$+%6&*%?%,%T$s%N$E$s%N#G$z&8$!$Q&4#x&e$I#G#)#*!]!k#]$A$A'r$<.Z050[,>'0)+",
"'s(;/X0+0z0J(=&p$h'r#N#H#k$N'z)}&L,3-;&R'!(6(V-N+z(.$s&Q'b$o#*#c&8%N%N%p%U&Y$m$m$n$B$P$+%i']&&#}%>%q$8!>!n$H'0%7&9$9.n0i1~1R)s'W",
"*F)z2u-90h1h'&%:%O$n&8'(#j%:*F#f),&l(e-2-V&~'D+y'?$x'}){%?#)#G#_$m&8&7%w&8'r&C$y%P&&&o$M)2%e)+$u$M$t&8#*#)%A'x'*$b$_151n1l2(*D*G",
"'m'r0h0r1E1m&X%:$m&8$x$n'0%Z%7%e&+&t$R*y+N$V'@']!q%e'w$M'x#L#j%7%<&'&9$m%>$m$m%1'F(G&k'7%:#o&q&Q$g%7!d#_'0$P$o#j&f%w._2*2X1d))(e",
"'q''1F080B0R%,%O$n!{#j))&p%u&k$T)1+K%j$2%b%b).$W$Q$*%T#m)2#I&7$|$)&b$m$-&$'/%('0'V&c&7$m$U%f&f'])2&F#G$($*$P#|')'o''292c382C(<(;",
"'r'r1|25+f.T!g'x(%$a&Z('&w)<(/%[&s'<*{(u%]%;%X&S*U$V!q$s$/#k$*#n$|&8'0$x&[$m$n&N%=#]!]%N$x&G%]'](J%e%9$x&2$t$g&8*]%x0q2X3}3^+E'$",
"&Z''1q/`/K-]&6%8*{&:&F,?*0(C*I%g'R&L+K%e&K+x.:.:)#)3#4'&'v'0$H#0&Y'0$*&Y$n$f%=$w%c!k#>!a$m%y&F((*O%;$Q#.#v$n'6*+)j$Z0,163130)*(>",
"(8))/R-_/!.T%n'1&<(A,J*5)5&!%[(D*q,q#+#~%a.D(5'k%@-E!Q&C#m#L&8!p#k$!'q#D#&$e&7%6%w$K#j#(#a%x'8'z((&A&:#J&[%.(-(!+y(72!1x2W2='O'y",
")*(;2J1A/D-|%S'z,9-=,U,,(g%Z'a)'+G&e'~%?(I'e0j+70#(U'y%N$D$-!Q!P&[%q!q%x!b$m$I%9$x$m#^!~#j$E$u$o%a&!&e's&2&W'c)4*I(Z1:2U2w2a*F*A",
"'O'r1F1}0M1)'w*n-=0'++-b+y'b&%(>&[((&P*W&j&,.?-F--(U&l!a&8!b'1#/&Z#$%T#)$L%a'V$L&$&$$&$x#0#!$=%6&:'G&!%{'W(*+U).+i+:2c1c1e2s*u+n",
"'O(=1.190]35+C.</N/>/B*3-`*G'1&:'1'1$n*E$y$U(Q/$-;/c*|#0!a#0$L!s!5%T%(%o#($x)1'x$t&E(($'$m$s%_(('z+Z)4)W&f(D*X(i*P+d3G1!2J2?'q'1",
"'y'r050V1N2}+;/@/N/%,q.s,@(((((>&&'w'x$y)2$T+M(u)I(y+M+M#N)+)1$T!c%T#L!_#)'w#m#M&E'x&k%7#@$s&$$P(g)4*~'{*w)4'z('*C'q2;/s1I2;'/'w",
"'l$<,t/V1a36)s/(.<.k.;,!,x(?(?'7'V$B&F&P%e&J&O%j&i,?$T#I){#N#2!r!e$P#r#J(H$L$/#m%9&$'V$&!~$E#_&K$=(G,I&g)e*P(g)j*I'T/x/r0g0v%'%x",
"''$?,s,m2%1u'r*I,@.:,#+y)5*G&W)1'w%.$F'U'`&d%`&p*V$+!P$s#I)y'(#3&9#0#m'x'x%f%9&P$y&o%9$L%0'0%z&9&$()(@*%)F(!&f'y)2$k/E.i090I#X%T",
"&D%U/I-^0U0W&Y*n*n-c+x*~+J*l(t('(o'1&K'U)U$J#1'x%9!s!@$<#i&7#m!P#M!q!Q#B$x#I$M%:&k(p(,&&'V'~&P&i$x'3):(*,I*V'~'x%9#A-H,^.v0M&h'T",
"%6%'17/t0Q0`'M*F+K-!)})5+G+E+X)z'1&%$l&$'v&%#)#B!t!B#(!`#u!P&X!P!o$}$!#j$o$*$1%f%B*Q'~%f){)V'x&7&%+j(g$p(g*n)3'x&D$d0O.N.'/<%S$@",
"#^#_.^0H0e0O)(*N+S,H+x*~+D)`)3)t'7%x&I$x$y#0$x$*#)#m&Y!P#)#)#)&8!P#n!a!P$,&P']%g&K&d%9$s'y(g't'O'x+M'u'8'X'Q'z%}#j$;,Q+_/Z)6!}%+",
"$d#^..0P.Y1<'q*~)5){+M+R+v*W'P'x('&J&C))'v$x!O!q#1&Y$m#(#m!Q$E#j$x#m%Y(G$y#d','b&&'1&E'1)3)>*y'r)3)+'1%U'7&%'V&8$m$7+,+l,Z+3!x!}",
"!}$?.X.n.'0m'q&]'p){)3){*G*F+v'{'7('%A%Z's$L%0$A$J$x!b'6$s'w(F$E&$'w$x$s%8'1&p&Q&u&O&e&F)U+H+G-4+g)3)*&c$D&c&8#G%J$;+{,p+}&z!|!|",
"!x$].u/V0Q0f'%)3)2*G){+U*l*w,?'7)`**&e&p$y#)$x$y'6%}#m$*%e$)(F&c'5$x$s'm$L%U%}'w'6&O&P'z&d),*K+X+G*#*|%y&J%6$A#)&8$:,E*/+u)[!x#Z",
"!x!|-B.W0..i%$)*)2(@*x,w+i+;){()(((p((&p&%%Z#j'r$0$P&e%k**$U#0$}$x&$$m#j#j$H#&'0%V(j(j'X(f):)a*~,4+p*+'1%M%T#^#F$^$7+%*S)@&)!K!^",
"!>##.M/3.e.R$=(>(?(@)+.C+T*w)d(*(g&q(B'=%[%}$G$}#q(I%e'e'~$M&$'v$L#j%}'6%V''#`&J)B'y)C'y'])3+M+x*P+((*&c$9%(#e#j#I$7*[+#*:&m!Z!Y",
"!W!^-Q0h1O1Z)A)<);'8)=-:*}):'^(u'P%[(!+p()*4&.%B&x#o'B'b)2&p%9&$&D%7$m'('1%}&$'7)=-=):'z&&'](f+G*})3((&F$Y$_&D'x&E$~(~)D,P+1!;!k",
"!k!k+f-|1421*)*G(@'W+Y.I,M*_*5*%*n*~$v&#+(-?)J&t%[%b'A+^*~&p&P%9&$%y')&V'm&%$s'6(0,r,r*x)3)9&q)}(j(f&e's'(''%}'O%9#$,},Y*d)h!;!Y",
"!>!],t-~/Z1R&C*%)z+x)2,x)F,#(P)B,W-@+M+(*^*h(M&?%d']%Z&q&r)j'W&E&&&:%1%0(<(>'*(f)n,y*8)G(h)3'X*P)d)W(g*n%t%y&%'m$L#(.'*>+3)/!M!w",
"!k!>-F/v/=0%(d)9+L)d*O,j+p,N&u.j(R)K*9-L-K,-(,%=$s$x'm&E&e%;$i((%z'('''0){(j(g,3,l+M,@+x*Y'+$$+U)W*-,:'~&E%y$#))'(#$.(/4*e+3#'#y",
"#R#],;-Z-B1/*j.=)W+L*Y'>+!)e(g+@'C*g*`/),[)F)F%Z&e'V'6&p)+'W'X(')2'x')'O+G+o-l,B*P*%,A*X,#)4*1*b,*,)/N*K'y%x'x(e'x%E.A/q0A+c$?$@",
"#z#V-W+{/L1z)Q-5-2*l*X+r(k-=*=/2+9,s*6-v,s0^*5*Q&p'V)2'y),'z(,+')1)*'x%r*n.7.;,T*H){*c,r*5,y,X-&*~/0,O'u'x&f&5+U'x&/.{.{/y/5$@$?",
"#t$<*T.u0%3-*m.=)d-k*w*&-&+*-M/0+8.J,j,+)H-m*`*~'~)3'n'2'8)3(f+S'9)<'x'**Q+w.D-c*s+p,y+i-Y*g,P.*(#*})=%2*n(!'^)>'~%v/D0&.A-o%M$^",
"$^#W,g*T1-2k*H-7.=)e)d(g*P+a-O+6+5*Z*+(4,e&R%l)G)}()(<$n)++S&&)3(('t's'y+*,:.=/F.=*X(n,r+j+[,E,B+q,@&K'~)d&l+i)3'V%+,E)~/:(s%,$@",
"%v%T/G-z0^2m'r+),9+)(f)X)C-u02)O,0)L/++*,f(.(l(-(j'8$o's)+)<*|*+){'o't)3)3+y*x,s,z)5)b,J+-,&.8,|(r-3,s*-)e(p)3(e)+$d+t-z+e-y$?$r",
"%5'/0,/q/C2d)y,8-#(p)9*K)?-F,//H000b)r-R.E-A.;*w+U)2&e%~'V*0+(*|+J'V'V&F'z(((!+N,$*-)W,r,r.S-F-f+.+!*,'z'))+)9((('%N-^,K.&.d%*%4",
"%T'(0a/A._1O'|,I,J(D*%-U*,-*,V/Y.O/u-q-$.7.<,k)k)3){)2%~&e*N(u)d)`'O''&J%V(f%W),)f(j(g(]-%.H-M-g-&(r'^(f#v'F'*'x((&7/k,=/q/V%I&/",
"'r&81T201a3G*!*0+L*P-@.3.D,z(}*X+0*g-!/S,(-#-d&l']%Z%Z'1'6'y*X*W)3'V%x'5'w&K&:(?'8)3([*&.,-h+b,y+|)c*z(i(f&d%a'0'x%M060Y1.0T&8&U",
"'m's0Z0@0s2r)y+p*%*v-`-)+*+)*5*}(2,l-E,r,e)B(q)X*n+x&q)B+p(!+M*K)e'V(&'/'x%a'W'8((*+)|+--e-h-}-}.#,D.#,))9(>%w&8&Y%H/J121M2I)$))",
"){'r14/70E1G*$.r+L+h)3)>(f*1)d*-(j)k(4,s(h(!({.J)p-;*x(1(D'b+T&l)3()%Z'V(''y(@&K&f*P+Z+x.>.h.V-s.--b.t.$,T*}&e%7'0&/.~/J1y2H)+(d",
"*A)y/q0,2611'x.:,!){)3*^(['7)=+p*~+z+r+z(I(!,q(L*;*f,9+!+M*,*1)>'^((&E')(?'y){'z&r*2)C+r.m-G/1/C,'.`,X.t/&,z'^(f*,&00N1Q223[){*K",
"*K'w1B0$0t1w)2*M)f)a'[*})4(f*~)b*R,%*Q,L+p(M'>(k(|+!'_,q,5';(*(z+x):'1&E&k)+'u+p-a+?(E,L+.-'.o/I0b-n,P,y,{+-+I,f,8&1/!/C1^3G-1)3",
"'x'x0A1M1,3#+:,$+x&g(,*,&f*%)5*L,D)X)g*%*w,S(3'A*a(f.E)l($)m&})?)e&F'(&E&D'w)4+M)X+=,C+Q.@,u.H,..1.g+I.;-p,{,z.V*''#/a.)0g1{'z)V",
"(Y'U2&2#0w3E)3+N-;([)3)V)='9):,9,m.9*s(h(q*,(-)W+)'9.y*?(.*`*7)b(g$z%r$n%x'0)8+H*n*P-d.z.F/,/,,~.K+P'{.8,r.V.+,t(w*F2p282<1C'y)+",
"(?&_0u2A2Q2t)3'O*E&$&8)1(Z)&)%))),([,8,c)2(&'5&8&n)7&c%B$s)0%Y'V%y%x&8%N%,$@%x&1*D'x'y(L(p*W'R'1){(i%R%t'y'y*G(_,7'Z1=2L2q3!)+&e",
")+)31k101$1t(B,m+k.$,9,q0`,l*-.8.G0<1S/?.<'z']'{&g)=*0){)9'b'^&q&v'z'u'9)+'t'1't'1)3*~*6-f-P(h+N)o++*&'])c)Z+z+$.>'}2e3T3-3?)+(:",
"'r)U2j2D1n1y'r*i+F)9){.4/9,4(9,_.}.3,x*K'/'0&0&9'V(d'v#i%0$!&Y%}$_'0$Z%x%T%,%($7$;$d'T&d*A*G'1%y'y&>'(%V'Z*F&J&I'/&e1n2B1p1[%m&9",
"&>(X2o2]2S3i1&*k(C+i+o,`2E-./%.:,@.c*q'x'1%x'''/)))))0%|'q&I(&'.%y(7)z('(Y'(&Y$m$^%o%I&Y'v)U%}%u%)'t)('r&>)*$E$e$D-T3o3</31R$n#u",
"%x)+311J2-2~3W273a3s4046484942474445434-3o3p2Y2+2G3v3c3l3r4#3V3:344/414+3k3U2y2n3/3J3H3f3m3|4$3B3L3Q4(2O2g2+0p0!1s2{2l/{1v0c$l%O",
"&8&1,C3,2:2T3b1g2>3Z3.4)4*3{4.3O3A3`2,3F302`1a+|/'0D0-0)0o1|.G.]1%3$2.2:1H2$/l0=/'.S0?1_1<1//f2_301g.!._/6-D'Y,t.f1Z2R0*/q%-!}#V",
"#]%K1{/M,s*~-y.l/C0(0C1(1`1D0_/p/T.b/i.j.6+E&j%5'U*$+C+h+K)^%6%U'-*r-/'I'H'-'^&p(^)u*p//.[*2.l*[,D,`&;&;&9#C!y##&8&2%1(?%+'I!9!x",
"#V#W+y231o1P1z3R393_3Y3]3X3w3x3M323D332F07-x+I-</&-]04/O,v..,J+k-6-i2)0W'J*y)T.,/v*o,h2J131#2;1@0F0{0|-^+2%3&^)X)4*t)v)},C!Y!9!6",
"#8#]$m'('O(>)&)*,d,d*X*J+>-`-X,i.C,b)V(Y'm%L$6$6$<%'%M$?$:#<#Z#7#;$:$:$>#9#8!S#8$;$@#W#W#X!v'r&9'w$l$?$j!3!;!,!%#9!2!0!S!0!X!/!2",
"#V#^%('0'U)y)_*H*r+<+p(Y)V){*|(Y),*l+:(:)x%v#T$:%M%M%*#;%*!W#9#R#9#Q!R#8#U$6$>%M%N$8$<#^#]#W%x&9%q!v!1!.!.!2!I!7!R!W!9!G!x!G!j!G"
};
