/* XPM */
static char *patterned_stone_09[] = {
/* columns rows colors chars-per-pixel */
"64 64 2185 2",
/* colors */
"!! c #292527",
"!# c #2A2527",
"!$ c #2A2626",
"!% c #2B2627",
"!& c #2C272B",
"!' c #2D2829",
"!( c #2D282A",
"!) c #2D282C",
"!* c #2D2927",
"!+ c #2E282B",
"!, c #2E2929",
"!- c #2E292B",
"!. c #2E2A29",
"!/ c #2E2A2A",
"!0 c #2E2A2B",
"!1 c #2F292C",
"!2 c #2F2B2C",
"!3 c #30292A",
"!4 c #302B2B",
"!5 c #302C2D",
"!6 c #312C2F",
"!7 c #312D2D",
"!8 c #322B2C",
"!9 c #322B2E",
"!: c #322C2B",
"!; c #322D2D",
"!< c #322D2E",
"!= c #322D30",
"!> c #322E2F",
"!? c #322F2F",
"!@ c #332D2F",
"!A c #332E2F",
"!B c #332E32",
"!C c #332F2E",
"!D c #332F30",
"!E c #33302F",
"!F c #342C2F",
"!G c #342D2F",
"!H c #342F30",
"!I c #342F32",
"!J c #34302D",
"!K c #343030",
"!L c #343233",
"!M c #343235",
"!N c #352F2F",
"!O c #352F31",
"!P c #352F32",
"!Q c #35302E",
"!R c #35302F",
"!S c #353031",
"!T c #353032",
"!U c #353131",
"!V c #353132",
"!W c #353133",
"!X c #36302F",
"!Y c #363035",
"!Z c #363131",
"![ c #363132",
"!] c #363133",
"!^ c #363135",
"!_ c #363231",
"!` c #363233",
"!a c #363234",
"!b c #363333",
"!c c #373130",
"!d c #373132",
"!e c #373230",
"!f c #373233",
"!g c #373234",
"!h c #373235",
"!i c #373330",
"!j c #373332",
"!k c #373333",
"!l c #383232",
"!m c #383234",
"!n c #383235",
"!o c #383236",
"!p c #383331",
"!q c #383332",
"!r c #383333",
"!s c #383336",
"!t c #383434",
"!u c #383435",
"!v c #383436",
"!w c #383437",
"!x c #383535",
"!y c #383637",
"!z c #393330",
"!{ c #393332",
"!| c #393333",
"!} c #393336",
"!~ c #393432",
"#! c #393434",
"## c #393435",
"#$ c #393437",
"#% c #393534",
"#& c #393535",
"#' c #393537",
"#( c #393539",
"#) c #393737",
"#* c #3A3336",
"#+ c #3A3432",
"#, c #3A3434",
"#- c #3A3436",
"#. c #3A3439",
"#/ c #3A3531",
"#0 c #3A3533",
"#1 c #3A3535",
"#2 c #3A3536",
"#3 c #3A3537",
"#4 c #3A3538",
"#5 c #3A3637",
"#6 c #3A3737",
"#7 c #3B3435",
"#8 c #3B3536",
"#9 c #3B3537",
"#: c #3B3539",
"#; c #3B3633",
"#< c #3B3635",
"#= c #3B3636",
"#> c #3B3637",
"#? c #3B3638",
"#@ c #3B3736",
"#A c #3B3737",
"#B c #3B3738",
"#C c #3B373A",
"#D c #3B3836",
"#E c #3B3837",
"#F c #3B3839",
"#G c #3C3533",
"#H c #3C3535",
"#I c #3C3537",
"#J c #3C3634",
"#K c #3C3636",
"#L c #3C3637",
"#M c #3C3638",
"#N c #3C3639",
"#O c #3C363B",
"#P c #3C3734",
"#Q c #3C3735",
"#R c #3C3737",
"#S c #3C3738",
"#T c #3C3739",
"#U c #3C373A",
"#V c #3C373B",
"#W c #3C3835",
"#X c #3C3837",
"#Y c #3C3838",
"#Z c #3C3839",
"#[ c #3C383A",
"#] c #3C383C",
"#^ c #3C3939",
"#_ c #3C3A39",
"#` c #3D3537",
"#a c #3D3638",
"#b c #3D3639",
"#c c #3D3736",
"#d c #3D3737",
"#e c #3D3738",
"#f c #3D3739",
"#g c #3D373A",
"#h c #3D3836",
"#i c #3D3837",
"#j c #3D3838",
"#k c #3D3839",
"#l c #3D383B",
"#m c #3D383C",
"#n c #3D383D",
"#o c #3D3937",
"#p c #3D3938",
"#q c #3D3939",
"#r c #3D393A",
"#s c #3D393B",
"#t c #3D3A35",
"#u c #3D3A38",
"#v c #3D3A3D",
"#w c #3E3735",
"#x c #3E3736",
"#y c #3E3737",
"#z c #3E3738",
"#{ c #3E3739",
"#| c #3E3834",
"#} c #3E3835",
"#~ c #3E3836",
"$! c #3E3838",
"$# c #3E3839",
"$$ c #3E383A",
"$% c #3E383B",
"$& c #3E383C",
"$' c #3E383D",
"$( c #3E3935",
"$) c #3E3937",
"$* c #3E3938",
"$+ c #3E3939",
"$, c #3E393A",
"$- c #3E393B",
"$. c #3E393C",
"$/ c #3E393D",
"$0 c #3E393E",
"$1 c #3E3A38",
"$2 c #3E3A39",
"$3 c #3E3A3A",
"$4 c #3E3A3B",
"$5 c #3E3A3C",
"$6 c #3E3A3E",
"$7 c #3E3C3C",
"$8 c #3F3737",
"$9 c #3F3739",
"$: c #3F3836",
"$; c #3F3838",
"$< c #3F383C",
"$= c #3F3938",
"$> c #3F3939",
"$? c #3F393A",
"$@ c #3F393B",
"$A c #3F393C",
"$B c #3F393D",
"$C c #3F3A38",
"$D c #3F3A39",
"$E c #3F3A3A",
"$F c #3F3A3B",
"$G c #3F3A3C",
"$H c #3F3B39",
"$I c #3F3B3A",
"$J c #3F3B3D",
"$K c #3F3B40",
"$L c #3F3C3C",
"$M c #3F3D3A",
"$N c #3F3D3D",
"$O c #403837",
"$P c #403939",
"$Q c #40393A",
"$R c #40393B",
"$S c #403A39",
"$T c #403A3B",
"$U c #403A3C",
"$V c #403A3D",
"$W c #403A3E",
"$X c #403A3F",
"$Y c #403B37",
"$Z c #403B39",
"$[ c #403B3A",
"$] c #403B3C",
"$^ c #403B3D",
"$_ c #403B3E",
"$` c #403C39",
"$a c #403C3A",
"$b c #403C3B",
"$c c #403C3C",
"$d c #403C3E",
"$e c #403C3F",
"$f c #403D3A",
"$g c #41393A",
"$h c #41393C",
"$i c #413A39",
"$j c #413A3A",
"$k c #413A3D",
"$l c #413A3E",
"$m c #413B3A",
"$n c #413B3B",
"$o c #413B3C",
"$p c #413B3D",
"$q c #413B3E",
"$r c #413B3F",
"$s c #413C3A",
"$t c #413C3B",
"$u c #413C3C",
"$v c #413C3D",
"$w c #413C3E",
"$x c #413C3F",
"$y c #413C40",
"$z c #413C41",
"${ c #413C42",
"$| c #413D39",
"$} c #413D3A",
"$~ c #413D3B",
"%! c #413D3D",
"%# c #413D3E",
"%$ c #413D41",
"%% c #413D42",
"%& c #413E3C",
"%' c #413E3F",
"%( c #42393A",
"%) c #423A3C",
"%* c #423A3D",
"%+ c #423B3A",
"%, c #423B3D",
"%- c #423C38",
"%. c #423C39",
"%/ c #423C3A",
"%0 c #423C3B",
"%1 c #423C3C",
"%2 c #423C3E",
"%3 c #423C3F",
"%4 c #423C40",
"%5 c #423C43",
"%6 c #423D3A",
"%7 c #423D3B",
"%8 c #423D3C",
"%9 c #423D3D",
"%: c #423D3E",
"%; c #423D3F",
"%< c #423D40",
"%= c #423D41",
"%> c #423D42",
"%? c #423D43",
"%@ c #423E3B",
"%A c #423E3C",
"%B c #423E3D",
"%C c #423E3E",
"%D c #423E40",
"%E c #423F3E",
"%F c #423F40",
"%G c #424042",
"%H c #433B3B",
"%I c #433B3D",
"%J c #433C39",
"%K c #433C3C",
"%L c #433C3D",
"%M c #433C3E",
"%N c #433C3F",
"%O c #433C41",
"%P c #433D39",
"%Q c #433D3A",
"%R c #433D3B",
"%S c #433D3C",
"%T c #433D3D",
"%U c #433D3E",
"%V c #433D3F",
"%W c #433D40",
"%X c #433E3C",
"%Y c #433E3D",
"%Z c #433E3E",
"%[ c #433E3F",
"%] c #433E40",
"%^ c #433E41",
"%_ c #433F3C",
"%` c #433F3E",
"%a c #433F3F",
"%b c #433F40",
"%c c #433F41",
"%d c #43403E",
"%e c #434040",
"%f c #434042",
"%g c #443D3B",
"%h c #443D3D",
"%i c #443D3E",
"%j c #443D3F",
"%k c #443D41",
"%l c #443E3B",
"%m c #443E3E",
"%n c #443E3F",
"%o c #443E40",
"%p c #443E42",
"%q c #443F3D",
"%r c #443F3E",
"%s c #443F3F",
"%t c #443F40",
"%u c #443F41",
"%v c #443F42",
"%w c #443F43",
"%x c #44403E",
"%y c #44403F",
"%z c #444042",
"%{ c #44413D",
"%| c #444141",
"%} c #444347",
"%~ c #453C3D",
"&! c #453D3F",
"&# c #453E3E",
"&$ c #453E3F",
"&% c #453E40",
"&& c #453F3C",
"&' c #453F3D",
"&( c #453F3E",
"&) c #453F3F",
"&* c #453F40",
"&+ c #453F41",
"&, c #453F42",
"&- c #453F43",
"&. c #45403E",
"&/ c #45403F",
"&0 c #454040",
"&1 c #454041",
"&2 c #454042",
"&3 c #454043",
"&4 c #454046",
"&5 c #45413E",
"&6 c #45413F",
"&7 c #454140",
"&8 c #454141",
"&9 c #454142",
"&: c #454143",
"&; c #454144",
"&< c #454240",
"&= c #454247",
"&> c #463D3F",
"&? c #463E3B",
"&@ c #463E3F",
"&A c #463E43",
"&B c #463F3F",
"&C c #463F40",
"&D c #463F41",
"&E c #463F42",
"&F c #463F43",
"&G c #46403E",
"&H c #46403F",
"&I c #464040",
"&J c #464042",
"&K c #46413F",
"&L c #464140",
"&M c #464141",
"&N c #464142",
"&O c #464143",
"&P c #464144",
"&Q c #464145",
"&R c #46423F",
"&S c #464240",
"&T c #464241",
"&U c #464242",
"&V c #464243",
"&W c #464244",
"&X c #464245",
"&Y c #464341",
"&Z c #464445",
"&[ c #464446",
"&] c #473F3D",
"&^ c #473F40",
"&_ c #473F44",
"&` c #474042",
"&a c #474043",
"&b c #474044",
"&c c #474045",
"&d c #47413D",
"&e c #47413F",
"&f c #474140",
"&g c #474141",
"&h c #474142",
"&i c #474143",
"&j c #474144",
"&k c #474145",
"&l c #474146",
"&m c #47423E",
"&n c #47423F",
"&o c #474240",
"&p c #474241",
"&q c #474242",
"&r c #474243",
"&s c #474244",
"&t c #474245",
"&u c #474246",
"&v c #474341",
"&w c #474342",
"&x c #474343",
"&y c #474344",
"&z c #474345",
"&{ c #474348",
"&| c #474349",
"&} c #474443",
"&~ c #474444",
"'! c #474642",
"'# c #483F40",
"'$ c #483F42",
"'% c #48403E",
"'& c #484043",
"'' c #48413F",
"'( c #484140",
"') c #484141",
"'* c #484142",
"'+ c #484143",
"', c #484145",
"'- c #484240",
"'. c #484241",
"'/ c #484242",
"'0 c #484243",
"'1 c #484244",
"'2 c #484245",
"'3 c #484341",
"'4 c #484342",
"'5 c #484343",
"'6 c #484344",
"'7 c #484345",
"'8 c #484346",
"'9 c #484347",
"': c #484349",
"'; c #484442",
"'< c #484443",
"'= c #484444",
"'> c #484445",
"'? c #484446",
"'@ c #484447",
"'A c #484543",
"'B c #484545",
"'C c #484547",
"'D c #484643",
"'E c #493F41",
"'F c #494141",
"'G c #494144",
"'H c #494240",
"'I c #494242",
"'J c #494243",
"'K c #494244",
"'L c #494245",
"'M c #494246",
"'N c #494247",
"'O c #494340",
"'P c #494342",
"'Q c #494343",
"'R c #494344",
"'S c #494345",
"'T c #494346",
"'U c #494347",
"'V c #494441",
"'W c #494442",
"'X c #494443",
"'Y c #494444",
"'Z c #494445",
"'[ c #494446",
"'] c #494447",
"'^ c #494448",
"'_ c #494541",
"'` c #494542",
"'a c #494544",
"'b c #494545",
"'c c #494546",
"'d c #494548",
"'e c #494643",
"'f c #494647",
"'g c #49474A",
"'h c #4A4242",
"'i c #4A4247",
"'j c #4A4342",
"'k c #4A4343",
"'l c #4A4344",
"'m c #4A4345",
"'n c #4A4347",
"'o c #4A443F",
"'p c #4A4440",
"'q c #4A4442",
"'r c #4A4443",
"'s c #4A4444",
"'t c #4A4445",
"'u c #4A4446",
"'v c #4A4447",
"'w c #4A4449",
"'x c #4A444A",
"'y c #4A4542",
"'z c #4A4543",
"'{ c #4A4544",
"'| c #4A4545",
"'} c #4A4546",
"'~ c #4A4547",
"(! c #4A4548",
"(# c #4A4644",
"($ c #4A4646",
"(% c #4A4647",
"(& c #4A4649",
"(' c #4A4742",
"(( c #4A4747",
"() c #4B4341",
"(* c #4B4342",
"(+ c #4B4343",
"(, c #4B4344",
"(- c #4B4345",
"(. c #4B4346",
"(/ c #4B4443",
"(0 c #4B4444",
"(1 c #4B4445",
"(2 c #4B4446",
"(3 c #4B4447",
"(4 c #4B4542",
"(5 c #4B4543",
"(6 c #4B4544",
"(7 c #4B4545",
"(8 c #4B4546",
"(9 c #4B4547",
"(: c #4B4548",
"(; c #4B4549",
"(< c #4B454A",
"(= c #4B454B",
"(> c #4B4644",
"(? c #4B4645",
"(@ c #4B4646",
"(A c #4B4647",
"(B c #4B4648",
"(C c #4B4649",
"(D c #4B464A",
"(E c #4B464B",
"(F c #4B4744",
"(G c #4B4745",
"(H c #4B4746",
"(I c #4B4747",
"(J c #4B4748",
"(K c #4B4749",
"(L c #4B474A",
"(M c #4B4847",
"(N c #4B4949",
"(O c #4C4348",
"(P c #4C4443",
"(Q c #4C4446",
"(R c #4C4447",
"(S c #4C4449",
"(T c #4C4543",
"(U c #4C4544",
"(V c #4C4545",
"(W c #4C4546",
"(X c #4C4547",
"(Y c #4C4548",
"(Z c #4C454A",
"([ c #4C4642",
"(] c #4C4644",
"(^ c #4C4645",
"(_ c #4C4646",
"(` c #4C4647",
"(a c #4C4648",
"(b c #4C4649",
"(c c #4C4745",
"(d c #4C4746",
"(e c #4C4747",
"(f c #4C4748",
"(g c #4C4749",
"(h c #4C474A",
"(i c #4C474B",
"(j c #4C474D",
"(k c #4C4843",
"(l c #4C4844",
"(m c #4C4847",
"(n c #4C4849",
"(o c #4C484A",
"(p c #4C484C",
"(q c #4C4949",
"(r c #4C494A",
"(s c #4C4A4C",
"(t c #4D4446",
"(u c #4D4544",
"(v c #4D4546",
"(w c #4D4547",
"(x c #4D454A",
"(y c #4D4643",
"(z c #4D4644",
"({ c #4D4645",
"(| c #4D4646",
"(} c #4D4647",
"(~ c #4D4648",
")! c #4D464B",
")# c #4D4743",
")$ c #4D4744",
")% c #4D4745",
")& c #4D4746",
")' c #4D4747",
")( c #4D4748",
")) c #4D4749",
")* c #4D474A",
")+ c #4D474B",
"), c #4D474C",
")- c #4D474D",
"). c #4D4844",
")/ c #4D4846",
")0 c #4D4847",
")1 c #4D4848",
")2 c #4D4849",
")3 c #4D484A",
")4 c #4D484B",
")5 c #4D4945",
")6 c #4D4946",
")7 c #4D4947",
")8 c #4D4948",
")9 c #4D494A",
"): c #4D494B",
"); c #4D4A46",
")< c #4D4A49",
")= c #4D4B4C",
")> c #4E4548",
")? c #4E4645",
")@ c #4E4648",
")A c #4E4649",
")B c #4E4744",
")C c #4E4745",
")D c #4E4746",
")E c #4E4747",
")F c #4E4748",
")G c #4E4749",
")H c #4E474A",
")I c #4E474B",
")J c #4E4845",
")K c #4E4846",
")L c #4E4847",
")M c #4E4848",
")N c #4E4849",
")O c #4E484A",
")P c #4E484B",
")Q c #4E484C",
")R c #4E484D",
")S c #4E4850",
")T c #4E4945",
")U c #4E4947",
")V c #4E4948",
")W c #4E4949",
")X c #4E494A",
")Y c #4E494B",
")Z c #4E494D",
")[ c #4E4A47",
")] c #4E4A4A",
")^ c #4E4A4B",
")_ c #4E4B4A",
")` c #4F4648",
")a c #4F4649",
")b c #4F4747",
")c c #4F4749",
")d c #4F474A",
")e c #4F4846",
")f c #4F4847",
")g c #4F4848",
")h c #4F4849",
")i c #4F484A",
")j c #4F484B",
")k c #4F484C",
")l c #4F484D",
")m c #4F4946",
")n c #4F4947",
")o c #4F4948",
")p c #4F4949",
")q c #4F494A",
")r c #4F494B",
")s c #4F494C",
")t c #4F494D",
")u c #4F494E",
")v c #4F4950",
")w c #4F4A46",
")x c #4F4A47",
")y c #4F4A48",
")z c #4F4A49",
"){ c #4F4A4A",
")| c #4F4A4B",
")} c #4F4A4C",
")~ c #4F4A50",
"*! c #4F4B48",
"*# c #4F4B49",
"*$ c #4F4B4A",
"*% c #4F4B4B",
"*& c #4F4B4C",
"*' c #4F4C48",
"*( c #4F4C4D",
"*) c #4F4C4F",
"** c #504749",
"*+ c #50474A",
"*, c #504848",
"*- c #504849",
"*. c #50484A",
"*/ c #50484C",
"*0 c #504947",
"*1 c #504949",
"*2 c #50494B",
"*3 c #50494C",
"*4 c #50494D",
"*5 c #504A46",
"*6 c #504A47",
"*7 c #504A48",
"*8 c #504A49",
"*9 c #504A4A",
"*: c #504A4B",
"*; c #504A4C",
"*< c #504A4D",
"*= c #504A4E",
"*> c #504A4F",
"*? c #504B47",
"*@ c #504B48",
"*A c #504B4A",
"*B c #504B4B",
"*C c #504B4C",
"*D c #504B4D",
"*E c #504B4E",
"*F c #504C47",
"*G c #504C4A",
"*H c #504C4B",
"*I c #504C4C",
"*J c #504C4E",
"*K c #504C4F",
"*L c #504C50",
"*M c #504D4C",
"*N c #504D50",
"*O c #504E4C",
"*P c #504E4D",
"*Q c #51474B",
"*R c #51484A",
"*S c #514948",
"*T c #51494A",
"*U c #51494B",
"*V c #514A46",
"*W c #514A48",
"*X c #514A49",
"*Y c #514A4A",
"*Z c #514A4B",
"*[ c #514A4C",
"*] c #514A4D",
"*^ c #514A4E",
"*_ c #514A4F",
"*` c #514B46",
"*a c #514B49",
"*b c #514B4A",
"*c c #514B4C",
"*d c #514B4D",
"*e c #514B4E",
"*f c #514B51",
"*g c #514C46",
"*h c #514C48",
"*i c #514C49",
"*j c #514C4A",
"*k c #514C4B",
"*l c #514C4C",
"*m c #514C4D",
"*n c #514C4E",
"*o c #514C4F",
"*p c #514C50",
"*q c #514D47",
"*r c #514D48",
"*s c #514D4A",
"*t c #514D4B",
"*u c #514D4E",
"*v c #514D4F",
"*w c #514D50",
"*x c #514D51",
"*y c #514E4E",
"*z c #52494B",
"*{ c #52494D",
"*| c #524A4C",
"*} c #524A4E",
"*~ c #524B49",
"+! c #524B4A",
"+# c #524B4B",
"+$ c #524B4C",
"+% c #524B4D",
"+& c #524B4E",
"+' c #524B4F",
"+( c #524B51",
"+) c #524C46",
"+* c #524C49",
"++ c #524C4A",
"+, c #524C4B",
"+- c #524C4C",
"+. c #524C4D",
"+/ c #524C4E",
"+0 c #524C4F",
"+1 c #524C50",
"+2 c #524C51",
"+3 c #524D47",
"+4 c #524D4A",
"+5 c #524D4B",
"+6 c #524D4C",
"+7 c #524D4D",
"+8 c #524D4E",
"+9 c #524D4F",
"+: c #524D50",
"+; c #524D51",
"+< c #524E49",
"+= c #524E4A",
"+> c #524E4C",
"+? c #524E4E",
"+@ c #524E50",
"+A c #524E52",
"+B c #524F4E",
"+C c #524F50",
"+D c #524F54",
"+E c #525052",
"+F c #534A4C",
"+G c #534A4D",
"+H c #534B49",
"+I c #534B4B",
"+J c #534B4D",
"+K c #534C4A",
"+L c #534C4B",
"+M c #534C4C",
"+N c #534C4D",
"+O c #534C4E",
"+P c #534C4F",
"+Q c #534C50",
"+R c #534C52",
"+S c #534D47",
"+T c #534D49",
"+U c #534D4A",
"+V c #534D4B",
"+W c #534D4C",
"+X c #534D4D",
"+Y c #534D4E",
"+Z c #534D4F",
"+[ c #534D50",
"+] c #534D51",
"+^ c #534D53",
"+_ c #534E48",
"+` c #534E4A",
"+a c #534E4B",
"+b c #534E4C",
"+c c #534E4D",
"+d c #534E4E",
"+e c #534E4F",
"+f c #534E50",
"+g c #534E51",
"+h c #534E52",
"+i c #534E53",
"+j c #534F4D",
"+k c #534F4E",
"+l c #534F4F",
"+m c #534F50",
"+n c #534F51",
"+o c #534F52",
"+p c #534F53",
"+q c #53504B",
"+r c #53504D",
"+s c #53504F",
"+t c #535050",
"+u c #535152",
"+v c #535254",
"+w c #544B49",
"+x c #544B4D",
"+y c #544C4A",
"+z c #544C4B",
"+{ c #544C4C",
"+| c #544C4D",
"+} c #544C4F",
"+~ c #544C51",
",! c #544D4A",
",# c #544D4B",
",$ c #544D4C",
",% c #544D4D",
",& c #544D4E",
",' c #544D4F",
",( c #544D50",
",) c #544D52",
",* c #544E4A",
",+ c #544E4B",
",, c #544E4C",
",- c #544E4D",
",. c #544E4E",
",/ c #544E4F",
",0 c #544E50",
",1 c #544E51",
",2 c #544E52",
",3 c #544E54",
",4 c #544F4A",
",5 c #544F4B",
",6 c #544F4C",
",7 c #544F4D",
",8 c #544F4E",
",9 c #544F4F",
",: c #544F50",
",; c #544F51",
",< c #544F52",
",= c #544F53",
",> c #54504A",
",? c #54504D",
",@ c #54504E",
",A c #54504F",
",B c #545050",
",C c #545051",
",D c #545052",
",E c #54514D",
",F c #545152",
",G c #54524F",
",H c #545253",
",I c #554C4F",
",J c #554D4C",
",K c #554D4D",
",L c #554D4E",
",M c #554D4F",
",N c #554D50",
",O c #554D51",
",P c #554D52",
",Q c #554E49",
",R c #554E4C",
",S c #554E4D",
",T c #554E4E",
",U c #554E4F",
",V c #554E50",
",W c #554E51",
",X c #554E52",
",Y c #554E53",
",Z c #554F4A",
",[ c #554F4D",
",] c #554F4E",
",^ c #554F4F",
",_ c #554F50",
",` c #554F51",
",a c #554F52",
",b c #554F54",
",c c #554F55",
",d c #55504C",
",e c #55504D",
",f c #55504E",
",g c #55504F",
",h c #555050",
",i c #555051",
",j c #555052",
",k c #555053",
",l c #555055",
",m c #555056",
",n c #555150",
",o c #555151",
",p c #555152",
",q c #555153",
",r c #555155",
",s c #55524E",
",t c #555252",
",u c #555258",
",v c #564D4B",
",w c #564D4C",
",x c #564D4D",
",y c #564D50",
",z c #564E4A",
",{ c #564E4B",
",| c #564E51",
",} c #564E53",
",~ c #564F4B",
"-! c #564F4C",
"-# c #564F4E",
"-$ c #564F4F",
"-% c #564F50",
"-& c #564F51",
"-' c #564F52",
"-( c #564F53",
"-) c #564F55",
"-* c #56504C",
"-+ c #56504D",
"-, c #56504E",
"-- c #56504F",
"-. c #565050",
"-/ c #565051",
"-0 c #565052",
"-1 c #565053",
"-2 c #565054",
"-3 c #565055",
"-4 c #56514C",
"-5 c #56514E",
"-6 c #56514F",
"-7 c #565150",
"-8 c #565151",
"-9 c #565152",
"-: c #565153",
"-; c #565154",
"-< c #565155",
"-= c #565157",
"-> c #56524E",
"-? c #56524F",
"-@ c #565250",
"-A c #565251",
"-B c #565252",
"-C c #565253",
"-D c #565254",
"-E c #565255",
"-F c #565256",
"-G c #565257",
"-H c #565258",
"-I c #565259",
"-J c #565350",
"-K c #565354",
"-L c #574D4F",
"-M c #574E4E",
"-N c #574F4A",
"-O c #574F4C",
"-P c #574F4D",
"-Q c #574F4F",
"-R c #574F50",
"-S c #574F51",
"-T c #57504B",
"-U c #57504D",
"-V c #57504E",
"-W c #57504F",
"-X c #575051",
"-Y c #575052",
"-Z c #575053",
"-[ c #575054",
"-] c #57514E",
"-^ c #57514F",
"-_ c #575150",
"-` c #575151",
"-a c #575152",
"-b c #575153",
"-c c #575154",
"-d c #575158",
"-e c #57524E",
"-f c #57524F",
"-g c #575250",
"-h c #575251",
"-i c #575252",
"-j c #575253",
"-k c #575254",
"-l c #575255",
"-m c #575256",
"-n c #57534F",
"-o c #575350",
"-p c #575351",
"-q c #575352",
"-r c #575353",
"-s c #575354",
"-t c #575355",
"-u c #575356",
"-v c #57535A",
"-w c #575458",
"-x c #57565A",
"-y c #584F4D",
"-z c #584F4F",
"-{ c #58504D",
"-| c #58504F",
"-} c #585050",
"-~ c #585051",
".! c #585053",
".# c #585150",
".$ c #585151",
".% c #585152",
".& c #585153",
".' c #585154",
".( c #585155",
".) c #585156",
".* c #585157",
".+ c #58524E",
"., c #585250",
".- c #585251",
".. c #585252",
"./ c #585253",
".0 c #585254",
".1 c #585255",
".2 c #585256",
".3 c #585350",
".4 c #585351",
".5 c #585352",
".6 c #585353",
".7 c #585354",
".8 c #585355",
".9 c #585356",
".: c #585357",
".; c #585450",
".< c #585451",
".= c #585452",
".> c #585453",
".? c #585454",
".@ c #585455",
".A c #585456",
".B c #585457",
".C c #585554",
".D c #585555",
".E c #594F4C",
".F c #594F53",
".G c #595051",
".H c #59514E",
".I c #59514F",
".J c #595150",
".K c #595153",
".L c #595154",
".M c #59524E",
".N c #59524F",
".O c #595251",
".P c #595252",
".Q c #595253",
".R c #595254",
".S c #595255",
".T c #595256",
".U c #59534E",
".V c #595351",
".W c #595352",
".X c #595353",
".Y c #595354",
".Z c #595355",
".[ c #595356",
".] c #595359",
".^ c #595450",
"._ c #595451",
".` c #595452",
".a c #595453",
".b c #595454",
".c c #595455",
".d c #595456",
".e c #595457",
".f c #595458",
".g c #595553",
".h c #595554",
".i c #595555",
".j c #595558",
".k c #595559",
".l c #595658",
".m c #595752",
".n c #5A5155",
".o c #5A524E",
".p c #5A524F",
".q c #5A5250",
".r c #5A5251",
".s c #5A5252",
".t c #5A5253",
".u c #5A5255",
".v c #5A5258",
".w c #5A534F",
".x c #5A5351",
".y c #5A5353",
".z c #5A5354",
".{ c #5A5355",
".| c #5A5357",
".} c #5A5358",
".~ c #5A5451",
"/! c #5A5452",
"/# c #5A5453",
"/$ c #5A5454",
"/% c #5A5455",
"/& c #5A5456",
"/' c #5A5458",
"/( c #5A554F",
"/) c #5A5550",
"/* c #5A5551",
"/+ c #5A5553",
"/, c #5A5554",
"/- c #5A5555",
"/. c #5A5556",
"// c #5A5557",
"/0 c #5A5558",
"/1 c #5A5653",
"/2 c #5A5654",
"/3 c #5A5655",
"/4 c #5A5656",
"/5 c #5A5657",
"/6 c #5A5659",
"/7 c #5A5752",
"/8 c #5A5755",
"/9 c #5A5759",
"/: c #5B5250",
"/; c #5B5252",
"/< c #5B5255",
"/= c #5B5256",
"/> c #5B534F",
"/? c #5B5350",
"/@ c #5B5351",
"/A c #5B5352",
"/B c #5B5353",
"/C c #5B5354",
"/D c #5B5355",
"/E c #5B5356",
"/F c #5B5357",
"/G c #5B5450",
"/H c #5B5451",
"/I c #5B5452",
"/J c #5B5453",
"/K c #5B5454",
"/L c #5B5455",
"/M c #5B5456",
"/N c #5B5457",
"/O c #5B5458",
"/P c #5B5459",
"/Q c #5B5550",
"/R c #5B5551",
"/S c #5B5552",
"/T c #5B5553",
"/U c #5B5555",
"/V c #5B5556",
"/W c #5B5557",
"/X c #5B5558",
"/Y c #5B555A",
"/Z c #5B5653",
"/[ c #5B5654",
"/] c #5B5655",
"/^ c #5B5656",
"/_ c #5B5657",
"/` c #5B5658",
"/a c #5B5659",
"/b c #5B565A",
"/c c #5B565B",
"/d c #5B5754",
"/e c #5B5755",
"/f c #5B5757",
"/g c #5B5758",
"/h c #5B5855",
"/i c #5B585C",
"/j c #5C5251",
"/k c #5C5255",
"/l c #5C5350",
"/m c #5C5352",
"/n c #5C5354",
"/o c #5C5355",
"/p c #5C5357",
"/q c #5C5452",
"/r c #5C5454",
"/s c #5C5455",
"/t c #5C5456",
"/u c #5C5457",
"/v c #5C5551",
"/w c #5C5552",
"/x c #5C5553",
"/y c #5C5554",
"/z c #5C5555",
"/{ c #5C5556",
"/| c #5C5557",
"/} c #5C5558",
"/~ c #5C5559",
"0! c #5C5652",
"0# c #5C5653",
"0$ c #5C5655",
"0% c #5C5656",
"0& c #5C5657",
"0' c #5C5658",
"0( c #5C5659",
"0) c #5C565B",
"0* c #5C5753",
"0+ c #5C5754",
"0, c #5C5755",
"0- c #5C5758",
"0. c #5C5759",
"0/ c #5C575A",
"00 c #5C575B",
"01 c #5C575C",
"02 c #5C5855",
"03 c #5C5858",
"04 c #5C585A",
"05 c #5C585B",
"06 c #5C5955",
"07 c #5C595D",
"08 c #5D5255",
"09 c #5D5453",
"0: c #5D5456",
"0; c #5D5457",
"0< c #5D5554",
"0= c #5D5556",
"0> c #5D5557",
"0? c #5D5650",
"0@ c #5D5653",
"0A c #5D5654",
"0B c #5D5656",
"0C c #5D5657",
"0D c #5D5658",
"0E c #5D5659",
"0F c #5D565A",
"0G c #5D565B",
"0H c #5D5752",
"0I c #5D5753",
"0J c #5D5754",
"0K c #5D5755",
"0L c #5D5756",
"0M c #5D5757",
"0N c #5D5758",
"0O c #5D5759",
"0P c #5D575A",
"0Q c #5D575B",
"0R c #5D575C",
"0S c #5D5854",
"0T c #5D5855",
"0U c #5D5856",
"0V c #5D5857",
"0W c #5D5858",
"0X c #5D5859",
"0Y c #5D585A",
"0Z c #5D585E",
"0[ c #5D5955",
"0] c #5D5958",
"0^ c #5D5959",
"0_ c #5D595A",
"0` c #5D595C",
"0a c #5D595D",
"0b c #5D5A56",
"0c c #5D5A57",
"0d c #5D5A5D",
"0e c #5D5B5B",
"0f c #5E5353",
"0g c #5E5356",
"0h c #5E5556",
"0i c #5E5658",
"0j c #5E5659",
"0k c #5E565A",
"0l c #5E565B",
"0m c #5E5754",
"0n c #5E5755",
"0o c #5E5756",
"0p c #5E5757",
"0q c #5E5758",
"0r c #5E5759",
"0s c #5E575A",
"0t c #5E575B",
"0u c #5E575C",
"0v c #5E575D",
"0w c #5E5852",
"0x c #5E5854",
"0y c #5E5855",
"0z c #5E5856",
"0{ c #5E5857",
"0| c #5E5858",
"0} c #5E5859",
"0~ c #5E585A",
"1! c #5E585B",
"1# c #5E585C",
"1$ c #5E5955",
"1% c #5E5956",
"1& c #5E5957",
"1' c #5E5958",
"1( c #5E5959",
"1) c #5E595A",
"1* c #5E595B",
"1+ c #5E595C",
"1, c #5E595D",
"1- c #5E595F",
"1. c #5E5A58",
"1/ c #5E5A5A",
"10 c #5E5A5D",
"11 c #5E5B59",
"12 c #5E5B5B",
"13 c #5F5556",
"14 c #5F5653",
"15 c #5F5655",
"16 c #5F5656",
"17 c #5F5658",
"18 c #5F565D",
"19 c #5F5753",
"1: c #5F5755",
"1; c #5F5756",
"1< c #5F5759",
"1= c #5F575B",
"1> c #5F575D",
"1? c #5F5853",
"1@ c #5F5854",
"1A c #5F5855",
"1B c #5F5856",
"1C c #5F5857",
"1D c #5F5858",
"1E c #5F5859",
"1F c #5F585A",
"1G c #5F585B",
"1H c #5F5954",
"1I c #5F5955",
"1J c #5F5956",
"1K c #5F5958",
"1L c #5F5959",
"1M c #5F595A",
"1N c #5F595B",
"1O c #5F595C",
"1P c #5F595D",
"1Q c #5F595E",
"1R c #5F5A57",
"1S c #5F5A58",
"1T c #5F5A59",
"1U c #5F5A5A",
"1V c #5F5A5B",
"1W c #5F5A5D",
"1X c #5F5A5E",
"1Y c #5F5B54",
"1Z c #5F5B56",
"1[ c #5F5B59",
"1] c #5F5B5A",
"1^ c #5F5B5B",
"1_ c #5F5B5C",
"1` c #5F5B5D",
"1a c #5F5B61",
"1b c #605756",
"1c c #605757",
"1d c #605855",
"1e c #605857",
"1f c #605858",
"1g c #605859",
"1h c #60585A",
"1i c #60585C",
"1j c #605956",
"1k c #605957",
"1l c #605958",
"1m c #605959",
"1n c #60595A",
"1o c #60595B",
"1p c #60595C",
"1q c #60595D",
"1r c #605A57",
"1s c #605A58",
"1t c #605A59",
"1u c #605A5B",
"1v c #605A5C",
"1w c #605A5F",
"1x c #605B59",
"1y c #605B5A",
"1z c #605B5B",
"1{ c #605B5C",
"1| c #605B5D",
"1} c #605B5E",
"1~ c #605B5F",
"2! c #605B61",
"2# c #605C58",
"2$ c #605C59",
"2% c #605C5C",
"2& c #605C5E",
"2' c #605D5C",
"2( c #615758",
"2) c #615759",
"2* c #61575B",
"2+ c #615857",
"2, c #615859",
"2- c #61585B",
"2. c #61585C",
"2/ c #615956",
"20 c #615958",
"21 c #615959",
"22 c #61595A",
"23 c #61595B",
"24 c #61595C",
"25 c #61595E",
"26 c #615A54",
"27 c #615A55",
"28 c #615A56",
"29 c #615A58",
"2: c #615A59",
"2; c #615A5B",
"2< c #615A5C",
"2= c #615A5D",
"2> c #615A60",
"2? c #615A61",
"2@ c #615B56",
"2A c #615B57",
"2B c #615B58",
"2C c #615B59",
"2D c #615B5A",
"2E c #615B5B",
"2F c #615B5C",
"2G c #615B5D",
"2H c #615B5E",
"2I c #615B60",
"2J c #615C57",
"2K c #615C58",
"2L c #615C59",
"2M c #615C5A",
"2N c #615C5B",
"2O c #615C5C",
"2P c #615C5D",
"2Q c #615C5F",
"2R c #615C60",
"2S c #615D5A",
"2T c #615D5B",
"2U c #615E5E",
"2V c #615E61",
"2W c #625752",
"2X c #62585E",
"2Y c #625958",
"2Z c #625959",
"2[ c #62595B",
"2] c #62595C",
"2^ c #62595D",
"2_ c #625A59",
"2` c #625A5A",
"2a c #625A5B",
"2b c #625A5C",
"2c c #625A5E",
"2d c #625B59",
"2e c #625B5B",
"2f c #625B5C",
"2g c #625B5E",
"2h c #625B5F",
"2i c #625B60",
"2j c #625C57",
"2k c #625C58",
"2l c #625C5B",
"2m c #625C5C",
"2n c #625C5D",
"2o c #625C5E",
"2p c #625C60",
"2q c #625C61",
"2r c #625D59",
"2s c #625D5B",
"2t c #625D5C",
"2u c #625D5D",
"2v c #625D5E",
"2w c #625D5F",
"2x c #625E56",
"2y c #625E5C",
"2z c #625E5E",
"2{ c #625E5F",
"2| c #625E61",
"2} c #625E62",
"2~ c #635957",
"3! c #635959",
"3# c #63595A",
"3$ c #635A59",
"3% c #635A5B",
"3& c #635B5B",
"3' c #635B5C",
"3( c #635B5D",
"3) c #635B5E",
"3* c #635C5A",
"3+ c #635C5C",
"3, c #635C5D",
"3- c #635C5F",
"3. c #635C60",
"3/ c #635C62",
"30 c #635D5A",
"31 c #635D5B",
"32 c #635D5C",
"33 c #635D5D",
"34 c #635D5E",
"35 c #635D5F",
"36 c #635D60",
"37 c #635D61",
"38 c #635D62",
"39 c #635E59",
"3: c #635E5B",
"3; c #635E5C",
"3< c #635E5D",
"3= c #635E5E",
"3> c #635E5F",
"3? c #635E60",
"3@ c #635E61",
"3A c #635F5B",
"3B c #63605F",
"3C c #645A59",
"3D c #645B5A",
"3E c #645B5E",
"3F c #645B62",
"3G c #645C58",
"3H c #645C59",
"3I c #645C5A",
"3J c #645C5C",
"3K c #645C5D",
"3L c #645C5E",
"3M c #645C5F",
"3N c #645C60",
"3O c #645C61",
"3P c #645D59",
"3Q c #645D5B",
"3R c #645D5C",
"3S c #645D5D",
"3T c #645D5E",
"3U c #645D5F",
"3V c #645D60",
"3W c #645D61",
"3X c #645D62",
"3Y c #645D67",
"3Z c #645E5A",
"3[ c #645E5C",
"3] c #645E5D",
"3^ c #645E5E",
"3_ c #645E5F",
"3` c #645E62",
"3a c #645F58",
"3b c #645F5B",
"3c c #645F5C",
"3d c #645F5D",
"3e c #645F5E",
"3f c #645F5F",
"3g c #645F60",
"3h c #645F62",
"3i c #645F63",
"3j c #64605D",
"3k c #646061",
"3l c #646162",
"3m c #646264",
"3n c #655B5A",
"3o c #655B60",
"3p c #655C5E",
"3q c #655C61",
"3r c #655D5B",
"3s c #655D5C",
"3t c #655D5D",
"3u c #655D5F",
"3v c #655D63",
"3w c #655D66",
"3x c #655E59",
"3y c #655E5A",
"3z c #655E5B",
"3{ c #655E5C",
"3| c #655E5D",
"3} c #655E5E",
"3~ c #655E5F",
"4! c #655E60",
"4# c #655E61",
"4$ c #655E62",
"4% c #655E63",
"4& c #655F5C",
"4' c #655F5D",
"4( c #655F5E",
"4) c #655F5F",
"4* c #655F60",
"4+ c #655F61",
"4, c #655F62",
"4- c #65605D",
"4. c #65605E",
"4/ c #65605F",
"40 c #656060",
"41 c #656062",
"42 c #65615F",
"43 c #665B59",
"44 c #665B5E",
"45 c #665C5C",
"46 c #665C5F",
"47 c #665D5A",
"48 c #665D5B",
"49 c #665D5E",
"4: c #665D61",
"4; c #665E59",
"4< c #665E5B",
"4= c #665E5C",
"4> c #665E5E",
"4? c #665E5F",
"4@ c #665E60",
"4A c #665E61",
"4B c #665E62",
"4C c #665E64",
"4D c #665F5C",
"4E c #665F5D",
"4F c #665F5E",
"4G c #665F60",
"4H c #665F61",
"4I c #665F62",
"4J c #665F63",
"4K c #665F67",
"4L c #66605C",
"4M c #66605D",
"4N c #66605F",
"4O c #666060",
"4P c #666061",
"4Q c #666062",
"4R c #666063",
"4S c #666064",
"4T c #666067",
"4U c #66615E",
"4V c #666160",
"4W c #666161",
"4X c #666163",
"4Y c #66625D",
"4Z c #66625E",
"4[ c #66625F",
"4] c #666261",
"4^ c #666264",
"4_ c #675D5C",
"4` c #675D5F",
"4a c #675E5F",
"4b c #675F5D",
"4c c #675F5E",
"4d c #675F5F",
"4e c #675F60",
"4f c #675F61",
"4g c #675F62",
"4h c #675F63",
"4i c #675F64",
"4j c #67605F",
"4k c #676060",
"4l c #676061",
"4m c #676062",
"4n c #676064",
"4o c #676065",
"4p c #67615F",
"4q c #676160",
"4r c #676161",
"4s c #676162",
"4t c #676163",
"4u c #676164",
"4v c #67625E",
"4w c #67625F",
"4x c #676260",
"4y c #676261",
"4z c #676262",
"4{ c #676263",
"4| c #676264",
"4} c #67635D",
"4~ c #676363",
"5! c #67645E",
"5# c #67645F",
"5$ c #676465",
"5% c #685F5C",
"5& c #685F5E",
"5' c #685F5F",
"5( c #685F60",
"5) c #68605F",
"5* c #686060",
"5+ c #686061",
"5, c #686062",
"5- c #686063",
"5. c #686065",
"5/ c #686066",
"50 c #68615D",
"51 c #68615F",
"52 c #686160",
"53 c #686161",
"54 c #686162",
"55 c #686164",
"56 c #686165",
"57 c #686166",
"58 c #68625F",
"59 c #686261",
"5: c #686262",
"5; c #686263",
"5< c #686264",
"5= c #686265",
"5> c #686267",
"5? c #686361",
"5@ c #686362",
"5A c #686363",
"5B c #686364",
"5C c #686368",
"5D c #686463",
"5E c #686465",
"5F c #69605F",
"5G c #696161",
"5H c #696162",
"5I c #696163",
"5J c #696164",
"5K c #696165",
"5L c #69625D",
"5M c #69625F",
"5N c #696260",
"5O c #696261",
"5P c #696263",
"5Q c #696264",
"5R c #696265",
"5S c #696266",
"5T c #696267",
"5U c #696268",
"5V c #69635E",
"5W c #696361",
"5X c #696362",
"5Y c #696363",
"5Z c #696364",
"5[ c #696460",
"5] c #696462",
"5^ c #696463",
"5_ c #696464",
"5` c #696465",
"5a c #696467",
"5b c #696469",
"5c c #696664",
"5d c #696764",
"5e c #6A5F61",
"5f c #6A6061",
"5g c #6A625E",
"5h c #6A625F",
"5i c #6A6260",
"5j c #6A6262",
"5k c #6A6263",
"5l c #6A6264",
"5m c #6A6266",
"5n c #6A635F",
"5o c #6A6360",
"5p c #6A6362",
"5q c #6A6363",
"5r c #6A6364",
"5s c #6A6365",
"5t c #6A6367",
"5u c #6A645F",
"5v c #6A6461",
"5w c #6A6462",
"5x c #6A6463",
"5y c #6A6464",
"5z c #6A6465",
"5{ c #6A6468",
"5| c #6A6469",
"5} c #6A6565",
"5~ c #6A6567",
"6! c #6A6663",
"6# c #6B6163",
"6$ c #6B6261",
"6% c #6B6263",
"6& c #6B6264",
"6' c #6B6266",
"6( c #6B6267",
"6) c #6B635F",
"6* c #6B6361",
"6+ c #6B6362",
"6, c #6B6363",
"6- c #6B6364",
"6. c #6B645D",
"6/ c #6B645E",
"60 c #6B6461",
"61 c #6B6462",
"62 c #6B6464",
"63 c #6B6466",
"64 c #6B6468",
"65 c #6B6561",
"66 c #6B6564",
"67 c #6B6565",
"68 c #6B6566",
"69 c #6B6567",
"6: c #6B656C",
"6; c #6B665F",
"6< c #6B6663",
"6= c #6B6665",
"6> c #6B6666",
"6? c #6B6667",
"6@ c #6B6668",
"6A c #6B6669",
"6B c #6B6767",
"6C c #6B6769",
"6D c #6B6965",
"6E c #6C6160",
"6F c #6C625F",
"6G c #6C6364",
"6H c #6C6464",
"6I c #6C6465",
"6J c #6C6466",
"6K c #6C6467",
"6L c #6C6468",
"6M c #6C6469",
"6N c #6C6563",
"6O c #6C6564",
"6P c #6C6565",
"6Q c #6C6566",
"6R c #6C6567",
"6S c #6C6660",
"6T c #6C6664",
"6U c #6C6665",
"6V c #6C6666",
"6W c #6C6668",
"6X c #6C6669",
"6Y c #6C6767",
"6Z c #6C6768",
"6[ c #6C6866",
"6] c #6D6462",
"6^ c #6D6463",
"6_ c #6D6466",
"6` c #6D6561",
"6a c #6D6562",
"6b c #6D6563",
"6c c #6D6564",
"6d c #6D6567",
"6e c #6D6661",
"6f c #6D6664",
"6g c #6D6665",
"6h c #6D6666",
"6i c #6D6667",
"6j c #6D6668",
"6k c #6D6669",
"6l c #6D666A",
"6m c #6D675F",
"6n c #6D6764",
"6o c #6D6765",
"6p c #6D6766",
"6q c #6D6767",
"6r c #6D6769",
"6s c #6D676A",
"6t c #6D6864",
"6u c #6D6865",
"6v c #6D6866",
"6w c #6D6868",
"6x c #6D6869",
"6y c #6D686C",
"6z c #6D6964",
"6{ c #6D6965",
"6| c #6D6967",
"6} c #6D6968",
"6~ c #6D696B",
"7! c #6D6A69",
"7# c #6D6B66",
"7$ c #6E6563",
"7% c #6E6565",
"7& c #6E6567",
"7' c #6E6662",
"7( c #6E6667",
"7) c #6E6763",
"7* c #6E6765",
"7+ c #6E6769",
"7, c #6E6864",
"7- c #6E6865",
"7. c #6E6866",
"7/ c #6E6867",
"70 c #6E6868",
"71 c #6E686A",
"72 c #6E6966",
"73 c #6E6969",
"74 c #6E696C",
"75 c #6E6B6B",
"76 c #6F6664",
"77 c #6F6668",
"78 c #6F6669",
"79 c #6F6766",
"7: c #6F6767",
"7; c #6F676A",
"7< c #6F6868",
"7= c #6F6869",
"7> c #6F686A",
"7? c #6F686B",
"7@ c #6F686C",
"7A c #6F6962",
"7B c #6F6964",
"7C c #6F6966",
"7D c #6F6967",
"7E c #6F6969",
"7F c #6F696A",
"7G c #6F696B",
"7H c #6F696F",
"7I c #6F6A69",
"7J c #6F6A6B",
"7K c #6F6B69",
"7L c #6F6B6A",
"7M c #70666A",
"7N c #70676A",
"7O c #706866",
"7P c #706869",
"7Q c #70686A",
"7R c #706967",
"7S c #706968",
"7T c #706969",
"7U c #70696B",
"7V c #70696C",
"7W c #70696D",
"7X c #706A66",
"7Y c #706A67",
"7Z c #706A68",
"7[ c #706A69",
"7] c #706A6B",
"7^ c #706B69",
"7_ c #706B6A",
"7` c #716669",
"7a c #71676A",
"7b c #716869",
"7c c #716967",
"7d c #716968",
"7e c #716969",
"7f c #71696A",
"7g c #71696C",
"7h c #71696D",
"7i c #716A64",
"7j c #716A6A",
"7k c #716A6B",
"7l c #716A6D",
"7m c #716A6E",
"7n c #716B64",
"7o c #716B67",
"7p c #716B68",
"7q c #716B6A",
"7r c #716B6B",
"7s c #716B6E",
"7t c #716B6F",
"7u c #716C6F",
"7v c #716D67",
"7w c #716D6E",
"7x c #716E6C",
"7y c #726765",
"7z c #726965",
"7{ c #726967",
"7| c #726969",
"7} c #726A6B",
"7~ c #726A6C",
"8! c #726A6E",
"8# c #726B66",
"8$ c #726B69",
"8% c #726B6C",
"8& c #726B6D",
"8' c #726C6A",
"8( c #726C6C",
"8) c #726C6F",
"8* c #726D69",
"8+ c #72706F",
"8, c #727070",
"8- c #73696D",
"8. c #736A6A",
"8/ c #736A6D",
"80 c #736B6D",
"81 c #736B6E",
"82 c #736C69",
"83 c #736C6B",
"84 c #736C6C",
"85 c #736C6D",
"86 c #736C71",
"87 c #736D6B",
"88 c #736D6C",
"89 c #736D6D",
"8: c #736D70",
"8; c #736D72",
"8< c #736E69",
"8= c #736E6B",
"8> c #736E6E",
"8? c #736E6F",
"8@ c #736E70",
"8A c #736F6B",
"8B c #746B67",
"8C c #746B6C",
"8D c #746C6A",
"8E c #746C6E",
"8F c #746D69",
"8G c #746D6D",
"8H c #746D71",
"8I c #746E6D",
"8J c #746E6F",
"8K c #747071",
"8L c #756D69",
"8M c #756D6A",
"8N c #756D6B",
"8O c #756D70",
"8P c #756E6D",
"8Q c #756E70",
"8R c #756E71",
"8S c #756E72",
"8T c #756F6B",
"8U c #756F6D",
"8V c #756F6E",
"8W c #756F6F",
"8X c #756F71",
"8Y c #756F72",
"8Z c #75706E",
"8[ c #75706F",
"8] c #757071",
"8^ c #75716D",
"8_ c #766B70",
"8` c #766D69",
"8a c #766D6D",
"8b c #766D71",
"8c c #766E69",
"8d c #766E6C",
"8e c #766E6F",
"8f c #766E70",
"8g c #766F69",
"8h c #766F6B",
"8i c #766F6C",
"8j c #766F6D",
"8k c #76706C",
"8l c #767073",
"8m c #76716D",
"8n c #76716E",
"8o c #76716F",
"8p c #767171",
"8q c #767173",
"8r c #776F6D",
"8s c #776F73",
"8t c #77706C",
"8u c #77706E",
"8v c #777070",
"8w c #777071",
"8x c #777075",
"8y c #77716D",
"8z c #777173",
"8{ c #77726D",
"8| c #78706E",
"8} c #787073",
"8~ c #787171",
"9! c #787174",
"9# c #787177",
"9$ c #787271",
"9% c #787274",
"9& c #78736B",
"9' c #78736F",
"9( c #787377",
"9) c #787470",
"9* c #79716F",
"9+ c #797171",
"9, c #797177",
"9- c #79726C",
"9. c #79726D",
"9/ c #797273",
"90 c #797274",
"91 c #79736E",
"92 c #797370",
"93 c #797371",
"94 c #797376",
"95 c #797379",
"96 c #797471",
"97 c #797577",
"98 c #7A726D",
"99 c #7A7271",
"9: c #7A7372",
"9; c #7A7375",
"9< c #7A7376",
"9= c #7A7473",
"9> c #7A7474",
"9? c #7A7575",
"9@ c #7B7173",
"9A c #7B7270",
"9B c #7B736F",
"9C c #7B7470",
"9D c #7B767A",
"9E c #7B7971",
"9F c #7C7373",
"9G c #7C7476",
"9H c #7C7479",
"9I c #7C7571",
"9J c #7C7575",
"9K c #7C7579",
"9L c #7C757B",
"9M c #7D7674",
"9N c #7D7778",
"9O c #7D7877",
"9P c #7E7773",
"9Q c #7E7776",
"9R c #7E777C",
"9S c #7E7874",
"9T c #7E7878",
"9U c #7E797A",
"9V c #7F767B",
"9W c #7F7774",
"9X c #7F797D",
"9Y c #7F7B77",
"9Z c #80777B",
"9[ c #807977",
"9] c #807C76",
"9^ c #817A7D",
"9_ c #817B79",
"9` c #827D7B",
"9a c #827E7D",
"9b c #837B79",
"9c c #837D7F",
"9d c #837D80",
"9e c #8A8384",
"9f c #8E8580",
"9g c #8F8586",
/* pixels */
"0B.Q%p$n#y/{,O&+!6$<)d+%!p*c)M5T5y2A*@,./u2;'Y(4)'/],f'q%-/,-a0).-*d)V.t-L-O-N6b4c)U%J+-,$0r28(_+,7/3R%X$o&#&f336V,&-U4E.Q3L$T$H",
"&s&:,=*d!M!s#C&='x)S(9&N.I.s*T/c,='Y8c,_!'*>%)2_.6)r&&2W*6){)2*p-n(f$N(D*<3451&r+:,'.Y,L#<'C%[4r-V/)+N/H8+2<.l-w&|5>4b,G*O*P07+/",
"3~$7(3#{(K+~(&*f!A+E2e,'/r&`1!7;(!413,'I$9%3+N)C7y8X.Z3}'448,^.81u!2+&4:*43t+d2n-z8;1X.@8D2R4g3l!<1+)^,v1T#h4{9V7N6|#~%n.&$y/9+i",
"/C&Y*<&h+g*J#U,m!v*e8e5Q7I3R9.7d-k4y5#,s.,*y2u.V7_8L1O/<-}6G1$%B,f!-&C.R(C1^'|90)j-[.A+o7{,a6%/1'u5q/.,65O't1p9R3@5d+!$L0p$E0(*:",
"4!%E%o%_*)*=!B(L!D0j8b*C0w(56b8T%*)934).'p(e/{+V673,3R5e+-083#(--X&v(F5M)N6E0N80'&&a2%5(4r))0D)^&(-@!;-P3>'/248/-K3-2v-F4u&z'g%:",
"1G0N!e&.0-3//<#9&h-_-(.s%@%g&p,%,%*#--%8-|1d-7,d,T0%2f)b%7)i,j.{)$-6*q/J31$p&b+e,')1)L(?1J8o1(1^(e5}/W'q!k(K*}1~4H'S.15=4*)P&r)E",
"1q/i2B4Y5=.c+')X,|'<'M&)/+-j+8!y'})_7p2s$['t.@+s,Z+6*l2I0%%]$T,.3M4I-7$)*8+$3N&2(!103V2]#^$a!O3-&*&x,9*J5<0:&Q&4&80M*_%W%4$0#m&t",
"5s&P6I+?841D'Y+O&)*90'(`%t%0&s0F%b3<7!)#*1*k(|+N877i*G13+M3)1S.0(8!83;/J1l3C*j/!*M1}4?-13^#4)X/$!_2O%`.<5<*d)3*]$n(A#3010a%?%%#l",
"/{1W8E&-3}5S(=&s#5)N2*$G$P!j%j5m&r6Z2v&K5''4/@'.4s2&-A4')K2u5~&t,_+-8k633=/D)f,C%U-r/M'+)r),,a0k%:69&6424W)*//1V+O8C(|*%-t%v)~#U",
"3,07,-%n4)3($l)N$v$r0W&6(@-a0X5T0(2G4m(10=.#9J3f7F6C(q7,-q.h2$*:5U&;0z2Z,h$!(`2b'v0u,}$u1N'2$z&J$;40+62m4I)F+(3S-/0|,,+n1q%}-I!h",
"2(0r!r#N(Q.S1M+Y)O)K4m.`&?)m$i4+6R..$D*r*-+#%:'Q516Y3~)6)X*8)0)0'&0%1J,x)c$A&)+X.,(1&h-i--)E+9%U&@2,%Q%P#0#f%o5I8$*-)H.n3E2G$Q!1",
"%m,F.W20(r#B&=1F1N%f#p'44--~*9'?.`'B3`2d!J$r.|)X'*&s$r+m1'#I!a%t*<*d/8$E'Z0Z-B!x0^(v'Z0N!C(G*c+9.f(s,a,t+c1R)J*Z+1+5-8'f,</#-A%Z",
"4E/J+-#W+d-8-m4D'D0o50(m3:,/6K4P&O5O8(1k1;'G8_)X%l9?#M*A'{!]-//N1<)x+q/?*C5Q*C+;)4,8-7({)E'J'I55)o7<'Z0o5V([)/&f%t)M!Q*561)q.q!{",
"4('S2e+U%s7Q+94/+40!'%%v40-,+#/J)1865a+4--&k.{$^)n6O++)W'6!T&+(9)R#S4x,K'>6T,a56-G/$3n#a4a(^1o4r!g88#K856$-52Q+.$4(@$S'y5]2n1;*i",
"7D)53@+K128](N4X){3199+u6b-o3u55(G89)q*h4A'8/c&r,{9/9+0'0x%9(p%c*4$w1*/k#6+X'/-u%=1K)G&12,!;*/2=!H9[#F8S0}(v)q,0&w&~!:+!984t2d*9",
"1;-%$D,./!531y'.)&(0-Y0X'V$#$C5x32-**g+K1(3E(U'{*S1E3T)0,-$$%n.d+O#e._+$52'4%&,',y$8$-#i,L%H,&*j+V0p+,--#U(n(h/t6J)V*i9I2F-;'S'7",
"!f+,73'_021_4d9*7g$V#9$c/a1[-},h,p/T653Z*2038a340C+h$4(}2M'@#7(E1,,b&1!/%#(V.O&s.J''5&+z!F!#%T1x/:%8&h!b5i5P-1%U's.Z)`#g*E049c4w",
"20!m7(,]666d'/0=*H&{*L(_)o0]0%7e'4290V0H8{/$6_*Z)!5|+1$Q$].y)d,:744n-<*c*%2S%T7:+=/m2Y&n1:&T5X6F+)875<.z.0/40%6?0[8U+j$w2e/b2{6m",
"8W0W6j2H7~7C+3'l+90B1#'?.$({+g2[!U1Z.q*s.%-.7G+O+Q4+&J&C$:$C-61(./1),3)Q)s46%)1i,'6_/G,~%+!X+$2K*`+L,;0p2i)x4&7e/!4D0m*C6D1N9=1J",
"8&(#9M*Z2P2S'`0U&T,a2F$*&D)h/n/L#-0#)$!i0q(:&+(Y,&9e)*4w#0*92r-B*H)O*_.Q,W2X%K(2+#0f+#1r+6*B193P&n0w$I7c5]2L9:3;+r7Y)M)/9)4(5G.$",
"%o-Y(2%o-*0&0o)0's*k2q2f'Q&*&f.W/{)z,!)J4c-A,i+c0|6c3A(y*B&v2D3k#u%|+W-j53&F(1.T.F%3&9+6/{+o-?&s$30l.W/Z#/(6-g6*2_.`+j3G8m.K&*$r",
"*k)864/}2O53+97,/[2g(;![,t3s+91=0s4b3x)|#'!G3t-`,+1K0#+a'5!W!_*d/0)F.^1g5S8%'w$5$V#b(t.Z$-(n(%1V0D%u$K+F/O-/+L,f6{2M1j3Z5:.(8:1u",
"8A)s6X'v3~5t.T7=/71E0~$S1t(83^1G*Y,K0B(0)I!n)O$`-e6K'^+G(9$'4/804G*85!9]4v9P/K-s$++84$0j%t#V2.7f,x,X!+5/3q+/837o7q0$.b2F6u0e2n'1",
"6u%G/;,'6(2=,)2t++-Z7.*$1('T'=/s(_-e.Q%h*Q'1'k';#}3^+?05(d(O-^-203%s3B8'0N8U)L.=)y.g-'.X,M-;2l80))+N#M4T0/,-8l8P8f6!1Y8I6n(G6g)e",
"8(,D62%O9#38,:5?)|2b*A#D&X*;/67h/68x.T$])Q!V.d%y!u3>0,2h#r'U4R/a+}'5(%,8&`,i#=!K!*.;1@4P*[$&+[9d'l-{!R%Y*W(@0~8%4H7n,^0|4v!|7q*B",
"5v8p)z&2.z7+7V/d(e&g+X0*&G-`)h4#2P+c#z$T5P,1&^%X$*.,,S)f'{(8-a36-q/g.W,i/%)L.3.i/,+!+#0J8w)s+9*e)'5s4#0-&/+7,;2w8u)y.=/L/#6r-8%/",
"$>-l/r1]7[2c*p5O)z#R-16l2E.-*[-c&:(M0v18)I0}8$7R-/-.4//W+&*B&J5E5?4](n0T(r3f'H/Z*u.28i2B$G&N$W3,6h9K+/)'1O,&&Z&L.>9`.%1D+J-b14*7",
"+{*x2^(e544r)|16.W,.)a$t'|'P1N7g'?0&.|&h5H/V9W0Y+#2;)<0_)'$h0E0%.Q-^7u5_+m*n(>-Y#Z0g+5-W*b#S$B+00L86):0_8,+k,E3;/|*^*Y4`'$(A/>(4",
",V+./X&h5w4=*%0B0b1K3z)q,v)J0K/&&1,(+i'I,V/{8*-j)h/X-51%)z(`.)6o4b0z2z7E/V'K&L.d--1(,S,V,&!S&,3g.!31&V)Y2u2O-r4D/_,&&K6Q45+%7)([",
"/_#)(a#Z4}39.P1&,-,_1;.Z'e&v0V0&%3(j'w$%1m-4/h'=%$.v#T4J$G+-6f5Y6k1G.[3i'u.C'3&2+Z$<(`&N,U#8)k.*#O,'!!%N4,-0,i1V,`2a&z446H3I5z/#",
"+d47!4!$*!58/W!9'5%w,`2<'{#?$F-q6@3W%<%933.W(H&}%!1!7L&q($+54H68*o*<0E0D4p!w#1,i'5#8!,&U1s+5*I#8!50d.[-?#q$~%A5Z0{&H&9)E*V,8$m%m",
"*j,-6I0i*m03-H-')3-v+P,Y37'u',6Q7J6~+0(7%'&P971z#L*l)1-s4j66.k7q9_3-4N7v0}--5:0X,;2v-R1*+B/U1!1}0M.8$v2o,h$b%!'72h/J0$*]#X&[/a)u",
"/b*E6y)y5*4f.'62'f/t7X*e*;%Z#k1U'v53*l'{/L%W7b)O-u-c'7*c'35z5Y0%5k,:6M6`&h26'z,w!`22'r$|+-+78).9(X7g#a+#.d%j*35+(d8.271(-5'6%|&v",
"(o'?(}%65f3[']7=+@3}/B&,,V!d(K5r(@(,.b+*8d'X9$-^*p,%)+,2$q6p7}0_2f.{5G5i3z6t4[/^(56&***j4P/|9L.]&/7g$j*G0./e'f8]-`6N3b0N'l!}#]'u",
"/-'c-}1e469@)29>/g4|1F#`(2#&$T+$%z0A&v)z/3#Z/b%($A)q'Y**$=.M/Q5s4y0P1T7#+t7K*F.<(#7Z3')p(X#$0(5;)x0E%X)T2'063c9f598A2x.m(0$X%!#<",
"-*-V#;(P1S1E5w+b%C,.1#/`+M'S.51m6W)M&e$S2E&('R)z*B1E0q)m&d&p+k6a('%o+d3G3T,!'r/(-U.^$]$*)h*U&I(0&R17+$.H&6'3-!6U0J#t)7.++P1i(9$n",
"%0'h-Y-S*+'L.e431t8j*t%x+b)&)L*(+Z%3(%6z!~&r/Y33(f&'%I,V.r(A+5&9+/0^/&0T(X.7'}%s,#._1!/'+',b1{6s1]#E*&3441+/,i0_3e/#(z#r'd'N&l%k",
"+L%.4H)N622f%n300V*H8J$w&3,J9+23&u1w'u,_,,'q+/,R5:4q--.X)B-h8y&m#=$6*I,%#I,^&v0M0I5o3'&,24&_6v0m)036'57W94-k.'8!*6)D!m+x6>+7'u&R",
"1].793(^8I*9+V1H+?3U7G)|721r8Q7<1a4K-k6V+Y/T8&->4t4U*8*9*,*D5X%r/V!l(c.X%@.O4Z/y/x8~0t'Q1B'm,/.`$f1D#V.T2V,.0D5O$M.:#m,V3d-&,/%R",
"3L,n3s6B9N6P(]3{-`7k8q.d1J,]6c6^.{3v&l-a8|/q+_,Q0*280z)x,!)3+Y#x.d%c#R8Z%`4V0],d,*5^0|,W(S$&0M's&N2P*d1+,h.e$x/2%A'Z+?)z3~%u%M%l",
"'{*Y++*a'j%q#[(Y$D'<.l'[*%#j!u'6'?#f+R+O+Y/-$Z(k$`*5.U,-%8!Z)y##(e'5'-/I$s,$);$(,4#X#s'K0D+Y)[/l(+-Z.j(@2N&&!0%U'a$u)N$?$r'+$g(T",
".#(w%h#Y0s2m-)()'(9a/^,r8}+d6:0C9^5B7m'S*K1e*m&o6O0h2076)y3>3V8?1u&*/X0$4o3(-W,>.5,o%n!)-M785h,z#w3t4S-]7z'I,Y)]1`-C$}!I&A6s2~'O",
"5`)I(R!E+,79'L(7'z6+4H$&4n(W+&7`/43R3(*;'8!f$@&J){6-+-+7#r1f/B#!'*#e,g*S&U1A)E5%.d1p*|#j2`5n3$6]$t21+{+S4M(0&J/E%a'['4&L*d+A49'o",
"4B#B&!$s$14>#r*~0<.t$_!c-.-,579(0Y6H0C/L,U!>!Y%M'v4q)*/P#K/{8M&<,V-#.e4l$s*~&p9b.0.2'w%t8N51,#/j#d/%%;15542D&W1F*p3X+/*}1O+C*z.N",
"1U(/#c)w.U,/,.$D#!'K2u,~.w/*.48`9C8#*s$Y0y1M&I(}$q/L1#%o$j#2-g(_&Y)y+Y/|-+&M0W,M/{&s%:.P1J)n%.&^#y204k2j%@&o%83,1D!t,5.w.p5)!3!N",
"'O-*7|*i%t'5'Y'?'7'R&1/~3*0E/K4'11.`1l0*3e8g0r.Q#.&+%52>-1!=$q(g)M,g%2#Z$d'u%v!^-=#n.1.B*C#,(I&b()#P+-/%6e'H&j(<&;'V1I%t&$,u&4'u",
"2r&]8a)J1/-a%z+d-82F-Q*$6o)h4<5u/36.4[$Y0o5)2d+`3h5E,B7@'1+29,7u8J(d+%,(${(<)Z6k'|0Q+8)M8B)L8F4N..3L)W0A7U1M)-+:%!$?-a/o3!)Y.7/R",
"8j$V.T0$-/)?%u+9%,4%8R)09A2m0z8^5?7-/&*T3p3)2/)e0X2w-B957P3.7s5A0|(`+]7H.B8!0`9X+n9D0X+o9B-J5p8h3|05,k7E7w-r(i1>%F3?7Y,q8=3m1^+7",
"5..T5q)K1..$!L1)*;9!71$G4q)%.77*6-8r7$%1.O2e1C*01+35005=)8+-3j3+3Q(()l3o1`5k/#3,(B6#5-*E3y3|3a6/-+*Y'T4k00%i+I2G'|/M.~/,7=&t3*/5",
"8z.#.z5o5G/T1L-%,T6?1L*.6')D1F2k,8873=090<4k5l1K3g4m252E2#/z7&4#*B04*]0X1v9H4m7O$v3F)A2?4L0n4;+L*892.y6i6@/.2y9U3]5,8E8<2+-9.I2E",
"']%L&%+L$*#G'-(u%d%9*B'M&,2C%q*m*&(m+N)p(J,-,k(9$,#r#=*7(]!.$R!|#=&q!(&W(f,N.b#!!|!%%u.V&7'u&g/K&5#%%i$D/%%{#_&S&f)y)1!7$E(s,e$P",
"(]1I3%(72@7-6[*:#H/^0o7r5W-f6,1C2U4D6q.#.y+<3H/Z*o(v4t/z+w%r(m-'-9,80;-b2O.c+X0X5C5b8O+b5g*X0V1j-,8H1=3K7E&f,o-#5[,h#J.E-T+y0m$S",
".{+$5J*R3%/A.G1h$?0x8j.`30&y8X2F.b5Y5:*?6i(>1?+>/+5@9g/$-81+711P41)14h1P0c1V(d4(-E1Q-Z#Q0@/=2:/x!P0j.L8P4w''0G7r.f2/$a+N0y'X91'k",
"3~.//s)h5R.{(W+%'n-(9;(^70';7x,1(h0R.&*B6l)r/{-,-D4O9%+&,E0+,h)Y0T(c4i8Y.71u,:-<5$7r6A#g8p-8.`8&+C7l.?4q9S'0/p4o+D4_,A8@6}+Y8G)p",
"2^-d2a$U0G4e&X%V%m)v/M#v*k%{2J3D&c,c/z#=.7)}-.!d$x-/-0,U,5/U'?%>'~&/2p,./Z(()O1N,h963J,88v&p/z1i-b/U'}0U5L$A3Y1G+v9>(`/F0%$e8r&o",
",22p!@#9%i.K,P$U!N%n5K5r#o+b1'7k7t)^*D-p2E/%*s+T,84W3<+l1Z3r4|0P(%+/.D-91'(@+l1t4H.`.,1B*l+Y,h#z&05D3=%0*1*<-W-$*{&O#('#*>/F$.$2",
"+.'d4C-3*N(x-[0O&i,H,l+09-5x5Q2m.c)'-k.,'='A6x.`);'!,@3+1C2t.1-a8s6d5c/f3&6t3{.R6L7'4E3P%|#>)V.z7/-,'R*:5K3{'K))'Y(2-i)=*w1q052D",
"/}+f.f$U'i0:%o*,(;7f5O$v0C)27>9T4O-#0?%q1{#Z*d'm.63@)2.Z*'8n2B2|1<*;7S21'}7**63z)(.u1n,o1m%14B+9'=+c#~1'5N+H0(8-,))'+-1|.74~81-i",
"2b$x)k$J(93w3^*b$//{3R&7&I0{9Z9B7^3u.o,s3`1U.b/&2}1v,(*8-f9&9'8V5j*b7?3}(:.%)66V(l4P7<2T3T)g/W'E,?$O!q-V-h*c3*2)(Z+1.}6~/;(@5F-8",
"7%&y/K&x1T4^414z$;1M9<$^,R%a9Y8[4.5N3_,R%m&L'}0j+f+%-k*v.x9E59.@7]+|7M9O)>4@6<6w4O3O6;,7.4!k)^*D3j)g#o+4/$*/+p542}2-2f5+-9*I8L1B",
"(~/;#8')/w)%,e%e!&$u.c-+#|#+(*9Q0S)e)F$P)@,&#:%v!o1'6=($%U$]%h1c'.!z1k-y&>%~#@2s3*%_%0-f7B,8(),U%r6)-g'F$k%I(A0>1O&E)q.z1b,W'W%8",
"*U+P,M)I*m%`/]0D+O!K(b%r*B1|0%/U75+d1X7R&N0P4Q(.'b+$(8.)-:#U#**[-x(_-Q%S$w3M7j!<*$)23U23,[6q5R7@+d3+1o,`7T/&*o%^+^'x'u-$#X'v+-(`",
"-j#L$T$Z/B0}4,/]%W9F7f._0o(6(z2P(d'S.T#8,I.#0A!H)j1}$x':*b#A*2%D//#e3?8t&B.p1y6|.y8>7a/_/v.a1;3)&h60&^284F(/2!5{&3,k+d3g4?.Z*C&*",
"4F)))(%Y0r1-3h0}#&3S77)D21$[2l5<#N/S0&'+'k/16S*h&o*n!?%:#j&1(e%7)t#S/$3*%S)?&.5I)0-#5E'93^-*7A82&r9G'b)$'t#N,=4S'@)4+L8K1!35*n&5"
};
