/* XPM */
static char *patterned_stone_01[] = {
/* columns rows colors chars-per-pixel */
"64 64 1675 2",
/* colors */
"!! c #111212",
"!# c #141514",
"!$ c #151413",
"!% c #151716",
"!& c #161314",
"!' c #161616",
"!( c #161617",
"!) c #171413",
"!* c #171516",
"!+ c #171616",
"!, c #171617",
"!- c #171715",
"!. c #171717",
"!/ c #181616",
"!0 c #181715",
"!1 c #181818",
"!2 c #181918",
"!3 c #191616",
"!4 c #191717",
"!5 c #191818",
"!6 c #191819",
"!7 c #191918",
"!8 c #191919",
"!9 c #1A1918",
"!: c #1A1919",
"!; c #1A191A",
"!< c #1A1A18",
"!= c #1A1A1A",
"!> c #1A1B1B",
"!? c #1B1818",
"!@ c #1B1916",
"!A c #1B1918",
"!B c #1B1919",
"!C c #1B191B",
"!D c #1B1A18",
"!E c #1B1A19",
"!F c #1B1A1A",
"!G c #1B1A1B",
"!H c #1B1B1A",
"!I c #1B1B1B",
"!J c #1B1B1C",
"!K c #1B1C19",
"!L c #1B1C1B",
"!M c #1B1D1B",
"!N c #1C1716",
"!O c #1C1918",
"!P c #1C191B",
"!Q c #1C1A18",
"!R c #1C1A19",
"!S c #1C1A1A",
"!T c #1C1A1B",
"!U c #1C1B18",
"!V c #1C1B1A",
"!W c #1C1B1B",
"!X c #1C1C19",
"!Y c #1C1C1A",
"!Z c #1C1C1B",
"![ c #1C1C1C",
"!] c #1C1C1D",
"!^ c #1C1D1C",
"!_ c #1C1E1C",
"!` c #1C1E1E",
"!a c #1D1B1A",
"!b c #1D1B1B",
"!c c #1D1B1C",
"!d c #1D1C1A",
"!e c #1D1C1B",
"!f c #1D1C1C",
"!g c #1D1C1D",
"!h c #1D1D1A",
"!i c #1D1D1B",
"!j c #1D1D1C",
"!k c #1D1D1D",
"!l c #1D1D1E",
"!m c #1D1E1A",
"!n c #1D1E1C",
"!o c #1D1E1D",
"!p c #1D1E1E",
"!q c #1D1F1C",
"!r c #1D1F1D",
"!s c #1E1B19",
"!t c #1E1B1B",
"!u c #1E1B1D",
"!v c #1E1C1A",
"!w c #1E1C1C",
"!x c #1E1C1D",
"!y c #1E1D1B",
"!z c #1E1D1C",
"!{ c #1E1D1D",
"!| c #1E1D1E",
"!} c #1E1E19",
"!~ c #1E1E1B",
"#! c #1E1E1C",
"## c #1E1E1D",
"#$ c #1E1E1E",
"#% c #1E1F1B",
"#& c #1E1F1C",
"#' c #1E1F1D",
"#( c #1E1F1E",
"#) c #1E201C",
"#* c #1E201D",
"#+ c #1E201F",
"#, c #1E211E",
"#- c #1E2122",
"#. c #1F1D1C",
"#/ c #1F1D1D",
"#0 c #1F1E1B",
"#1 c #1F1E1C",
"#2 c #1F1E1D",
"#3 c #1F1E1E",
"#4 c #1F1E1F",
"#5 c #1F1F1D",
"#6 c #1F1F1E",
"#7 c #1F1F1F",
"#8 c #1F201E",
"#9 c #1F2020",
"#: c #1F211E",
"#; c #1F211F",
"#< c #1F2120",
"#= c #1F2121",
"#> c #1F221E",
"#? c #1F2220",
"#@ c #201D1A",
"#A c #201D1C",
"#B c #201D1D",
"#C c #201E1B",
"#D c #201E1C",
"#E c #201E1D",
"#F c #201E1E",
"#G c #201E1F",
"#H c #201F1C",
"#I c #201F1D",
"#J c #201F1E",
"#K c #201F1F",
"#L c #20201B",
"#M c #20201C",
"#N c #20201D",
"#O c #20201E",
"#P c #20201F",
"#Q c #202020",
"#R c #20211D",
"#S c #20211E",
"#T c #20211F",
"#U c #202120",
"#V c #202121",
"#W c #20221D",
"#X c #20221F",
"#Y c #202220",
"#Z c #202221",
"#[ c #202422",
"#] c #211D1D",
"#^ c #211E1B",
"#_ c #211E1C",
"#` c #211E1F",
"#a c #211F1B",
"#b c #211F1D",
"#c c #211F1E",
"#d c #211F1F",
"#e c #211F20",
"#f c #21201C",
"#g c #21201D",
"#h c #21201E",
"#i c #21201F",
"#j c #212020",
"#k c #212021",
"#l c #21211C",
"#m c #21211D",
"#n c #21211E",
"#o c #21211F",
"#p c #212120",
"#q c #212121",
"#r c #21221E",
"#s c #21221F",
"#t c #212220",
"#u c #212221",
"#v c #212321",
"#w c #212322",
"#x c #212421",
"#y c #212522",
"#z c #212623",
"#{ c #221D1C",
"#| c #221E1C",
"#} c #221F1C",
"#~ c #221F1E",
"$! c #221F1F",
"$# c #22201C",
"$$ c #22201E",
"$% c #22201F",
"$& c #222020",
"$' c #22211E",
"$( c #22211F",
"$) c #222120",
"$* c #222121",
"$+ c #222122",
"$, c #22221D",
"$- c #22221E",
"$. c #22221F",
"$/ c #222220",
"$0 c #222221",
"$1 c #222222",
"$2 c #222320",
"$3 c #222321",
"$4 c #222322",
"$5 c #222323",
"$6 c #222420",
"$7 c #222421",
"$8 c #222422",
"$9 c #222423",
"$: c #222424",
"$; c #222522",
"$< c #222621",
"$= c #222623",
"$> c #222825",
"$? c #231F1E",
"$@ c #23201D",
"$A c #23201E",
"$B c #23201F",
"$C c #232020",
"$D c #232021",
"$E c #23211E",
"$F c #23211F",
"$G c #232120",
"$H c #232121",
"$I c #23221E",
"$J c #23221F",
"$K c #232220",
"$L c #232221",
"$M c #232222",
"$N c #23231F",
"$O c #232320",
"$P c #232321",
"$Q c #232322",
"$R c #232323",
"$S c #23241E",
"$T c #232421",
"$U c #232422",
"$V c #232423",
"$W c #232424",
"$X c #232426",
"$Y c #232521",
"$Z c #232522",
"$[ c #232523",
"$] c #232524",
"$^ c #232622",
"$_ c #232623",
"$` c #232723",
"$a c #232823",
"$b c #24201E",
"$c c #24211D",
"$d c #24211E",
"$e c #24211F",
"$f c #242120",
"$g c #242121",
"$h c #242122",
"$i c #24221F",
"$j c #242220",
"$k c #242221",
"$l c #242222",
"$m c #242320",
"$n c #242321",
"$o c #242322",
"$p c #242323",
"$q c #242324",
"$r c #242420",
"$s c #242421",
"$t c #242422",
"$u c #242423",
"$v c #242424",
"$w c #242521",
"$x c #242522",
"$y c #242523",
"$z c #242524",
"${ c #242525",
"$| c #242526",
"$} c #242622",
"$~ c #242623",
"%! c #242624",
"%# c #242721",
"%$ c #242723",
"%% c #242724",
"%& c #242725",
"%' c #242727",
"%( c #242822",
"%) c #242825",
"%* c #242826",
"%+ c #252120",
"%, c #252121",
"%- c #25221F",
"%. c #252220",
"%/ c #252221",
"%0 c #252222",
"%1 c #252320",
"%2 c #252321",
"%3 c #252322",
"%4 c #252323",
"%5 c #252324",
"%6 c #25241D",
"%7 c #252420",
"%8 c #252421",
"%9 c #252422",
"%: c #252423",
"%; c #252424",
"%< c #252425",
"%= c #252521",
"%> c #252522",
"%? c #252523",
"%@ c #252524",
"%A c #252525",
"%B c #252620",
"%C c #252622",
"%D c #252623",
"%E c #252624",
"%F c #252625",
"%G c #252626",
"%H c #252723",
"%I c #252724",
"%J c #252725",
"%K c #252726",
"%L c #252824",
"%M c #252825",
"%N c #252827",
"%O c #26221F",
"%P c #262221",
"%Q c #26231E",
"%R c #262321",
"%S c #262322",
"%T c #262421",
"%U c #262422",
"%V c #262423",
"%W c #262424",
"%X c #262425",
"%Y c #262522",
"%Z c #262523",
"%[ c #262524",
"%] c #262525",
"%^ c #262621",
"%_ c #262622",
"%` c #262623",
"%a c #262624",
"%b c #262625",
"%c c #262626",
"%d c #262723",
"%e c #262724",
"%f c #262725",
"%g c #262726",
"%h c #262727",
"%i c #262823",
"%j c #262824",
"%k c #262825",
"%l c #262826",
"%m c #262827",
"%n c #262927",
"%o c #262928",
"%p c #262A26",
"%q c #262A27",
"%r c #272222",
"%s c #272323",
"%t c #272421",
"%u c #272423",
"%v c #272425",
"%w c #272522",
"%x c #272523",
"%y c #272525",
"%z c #272622",
"%{ c #272623",
"%| c #272624",
"%} c #272625",
"%~ c #272626",
"&! c #272722",
"&# c #272723",
"&$ c #272724",
"&% c #272725",
"&& c #272726",
"&' c #272822",
"&( c #272823",
"&) c #272824",
"&* c #272825",
"&+ c #272826",
"&, c #272827",
"&- c #272828",
"&. c #272925",
"&/ c #272926",
"&0 c #272927",
"&1 c #272A25",
"&2 c #272A26",
"&3 c #272A27",
"&4 c #272A28",
"&5 c #282423",
"&6 c #282521",
"&7 c #282522",
"&8 c #282523",
"&9 c #282524",
"&: c #282525",
"&; c #282621",
"&< c #282622",
"&= c #282623",
"&> c #282624",
"&? c #282626",
"&@ c #282627",
"&A c #282722",
"&B c #282723",
"&C c #282724",
"&D c #282725",
"&E c #282726",
"&F c #282727",
"&G c #282728",
"&H c #282823",
"&I c #282824",
"&J c #282825",
"&K c #282826",
"&L c #282827",
"&M c #282828",
"&N c #282923",
"&O c #282925",
"&P c #282926",
"&Q c #282927",
"&R c #282928",
"&S c #282A24",
"&T c #282A25",
"&U c #282A26",
"&V c #282A27",
"&W c #282A28",
"&X c #282A2A",
"&Y c #282B29",
"&Z c #282C28",
"&[ c #282C29",
"&] c #282C2A",
"&^ c #282D29",
"&_ c #292422",
"&` c #292524",
"&a c #292525",
"&b c #292623",
"&c c #292624",
"&d c #292626",
"&e c #292627",
"&f c #292628",
"&g c #292724",
"&h c #292726",
"&i c #292727",
"&j c #292728",
"&k c #292825",
"&l c #292826",
"&m c #292827",
"&n c #292828",
"&o c #292925",
"&p c #292926",
"&q c #292927",
"&r c #292928",
"&s c #292929",
"&t c #292A25",
"&u c #292A26",
"&v c #292A27",
"&w c #292A28",
"&x c #292B27",
"&y c #292B28",
"&z c #292B29",
"&{ c #292B2B",
"&| c #292C27",
"&} c #292C28",
"&~ c #292C2A",
"'! c #292D29",
"'# c #292D2A",
"'$ c #2A2621",
"'% c #2A2623",
"'& c #2A2624",
"'' c #2A2625",
"'( c #2A2724",
"') c #2A2725",
"'* c #2A2825",
"'+ c #2A2826",
"', c #2A2827",
"'- c #2A2828",
"'. c #2A2925",
"'/ c #2A2926",
"'0 c #2A2927",
"'1 c #2A2928",
"'2 c #2A2929",
"'3 c #2A292A",
"'4 c #2A2A25",
"'5 c #2A2A26",
"'6 c #2A2A27",
"'7 c #2A2A28",
"'8 c #2A2A29",
"'9 c #2A2B26",
"': c #2A2B27",
"'; c #2A2B28",
"'< c #2A2B29",
"'= c #2A2B2A",
"'> c #2A2C27",
"'? c #2A2C28",
"'@ c #2A2C29",
"'A c #2A2C2A",
"'B c #2A2C2C",
"'C c #2A2D28",
"'D c #2A2D29",
"'E c #2A2D2B",
"'F c #2A2E2B",
"'G c #2A2F2C",
"'H c #2A2F2D",
"'I c #2B2622",
"'J c #2B2822",
"'K c #2B2825",
"'L c #2B2826",
"'M c #2B2827",
"'N c #2B2828",
"'O c #2B282A",
"'P c #2B2925",
"'Q c #2B2926",
"'R c #2B2927",
"'S c #2B2928",
"'T c #2B2929",
"'U c #2B2A26",
"'V c #2B2A27",
"'W c #2B2A28",
"'X c #2B2A29",
"'Y c #2B2A2A",
"'Z c #2B2A2C",
"'[ c #2B2B23",
"'] c #2B2B27",
"'^ c #2B2B28",
"'_ c #2B2B29",
"'` c #2B2B2A",
"'a c #2B2B2B",
"'b c #2B2C28",
"'c c #2B2C29",
"'d c #2B2C2A",
"'e c #2B2C2B",
"'f c #2B2D29",
"'g c #2B2D2A",
"'h c #2B2D2B",
"'i c #2B2E2A",
"'j c #2B2E2B",
"'k c #2B2F2B",
"'l c #2C2726",
"'m c #2C2825",
"'n c #2C2827",
"'o c #2C2925",
"'p c #2C2926",
"'q c #2C2927",
"'r c #2C2928",
"'s c #2C2929",
"'t c #2C292A",
"'u c #2C2A26",
"'v c #2C2A27",
"'w c #2C2A28",
"'x c #2C2A29",
"'y c #2C2A2A",
"'z c #2C2A2B",
"'{ c #2C2B25",
"'| c #2C2B28",
"'} c #2C2B29",
"'~ c #2C2B2A",
"(! c #2C2B2B",
"(# c #2C2C28",
"($ c #2C2C29",
"(% c #2C2C2A",
"(& c #2C2C2B",
"(' c #2C2C2C",
"(( c #2C2D27",
"() c #2C2D28",
"(* c #2C2D29",
"(+ c #2C2D2A",
"(, c #2C2D2B",
"(- c #2C2E29",
"(. c #2C2E2A",
"(/ c #2C2E2B",
"(0 c #2C2E2C",
"(1 c #2C302C",
"(2 c #2C302E",
"(3 c #2D2623",
"(4 c #2D2828",
"(5 c #2D2926",
"(6 c #2D2928",
"(7 c #2D2A29",
"(8 c #2D2A2A",
"(9 c #2D2B27",
"(: c #2D2B28",
"(; c #2D2B29",
"(< c #2D2B2A",
"(= c #2D2B2B",
"(> c #2D2B2C",
"(? c #2D2C27",
"(@ c #2D2C28",
"(A c #2D2C29",
"(B c #2D2C2A",
"(C c #2D2C2B",
"(D c #2D2C2C",
"(E c #2D2D29",
"(F c #2D2D2A",
"(G c #2D2D2B",
"(H c #2D2D2C",
"(I c #2D2D2D",
"(J c #2D2D2E",
"(K c #2D2E2A",
"(L c #2D2E2B",
"(M c #2D2E2C",
"(N c #2D2E2E",
"(O c #2D2F2B",
"(P c #2D2F2D",
"(Q c #2D302B",
"(R c #2D302C",
"(S c #2D322E",
"(T c #2E2A28",
"(U c #2E2B26",
"(V c #2E2B29",
"(W c #2E2B2A",
"(X c #2E2B2B",
"(Y c #2E2B2C",
"(Z c #2E2B2E",
"([ c #2E2C28",
"(] c #2E2C29",
"(^ c #2E2C2A",
"(_ c #2E2C2B",
"(` c #2E2C2C",
"(a c #2E2C2D",
"(b c #2E2D29",
"(c c #2E2D2A",
"(d c #2E2D2B",
"(e c #2E2D2C",
"(f c #2E2D2D",
"(g c #2E2E29",
"(h c #2E2E2A",
"(i c #2E2E2B",
"(j c #2E2E2C",
"(k c #2E2E2D",
"(l c #2E2E2E",
"(m c #2E2F2B",
"(n c #2E2F2C",
"(o c #2E2F2D",
"(p c #2E302C",
"(q c #2E302D",
"(r c #2E302E",
"(s c #2E302F",
"(t c #2E312B",
"(u c #2E312E",
"(v c #2F2927",
"(w c #2F2928",
"(x c #2F2A28",
"(y c #2F2A2D",
"(z c #2F2B28",
"({ c #2F2B2A",
"(| c #2F2B2B",
"(} c #2F2C29",
"(~ c #2F2C2A",
")! c #2F2C2B",
")# c #2F2C2C",
")$ c #2F2C2D",
")% c #2F2D27",
")& c #2F2D28",
")' c #2F2D2A",
")( c #2F2D2B",
")) c #2F2D2C",
")* c #2F2D2D",
")+ c #2F2E29",
"), c #2F2E2A",
")- c #2F2E2B",
"). c #2F2E2C",
")/ c #2F2E2D",
")0 c #2F2E2E",
")1 c #2F2E2F",
")2 c #2F2F2A",
")3 c #2F2F2B",
")4 c #2F2F2C",
")5 c #2F2F2D",
")6 c #2F2F2E",
")7 c #2F2F2F",
")8 c #2F2F30",
")9 c #2F302B",
"): c #2F302C",
"); c #2F302D",
")< c #2F302E",
")= c #2F302F",
")> c #2F312C",
")? c #2F312E",
")@ c #2F322E",
")A c #2F322F",
")B c #2F3330",
")C c #302A27",
")D c #302B28",
")E c #302B2A",
")F c #302C2A",
")G c #302D2A",
")H c #302D2B",
")I c #302D2C",
")J c #302D2D",
")K c #302D32",
")L c #302E2A",
")M c #302E2B",
")N c #302E2C",
")O c #302E2D",
")P c #302E2E",
")Q c #302E2F",
")R c #302F2A",
")S c #302F2B",
")T c #302F2C",
")U c #302F2D",
")V c #302F2E",
")W c #302F2F",
")X c #302F31",
")Y c #30302C",
")Z c #30302D",
")[ c #30302E",
")] c #30302F",
")^ c #303030",
")_ c #303032",
")` c #30312C",
")a c #30312D",
")b c #30322E",
")c c #30322F",
")d c #303230",
")e c #30332E",
")f c #30332F",
")g c #303430",
")h c #312D2C",
")i c #312E2D",
")j c #312E2E",
")k c #312F2C",
")l c #312F2D",
")m c #312F2E",
")n c #312F2F",
")o c #31302C",
")p c #31302D",
")q c #31302E",
")r c #31302F",
")s c #313030",
")t c #31312A",
")u c #31312C",
")v c #31312E",
")w c #31312F",
")x c #313130",
")y c #31322D",
")z c #31322E",
"){ c #313230",
")| c #31332F",
")} c #313330",
")~ c #313632",
"*! c #322D2E",
"*# c #322E2A",
"*$ c #322E2B",
"*% c #322E2D",
"*& c #322F2D",
"*' c #322F2E",
"*( c #322F2F",
"*) c #32302B",
"** c #32302C",
"*+ c #32302D",
"*, c #32302E",
"*- c #32302F",
"*. c #323030",
"*/ c #323031",
"*0 c #323032",
"*1 c #32312D",
"*2 c #32312E",
"*3 c #323131",
"*4 c #32322D",
"*5 c #32322E",
"*6 c #32322F",
"*7 c #323230",
"*8 c #323231",
"*9 c #323233",
"*: c #32332E",
"*; c #32332F",
"*< c #323330",
"*= c #323331",
"*> c #32342E",
"*? c #323431",
"*@ c #323530",
"*A c #32362F",
"*B c #332E2D",
"*C c #332E30",
"*D c #332E31",
"*E c #332F2C",
"*F c #332F2F",
"*G c #33302C",
"*H c #33302D",
"*I c #33302E",
"*J c #33302F",
"*K c #333030",
"*L c #33312D",
"*M c #33312E",
"*N c #33312F",
"*O c #333130",
"*P c #333132",
"*Q c #333133",
"*R c #333134",
"*S c #33322B",
"*T c #33322C",
"*U c #33322D",
"*V c #33322F",
"*W c #333230",
"*X c #333231",
"*Y c #333232",
"*Z c #333233",
"*[ c #33332F",
"*] c #333330",
"*^ c #333332",
"*_ c #33342F",
"*` c #333430",
"*a c #333431",
"*b c #333530",
"*c c #333531",
"*d c #333533",
"*e c #333632",
"*f c #333733",
"*g c #342F2F",
"*h c #34302C",
"*i c #34302F",
"*j c #343030",
"*k c #34312C",
"*l c #34312D",
"*m c #34312F",
"*n c #343130",
"*o c #343131",
"*p c #343133",
"*q c #34322E",
"*r c #34322F",
"*s c #343230",
"*t c #343231",
"*u c #343232",
"*v c #343233",
"*w c #34332F",
"*x c #343330",
"*y c #343332",
"*z c #343333",
"*{ c #343334",
"*| c #343431",
"*} c #343432",
"*~ c #343434",
"+! c #343435",
"+# c #34352E",
"+$ c #343530",
"+% c #343531",
"+& c #343632",
"+' c #343633",
"+( c #343734",
"+) c #343837",
"+* c #353030",
"++ c #35312F",
"+, c #353131",
"+- c #353133",
"+. c #353135",
"+/ c #35322F",
"+0 c #353230",
"+1 c #353231",
"+2 c #353232",
"+3 c #35332E",
"+4 c #35332F",
"+5 c #353330",
"+6 c #353331",
"+7 c #353332",
"+8 c #353333",
"+9 c #353431",
"+: c #353432",
"+; c #353433",
"+< c #353434",
"+= c #353436",
"+> c #353533",
"+? c #353534",
"+@ c #353535",
"+A c #353537",
"+B c #353631",
"+C c #353632",
"+D c #353637",
"+E c #363030",
"+F c #363231",
"+G c #363330",
"+H c #363331",
"+I c #363332",
"+J c #363334",
"+K c #363335",
"+L c #363431",
"+M c #363432",
"+N c #363433",
"+O c #363434",
"+P c #363435",
"+Q c #36352F",
"+R c #363531",
"+S c #363532",
"+T c #363533",
"+U c #363534",
"+V c #363535",
"+W c #363631",
"+X c #363632",
"+Y c #363633",
"+Z c #363634",
"+[ c #363635",
"+] c #363637",
"+^ c #363733",
"+_ c #363735",
"+` c #363738",
"+a c #373030",
"+b c #373232",
"+c c #373233",
"+d c #373331",
"+e c #373332",
"+f c #373333",
"+g c #373334",
"+h c #373336",
"+i c #373337",
"+j c #373430",
"+k c #373432",
"+l c #373433",
"+m c #373435",
"+n c #373533",
"+o c #373534",
"+p c #373535",
"+q c #373537",
"+r c #373538",
"+s c #373634",
"+t c #373635",
"+u c #373636",
"+v c #373637",
"+w c #373734",
"+x c #373737",
"+y c #373738",
"+z c #373739",
"+{ c #373833",
"+| c #373837",
"+} c #373839",
"+~ c #373935",
",! c #373A3A",
",# c #382F2A",
",$ c #383333",
",% c #383335",
",& c #383432",
",' c #383434",
",( c #383435",
",) c #383436",
",* c #383532",
",+ c #383533",
",, c #383534",
",- c #383535",
",. c #383537",
",/ c #383634",
",0 c #383635",
",1 c #383636",
",2 c #383637",
",3 c #383735",
",4 c #383736",
",5 c #383738",
",6 c #383833",
",7 c #383835",
",8 c #383837",
",9 c #38383A",
",: c #383932",
",; c #383937",
",< c #383A34",
",= c #383B37",
",> c #393131",
",? c #393331",
",@ c #393437",
",A c #393533",
",B c #393534",
",C c #393535",
",D c #393536",
",E c #393539",
",F c #393635",
",G c #393735",
",H c #393736",
",I c #393737",
",J c #393738",
",K c #393739",
",L c #393832",
",M c #393834",
",N c #393835",
",O c #393837",
",P c #393838",
",Q c #393839",
",R c #39383B",
",S c #393936",
",T c #393938",
",U c #393939",
",V c #39393A",
",W c #39393B",
",X c #393A39",
",Y c #393A3A",
",Z c #393B36",
",[ c #393B38",
",] c #393C3B",
",^ c #3A3338",
",_ c #3A3436",
",` c #3A3534",
",a c #3A3538",
",b c #3A3636",
",c c #3A3637",
",d c #3A3735",
",e c #3A3736",
",f c #3A3737",
",g c #3A3738",
",h c #3A3739",
",i c #3A3836",
",j c #3A3837",
",k c #3A3838",
",l c #3A3839",
",m c #3A383A",
",n c #3A3936",
",o c #3A3937",
",p c #3A3939",
",q c #3A393A",
",r c #3A393B",
",s c #3A3A39",
",t c #3A3A3A",
",u c #3A3A3C",
",v c #3A3B37",
",w c #3A3B39",
",x c #3A3B3E",
",y c #3B3535",
",z c #3B3634",
",{ c #3B3636",
",| c #3B3637",
",} c #3B3639",
",~ c #3B3733",
"-! c #3B3735",
"-# c #3B3736",
"-$ c #3B3737",
"-% c #3B3738",
"-& c #3B3739",
"-' c #3B373A",
"-( c #3B3837",
"-) c #3B3838",
"-* c #3B3839",
"-+ c #3B383A",
"-, c #3B3936",
"-- c #3B3937",
"-. c #3B3938",
"-/ c #3B3939",
"-0 c #3B393A",
"-1 c #3B393B",
"-2 c #3B3A35",
"-3 c #3B3A37",
"-4 c #3B3A38",
"-5 c #3B3A39",
"-6 c #3B3A3A",
"-7 c #3B3A3B",
"-8 c #3B3B38",
"-9 c #3B3B39",
"-: c #3B3B3B",
"-; c #3B3B3D",
"-< c #3B3B3F",
"-= c #3B3C3B",
"-> c #3B3C3E",
"-? c #3B4342",
"-@ c #3C3537",
"-A c #3C3737",
"-B c #3C373A",
"-C c #3C3836",
"-D c #3C3837",
"-E c #3C3838",
"-F c #3C3839",
"-G c #3C383A",
"-H c #3C383B",
"-I c #3C3937",
"-J c #3C393A",
"-K c #3C393B",
"-L c #3C393C",
"-M c #3C3A37",
"-N c #3C3A39",
"-O c #3C3A3A",
"-P c #3C3A3B",
"-Q c #3C3A3C",
"-R c #3C3B39",
"-S c #3C3B3A",
"-T c #3C3B3B",
"-U c #3C3B3C",
"-V c #3C3C3B",
"-W c #3C3C3C",
"-X c #3C3D38",
"-Y c #3C3F3E",
"-Z c #3D3333",
"-[ c #3D3432",
"-] c #3D3537",
"-^ c #3D3539",
"-_ c #3D3734",
"-` c #3D373B",
"-a c #3D3835",
"-b c #3D3837",
"-c c #3D3839",
"-d c #3D383A",
"-e c #3D3937",
"-f c #3D3938",
"-g c #3D3939",
"-h c #3D393A",
"-i c #3D393B",
"-j c #3D393D",
"-k c #3D3A36",
"-l c #3D3A37",
"-m c #3D3A38",
"-n c #3D3A39",
"-o c #3D3A3A",
"-p c #3D3A3B",
"-q c #3D3A3C",
"-r c #3D3B39",
"-s c #3D3B3A",
"-t c #3D3B3B",
"-u c #3D3B3C",
"-v c #3D3B3D",
"-w c #3D3C3A",
"-x c #3D3C3B",
"-y c #3D3C3C",
"-z c #3D3C3D",
"-{ c #3D3C3E",
"-| c #3D3C3F",
"-} c #3D3D3C",
"-~ c #3D3D3D",
".! c #3D3D3E",
".# c #3D3E3E",
".$ c #3D3E40",
".% c #3D3F3C",
".& c #3D4037",
".' c #3E3736",
".( c #3E383B",
".) c #3E393C",
".* c #3E3A39",
".+ c #3E3A3A",
"., c #3E3A3B",
".- c #3E3A3D",
".. c #3E3B38",
"./ c #3E3B39",
".0 c #3E3B3A",
".1 c #3E3B3B",
".2 c #3E3B3D",
".3 c #3E3B3F",
".4 c #3E3C37",
".5 c #3E3C39",
".6 c #3E3C3A",
".7 c #3E3C3B",
".8 c #3E3C3C",
".9 c #3E3C3D",
".: c #3E3C3E",
".; c #3E3D3B",
".< c #3E3D3D",
".= c #3E3D3E",
".> c #3E3D3F",
".? c #3E3E3B",
".@ c #3E3E3C",
".A c #3E3E3E",
".B c #3E3E3F",
".C c #3E3F3A",
".D c #3E3F3F",
".E c #3E4040",
".F c #3E413C",
".G c #3E4242",
".H c #3F3838",
".I c #3F3938",
".J c #3F393A",
".K c #3F3A3A",
".L c #3F3A3C",
".M c #3F3A3D",
".N c #3F3B39",
".O c #3F3B3A",
".P c #3F3B3B",
".Q c #3F3C39",
".R c #3F3C3A",
".S c #3F3C3B",
".T c #3F3C3C",
".U c #3F3C3D",
".V c #3F3C3E",
".W c #3F3D3A",
".X c #3F3D3B",
".Y c #3F3D3D",
".Z c #3F3D3E",
".[ c #3F3D40",
".] c #3F3E3C",
".^ c #3F3E3D",
"._ c #3F3E3E",
".` c #3F3E3F",
".a c #3F3E42",
".b c #3F403E",
".c c #3F4042",
".d c #3F413D",
".e c #3F4142",
".f c #3F4143",
".g c #3F4242",
".h c #3F4345",
".i c #403839",
".j c #40393A",
".k c #403A3C",
".l c #403B3A",
".m c #403B40",
".n c #403C3A",
".o c #403C3C",
".p c #403C3D",
".q c #403C3E",
".r c #403C40",
".s c #403D3A",
".t c #403D3B",
".u c #403D3C",
".v c #403D3D",
".w c #403D3E",
".x c #403D3F",
".y c #403E3C",
".z c #403E3D",
".{ c #403E3F",
".| c #403E40",
".} c #403E41",
".~ c #403F3C",
"/! c #403F3E",
"/# c #403F3F",
"/$ c #403F40",
"/% c #403F41",
"/& c #40403E",
"/' c #40403F",
"/( c #404040",
"/) c #404041",
"/* c #404042",
"/+ c #40413C",
"/, c #40413F",
"/- c #40423E",
"/. c #404242",
"// c #413A38",
"/0 c #413B3B",
"/1 c #413B3C",
"/2 c #413B3E",
"/3 c #413C39",
"/4 c #413C3B",
"/5 c #413C3C",
"/6 c #413C3E",
"/7 c #413D3B",
"/8 c #413D3C",
"/9 c #413D3D",
"/: c #413D3E",
"/; c #413D3F",
"/< c #413E3B",
"/= c #413E3C",
"/> c #413E3D",
"/? c #413E3F",
"/@ c #413E40",
"/A c #413E41",
"/B c #413F3C",
"/C c #413F3D",
"/D c #413F3E",
"/E c #413F3F",
"/F c #413F40",
"/G c #413F41",
"/H c #41403F",
"/I c #414040",
"/J c #414041",
"/K c #414042",
"/L c #41413F",
"/M c #414141",
"/N c #414142",
"/O c #414143",
"/P c #414144",
"/Q c #41423D",
"/R c #41423E",
"/S c #414242",
"/T c #414243",
"/U c #414445",
"/V c #423833",
"/W c #423D3B",
"/X c #423D3C",
"/Y c #423D3D",
"/Z c #423D3E",
"/[ c #423D3F",
"/] c #423E3D",
"/^ c #423E3F",
"/_ c #423F3C",
"/` c #423F3D",
"/a c #423F3F",
"/b c #423F40",
"/c c #423F41",
"/d c #423F42",
"/e c #42403C",
"/f c #42403D",
"/g c #42403F",
"/h c #424040",
"/i c #424041",
"/j c #424042",
"/k c #424043",
"/l c #42413F",
"/m c #424140",
"/n c #424141",
"/o c #424142",
"/p c #424143",
"/q c #424144",
"/r c #424241",
"/s c #424242",
"/t c #424243",
"/u c #424445",
"/v c #433938",
"/w c #433C39",
"/x c #433D3E",
"/y c #433D3F",
"/z c #433E3C",
"/{ c #433E3E",
"/| c #433E42",
"/} c #433F3C",
"/~ c #433F3E",
"0! c #433F3F",
"0# c #433F40",
"0$ c #433F41",
"0% c #43403D",
"0& c #43403E",
"0' c #43403F",
"0( c #434040",
"0) c #434041",
"0* c #434042",
"0+ c #434043",
"0, c #43413F",
"0- c #434140",
"0. c #434141",
"0/ c #434142",
"00 c #43423C",
"01 c #434240",
"02 c #434241",
"03 c #434242",
"04 c #434243",
"05 c #434244",
"06 c #43433F",
"07 c #434343",
"08 c #434344",
"09 c #434345",
"0: c #434442",
"0; c #434445",
"0< c #434645",
"0= c #443C3C",
"0> c #443D3E",
"0? c #443E3E",
"0@ c #443E40",
"0A c #443F3E",
"0B c #443F3F",
"0C c #44403E",
"0D c #44403F",
"0E c #444040",
"0F c #444042",
"0G c #44413F",
"0H c #444140",
"0I c #444141",
"0J c #444142",
"0K c #444143",
"0L c #444144",
"0M c #444241",
"0N c #444242",
"0O c #444243",
"0P c #444244",
"0Q c #444341",
"0R c #444342",
"0S c #444343",
"0T c #444344",
"0U c #444444",
"0V c #444446",
"0W c #444647",
"0X c #444747",
"0Y c #453D3B",
"0Z c #453E3F",
"0[ c #453F3F",
"0] c #453F40",
"0^ c #45403E",
"0_ c #45403F",
"0` c #454041",
"0a c #454042",
"0b c #454043",
"0c c #454044",
"0d c #45413F",
"0e c #454141",
"0f c #454142",
"0g c #454143",
"0h c #454240",
"0i c #454242",
"0j c #454243",
"0k c #454244",
"0l c #454245",
"0m c #454340",
"0n c #454341",
"0o c #454342",
"0p c #454343",
"0q c #454344",
"0r c #454345",
"0s c #454442",
"0t c #454444",
"0u c #454445",
"0v c #454446",
"0w c #454447",
"0x c #454745",
"0y c #454A47",
"0z c #463F39",
"0{ c #464041",
"0| c #46413E",
"0} c #46423F",
"0~ c #464240",
"1! c #464241",
"1# c #464242",
"1$ c #464243",
"1% c #464244",
"1& c #464245",
"1' c #464246",
"1( c #46433F",
"1) c #464341",
"1* c #464342",
"1+ c #464343",
"1, c #464344",
"1- c #464345",
"1. c #464346",
"1/ c #464347",
"10 c #464442",
"11 c #464443",
"12 c #464444",
"13 c #464445",
"14 c #464446",
"15 c #464545",
"16 c #464546",
"17 c #464644",
"18 c #464645",
"19 c #464647",
"1: c #474042",
"1; c #47413E",
"1< c #47413F",
"1= c #474145",
"1> c #474240",
"1? c #474241",
"1@ c #474243",
"1A c #474244",
"1B c #474341",
"1C c #474342",
"1D c #474343",
"1E c #474344",
"1F c #474345",
"1G c #474442",
"1H c #474444",
"1I c #474445",
"1J c #474447",
"1K c #474545",
"1L c #474547",
"1M c #474548",
"1N c #47463F",
"1O c #474644",
"1P c #474645",
"1Q c #474646",
"1R c #474647",
"1S c #474648",
"1T c #474745",
"1U c #474747",
"1V c #48413F",
"1W c #484241",
"1X c #484245",
"1Y c #484342",
"1Z c #484343",
"1[ c #484344",
"1] c #484345",
"1^ c #484442",
"1_ c #484443",
"1` c #484444",
"1a c #484445",
"1b c #484446",
"1c c #484544",
"1d c #484545",
"1e c #484546",
"1f c #484547",
"1g c #484644",
"1h c #484645",
"1i c #484646",
"1j c #484647",
"1k c #484745",
"1l c #484747",
"1m c #484846",
"1n c #484848",
"1o c #48484A",
"1p c #48484C",
"1q c #494342",
"1r c #494343",
"1s c #494344",
"1t c #494347",
"1u c #494442",
"1v c #494443",
"1w c #494444",
"1x c #494445",
"1y c #494446",
"1z c #494447",
"1{ c #494448",
"1| c #494542",
"1} c #494543",
"1~ c #494544",
"2! c #494545",
"2# c #494546",
"2$ c #494645",
"2% c #494646",
"2& c #494647",
"2' c #494744",
"2( c #494745",
"2) c #494747",
"2* c #49474A",
"2+ c #494847",
"2, c #494848",
"2- c #49484A",
"2. c #49494C",
"2/ c #494A4B",
"20 c #494B4C",
"21 c #4A3F44",
"22 c #4A403E",
"23 c #4A4343",
"24 c #4A4444",
"25 c #4A444A",
"26 c #4A4542",
"27 c #4A4545",
"28 c #4A4546",
"29 c #4A4547",
"2: c #4A4643",
"2; c #4A4644",
"2< c #4A4645",
"2= c #4A4646",
"2> c #4A4647",
"2? c #4A4649",
"2@ c #4A4745",
"2A c #4A4746",
"2B c #4A4747",
"2C c #4A4748",
"2D c #4A474A",
"2E c #4A4846",
"2F c #4A4848",
"2G c #4A4849",
"2H c #4A484A",
"2I c #4A4948",
"2J c #4A4949",
"2K c #4A494A",
"2L c #4A4A48",
"2M c #4A4A4A",
"2N c #4A4A4C",
"2O c #4A4B48",
"2P c #4B4444",
"2Q c #4B4447",
"2R c #4B4647",
"2S c #4B4648",
"2T c #4B4649",
"2U c #4B4745",
"2V c #4B4746",
"2W c #4B4747",
"2X c #4B4749",
"2Y c #4B474B",
"2Z c #4B4847",
"2[ c #4B4848",
"2] c #4B484A",
"2^ c #4B484B",
"2_ c #4B4949",
"2` c #4B494A",
"2a c #4B4A47",
"2b c #4B4A4A",
"2c c #4B4C4C",
"2d c #4B4C4F",
"2e c #4C4544",
"2f c #4C4546",
"2g c #4C4642",
"2h c #4C4644",
"2i c #4C4645",
"2j c #4C4646",
"2k c #4C4745",
"2l c #4C4746",
"2m c #4C4747",
"2n c #4C4846",
"2o c #4C4847",
"2p c #4C4848",
"2q c #4C4849",
"2r c #4C4949",
"2s c #4C494A",
"2t c #4C494B",
"2u c #4C4A4A",
"2v c #4C4A4C",
"2w c #4C4B49",
"2x c #4C4C4A",
"2y c #4C4D4F",
"2z c #4C4F52",
"2{ c #4D4745",
"2| c #4D4748",
"2} c #4D474A",
"2~ c #4D4847",
"3! c #4D4947",
"3# c #4D4948",
"3$ c #4D4949",
"3% c #4D494A",
"3& c #4D494B",
"3' c #4D4A4A",
"3( c #4D4A4B",
"3) c #4D4A4C",
"3* c #4D4A4D",
"3+ c #4D4B48",
"3, c #4D4B4A",
"3- c #4D4B4B",
"3. c #4D4C4D",
"3/ c #4D4D4B",
"30 c #4D4D4F",
"31 c #4E4847",
"32 c #4E4848",
"33 c #4E4948",
"34 c #4E4A48",
"35 c #4E4A4A",
"36 c #4E4A4D",
"37 c #4E4B49",
"38 c #4E4B4A",
"39 c #4E4B4B",
"3: c #4E4B4C",
"3; c #4E4B4D",
"3< c #4E4C4A",
"3= c #4E4C4C",
"3> c #4E4D4F",
"3? c #4E4E4D",
"3@ c #4E4E4F",
"3A c #4E4F52",
"3B c #4E504D",
"3C c #4E5252",
"3D c #4F4748",
"3E c #4F4946",
"3F c #4F4A49",
"3G c #4F4A4A",
"3H c #4F4B49",
"3I c #4F4B4A",
"3J c #4F4B4B",
"3K c #4F4B4C",
"3L c #4F4B4D",
"3M c #4F4B4E",
"3N c #4F4C4E",
"3O c #4F4E4C",
"3P c #4F4E4F",
"3Q c #504A49",
"3R c #504B4A",
"3S c #504C4B",
"3T c #504C4C",
"3U c #504D4A",
"3V c #504D4B",
"3W c #504D4D",
"3X c #504E4C",
"3Y c #504E4D",
"3Z c #504F4E",
"3[ c #504F52",
"3] c #505250",
"3^ c #514647",
"3_ c #514D4C",
"3` c #514D4D",
"3a c #514D4F",
"3b c #514E4B",
"3c c #514E4E",
"3d c #514E4F",
"3e c #514E52",
"3f c #514F4E",
"3g c #514F4F",
"3h c #514F50",
"3i c #51504D",
"3j c #51524F",
"3k c #515252",
"3l c #515350",
"3m c #524D4C",
"3n c #524E4A",
"3o c #524E4E",
"3p c #525050",
"3q c #52514F",
"3r c #525151",
"3s c #525252",
"3t c #525352",
"3u c #525452",
"3v c #534D4D",
"3w c #534D51",
"3x c #534E4D",
"3y c #534E4E",
"3z c #534F50",
"3{ c #53504B",
"3| c #53514D",
"3} c #535253",
"3~ c #535452",
"4! c #544E4B",
"4# c #544E4C",
"4$ c #54504C",
"4% c #545051",
"4& c #545250",
"4' c #545252",
"4( c #555255",
"4) c #555453",
"4* c #565052",
"4+ c #575150",
"4, c #575557",
"4- c #575654",
"4. c #575655",
"4/ c #585656",
"40 c #595455",
"41 c #5B5453",
"42 c #5E5B58",
"43 c #605958",
"44 c #635D5C",
/* pixels */
"%J&D(c*2+B(u(S*?&L(d*a(+(j(*'6%l%K'@&u(h&w#i$k&y)d&P&C%t)t)c)5(A)f&2+#)2*`(j)%*@*6&B(7)')C+3)T'm(m'_).)-%9%d%{%x'M&7&k&E%J&P&=&~",
"$v%3)[)o*f'F)f';(!&l)}*]*<)p(F&-&{&/(+&K$y&m)3&v&K'^).'^*[)a'6&+)[*?(t(b){,7+#0:(8!U(#*h(v&s'_)R)L(;)6&W(I%d&h&D&W'_(`%W'k&C&P%k",
"'Y'Q(K(&,q-:(L)-0'04)w,33>12&q(02K3i&J)g0?.*)M'W0o-b',(n4&/o)?'g,m1t&#)Z/N3{.&)B,D38+Q(U/2.x&I'^-@.m&&%c291K%[(C.L-f',']-V-4&*%b",
"%a(]'|)?&,'d&v(c'W(&%b&w'i';&#&w(#&P%l&Y'X&>&P($(+%I(P*:(i)Y&P*d'_)H,<'?([,L+3(Q%?)&,#,G%a)7'}&K){(_('&J'W)o'^&L%[(G'0&*%`&P&P(%",
"'^(;/:.S'G&z2=/^*5'c/c-=)B'V281&%~'_2]/G)p)/0r1U)|'h1R3U+j(%363P&q*W3B0x';*b1m0y&|%^3c3a$o&R-t-t);&n-i-:$m$O/J.A'd'b.Z-/(O(:.S.9",
")-(c.v3D%m&R0B/a'p)9-p0J&P'd.V-+'7(k-K0u%_%|-k0R)@(13Y0'*)'V3)3h&J&p.t,-%3'h3u-}(_)`06.N'W&3-K,F).*a-h0I(L(j0q0t&L&C.S--(F(s2D0f",
"%{&q(?)M&W'^'o'P(E%a%9(L(M)='0&+'7'@%D&C'6&o%e(p)~,o&z*T&8&>+Z%f(L'6$I'+&9'a(i)E'q(%'9(?&>#T%E&k&k(A)I(%*=+%&q&V$2$r%Y&<)O)y*}')",
"'c%e']%>-{.A)Z*H.1,Q&Q'h1o/J$8&p+_.|)5'0+v-y($*?2.-v'M*q-]-p&$#t.Y2>*='40l0/)z(T/^-t&.&%%X,0'0'v-c-%*x+W1S1@(c$F+b(|%O'Q1~4*&D&$",
"($((0I/U)e(E1..X%l&z0F.Z(H&Z+D-:#n%!,a,|'^($/j2F'^&K2[/C),(B/$-T+C)[4,-y)T&=,C/~(-&P.X,1!#$3+g+8$t(%3E3O+&&s-T.8'V'q*#1`*A(%/%.r",
"%Z%l(+'h'?(+(G%g(,'c*6'<(b'j%p&J#L&='v,+&q)5(F(L($*-,N&K'f'S'7+('A)<*[)/(A&P(F(k'?'_&K#v$s&H#P&%'_('+|*5,[&q&*'_'+&c'{($&*#<$u%9",
"'8'c-}3;-=2x.-/p2N/a0|1>.S0;,U/I+m1w,%1'+m)Y+X/d1b2S/?2W1I-B*Q.f-|/Z/g2,2q3?1a2H-5-O-t+].x-%'3+n-H,.-Z/`/c.2-T/Z21/[-t.D+q*C,)2p",
"$3):(F'V)`(L'w'X)O'.({(F%a'b&D$}'|&9%A$z(%*H&$&l'R)H%a%`)(!g%G(G'c'U'=*`*4(:(_):&P&#(d%?&l$(!~$P%[%9$K*M)p%.)N'y's&a(<$7$K(V&)$u",
"/r2'1b/n1S.21s1{-U-*1B/),9-P-s+>0$*!,E+`/;1c.,-F.v1s-t+u+a08/N2]-/,{0e3j1%2Q/:,D/a-G-y.=.Y,l,J.V3*3M1X0p1=,y0@-B,2-z0/1U/X/v.Z,R",
"2`3s3g)a($(+-u(j(P&%'&'6&q)(&I$6',$*&T(m'8)o%Z%9&C&o$2&C%;%e'c,M(F%U+4.F/++[&q&q&k(%%8$F&%&z*t$t+^)x)4)q)U)4%y%W%Z&J&,/E(#'5*W/'",
"37/?1C*U2'2<,r3.3e/j24,}3;.T,&*H)h+8,h0g+g3!0}+1.O/x-s,e/42H2A2|.<2{2O3~4)171P3Z0s-N,(+v.},q+q-*,Q-P-g1+-K0c0L-'+p.:/E2e.7/@.52/",
"18,50#-83s/%.B2*,l)1'-%v%]%X&@'s&i%<&G+O'O*O*3(<'Y'Y,')P'Z*Z'-*j'x&i'2*P)$(Y%5&@%X%5%~&f%X%X&@&e+K,@-_.z0*0*-Q,g'y*~0'/30S,h'70X",
"-u0&2u-U/?/i19,q!I%}!g!a%y!{!1!@!K!%!!!.!G&:!W!f!=!x!I&?!x!x#!#K#G#!%<$*'y#d&d't!I!G![&?!I!I#7!T!,*/1`,Q1i0*.`)*,j,2-:.P/#132%/)",
"-;.J-u,J,5(>*/&j!k!b#j#i!5!{*(!0!-!6!?!S!F!B!t!4!Z!:!1#p#$!>%~$R%4#p!]#Q!g!C&F!k)J$M&@#k#e#4!(!*!x!f&j(f)X*o0S*t(f+M,q0f1h,w/m.g",
"3[.A1H-j0&'z't#`#j)-'l$J)M%I%e+/&(%/#C#C(T)(!e!j%F(c)0#u#V!n+M'#&Z(i%|)#+:&l(F$3'6&%+0$P)($0!H!P&e&?3x2F2).P/#-e)q'71!2h0_-E1U/q",
"3A0R2>/90[3^/5!t#2#K!u!Z#5!Q'-!G!)!N!w!$!V!{&E&&%]#$%X!''-#/'y(<#U#$'S!T!w&d'S#7#F$*$M$l!3%4!w!T%5&C400e+*,>0O.*+1-n*n1W.A2)-$.)",
"09181r3q.A-v1n$/#u%b$t)w&w$s!V(<#_!W!_+1'S(c&l$0!n#*-D)6%m%w$3&K)M&6*B%[%Y$P%a&r%I'w%2).$)&l#h%8$j*G2f0J0Y,z/i/]*70d.v/90v0i3G/A",
"-Y35/a2L/.-2-C$~)N(X)q+7':*-+N%j&:!^#N$E&C$O,`'S#u&m#&$^&>%9$0$t$K)M#h#M%B(d%A*N$4'N#F#o(d).&q(<%U#J.H1#.8-*,I+M+T-M0H+m/u3m0J/A",
"/a4#2+/l0P//1r'@%@'_.O)'$n&K$s#2#i###n'u#m'0'w$B'}+6)4%6#_)I*x(6)($'%C#r%d'd'@']$P!_$k$M(c&b)<$Q%4'y0*.[-*-H/a+S-N0'*N.O0h1q4(-1",
".O4+.e,j3n2W0F,d+I(D%|&q&q&&$/!R%`$2**(x'S##!v#l#h#!$(%>!O!s$%$h$0$)&!)`$-&*&k%e$8#o$P)w'6&K%k&n%W$(.33W-/.+1`)c0')s+M,c2s3L04.a",
"+y-Q0g224+-~/b(}%f$U%w*i%a&K'S*J)U(B#5#N$e(f(B&B(e&m$)$H$%'X',$*#I%2(c$t&;)N%%$4$s#n%f$x$L'}$Z&>%|%3'_0i2<.O.?/<2~1~-(.p0w1b.c/A",
"0/,W1f0I-Q+z1:'')O)O*N%]%?$7$t$J+M'x%Z'q(V(f'_&=({.*+G({%d&X$R#6&l&$$4#u'$$w#Y#v&$)T&J)Z!Y!X$P&g(B$U'_23/Y-)-M2:2i-('01#2#/k-L0L",
"1D.}-)3!/F05.p&`$o&m%n&-*8#n'+%>%V%S#|*n%:+7)Z$u+d+0)&,d+T+O'-#U'7'R&K'w)l'~!Y!V$P%A$u![!/$k&p%r&m#9+u.k-^2~,;'[.*/Y.S0!2W0q0>2l",
"/#07-w/$.}/*.i*N(~'W$>,k(<!y$K(a$&$/#g(4$K%P))-m+E$E'+&m%>*.(!(=(;).$Q(i&`$$$2%T%9&h'}!w%W(h*r(w'7#;,H/y281#/E/e-D--0D.v+?1#1;3b",
"2=3p,O4%.B+i32$))/%I%l#i#g$($u'M$C#A'})(+k)G'T,f(|'-$0(^&K'|%l'%*%&9$K'+$F'q#D#u&0*J&r#2#p*c)T%V%J$/,80b,^2=/n+H1#0'*N3_,-/{4!0^",
"0U1G2=3d3p-S2^)U+l%k%?+l$)&>',#P(_$k$0'q$n,B)_&%$0%M!<(b*,%*+;*m%H&%%a%9'r#2#P!F$R({$b'p(d#z%:(l&w#'0-/12Q1]1h33112~0.*z/71Y/91$",
".:3V3'/o/f+e,j&r&m&K%D$M&m$f#($)$g$(#f%-$c$F+I)m$/'~!i!Z#o&/%?)N'})w%3$/(W$t#3$Q$0)(%U'+%f$]$Q%g###^.Q1=0+2j0.1)-.0%02)8.K3-,-+J",
".x3I.Z153<'g*J$o$%%I%w$k(G%`$*)N&D(<$#)D+/#q$u$3%G)/)(,`&r(%#8%>##$[$Q&$#H'}#2#!$0'*$o$P%A'y(<+1$n%21*3S.U.M-6/a1C2U-:-J2>16.^+!",
".x3I.{/b3$3&.Z+,%[(F&R%2&>(^$K'-'e#P&J(3&$$:-()U*W+M#((V%W$P(k$[$0$0#I'r%x$x$(!p%>%T&m#p'w$V$_(<&%#_-A251d0_/h/]1^.s0p3F1y2%1K.|",
"-t2&0j0K0k/t.{$$'r*V$n&H%[)/&p%r%+'S,?&_%?${)W&))m$3'r$P&K&V&[%h%W'S$'&h($#s#6%l&p%U'a(i%Z%@#+#u(i$i-`.(.R.u/i2l*_3Q/F/;/|/r)/-z",
"2r2v.<2J2v1?/&#n%_$2%2'K)r)5'e%U$G&r'L'I&D%')7'8'}%3)l%R)*$2%o$Z#}%`$P&E%`'0#3&+&K$t&P&%&L%Z!`$0$e#E/6/g/W2i/I0e1)2:0.2V.12Z-m.>",
"0,2?12/M2?/K0m'U%`$J#D&q*x$m$L&5$(&$%{(9(b'8*O'2#c&D)T%t&J+1&$%s'r$-&l!^&>#n#&%Z&p&J(;!z%3$u#?%h'n%W0K/E1!.y-~1R2!2=0.1C1Q.@2$0/",
"/s2=-z041+.v2+%8%V*s%Z%a$Q#U%~&C&D%b'X*%%]$3($%4&D%a$7%_$P&H$t$k$t%g'V%e(c#v$1&$&J($$/%?',%a$[&K*V)/0O.`-(112F3F.6112p-+2~1g0p1#",
"1E2Y.{.|2Y3y2g%8&l#b%i,3%?$0&r'1(d&L)O'+$o)Z*F)T)4)4&S()&K(d&J$t(&%D'}'^&J&*%f&$$-$P#n&D%a)5$4&%'1&p2t/;2>2-011Y/m,v2n2o/;.]2P0>",
"2Y1E.9.|/b.l-f)+)'$y$1'w#~#.#D(j(d$V%.$B)U)q)M&.*[)q*6%z%w$t%_,H#u(r$3$P%k%?$0$-$J(#$P#p$0&O#v(H&m,//A0)/P4)0C1)/L2;2k.92%1i3K3x",
"1+/s/J.`/s1O1D&t-#$0#5#o#p'W$o&+&/)[#{$?&Q$Q%4%a&Q&w'6-!+d&J%Y).*K%!$U$}+2'1(V#f#m)-&K$7)p%$$U(i$.%F.|2I3}2]0~0n,Z.s)x2[043f3T2&",
"1/0,/I/I0,0M.~%2'6&*%%%!&%'X&K$x*|&4$o$A(~$$%w&g$t$3*H)N,d$/($+6)U(O)Z';)v(,*w++(d$R$9)U(*#[$s$.%f$/0S3r0'3:,=.71}1)1^390q3o1L2}",
"2v1l031T2r1*./**%>&W%I$x#o'r(:*>*;)/'x%0#H$E+0*I)l#h%T&A$t$P(L,G$U&W)5%`(:&q)[)[$U$}&Q(.%m*^$Y#x$]%g0)0Q+~1w1*0G2U0D312_.Z0U1%3M",
"0k-t03/&-t0I/}$d'-$(#)(+&%#I$N(i$u$p%s$%#5(C&Q)M+/)($w*L(^!K(i+I$1%)&%$u$Q'W#,$T&Q&K)3($'g)A)=%l&*(d2g1Z2$1H*y-(/=/z2l2~0/1`0`0*",
"3$.x0S-9.x.O1C%|$Q%,#;'=$O$G(%)V'T)j$*%@$v$u)O'R$o#s)c%k%%$}#Z+o#-'h+N#P$.'0$Q%d$P%j%_#s$U(#)r%:$o!r.51)2o1|0.1v/B-M2~-g1K2>0!0B",
"3<.:123,.:-f0'(B'_(<$8#u$7&C&V%:(<#]'w$P)c$3&$'6,+%f)5(G$Z$/';+l!Y(&%:)!&I&#'w$#+L).&E$[+s'H'D*J%g(%3C.%3k1-/n1_-R1C,F0O2~1_1H-0",
"3<0J1+3(0U,d-X,b#8$u%E$P$)&q*W$V$4$)&$%Z%[)(&8%a#O%I&+)v%E$s$L#@'}$R)P(V*$%T!i'r$x##$x'}):#X!m$P%G'`%N.G/H2%.=0M1C1Y./0p-P0J03-v",
"/f0U2m2G/#+)%E$3*N+@'^(^%=$(#6#t$0(%%C(:+5)-'}$/*u&r'1'|'u$m%3$0).(N%E$N$S(5!d!}*J'w$0&1%i!h!M#%!q(g.C-?0i-A/i+t332k0D2r0q2<,P+r",
"3p0S.80S,8%J)[%E$U'E&v&W'~(^(e%E#u&L)p'w(d&$,A%Y&}'1+6*E&B)O#1(X(+(%+;'b&C&%#h#a#S$U$=(M%>*')-#5%7%_/-.#0e1E.!,X0d.Y/f1[.`1e1R.q",
".B1+2+3c/a0V2y(#(o&](L,i(W($)U(G*-&P%H+0)O+M)F&l*X$5(W*l'x$P(7$($u%)#x$n'J#S%D#O'7$Z#y%n&p#R(.%x%D%$+}1p1F2j0.0M1u2V/=2[0p3N0j+.",
".}/a.^3]-{+@.$&O)-)6*d+$&I*L(d$y)/'x#N+H)N*k(#&,%&.o+s,*'(&V'x&l#:%*'R$J'/#n!o&z(r+w$8!r'0&A(h*I$0(%0<2o*v1</z/!0D2r2;,P.{1x3`-<",
",W-{-r/,+y+P-:$N$x(/+',n+S(o)V&N&C%|#,&K..(])V$1$8).&u*-'_&,+&$y$Z&^&Q(`#J#8#;$z&y'_&%'R&P%T&I*J)r$W2(1M1#3v.0/h*G0'3!3-0p271d.!",
".|+y1q2w+f,g-~)9)S*w(R(o+W%@).#0%{*1#S,S,,+n&+(<)]&4$Q,,(^+T'c*W'E*[)M&p#g(G&R)J(i%g$$(e&'(c*N)V'7+$2E1x+--&,-.82;2o1^3J2C3X/O.E",
"2s+f31/#/a+V0O$`'!#:'@&R&J$v%l*F+M'x(o(0+6$/%?%`)(#>%8$H'}*M+{+7,i&M$t$P$s)U%?!y&q&V&l&W)4*])U%@(n&$/_,r.Y-u-t0p1(+V011`3|3_2%*0",
"2F/a411@-Y(J0W%q$a#W$P(i)V(i$1!{'=%Z(;(L,3#U#o$)%I$T)($K(^+R,4)M(d$4*V,,)k*I&%$s#o'W$O%a'C*N#N%3)S%?,g0[-r0a/b.<-41_042B4.2)2d*D",
"1R-Y424409.c.D$<$;'5(h*V#t$V#o%3$P(L&y(q'D#(#o&l%U%`$n%9'7%?(:(h#P$z$t'_'^%9'w#S'W&K&J&J(%$P$L)#+9'0+T2[1`0r.+/>/E3R-W1d271z04/?",
"0U1j3J393A/&.u%#%($}(^$I#=$]#K#p$s)Y&k&v+w'~*&(W'w)U).*+%Y&$$L&E&P$Z*W&v'7#o$U&K(F$w$3%>(c#I%`(#)U),0`-q2m2q)<-)1*1C/D1*3H1G1N*p",
"042z3#2T1I1c11)r%L%j$/(<%F(2&y+7'}&J(z*r#o)U%x$O+I$u$/%`&K&>%?&L&+$~#E#5)p#t%{%1$,&$$7'~$@,A+R)U%:!E3Y3%2)14.S2<.u-I0D3$3Q2[/9*{",
"/?/j->200)2%,T![#!!;%y$+$|%F![!I!I!{$D#Q!8!z&5!D!f!f!2!9#F&l%:!l&n#$!k!='-('#o$(!7!e)i!Y#.))&j)n%;!Z2X30-x/a)n.<+F1*.n2</]/C+e.|",
"0[-;->.h/S.`,!%]!['/$0'>*e$t#S$0&D'+&C$3&U(b);)4#p%`)5&*)''}'^#w&E'1&L#h(d&J+n&(#b#r&$&P%Z$r(i&k!c!x2C/a0A+f)Q0N,~0D-u1`/8*Y+!1,",
"0&-u-63I37/?.;-o!f!+!f%h$o$)#V![!w#B$%$M!z%u!y!s!{#P!|!H!f!F!6!J!F$q)J!b!A!V#P#K&h$H!]!L!&!{%}!B!8/90=12/0.5+[*O-7-))^1[,l.0/F/T",
".w/S.T+U2`/n0E/80-)j1I/D2@3;2c0N0b0r3@4$0e3'.W+f/D/(/j-T.P.`+A,Y.B/$/o-,1u2B.:0i2b.o.4+x(y0t4'0f2M0Z/6*Z2T0--))s0]0#-J,{.X/C%?+<",
"/?371d*|/r,u,h/t.</b-x,6/m/n-3/b100l1K3Y/c,p-t-1/(-z1J0J1D+r)K0F0T3=/R1*433z0H/>0B-J-a,&*p3l4-/c/G0T+h,E0k-+,2,$*g3w.j.'/s3:&.,C",
"3s2`1V)u&*$V+D&x)b(c'b)>'/'<&$';%k)4)k*U&o#E%u&p';%|&%'g'v$V$X&D)4/Q,:)9*S*5(@'r%8%Q&D#b$!/Q+Y(F&Q'c%a'B($&l%b&b&8'S)G34'c'j&B.,",
"2'/r/>.*1k.c.b,]/M1j3p._0(,s/E,x+=,t0s/;-1(Z+c,m,V0$2q/w0z*9*R-m.d003/-o262a/],C1c,k-d,53+4/3t0{2R-g-l-f1A2s+8,_0_-[/V.I-z/i1X,K"
};
