/* XPM */
static char *sand_09[] = {
/* columns rows colors chars-per-pixel */
"64 64 3322 2",
/* colors */
"!! c #7C6658",
"!# c #7F573C",
"!$ c #7F583C",
"!% c #805639",
"!& c #816247",
"!' c #825A3F",
"!( c #825D42",
"!) c #826248",
"!* c #83604C",
"!+ c #836651",
"!, c #845C3B",
"!- c #845C42",
"!. c #845D45",
"!/ c #845F46",
"!0 c #846655",
"!1 c #84694F",
"!2 c #846A56",
"!3 c #846B56",
"!4 c #855F45",
"!5 c #856857",
"!6 c #865946",
"!7 c #865E42",
"!8 c #865E4C",
"!9 c #866042",
"!: c #866547",
"!; c #86684E",
"!< c #866851",
"!= c #875A41",
"!> c #875D3F",
"!? c #875F43",
"!@ c #876149",
"!A c #885C3D",
"!B c #886041",
"!C c #886042",
"!D c #886449",
"!E c #886548",
"!F c #88654E",
"!G c #886648",
"!H c #886651",
"!I c #895C3C",
"!J c #8A5F3F",
"!K c #8A5F40",
"!L c #8A6042",
"!M c #8A6250",
"!N c #8A674F",
"!O c #8A6853",
"!P c #8A6950",
"!Q c #8A6B50",
"!R c #8A6C54",
"!S c #8A6C57",
"!T c #8B5C47",
"!U c #8B5D46",
"!V c #8B5F3D",
"!W c #8B6241",
"!X c #8B6344",
"!Y c #8B654B",
"!Z c #8B654C",
"![ c #8B674A",
"!] c #8B6A53",
"!^ c #8C5D3A",
"!_ c #8C6143",
"!` c #8C6343",
"!a c #8C694C",
"!b c #8C6A54",
"!c c #8D6142",
"!d c #8D6343",
"!e c #8D654C",
"!f c #8D6645",
"!g c #8D6949",
"!h c #8D6F56",
"!i c #8E5E3D",
"!j c #8E6040",
"!k c #8E654A",
"!l c #8E684E",
"!m c #8E694C",
"!n c #8E6A4B",
"!o c #8E6B4C",
"!p c #8E6B4F",
"!q c #8E6D59",
"!r c #8F5B41",
"!s c #8F603E",
"!t c #8F6243",
"!u c #8F6444",
"!v c #8F6545",
"!w c #8F6547",
"!x c #8F6552",
"!y c #8F6745",
"!z c #8F674E",
"!{ c #8F6846",
"!| c #8F6848",
"!} c #8F6849",
"!~ c #8F6947",
"#! c #8F694B",
"## c #8F6A51",
"#$ c #8F6C53",
"#% c #8F6E56",
"#& c #8F7361",
"#' c #905939",
"#( c #90603C",
"#) c #906143",
"#* c #906446",
"#+ c #906847",
"#, c #90684A",
"#- c #90684C",
"#. c #906945",
"#/ c #90694A",
"#0 c #906A47",
"#1 c #906D53",
"#2 c #915C3F",
"#3 c #916240",
"#4 c #916247",
"#5 c #916343",
"#6 c #916641",
"#7 c #916748",
"#8 c #91694B",
"#9 c #916A49",
"#: c #916A52",
"#; c #916C52",
"#< c #926043",
"#= c #92613B",
"#> c #92613D",
"#? c #92623F",
"#@ c #926245",
"#A c #926347",
"#B c #926440",
"#C c #926442",
"#D c #926541",
"#E c #926542",
"#F c #926544",
"#G c #926546",
"#H c #926645",
"#I c #926647",
"#J c #926648",
"#K c #92684A",
"#L c #926853",
"#M c #926C49",
"#N c #926D53",
"#O c #935F3F",
"#P c #93613E",
"#Q c #93623F",
"#R c #93633F",
"#S c #936440",
"#T c #936442",
"#U c #936743",
"#V c #936746",
"#W c #93674D",
"#X c #936844",
"#Y c #936848",
"#Z c #93694A",
"#[ c #93694B",
"#] c #93694C",
"#^ c #936F51",
"#_ c #93735F",
"#` c #94613B",
"#a c #946344",
"#b c #94663F",
"#c c #946641",
"#d c #946840",
"#e c #946844",
"#f c #946848",
"#g c #946944",
"#h c #946948",
"#i c #946A4C",
"#j c #946B4A",
"#k c #946B4C",
"#l c #946B55",
"#m c #946C48",
"#n c #946C55",
"#o c #946D54",
"#p c #946F55",
"#q c #947156",
"#r c #947254",
"#s c #95623B",
"#t c #95623C",
"#u c #956343",
"#v c #956743",
"#w c #95684C",
"#x c #95684D",
"#y c #956948",
"#z c #956A4A",
"#{ c #956B47",
"#| c #956B49",
"#} c #956B4D",
"#~ c #956C49",
"$! c #956C4D",
"$# c #956C4E",
"$$ c #956E53",
"$% c #956F4D",
"$& c #957056",
"$' c #957151",
"$( c #957250",
"$) c #957457",
"$* c #957867",
"$+ c #965C3C",
"$, c #966137",
"$- c #96633F",
"$. c #966440",
"$/ c #96653C",
"$0 c #96653D",
"$1 c #96653F",
"$2 c #966540",
"$3 c #966641",
"$4 c #966842",
"$5 c #966845",
"$6 c #966944",
"$7 c #966945",
"$8 c #966A48",
"$9 c #966A55",
"$: c #966B45",
"$; c #966B4A",
"$< c #966B4C",
"$= c #966B4E",
"$> c #966C47",
"$? c #966D4D",
"$@ c #966D51",
"$A c #966E56",
"$B c #966E57",
"$C c #966F55",
"$D c #967052",
"$E c #967156",
"$F c #967256",
"$G c #967258",
"$H c #97613C",
"$I c #97643C",
"$J c #97643D",
"$K c #97653D",
"$L c #97653E",
"$M c #97653F",
"$N c #976540",
"$O c #976541",
"$P c #976646",
"$Q c #976841",
"$R c #976842",
"$S c #976844",
"$T c #976846",
"$U c #976946",
"$V c #976948",
"$W c #976A42",
"$X c #976A45",
"$Y c #976A46",
"$Z c #976A49",
"$[ c #976A4B",
"$] c #976B46",
"$^ c #976C4E",
"$_ c #976D4F",
"$` c #976F4B",
"$a c #976F4C",
"$b c #977057",
"$c c #977256",
"$d c #977457",
"$e c #977659",
"$f c #977966",
"$g c #986239",
"$h c #98643E",
"$i c #98643F",
"$j c #98653E",
"$k c #986652",
"$l c #986742",
"$m c #986748",
"$n c #98683E",
"$o c #986843",
"$p c #986943",
"$q c #986946",
"$r c #986947",
"$s c #986A45",
"$t c #986A47",
"$u c #986A48",
"$v c #986A49",
"$w c #986B46",
"$x c #986B47",
"$y c #986B4A",
"$z c #986C4D",
"${ c #986D47",
"$| c #986D4B",
"$} c #986E53",
"$~ c #986F50",
"%! c #98704E",
"%# c #987055",
"%$ c #987059",
"%% c #987251",
"%& c #987759",
"%' c #98785D",
"%( c #987860",
"%) c #99633A",
"%* c #996444",
"%+ c #99653F",
"%, c #996640",
"%- c #996741",
"%. c #996742",
"%/ c #996752",
"%0 c #996843",
"%1 c #996A44",
"%2 c #996A45",
"%3 c #996A48",
"%4 c #996A49",
"%5 c #996B44",
"%6 c #996B46",
"%7 c #996B4A",
"%8 c #996B50",
"%9 c #996C46",
"%: c #996C48",
"%; c #996C4A",
"%< c #996D47",
"%= c #996D4B",
"%> c #996D4C",
"%? c #996D4E",
"%@ c #996D51",
"%A c #996E4D",
"%B c #996E50",
"%C c #996F49",
"%D c #996F4C",
"%E c #996F4E",
"%F c #997049",
"%G c #99704A",
"%H c #99704F",
"%I c #99714E",
"%J c #99755D",
"%K c #9A6038",
"%L c #9A663E",
"%M c #9A663F",
"%N c #9A6641",
"%O c #9A673E",
"%P c #9A6840",
"%Q c #9A6842",
"%R c #9A6844",
"%S c #9A684B",
"%T c #9A6948",
"%U c #9A6A41",
"%V c #9A6A44",
"%W c #9A6A46",
"%X c #9A6A47",
"%Y c #9A6B49",
"%Z c #9A6B59",
"%[ c #9A6C44",
"%] c #9A6C46",
"%^ c #9A6C49",
"%_ c #9A6D47",
"%` c #9A6D48",
"%a c #9A6D49",
"%b c #9A6D4C",
"%c c #9A6E4A",
"%d c #9A714B",
"%e c #9A714D",
"%f c #9A7151",
"%g c #9A7351",
"%h c #9A735A",
"%i c #9A7454",
"%j c #9A745A",
"%k c #9A745B",
"%l c #9A7553",
"%m c #9A7555",
"%n c #9A7658",
"%o c #9A7861",
"%p c #9B6344",
"%q c #9B643E",
"%r c #9B653A",
"%s c #9B653C",
"%t c #9B6547",
"%u c #9B663E",
"%v c #9B6640",
"%w c #9B6749",
"%x c #9B6840",
"%y c #9B6842",
"%z c #9B6943",
"%{ c #9B6A44",
"%| c #9B6B45",
"%} c #9B6B48",
"%~ c #9B6C47",
"&! c #9B6C4A",
"&# c #9B6D43",
"&$ c #9B6D47",
"&% c #9B6D49",
"&& c #9B6D4A",
"&' c #9B6E4A",
"&( c #9B6E4C",
"&) c #9B6F52",
"&* c #9B704A",
"&+ c #9B704B",
"&, c #9B704E",
"&- c #9B7052",
"&. c #9B714B",
"&/ c #9B714C",
"&0 c #9B714D",
"&1 c #9B714E",
"&2 c #9B724E",
"&3 c #9B7252",
"&4 c #9B7256",
"&5 c #9B7453",
"&6 c #9B7458",
"&7 c #9C643A",
"&8 c #9C643D",
"&9 c #9C653B",
"&: c #9C6543",
"&; c #9C663D",
"&< c #9C673E",
"&= c #9C673F",
"&> c #9C6841",
"&? c #9C6842",
"&@ c #9C6843",
"&A c #9C6942",
"&B c #9C6944",
"&C c #9C6A42",
"&D c #9C6A43",
"&E c #9C6A44",
"&F c #9C6A45",
"&G c #9C6B42",
"&H c #9C6B45",
"&I c #9C6C43",
"&J c #9C6C44",
"&K c #9C6C46",
"&L c #9C6C47",
"&M c #9C6C49",
"&N c #9C6C4A",
"&O c #9C6D47",
"&P c #9C6D49",
"&Q c #9C6E45",
"&R c #9C6E48",
"&S c #9C6E4A",
"&T c #9C6E4B",
"&U c #9C6F47",
"&V c #9C6F4F",
"&W c #9C7049",
"&X c #9C704A",
"&Y c #9C704E",
"&Z c #9C7053",
"&[ c #9C7056",
"&] c #9C714B",
"&^ c #9C7153",
"&_ c #9C7154",
"&` c #9C7354",
"&a c #9C7451",
"&b c #9C7454",
"&c c #9C7559",
"&d c #9C7655",
"&e c #9C765C",
"&f c #9C7961",
"&g c #9D6445",
"&h c #9D6539",
"&i c #9D653D",
"&j c #9D653E",
"&k c #9D663B",
"&l c #9D6646",
"&m c #9D673D",
"&n c #9D6843",
"&o c #9D6A43",
"&p c #9D6B44",
"&q c #9D6C41",
"&r c #9D6C43",
"&s c #9D6C44",
"&t c #9D6C45",
"&u c #9D6C47",
"&v c #9D6D45",
"&w c #9D6D48",
"&x c #9D6D4A",
"&y c #9D6E46",
"&z c #9D6E47",
"&{ c #9D6E48",
"&| c #9D6E4A",
"&} c #9D6F48",
"&~ c #9D7049",
"'! c #9D704B",
"'# c #9D704F",
"'$ c #9D714C",
"'% c #9D7152",
"'& c #9D734E",
"'' c #9D7351",
"'( c #9D7450",
"') c #9D7453",
"'* c #9D754E",
"'+ c #9D7553",
"', c #9D7556",
"'- c #9D7655",
"'. c #9D7758",
"'/ c #9D775A",
"'0 c #9D775C",
"'1 c #9D775D",
"'2 c #9D7854",
"'3 c #9D795D",
"'4 c #9D7A61",
"'5 c #9D7B5C",
"'6 c #9D7C60",
"'7 c #9E643A",
"'8 c #9E653D",
"'9 c #9E673E",
"': c #9E683E",
"'; c #9E683F",
"'< c #9E6941",
"'= c #9E6A42",
"'> c #9E6B43",
"'? c #9E6B44",
"'@ c #9E6B47",
"'A c #9E6C44",
"'B c #9E6C46",
"'C c #9E6C48",
"'D c #9E6D45",
"'E c #9E6D49",
"'F c #9E6E45",
"'G c #9E6E48",
"'H c #9E6E4B",
"'I c #9E6F49",
"'J c #9E6F4A",
"'K c #9E6F4B",
"'L c #9E6F4E",
"'M c #9E6F50",
"'N c #9E7047",
"'O c #9E7048",
"'P c #9E704A",
"'Q c #9E704B",
"'R c #9E704C",
"'S c #9E714C",
"'T c #9E724C",
"'U c #9E724D",
"'V c #9E724E",
"'W c #9E7253",
"'X c #9E734D",
"'Y c #9E7353",
"'Z c #9E7354",
"'[ c #9E7454",
"'] c #9E7456",
"'^ c #9E7555",
"'_ c #9E7651",
"'` c #9E785A",
"'a c #9F6540",
"'b c #9F663C",
"'c c #9F673D",
"'d c #9F6744",
"'e c #9F693C",
"'f c #9F693E",
"'g c #9F693F",
"'h c #9F6943",
"'i c #9F694A",
"'j c #9F6A41",
"'k c #9F6A42",
"'l c #9F6A45",
"'m c #9F6B43",
"'n c #9F6C42",
"'o c #9F6C45",
"'p c #9F6C46",
"'q c #9F6D46",
"'r c #9F6D47",
"'s c #9F6D48",
"'t c #9F6E45",
"'u c #9F6F47",
"'v c #9F6F48",
"'w c #9F6F4A",
"'x c #9F6F4B",
"'y c #9F6F4E",
"'z c #9F6F60",
"'{ c #9F7046",
"'| c #9F7047",
"'} c #9F704B",
"'~ c #9F704C",
"(! c #9F714A",
"(# c #9F714C",
"($ c #9F714E",
"(% c #9F724A",
"(& c #9F724E",
"(' c #9F7251",
"(( c #9F7252",
"() c #9F7254",
"(* c #9F734C",
"(+ c #9F734D",
"(, c #9F734F",
"(- c #9F7351",
"(. c #9F7353",
"(/ c #9F7354",
"(0 c #9F744D",
"(1 c #9F7453",
"(2 c #9F754F",
"(3 c #9F7652",
"(4 c #9F7752",
"(5 c #9F7758",
"(6 c #9F775B",
"(7 c #9F7855",
"(8 c #9F7858",
"(9 c #9F785B",
"(: c #9F7958",
"(; c #9F7E66",
"(< c #A06639",
"(= c #A06745",
"(> c #A0683D",
"(? c #A06843",
"(@ c #A0693E",
"(A c #A06941",
"(B c #A06947",
"(C c #A06A3E",
"(D c #A06A41",
"(E c #A06A46",
"(F c #A06B3E",
"(G c #A06B42",
"(H c #A06B44",
"(I c #A06B46",
"(J c #A06C42",
"(K c #A06C44",
"(L c #A06C45",
"(M c #A06D40",
"(N c #A06D45",
"(O c #A06D46",
"(P c #A06E41",
"(Q c #A06E47",
"(R c #A06E49",
"(S c #A06E4B",
"(T c #A06F45",
"(U c #A06F47",
"(V c #A06F48",
"(W c #A06F50",
"(X c #A07045",
"(Y c #A07046",
"(Z c #A07047",
"([ c #A07049",
"(] c #A0704B",
"(^ c #A07146",
"(_ c #A07148",
"(` c #A0714E",
"(a c #A0714F",
"(b c #A0724A",
"(c c #A0734A",
"(d c #A0734D",
"(e c #A0734E",
"(f c #A0734F",
"(g c #A0744C",
"(h c #A0744F",
"(i c #A07457",
"(j c #A0745B",
"(k c #A0754E",
"(l c #A0754F",
"(m c #A07650",
"(n c #A07652",
"(o c #A07656",
"(p c #A07751",
"(q c #A07757",
"(r c #A07854",
"(s c #A0785C",
"(t c #A0795C",
"(u c #A07A58",
"(v c #A07E60",
"(w c #A07F63",
"(x c #A1663F",
"(y c #A1683C",
"(z c #A1683F",
"({ c #A16845",
"(| c #A1693D",
"(} c #A1693F",
"(~ c #A16941",
")! c #A16A3D",
")# c #A16A3F",
")$ c #A16A46",
")% c #A16B42",
")& c #A16C40",
")' c #A16C41",
")( c #A16C43",
")) c #A16C44",
")* c #A16C47",
")+ c #A16D3F",
"), c #A16D45",
")- c #A16D46",
"). c #A16D47",
")/ c #A16D48",
")0 c #A16E46",
")1 c #A16E4B",
")2 c #A16F40",
")3 c #A16F43",
")4 c #A16F47",
")5 c #A16F48",
")6 c #A16F49",
")7 c #A16F4B",
")8 c #A17044",
")9 c #A17045",
"): c #A17046",
"); c #A17047",
")< c #A1704A",
")= c #A1714A",
")> c #A1714E",
")? c #A17248",
")@ c #A1724B",
")A c #A17250",
")B c #A1734B",
")C c #A1734C",
")D c #A1734D",
")E c #A17350",
")F c #A17353",
")G c #A1744A",
")H c #A1744B",
")I c #A1744C",
")J c #A1744E",
")K c #A1744F",
")L c #A17450",
")M c #A1754F",
")N c #A17550",
")O c #A17553",
")P c #A17555",
")Q c #A17650",
")R c #A17653",
")S c #A17654",
")T c #A17655",
")U c #A17657",
")V c #A17751",
")W c #A17757",
")X c #A17959",
")Y c #A17A58",
")Z c #A17A5A",
")[ c #A17A5B",
")] c #A17A5F",
")^ c #A17C5B",
")_ c #A17D5E",
")` c #A17D62",
")a c #A2653C",
")b c #A26941",
")c c #A26A3F",
")d c #A26A43",
")e c #A26B3E",
")f c #A26B40",
")g c #A26B41",
")h c #A26B42",
")i c #A26C42",
")j c #A26C43",
")k c #A26D43",
")l c #A26D44",
")m c #A26E44",
")n c #A26E45",
")o c #A26E46",
")p c #A26E47",
")q c #A26E48",
")r c #A26F43",
")s c #A26F45",
")t c #A26F47",
")u c #A27044",
")v c #A27046",
")w c #A27047",
")x c #A27048",
")y c #A2704F",
")z c #A27148",
"){ c #A27149",
")| c #A2714B",
")} c #A27150",
")~ c #A2724B",
"*! c #A2724F",
"*# c #A27349",
"*$ c #A2734A",
"*% c #A2734B",
"*& c #A2734C",
"*' c #A2734D",
"*( c #A2734F",
"*) c #A27351",
"** c #A27354",
"*+ c #A2744A",
"*, c #A2744C",
"*- c #A27450",
"*. c #A27451",
"*/ c #A27452",
"*0 c #A27453",
"*1 c #A2754C",
"*2 c #A2754D",
"*3 c #A2754F",
"*4 c #A27551",
"*5 c #A27552",
"*6 c #A27661",
"*7 c #A27750",
"*8 c #A27855",
"*9 c #A27953",
"*: c #A27959",
"*; c #A27A56",
"*< c #A27B67",
"*= c #A27C5E",
"*> c #A27D5C",
"*? c #A36841",
"*@ c #A36944",
"*A c #A36A46",
"*B c #A36A47",
"*C c #A36B3F",
"*D c #A36B44",
"*E c #A36C40",
"*F c #A36C41",
"*G c #A36C44",
"*H c #A36C46",
"*I c #A36D40",
"*J c #A36D44",
"*K c #A36D46",
"*L c #A36D52",
"*M c #A36E41",
"*N c #A36E44",
"*O c #A36E45",
"*P c #A36E46",
"*Q c #A36F3F",
"*R c #A36F41",
"*S c #A36F44",
"*T c #A36F45",
"*U c #A36F46",
"*V c #A36F48",
"*W c #A36F49",
"*X c #A37048",
"*Y c #A37049",
"*Z c #A3704A",
"*[ c #A37148",
"*] c #A37149",
"*^ c #A3714A",
"*_ c #A3714C",
"*` c #A37248",
"*a c #A37249",
"*b c #A3724A",
"*c c #A3724C",
"*d c #A37256",
"*e c #A3734A",
"*f c #A3734B",
"*g c #A3744A",
"*h c #A3744B",
"*i c #A3744F",
"*j c #A37450",
"*k c #A3754E",
"*l c #A37551",
"*m c #A37552",
"*n c #A37553",
"*o c #A37554",
"*p c #A3764E",
"*q c #A3764F",
"*r c #A37652",
"*s c #A37655",
"*t c #A37656",
"*u c #A3774F",
"*v c #A37750",
"*w c #A37752",
"*x c #A37753",
"*y c #A37757",
"*z c #A37851",
"*{ c #A37953",
"*| c #A37A58",
"*} c #A37A59",
"*~ c #A37B5D",
"+! c #A37C5A",
"+# c #A46741",
"+$ c #A46A3E",
"+% c #A46A40",
"+& c #A46B3C",
"+' c #A46B42",
"+( c #A46B45",
"+) c #A46C3F",
"+* c #A46C40",
"++ c #A46D3F",
"+, c #A46D41",
"+- c #A46D42",
"+. c #A46D45",
"+/ c #A46D49",
"+0 c #A46E42",
"+1 c #A46E43",
"+2 c #A46E44",
"+3 c #A46F43",
"+4 c #A46F44",
"+5 c #A46F46",
"+6 c #A47044",
"+7 c #A47045",
"+8 c #A47048",
"+9 c #A47049",
"+: c #A4704A",
"+; c #A4704F",
"+< c #A47142",
"+= c #A47143",
"+> c #A47145",
"+? c #A47149",
"+@ c #A4714A",
"+A c #A4714F",
"+B c #A47245",
"+C c #A4724B",
"+D c #A4724C",
"+E c #A4724D",
"+F c #A47346",
"+G c #A47348",
"+H c #A4734A",
"+I c #A4734B",
"+J c #A4734C",
"+K c #A4734E",
"+L c #A47449",
"+M c #A4744B",
"+N c #A4744D",
"+O c #A4754D",
"+P c #A4754F",
"+Q c #A47550",
"+R c #A4755C",
"+S c #A4764C",
"+T c #A4764D",
"+U c #A4764F",
"+V c #A47650",
"+W c #A47654",
"+X c #A47655",
"+Y c #A47751",
"+Z c #A47752",
"+[ c #A47754",
"+] c #A47755",
"+^ c #A47756",
"+_ c #A47758",
"+` c #A47850",
"+a c #A47853",
"+b c #A47855",
"+c c #A47857",
"+d c #A47858",
"+e c #A47953",
"+f c #A47A54",
"+g c #A47A5B",
"+h c #A47A5D",
"+i c #A47D5E",
"+j c #A47F60",
"+k c #A55E38",
"+l c #A5643D",
"+m c #A56746",
"+n c #A56945",
"+o c #A56A40",
"+p c #A56B3B",
"+q c #A56C44",
"+r c #A56D3F",
"+s c #A56D41",
"+t c #A56D42",
"+u c #A56E42",
"+v c #A56E43",
"+w c #A56F42",
"+x c #A56F45",
"+y c #A56F46",
"+z c #A56F47",
"+{ c #A57042",
"+| c #A57044",
"+} c #A57045",
"+~ c #A5704A",
",! c #A5704D",
",# c #A57145",
",$ c #A57148",
",% c #A5714B",
",& c #A57245",
",' c #A57248",
",( c #A57249",
",) c #A5724B",
",* c #A5724C",
",+ c #A57346",
",, c #A5734A",
",- c #A5734B",
",. c #A5734D",
",/ c #A5734E",
",0 c #A57448",
",1 c #A57449",
",2 c #A5744B",
",3 c #A57549",
",4 c #A5754B",
",5 c #A5754D",
",6 c #A5754E",
",7 c #A5764C",
",8 c #A57652",
",9 c #A57654",
",: c #A57754",
",; c #A57758",
",< c #A5784E",
",= c #A57851",
",> c #A57854",
",? c #A57856",
",@ c #A57859",
",A c #A57950",
",B c #A57951",
",C c #A57954",
",D c #A57A54",
",E c #A57C57",
",F c #A57C5C",
",G c #A57F5D",
",H c #A5805F",
",I c #A66939",
",J c #A66A3C",
",K c #A66B3C",
",L c #A66B44",
",M c #A66C3D",
",N c #A66C3E",
",O c #A66C3F",
",P c #A66C40",
",Q c #A66D3C",
",R c #A66D41",
",S c #A66D46",
",T c #A66D47",
",U c #A66E41",
",V c #A66E43",
",W c #A66E4B",
",X c #A66F42",
",Y c #A66F44",
",Z c #A66F45",
",[ c #A6703F",
",] c #A67043",
",^ c #A67044",
",_ c #A67046",
",` c #A67047",
",a c #A67049",
",b c #A6704C",
",c c #A67146",
",d c #A67148",
",e c #A67245",
",f c #A67246",
",g c #A67249",
",h c #A6724A",
",i c #A6724C",
",j c #A67347",
",k c #A67348",
",l c #A67349",
",m c #A6734C",
",n c #A67448",
",o c #A67449",
",p c #A6744D",
",q c #A6744E",
",r c #A6744F",
",s c #A6754C",
",t c #A6754E",
",u c #A67550",
",v c #A67551",
",w c #A6764A",
",x c #A6764B",
",y c #A6764D",
",z c #A6764E",
",{ c #A6764F",
",| c #A6774C",
",} c #A6774D",
",~ c #A67751",
"-! c #A67753",
"-# c #A67754",
"-$ c #A67755",
"-% c #A6784F",
"-& c #A6794E",
"-' c #A67950",
"-( c #A67952",
"-) c #A67953",
"-* c #A67954",
"-+ c #A67957",
"-, c #A67A51",
"-- c #A67A53",
"-. c #A67A54",
"-/ c #A67A59",
"-0 c #A67B57",
"-1 c #A67C53",
"-2 c #A67C54",
"-3 c #A67C5D",
"-4 c #A67C5E",
"-5 c #A67D58",
"-6 c #A67D5A",
"-7 c #A67E5A",
"-8 c #A67E5C",
"-9 c #A67F5C",
"-: c #A68161",
"-; c #A76A38",
"-< c #A76B3B",
"-= c #A76B3C",
"-> c #A76C3D",
"-? c #A76C4D",
"-@ c #A76D39",
"-A c #A76E41",
"-B c #A76E42",
"-C c #A76E45",
"-D c #A76F43",
"-E c #A76F44",
"-F c #A77042",
"-G c #A77044",
"-H c #A77045",
"-I c #A77046",
"-J c #A77049",
"-K c #A77140",
"-L c #A77142",
"-M c #A77144",
"-N c #A77145",
"-O c #A77146",
"-P c #A77147",
"-Q c #A77148",
"-R c #A7714B",
"-S c #A77242",
"-T c #A77244",
"-U c #A77247",
"-V c #A77248",
"-W c #A7724A",
"-X c #A77347",
"-Y c #A77348",
"-Z c #A77349",
"-[ c #A7734B",
"-] c #A7734F",
"-^ c #A77445",
"-_ c #A77448",
"-` c #A77449",
"-a c #A7744A",
"-b c #A7744C",
"-c c #A7744D",
"-d c #A7744E",
"-e c #A77546",
"-f c #A77548",
"-g c #A7754A",
"-h c #A7754B",
"-i c #A7754C",
"-j c #A7754D",
"-k c #A77551",
"-l c #A77649",
"-m c #A7764B",
"-n c #A7764D",
"-o c #A7764E",
"-p c #A7764F",
"-q c #A77650",
"-r c #A7774B",
"-s c #A7774C",
"-t c #A7774E",
"-u c #A7774F",
"-v c #A77756",
"-w c #A7784D",
"-x c #A7784E",
"-y c #A77850",
"-z c #A77854",
"-{ c #A77856",
"-| c #A77857",
"-} c #A7794F",
"-~ c #A77951",
".! c #A77953",
".# c #A77954",
".$ c #A77955",
".% c #A77956",
".& c #A77958",
".' c #A77A4F",
".( c #A77A52",
".) c #A77A56",
".* c #A77A59",
".+ c #A77B50",
"., c #A77B5B",
".- c #A77C51",
".. c #A77C52",
"./ c #A77C56",
".0 c #A77D5C",
".1 c #A77D5D",
".2 c #A77F5C",
".3 c #A77F5D",
".4 c #A7805F",
".5 c #A7815E",
".6 c #A78566",
".7 c #A86C3E",
".8 c #A86D3E",
".9 c #A86E41",
".: c #A86E42",
".; c #A86F3E",
".< c #A86F40",
".= c #A86F43",
".> c #A86F44",
".? c #A86F45",
".@ c #A86F46",
".A c #A87041",
".B c #A87043",
".C c #A87143",
".D c #A87146",
".E c #A87147",
".F c #A87241",
".G c #A87244",
".H c #A87245",
".I c #A87246",
".J c #A87247",
".K c #A87345",
".L c #A87346",
".M c #A87347",
".N c #A87348",
".O c #A87349",
".P c #A8734B",
".Q c #A87446",
".R c #A87449",
".S c #A8744A",
".T c #A8744B",
".U c #A87548",
".V c #A8754A",
".W c #A8754B",
".X c #A8754E",
".Y c #A8754F",
".Z c #A87649",
".[ c #A8764A",
".] c #A8764D",
".^ c #A87651",
"._ c #A87655",
".` c #A8774C",
".a c #A8774E",
".b c #A8784F",
".c c #A87850",
".d c #A87851",
".e c #A87852",
".f c #A8794D",
".g c #A8794E",
".h c #A8794F",
".i c #A87952",
".j c #A87955",
".k c #A87959",
".l c #A87A4F",
".m c #A87A51",
".n c #A87A52",
".o c #A87A54",
".p c #A87A55",
".q c #A87A57",
".r c #A87B54",
".s c #A87B55",
".t c #A87B58",
".u c #A87C56",
".v c #A87C57",
".w c #A87C58",
".x c #A87C5A",
".y c #A87E59",
".z c #A87E5D",
".{ c #A87F57",
".| c #A87F58",
".} c #A88057",
".~ c #A88160",
"/! c #A88161",
"/# c #A88163",
"/$ c #A96938",
"/% c #A96D46",
"/& c #A96E39",
"/' c #A96E3F",
"/( c #A96E41",
"/) c #A96F3F",
"/* c #A96F41",
"/+ c #A96F42",
"/, c #A96F44",
"/- c #A9703C",
"/. c #A9703F",
"// c #A97040",
"/0 c #A97044",
"/1 c #A97045",
"/2 c #A97143",
"/3 c #A97144",
"/4 c #A97145",
"/5 c #A97146",
"/6 c #A97148",
"/7 c #A97244",
"/8 c #A97246",
"/9 c #A97247",
"/: c #A97344",
"/; c #A97345",
"/< c #A97346",
"/= c #A97347",
"/> c #A97348",
"/? c #A9734C",
"/@ c #A9734E",
"/A c #A97446",
"/B c #A97447",
"/C c #A97448",
"/D c #A97449",
"/E c #A9744B",
"/F c #A9744F",
"/G c #A97450",
"/H c #A97547",
"/I c #A9754F",
"/J c #A97648",
"/K c #A9764B",
"/L c #A9764C",
"/M c #A97650",
"/N c #A97653",
"/O c #A9774C",
"/P c #A9774D",
"/Q c #A9774F",
"/R c #A97752",
"/S c #A9784B",
"/T c #A9784F",
"/U c #A97851",
"/V c #A9794D",
"/W c #A9794E",
"/X c #A97950",
"/Y c #A97952",
"/Z c #A97A4F",
"/[ c #A97A50",
"/] c #A97A51",
"/^ c #A97A52",
"/_ c #A97A58",
"/` c #A97B4F",
"/a c #A97B50",
"/b c #A97B51",
"/c c #A97B57",
"/d c #A97C58",
"/e c #A97D56",
"/f c #A97D58",
"/g c #A97E4A",
"/h c #A97E58",
"/i c #A97E5C",
"/j c #A97F59",
"/k c #A9805C",
"/l c #A98156",
"/m c #A98260",
"/n c #A98264",
"/o c #AA653A",
"/p c #AA6A46",
"/q c #AA6E3F",
"/r c #AA6F40",
"/s c #AA6F41",
"/t c #AA703F",
"/u c #AA7042",
"/v c #AA7144",
"/w c #AA7244",
"/x c #AA7245",
"/y c #AA7246",
"/z c #AA7247",
"/{ c #AA724A",
"/| c #AA7344",
"/} c #AA7346",
"/~ c #AA7347",
"0! c #AA7348",
"0# c #AA7351",
"0$ c #AA7442",
"0% c #AA7444",
"0& c #AA7445",
"0' c #AA7447",
"0( c #AA7449",
"0) c #AA744C",
"0* c #AA7544",
"0+ c #AA7546",
"0, c #AA7547",
"0- c #AA7548",
"0. c #AA7549",
"0/ c #AA754C",
"00 c #AA7646",
"01 c #AA7647",
"02 c #AA7648",
"03 c #AA764E",
"04 c #AA7659",
"05 c #AA7748",
"06 c #AA774C",
"07 c #AA774E",
"08 c #AA774F",
"09 c #AA7750",
"0: c #AA7751",
"0; c #AA7849",
"0< c #AA784B",
"0= c #AA784C",
"0> c #AA784E",
"0? c #AA7850",
"0@ c #AA7851",
"0A c #AA7852",
"0B c #AA794D",
"0C c #AA7950",
"0D c #AA7951",
"0E c #AA7952",
"0F c #AA7A4F",
"0G c #AA7A50",
"0H c #AA7A51",
"0I c #AA7A53",
"0J c #AA7A54",
"0K c #AA7B50",
"0L c #AA7B51",
"0M c #AA7B53",
"0N c #AA7B58",
"0O c #AA7B59",
"0P c #AA7B5E",
"0Q c #AA7C52",
"0R c #AA7C55",
"0S c #AA7D53",
"0T c #AA7D59",
"0U c #AA7E4E",
"0V c #AA7E54",
"0W c #AA7E59",
"0X c #AA7F5A",
"0Y c #AA8159",
"0Z c #AA815A",
"0[ c #AB6B3A",
"0] c #AB6C41",
"0^ c #AB6E40",
"0_ c #AB6E47",
"0` c #AB6E49",
"0a c #AB6F40",
"0b c #AB6F43",
"0c c #AB703F",
"0d c #AB7040",
"0e c #AB7041",
"0f c #AB7042",
"0g c #AB7141",
"0h c #AB7148",
"0i c #AB7241",
"0j c #AB7343",
"0k c #AB7344",
"0l c #AB7347",
"0m c #AB7441",
"0n c #AB7442",
"0o c #AB7445",
"0p c #AB7446",
"0q c #AB744B",
"0r c #AB744D",
"0s c #AB7544",
"0t c #AB7545",
"0u c #AB7547",
"0v c #AB754A",
"0w c #AB754C",
"0x c #AB754F",
"0y c #AB7648",
"0z c #AB7649",
"0{ c #AB764A",
"0| c #AB764E",
"0} c #AB7651",
"0~ c #AB7748",
"1! c #AB7749",
"1# c #AB774B",
"1$ c #AB774C",
"1% c #AB774D",
"1& c #AB7750",
"1' c #AB7751",
"1( c #AB7849",
"1) c #AB784A",
"1* c #AB784B",
"1+ c #AB784C",
"1, c #AB7850",
"1- c #AB7947",
"1. c #AB794A",
"1/ c #AB794C",
"10 c #AB794E",
"11 c #AB7950",
"12 c #AB7A4C",
"13 c #AB7A4E",
"14 c #AB7A52",
"15 c #AB7B4F",
"16 c #AB7B50",
"17 c #AB7B51",
"18 c #AB7B52",
"19 c #AB7B53",
"1: c #AB7C51",
"1; c #AB7C53",
"1< c #AB7C54",
"1= c #AB7C55",
"1> c #AB7C56",
"1? c #AB7D4F",
"1@ c #AB7D50",
"1A c #AB7D54",
"1B c #AB7D56",
"1C c #AB7D57",
"1D c #AB7D5A",
"1E c #AB7D5C",
"1F c #AB7E4F",
"1G c #AB7E54",
"1H c #AB7E58",
"1I c #AB7E59",
"1J c #AB7E5A",
"1K c #AB7F5A",
"1L c #AB7F5E",
"1M c #AB8059",
"1N c #AB805A",
"1O c #AB805B",
"1P c #AB8159",
"1Q c #AB8163",
"1R c #AB825A",
"1S c #AB8358",
"1T c #AB8462",
"1U c #AB8463",
"1V c #AB8562",
"1W c #AB8563",
"1X c #AC6C3B",
"1Y c #AC6C3D",
"1Z c #AC6F3E",
"1[ c #AC6F4B",
"1] c #AC703E",
"1^ c #AC703F",
"1_ c #AC7040",
"1` c #AC7041",
"1a c #AC7043",
"1b c #AC713F",
"1c c #AC7141",
"1d c #AC7142",
"1e c #AC7143",
"1f c #AC7242",
"1g c #AC7243",
"1h c #AC7244",
"1i c #AC733F",
"1j c #AC7341",
"1k c #AC7342",
"1l c #AC7343",
"1m c #AC7346",
"1n c #AC734A",
"1o c #AC743F",
"1p c #AC7441",
"1q c #AC7446",
"1r c #AC7447",
"1s c #AC7449",
"1t c #AC7542",
"1u c #AC7543",
"1v c #AC7547",
"1w c #AC7549",
"1x c #AC7644",
"1y c #AC7645",
"1z c #AC7648",
"1{ c #AC7649",
"1| c #AC764A",
"1} c #AC7745",
"1~ c #AC7746",
"2! c #AC7747",
"2# c #AC774A",
"2$ c #AC7849",
"2% c #AC784A",
"2& c #AC784C",
"2' c #AC7850",
"2( c #AC7852",
"2) c #AC7949",
"2* c #AC794A",
"2+ c #AC794B",
"2, c #AC794C",
"2- c #AC794E",
"2. c #AC7951",
"2/ c #AC7952",
"20 c #AC7955",
"21 c #AC7A4D",
"22 c #AC7A4E",
"23 c #AC7A50",
"24 c #AC7A52",
"25 c #AC7A53",
"26 c #AC7A54",
"27 c #AC7B4E",
"28 c #AC7B4F",
"29 c #AC7B50",
"2: c #AC7B51",
"2; c #AC7B52",
"2< c #AC7B53",
"2= c #AC7B54",
"2> c #AC7C4B",
"2? c #AC7C4F",
"2@ c #AC7C50",
"2A c #AC7C51",
"2B c #AC7C53",
"2C c #AC7C55",
"2D c #AC7C56",
"2E c #AC7D52",
"2F c #AC7E54",
"2G c #AC7E56",
"2H c #AC7E57",
"2I c #AC7F57",
"2J c #AC7F58",
"2K c #AC7F5B",
"2L c #AC8058",
"2M c #AC815A",
"2N c #AC815B",
"2O c #AC815D",
"2P c #AC8161",
"2Q c #AC825D",
"2R c #AC8357",
"2S c #AC835B",
"2T c #AC8362",
"2U c #AC885F",
"2V c #AC8867",
"2W c #AD6B3B",
"2X c #AD6C3B",
"2Y c #AD6E39",
"2Z c #AD6E3B",
"2[ c #AD6E3E",
"2] c #AD6E45",
"2^ c #AD6F4D",
"2_ c #AD7040",
"2` c #AD713F",
"2a c #AD7142",
"2b c #AD7241",
"2c c #AD7242",
"2d c #AD7244",
"2e c #AD7247",
"2f c #AD733D",
"2g c #AD7341",
"2h c #AD7343",
"2i c #AD7344",
"2j c #AD7345",
"2k c #AD7346",
"2l c #AD743F",
"2m c #AD7441",
"2n c #AD7442",
"2o c #AD7444",
"2p c #AD7445",
"2q c #AD7447",
"2r c #AD7543",
"2s c #AD7544",
"2t c #AD7545",
"2u c #AD7546",
"2v c #AD7547",
"2w c #AD7548",
"2x c #AD7549",
"2y c #AD754A",
"2z c #AD754B",
"2{ c #AD763F",
"2| c #AD7644",
"2} c #AD7645",
"2~ c #AD7646",
"3! c #AD764A",
"3# c #AD764B",
"3$ c #AD7650",
"3% c #AD7744",
"3& c #AD7745",
"3' c #AD7748",
"3( c #AD774A",
"3) c #AD774B",
"3* c #AD774C",
"3+ c #AD774E",
"3, c #AD7849",
"3- c #AD784B",
"3. c #AD784C",
"3/ c #AD784E",
"30 c #AD7946",
"31 c #AD794A",
"32 c #AD794B",
"33 c #AD7950",
"34 c #AD7952",
"35 c #AD7A4D",
"36 c #AD7A54",
"37 c #AD7B4B",
"38 c #AD7B4D",
"39 c #AD7B4E",
"3: c #AD7B52",
"3; c #AD7B53",
"3< c #AD7B56",
"3= c #AD7C4C",
"3> c #AD7C4F",
"3? c #AD7C50",
"3@ c #AD7C55",
"3A c #AD7C5B",
"3B c #AD7D51",
"3C c #AD7D52",
"3D c #AD7D54",
"3E c #AD7D58",
"3F c #AD7E51",
"3G c #AD7E52",
"3H c #AD7E54",
"3I c #AD7E55",
"3J c #AD7E57",
"3K c #AD7E58",
"3L c #AD7F54",
"3M c #AD7F57",
"3N c #AD7F61",
"3O c #AD8059",
"3P c #AD814D",
"3Q c #AD814E",
"3R c #AD8150",
"3S c #AD8159",
"3T c #AD815A",
"3U c #AD825B",
"3V c #AD835A",
"3W c #AD835B",
"3X c #AD835E",
"3Y c #AD8360",
"3Z c #AD8460",
"3[ c #AD855F",
"3] c #AE6D3B",
"3^ c #AE6E40",
"3_ c #AE6E41",
"3` c #AE6E46",
"3a c #AE703D",
"3b c #AE703F",
"3c c #AE713F",
"3d c #AE7140",
"3e c #AE7141",
"3f c #AE7143",
"3g c #AE7145",
"3h c #AE723E",
"3i c #AE7242",
"3j c #AE7243",
"3k c #AE7244",
"3l c #AE7342",
"3m c #AE7343",
"3n c #AE7344",
"3o c #AE7348",
"3p c #AE734B",
"3q c #AE7443",
"3r c #AE7444",
"3s c #AE7542",
"3t c #AE7544",
"3u c #AE7547",
"3v c #AE7548",
"3w c #AE7549",
"3x c #AE7643",
"3y c #AE7645",
"3z c #AE7646",
"3{ c #AE7647",
"3| c #AE7649",
"3} c #AE764B",
"3~ c #AE764E",
"4! c #AE7650",
"4# c #AE7747",
"4$ c #AE7749",
"4% c #AE774A",
"4& c #AE774D",
"4' c #AE774F",
"4( c #AE7846",
"4) c #AE7848",
"4* c #AE7849",
"4+ c #AE784A",
"4, c #AE784B",
"4- c #AE784C",
"4. c #AE784E",
"4/ c #AE7948",
"40 c #AE7949",
"41 c #AE794A",
"42 c #AE794B",
"43 c #AE794C",
"44 c #AE794E",
"45 c #AE794F",
"46 c #AE7954",
"47 c #AE7A43",
"48 c #AE7A48",
"49 c #AE7A4B",
"4: c #AE7A4D",
"4; c #AE7A4F",
"4< c #AE7A51",
"4= c #AE7B4C",
"4> c #AE7B4D",
"4? c #AE7B4F",
"4@ c #AE7B53",
"4A c #AE7B55",
"4B c #AE7B5C",
"4C c #AE7C4C",
"4D c #AE7C4D",
"4E c #AE7C4F",
"4F c #AE7C52",
"4G c #AE7D4E",
"4H c #AE7D50",
"4I c #AE7D54",
"4J c #AE7E53",
"4K c #AE7E55",
"4L c #AE7E56",
"4M c #AE7F52",
"4N c #AE7F54",
"4O c #AE7F55",
"4P c #AE7F57",
"4Q c #AE8056",
"4R c #AE8152",
"4S c #AE8154",
"4T c #AE8158",
"4U c #AE815B",
"4V c #AE835D",
"4W c #AE8460",
"4X c #AE865D",
"4Y c #AE865E",
"4Z c #AE8660",
"4[ c #AE8A64",
"4] c #AF6940",
"4^ c #AF6C47",
"4_ c #AF6E3C",
"4` c #AF703B",
"4a c #AF703C",
"4b c #AF703D",
"4c c #AF713A",
"4d c #AF713C",
"4e c #AF7144",
"4f c #AF723E",
"4g c #AF723F",
"4h c #AF7240",
"4i c #AF7244",
"4j c #AF733D",
"4k c #AF7344",
"4l c #AF7443",
"4m c #AF7444",
"4n c #AF7445",
"4o c #AF7446",
"4p c #AF7540",
"4q c #AF7544",
"4r c #AF7545",
"4s c #AF7547",
"4t c #AF754C",
"4u c #AF7551",
"4v c #AF7642",
"4w c #AF7643",
"4x c #AF7644",
"4y c #AF7646",
"4z c #AF7647",
"4{ c #AF7649",
"4| c #AF7651",
"4} c #AF7743",
"4~ c #AF7744",
"5! c #AF7749",
"5# c #AF774A",
"5$ c #AF774B",
"5% c #AF7845",
"5& c #AF7846",
"5' c #AF7847",
"5( c #AF7848",
"5) c #AF784B",
"5* c #AF784C",
"5+ c #AF784D",
"5, c #AF784E",
"5- c #AF7851",
"5. c #AF7949",
"5/ c #AF794C",
"50 c #AF794D",
"51 c #AF794F",
"52 c #AF7951",
"53 c #AF7A4A",
"54 c #AF7A4B",
"55 c #AF7A4C",
"56 c #AF7A4D",
"57 c #AF7A52",
"58 c #AF7B4C",
"59 c #AF7B4D",
"5: c #AF7B52",
"5; c #AF7C47",
"5< c #AF7C4D",
"5= c #AF7C4E",
"5> c #AF7C4F",
"5? c #AF7C52",
"5@ c #AF7C56",
"5A c #AF7D4D",
"5B c #AF7D4F",
"5C c #AF7D50",
"5D c #AF7D53",
"5E c #AF7D55",
"5F c #AF7D56",
"5G c #AF7E46",
"5H c #AF7E50",
"5I c #AF7E52",
"5J c #AF7F54",
"5K c #AF7F56",
"5L c #AF7F57",
"5M c #AF8055",
"5N c #AF8056",
"5O c #AF8057",
"5P c #AF8059",
"5Q c #AF805E",
"5R c #AF8244",
"5S c #AF8259",
"5T c #AF825A",
"5U c #AF825E",
"5V c #AF8359",
"5W c #AF835D",
"5X c #AF844D",
"5Y c #AF845E",
"5Z c #AF8955",
"5[ c #B06B46",
"5] c #B06E3E",
"5^ c #B06F37",
"5_ c #B0713D",
"5` c #B0723C",
"5a c #B07240",
"5b c #B07241",
"5c c #B0733D",
"5d c #B0733F",
"5e c #B07341",
"5f c #B07342",
"5g c #B07343",
"5h c #B07346",
"5i c #B0743D",
"5j c #B0743E",
"5k c #B07444",
"5l c #B07445",
"5m c #B0753F",
"5n c #B07545",
"5o c #B07546",
"5p c #B07641",
"5q c #B07642",
"5r c #B07645",
"5s c #B07646",
"5t c #B07647",
"5u c #B0764B",
"5v c #B07743",
"5w c #B07745",
"5x c #B07746",
"5y c #B0774A",
"5z c #B07845",
"5{ c #B07847",
"5| c #B07848",
"5} c #B07849",
"5~ c #B0784A",
"6! c #B0784D",
"6# c #B07949",
"6$ c #B0794A",
"6% c #B0794B",
"6& c #B0794C",
"6' c #B0794E",
"6( c #B0794F",
"6) c #B07A45",
"6* c #B07A49",
"6+ c #B07A4A",
"6, c #B07A4B",
"6- c #B07A4D",
"6. c #B07A4F",
"6/ c #B07A51",
"60 c #B07B4A",
"61 c #B07B4B",
"62 c #B07B4D",
"63 c #B07B4E",
"64 c #B07B52",
"65 c #B07C4B",
"66 c #B07C4C",
"67 c #B07C4D",
"68 c #B07C4E",
"69 c #B07C50",
"6: c #B07D4D",
"6; c #B07D4E",
"6< c #B07D50",
"6= c #B07D56",
"6> c #B07E45",
"6? c #B07E4E",
"6@ c #B07E4F",
"6A c #B07E51",
"6B c #B07E53",
"6C c #B07E54",
"6D c #B07E56",
"6E c #B07E58",
"6F c #B07F4B",
"6G c #B07F4E",
"6H c #B07F54",
"6I c #B07F56",
"6J c #B08052",
"6K c #B08054",
"6L c #B08055",
"6M c #B08056",
"6N c #B08058",
"6O c #B08156",
"6P c #B08254",
"6Q c #B08258",
"6R c #B08259",
"6S c #B08351",
"6T c #B0845C",
"6U c #B0854E",
"6V c #B08661",
"6W c #B08864",
"6X c #B16940",
"6Y c #B16F3B",
"6Z c #B1713E",
"6[ c #B1723D",
"6] c #B1723F",
"6^ c #B1733D",
"6_ c #B1733E",
"6` c #B1733F",
"6a c #B17340",
"6b c #B17341",
"6c c #B17347",
"6d c #B1743E",
"6e c #B17442",
"6f c #B17444",
"6g c #B17445",
"6h c #B17541",
"6i c #B17543",
"6j c #B17544",
"6k c #B17545",
"6l c #B17546",
"6m c #B17547",
"6n c #B1754A",
"6o c #B1754B",
"6p c #B1763F",
"6q c #B17642",
"6r c #B17643",
"6s c #B17645",
"6t c #B17646",
"6u c #B17647",
"6v c #B1765B",
"6w c #B17746",
"6x c #B17747",
"6y c #B1774A",
"6z c #B1774B",
"6{ c #B17844",
"6| c #B17846",
"6} c #B17849",
"6~ c #B1784A",
"7! c #B1784C",
"7# c #B17946",
"7$ c #B17948",
"7% c #B17949",
"7& c #B1794B",
"7' c #B1794D",
"7( c #B17A47",
"7) c #B17A48",
"7* c #B17A49",
"7+ c #B17A4A",
"7, c #B17A4D",
"7- c #B17A4E",
"7. c #B17A4F",
"7/ c #B17A50",
"70 c #B17B46",
"71 c #B17B47",
"72 c #B17B49",
"73 c #B17B4A",
"74 c #B17B4B",
"75 c #B17B4C",
"76 c #B17B4E",
"77 c #B17B4F",
"78 c #B17B51",
"79 c #B17C4B",
"7: c #B17C4D",
"7; c #B17C4E",
"7< c #B17C54",
"7= c #B17D4D",
"7> c #B17D4E",
"7? c #B17D4F",
"7@ c #B17D52",
"7A c #B17D54",
"7B c #B17D55",
"7C c #B17E4D",
"7D c #B17E4E",
"7E c #B17E50",
"7F c #B17E55",
"7G c #B17F51",
"7H c #B17F52",
"7I c #B17F56",
"7J c #B1804C",
"7K c #B18053",
"7L c #B18056",
"7M c #B18058",
"7N c #B18059",
"7O c #B18151",
"7P c #B18158",
"7Q c #B1815C",
"7R c #B18257",
"7S c #B18258",
"7T c #B18355",
"7U c #B18362",
"7V c #B18453",
"7W c #B18458",
"7X c #B1845B",
"7Y c #B1845C",
"7Z c #B18463",
"7[ c #B1855E",
"7] c #B1865E",
"7^ c #B18759",
"7_ c #B18860",
"7` c #B18867",
"7a c #B1935C",
"7b c #B2693E",
"7c c #B26F3C",
"7d c #B2703B",
"7e c #B2713C",
"7f c #B2713F",
"7g c #B27140",
"7h c #B2723F",
"7i c #B2724D",
"7j c #B2733F",
"7k c #B27341",
"7l c #B2734A",
"7m c #B27441",
"7n c #B27542",
"7o c #B27543",
"7p c #B27544",
"7q c #B27545",
"7r c #B27549",
"7s c #B27645",
"7t c #B27646",
"7u c #B27647",
"7v c #B27649",
"7w c #B2764B",
"7x c #B27741",
"7y c #B27742",
"7z c #B27745",
"7{ c #B27746",
"7| c #B27748",
"7} c #B27843",
"7~ c #B27847",
"8! c #B2784C",
"8# c #B2784F",
"8$ c #B27946",
"8% c #B27947",
"8& c #B27948",
"8' c #B27949",
"8( c #B2794B",
"8) c #B2794C",
"8* c #B2794E",
"8+ c #B27A47",
"8, c #B27A48",
"8- c #B27A49",
"8. c #B27A4B",
"8/ c #B27A4F",
"80 c #B27B4A",
"81 c #B27B4B",
"82 c #B27B4D",
"83 c #B27B50",
"84 c #B27B55",
"85 c #B27C42",
"86 c #B27C4A",
"87 c #B27C4B",
"88 c #B27C4C",
"89 c #B27C4E",
"8: c #B27C4F",
"8; c #B27C53",
"8< c #B27C55",
"8= c #B27D4C",
"8> c #B27D4F",
"8? c #B27D52",
"8@ c #B27D59",
"8A c #B27E47",
"8B c #B27E4A",
"8C c #B27E4F",
"8D c #B27E50",
"8E c #B27E51",
"8F c #B27E55",
"8G c #B27E57",
"8H c #B27F49",
"8I c #B27F4B",
"8J c #B27F4E",
"8K c #B27F50",
"8L c #B27F52",
"8M c #B27F53",
"8N c #B27F58",
"8O c #B2804D",
"8P c #B2804E",
"8Q c #B2804F",
"8R c #B28050",
"8S c #B28053",
"8T c #B28054",
"8U c #B28058",
"8V c #B2814C",
"8W c #B28152",
"8X c #B28154",
"8Y c #B28156",
"8Z c #B28255",
"8[ c #B28258",
"8] c #B28259",
"8^ c #B2825A",
"8_ c #B28358",
"8` c #B28359",
"8a c #B2845B",
"8b c #B2845E",
"8c c #B2865D",
"8d c #B2865E",
"8e c #B2875B",
"8f c #B28864",
"8g c #B28958",
"8h c #B28B68",
"8i c #B36E42",
"8j c #B3723E",
"8k c #B37340",
"8l c #B37446",
"8m c #B37543",
"8n c #B37544",
"8o c #B37545",
"8p c #B37644",
"8q c #B37645",
"8r c #B37743",
"8s c #B37744",
"8t c #B37745",
"8u c #B37747",
"8v c #B3783F",
"8w c #B37840",
"8x c #B37845",
"8y c #B37846",
"8z c #B37848",
"8{ c #B37849",
"8| c #B37944",
"8} c #B37946",
"8~ c #B37947",
"9! c #B37949",
"9# c #B37A45",
"9$ c #B37A47",
"9% c #B37A48",
"9& c #B37A49",
"9' c #B37A4A",
"9( c #B37B45",
"9) c #B37B48",
"9* c #B37B49",
"9+ c #B37B4A",
"9, c #B37B4C",
"9- c #B37C48",
"9. c #B37C49",
"9/ c #B37C4A",
"90 c #B37C4B",
"91 c #B37C4D",
"92 c #B37C4E",
"93 c #B37C51",
"94 c #B37C52",
"95 c #B37C56",
"96 c #B37D40",
"97 c #B37D47",
"98 c #B37D4A",
"99 c #B37D4D",
"9: c #B37D4E",
"9; c #B37D4F",
"9< c #B37E42",
"9= c #B37E4D",
"9> c #B37E4E",
"9? c #B37E50",
"9@ c #B37E51",
"9A c #B37E52",
"9B c #B37E5A",
"9C c #B37F4C",
"9D c #B37F50",
"9E c #B37F51",
"9F c #B37F53",
"9G c #B38051",
"9H c #B38052",
"9I c #B38053",
"9J c #B38150",
"9K c #B38153",
"9L c #B38154",
"9M c #B38158",
"9N c #B38253",
"9O c #B38257",
"9P c #B3825A",
"9Q c #B38350",
"9R c #B38358",
"9S c #B3835A",
"9T c #B38459",
"9U c #B3845A",
"9V c #B3865A",
"9W c #B3865B",
"9X c #B3865D",
"9Y c #B38A62",
"9Z c #B38A63",
"9[ c #B38B5A",
"9] c #B46F3D",
"9^ c #B4703F",
"9_ c #B47140",
"9` c #B47241",
"9a c #B4733C",
"9b c #B47341",
"9c c #B47440",
"9d c #B47441",
"9e c #B47546",
"9f c #B4773F",
"9g c #B47740",
"9h c #B47742",
"9i c #B47743",
"9j c #B47744",
"9k c #B47746",
"9l c #B47748",
"9m c #B4774B",
"9n c #B4774D",
"9o c #B47844",
"9p c #B47845",
"9q c #B47846",
"9r c #B47848",
"9s c #B47849",
"9t c #B4784A",
"9u c #B4784B",
"9v c #B47944",
"9w c #B47946",
"9x c #B47A45",
"9y c #B47A46",
"9z c #B47A47",
"9{ c #B47A48",
"9| c #B47A4A",
"9} c #B47A4B",
"9~ c #B47B47",
":! c #B47B48",
":# c #B47B49",
":$ c #B47B4A",
":% c #B47C45",
":& c #B47C46",
":' c #B47C48",
":( c #B47C49",
":) c #B47C4A",
":* c #B47C4C",
":+ c #B47C4F",
":, c #B47C51",
":- c #B47D49",
":. c #B47D4A",
":/ c #B47D4B",
":0 c #B47D51",
":1 c #B47D52",
":2 c #B47E4A",
":3 c #B47E4C",
":4 c #B47E4E",
":5 c #B47E52",
":6 c #B47F49",
":7 c #B47F4A",
":8 c #B47F4D",
":9 c #B47F4F",
":: c #B47F55",
":; c #B47F57",
":< c #B4804B",
":= c #B48050",
":> c #B48051",
":? c #B48052",
":@ c #B48053",
":A c #B48054",
":B c #B4805A",
":C c #B4814E",
":D c #B48150",
":E c #B48152",
":F c #B48154",
":G c #B4824E",
":H c #B48251",
":I c #B48253",
":J c #B48255",
":K c #B4834D",
":L c #B48354",
":M c #B48356",
":N c #B48357",
":O c #B4835B",
":P c #B48365",
":Q c #B48458",
":R c #B48459",
":S c #B4845A",
":T c #B4845B",
":U c #B4845C",
":V c #B4855B",
":W c #B4855C",
":X c #B48561",
":Y c #B48662",
":Z c #B48852",
":[ c #B48860",
":] c #B48861",
":^ c #B48963",
":_ c #B56E3C",
":` c #B57244",
":a c #B57340",
":b c #B5743E",
":c c #B57440",
":d c #B57447",
":e c #B57539",
":f c #B57643",
":g c #B57644",
":h c #B57741",
":i c #B57746",
":j c #B5783D",
":k c #B57841",
":l c #B57842",
":m c #B57844",
":n c #B57846",
":o c #B5784A",
":p c #B5784C",
":q c #B57943",
":r c #B57944",
":s c #B57945",
":t c #B57946",
":u c #B57947",
":v c #B57948",
":w c #B57949",
":x c #B5794A",
":y c #B57A44",
":z c #B57A46",
":{ c #B57A47",
":| c #B57A4A",
":} c #B57A4B",
":~ c #B57B43",
";! c #B57B47",
";# c #B57B48",
";$ c #B57B49",
";% c #B57B4A",
";& c #B57B50",
";' c #B57C48",
";( c #B57C49",
";) c #B57C4A",
";* c #B57C4B",
";+ c #B57C4E",
";, c #B57D45",
";- c #B57D46",
";. c #B57D47",
";/ c #B57D49",
";0 c #B57D4A",
";1 c #B57D4B",
";2 c #B57D4D",
";3 c #B57D52",
";4 c #B57D53",
";5 c #B57E4B",
";6 c #B57E4C",
";7 c #B57E52",
";8 c #B57E53",
";9 c #B57F4A",
";: c #B57F4D",
";; c #B57F4E",
";< c #B57F4F",
";= c #B5804E",
";> c #B58052",
";? c #B58054",
";@ c #B58055",
";A c #B5814E",
";B c #B58152",
";C c #B58154",
";D c #B58157",
";E c #B58158",
";F c #B58250",
";G c #B58253",
";H c #B58352",
";I c #B58354",
";J c #B58355",
";K c #B58455",
";L c #B58551",
";M c #B58758",
";N c #B58760",
";O c #B58A65",
";P c #B58C65",
";Q c #B58F6D",
";R c #B6723A",
";S c #B67241",
";T c #B67642",
";U c #B67741",
";V c #B67746",
";W c #B6774C",
";X c #B6783F",
";Y c #B67845",
";Z c #B67846",
";[ c #B67847",
";] c #B6784A",
";^ c #B6784F",
";_ c #B67942",
";` c #B67943",
";a c #B67945",
";b c #B67A42",
";c c #B67A43",
";d c #B67A44",
";e c #B67A46",
";f c #B67A48",
";g c #B67A49",
";h c #B67A4A",
";i c #B67A4B",
";j c #B67B43",
";k c #B67B46",
";l c #B67B49",
";m c #B67B4D",
";n c #B67C42",
";o c #B67C46",
";p c #B67C47",
";q c #B67C4B",
";r c #B67C4C",
";s c #B67D4B",
";t c #B67D4C",
";u c #B67D51",
";v c #B67D54",
";w c #B67E48",
";x c #B67E4C",
";y c #B67F4B",
";z c #B67F4E",
";{ c #B67F50",
";| c #B67F56",
";} c #B6804E",
";~ c #B68050",
"<! c #B68052",
"<# c #B68055",
"<$ c #B68057",
"<% c #B68150",
"<& c #B68151",
"<' c #B68152",
"<( c #B68153",
"<) c #B68155",
"<* c #B68252",
"<+ c #B68253",
"<, c #B68258",
"<- c #B68349",
"<. c #B68453",
"</ c #B68455",
"<0 c #B68456",
"<1 c #B6845D",
"<2 c #B68553",
"<3 c #B68555",
"<4 c #B6855E",
"<5 c #B6865A",
"<6 c #B6865B",
"<7 c #B68852",
"<8 c #B6895B",
"<9 c #B68A54",
"<: c #B68A69",
"<; c #B77041",
"<< c #B77343",
"<= c #B7753C",
"<> c #B7753D",
"<? c #B77640",
"<@ c #B77845",
"<A c #B77946",
"<B c #B77948",
"<C c #B77A48",
"<D c #B77A4C",
"<E c #B77B44",
"<F c #B77B46",
"<G c #B77B47",
"<H c #B77B48",
"<I c #B77B49",
"<J c #B77B4A",
"<K c #B77B4C",
"<L c #B77C43",
"<M c #B77C4A",
"<N c #B77C4D",
"<O c #B77D48",
"<P c #B77D4B",
"<Q c #B77D4D",
"<R c #B77E47",
"<S c #B77E49",
"<T c #B77E4B",
"<U c #B77E4D",
"<V c #B77E50",
"<W c #B77E52",
"<X c #B77F4C",
"<Y c #B77F4D",
"<Z c #B77F4E",
"<[ c #B77F52",
"<] c #B77F54",
"<^ c #B78046",
"<_ c #B7804C",
"<` c #B7804D",
"<a c #B7804E",
"<b c #B78052",
"<c c #B78054",
"<d c #B7814C",
"<e c #B7814D",
"<f c #B7814F",
"<g c #B78250",
"<h c #B78252",
"<i c #B78255",
"<j c #B7825A",
"<k c #B7834E",
"<l c #B78350",
"<m c #B78353",
"<n c #B78354",
"<o c #B7844F",
"<p c #B78547",
"<q c #B7854C",
"<r c #B7854F",
"<s c #B7864D",
"<t c #B78653",
"<u c #B78659",
"<v c #B7865D",
"<w c #B78755",
"<x c #B78758",
"<y c #B7875C",
"<z c #B7875E",
"<{ c #B78760",
"<| c #B7885B",
"<} c #B7885F",
"<~ c #B78A64",
"=! c #B78C5F",
"=# c #B78D61",
"=$ c #B78E65",
"=% c #B8703D",
"=& c #B8763F",
"=' c #B87845",
"=( c #B87846",
"=) c #B87945",
"=* c #B8794C",
"=+ c #B87A40",
"=, c #B87A42",
"=- c #B87A49",
"=. c #B87B4D",
"=/ c #B87C45",
"=0 c #B87C46",
"=1 c #B87C49",
"=2 c #B87C51",
"=3 c #B87D3E",
"=4 c #B87D46",
"=5 c #B87D47",
"=6 c #B87D4B",
"=7 c #B87E44",
"=8 c #B87E48",
"=9 c #B87E49",
"=: c #B87E4A",
"=; c #B87E4F",
"=< c #B87E52",
"== c #B87F44",
"=> c #B87F4A",
"=? c #B87F4B",
"=@ c #B87F4C",
"=A c #B87F4D",
"=B c #B87F4E",
"=C c #B88046",
"=D c #B8804A",
"=E c #B8804B",
"=F c #B8804C",
"=G c #B8804D",
"=H c #B8804F",
"=I c #B88050",
"=J c #B8814B",
"=K c #B8814D",
"=L c #B8814E",
"=M c #B8814F",
"=N c #B8824B",
"=O c #B8824C",
"=P c #B8824E",
"=Q c #B88251",
"=R c #B8834D",
"=S c #B88351",
"=T c #B88352",
"=U c #B88356",
"=V c #B8844C",
"=W c #B88450",
"=X c #B88452",
"=Y c #B8854D",
"=Z c #B8855E",
"=[ c #B88655",
"=] c #B88656",
"=^ c #B88756",
"=_ c #B88758",
"=` c #B88856",
"=a c #B8885D",
"=b c #B88860",
"=c c #B88955",
"=d c #B8895D",
"=e c #B88A63",
"=f c #B88B5F",
"=g c #B88C68",
"=h c #B88D5F",
"=i c #B88D63",
"=j c #B88E64",
"=k c #B9733D",
"=l c #B97744",
"=m c #B9783F",
"=n c #B97849",
"=o c #B97942",
"=p c #B97945",
"=q c #B97948",
"=r c #B97A43",
"=s c #B97A44",
"=t c #B97A46",
"=u c #B97A47",
"=v c #B97A4A",
"=w c #B97B42",
"=x c #B97B44",
"=y c #B97B45",
"=z c #B97B46",
"={ c #B97B49",
"=| c #B97B4F",
"=} c #B97C43",
"=~ c #B97C48",
">! c #B97D3E",
"># c #B97D42",
">$ c #B97D45",
">% c #B97D46",
">& c #B97D48",
">' c #B97D4A",
">( c #B97E48",
">) c #B97F3E",
">* c #B97F46",
">+ c #B97F47",
">, c #B97F49",
">- c #B97F4B",
">. c #B97F4C",
">/ c #B97F4E",
">0 c #B97F4F",
">1 c #B97F50",
">2 c #B98046",
">3 c #B9804A",
">4 c #B9804B",
">5 c #B9814A",
">6 c #B9814E",
">7 c #B98150",
">8 c #B98152",
">9 c #B9824C",
">: c #B9824E",
">; c #B9824F",
">< c #B9834C",
">= c #B9834E",
">> c #B98350",
">? c #B98353",
">@ c #B9844F",
">A c #B98450",
">B c #B9854E",
">C c #B98556",
">D c #B98557",
">E c #B98756",
">F c #B9875A",
">G c #B9884F",
">H c #B98855",
">I c #B9885B",
">J c #B9885D",
">K c #B98959",
">L c #B9895A",
">M c #B98A57",
">N c #B98A59",
">O c #B98A5D",
">P c #B98C5D",
">Q c #B98C65",
">R c #B98E64",
">S c #BA7246",
">T c #BA763E",
">U c #BA763F",
">V c #BA7740",
">W c #BA7741",
">X c #BA7750",
">Y c #BA783B",
">Z c #BA783D",
">[ c #BA7A42",
">] c #BA7A44",
">^ c #BA7A47",
">_ c #BA7B46",
">` c #BA7B48",
">a c #BA7C45",
">b c #BA7C46",
">c c #BA7C47",
">d c #BA7C4B",
">e c #BA7D46",
">f c #BA7D4A",
">g c #BA7D4C",
">h c #BA7D4D",
">i c #BA7E48",
">j c #BA7E4A",
">k c #BA7E4B",
">l c #BA7E4C",
">m c #BA7F46",
">n c #BA7F47",
">o c #BA7F53",
">p c #BA8047",
">q c #BA804B",
">r c #BA804C",
">s c #BA814B",
">t c #BA814D",
">u c #BA8151",
">v c #BA824D",
">w c #BA824F",
">x c #BA8251",
">y c #BA8255",
">z c #BA8256",
">{ c #BA8257",
">| c #BA834B",
">} c #BA8350",
">~ c #BA8351",
"?! c #BA8353",
"?# c #BA8354",
"?$ c #BA8450",
"?% c #BA8451",
"?& c #BA8453",
"?' c #BA845A",
"?( c #BA8550",
"?) c #BA8556",
"?* c #BA8557",
"?+ c #BA8646",
"?, c #BA8650",
"?- c #BA8857",
"?. c #BA8858",
"?/ c #BA8950",
"?0 c #BA8953",
"?1 c #BA8A56",
"?2 c #BA8A57",
"?3 c #BA8A5F",
"?4 c #BA8B4F",
"?5 c #BA8C5E",
"?6 c #BA8C60",
"?7 c #BA8C61",
"?8 c #BA8F69",
"?9 c #BB743F",
"?: c #BB763D",
"?; c #BB763E",
"?< c #BB763F",
"?= c #BB773B",
"?> c #BB773C",
"?? c #BB773D",
"?@ c #BB773F",
"?A c #BB7747",
"?B c #BB7842",
"?C c #BB7942",
"?D c #BB7943",
"?E c #BB7A3C",
"?F c #BB7B40",
"?G c #BB7B47",
"?H c #BB7C48",
"?I c #BB7C4A",
"?J c #BB7C50",
"?K c #BB7D41",
"?L c #BB7D46",
"?M c #BB7D47",
"?N c #BB7D49",
"?O c #BB7E3D",
"?P c #BB7E48",
"?Q c #BB7E54",
"?R c #BB7F47",
"?S c #BB7F48",
"?T c #BB7F4D",
"?U c #BB7F50",
"?V c #BB7F51",
"?W c #BB804B",
"?X c #BB8051",
"?Y c #BB814B",
"?Z c #BB814C",
"?[ c #BB814D",
"?] c #BB8151",
"?^ c #BB8153",
"?_ c #BB8248",
"?` c #BB824A",
"?a c #BB824B",
"?b c #BB824D",
"?c c #BB824E",
"?d c #BB8253",
"?e c #BB8450",
"?f c #BB8451",
"?g c #BB8453",
"?h c #BB8455",
"?i c #BB8456",
"?j c #BB8542",
"?k c #BB8551",
"?l c #BB8552",
"?m c #BB8559",
"?n c #BB8651",
"?o c #BB8652",
"?p c #BB8655",
"?q c #BB8656",
"?r c #BB8657",
"?s c #BB8757",
"?t c #BB8758",
"?u c #BB8852",
"?v c #BB885A",
"?w c #BB8B57",
"?x c #BB8B5B",
"?y c #BB8E5F",
"?z c #BB8F63",
"?{ c #BB9058",
"?| c #BB946A",
"?} c #BC7644",
"?~ c #BC783A",
"@! c #BC7842",
"@# c #BC7847",
"@$ c #BC7A3E",
"@% c #BC7A41",
"@& c #BC7A42",
"@' c #BC7A52",
"@( c #BC7B42",
"@) c #BC7C40",
"@* c #BC7C48",
"@+ c #BC7C49",
"@, c #BC7C4A",
"@- c #BC7C4B",
"@. c #BC7D41",
"@/ c #BC7D48",
"@0 c #BC7E42",
"@1 c #BC7E47",
"@2 c #BC7E4C",
"@3 c #BC7F49",
"@4 c #BC7F4B",
"@5 c #BC7F4C",
"@6 c #BC8047",
"@7 c #BC8048",
"@8 c #BC804B",
"@9 c #BC814C",
"@: c #BC8152",
"@; c #BC8248",
"@< c #BC824C",
"@= c #BC824E",
"@> c #BC8349",
"@? c #BC834E",
"@@ c #BC844B",
"@A c #BC844D",
"@B c #BC844E",
"@C c #BC8451",
"@D c #BC8457",
"@E c #BC8551",
"@F c #BC8552",
"@G c #BC8555",
"@H c #BC8557",
"@I c #BC8647",
"@J c #BC8655",
"@K c #BC8758",
"@L c #BC8859",
"@M c #BC885A",
"@N c #BC8958",
"@O c #BC8A54",
"@P c #BC8B5B",
"@Q c #BC9159",
"@R c #BD723A",
"@S c #BD7441",
"@T c #BD773D",
"@U c #BD7747",
"@V c #BD783E",
"@W c #BD7941",
"@X c #BD7942",
"@Y c #BD7944",
"@Z c #BD7A42",
"@[ c #BD7A44",
"@] c #BD7A48",
"@^ c #BD7A4D",
"@_ c #BD7B4A",
"@` c #BD7C3B",
"@a c #BD7D47",
"@b c #BD7D49",
"@c c #BD7D4B",
"@d c #BD7E47",
"@e c #BD7E4A",
"@f c #BD7E4B",
"@g c #BD7F49",
"@h c #BD7F4A",
"@i c #BD8045",
"@j c #BD8048",
"@k c #BD804C",
"@l c #BD804E",
"@m c #BD8142",
"@n c #BD8144",
"@o c #BD8148",
"@p c #BD8149",
"@q c #BD814A",
"@r c #BD8150",
"@s c #BD8248",
"@t c #BD824B",
"@u c #BD824C",
"@v c #BD8349",
"@w c #BD834A",
"@x c #BD834C",
"@y c #BD834D",
"@z c #BD834E",
"@{ c #BD834F",
"@| c #BD8448",
"@} c #BD8449",
"@~ c #BD844B",
"A! c #BD844C",
"A# c #BD8546",
"A$ c #BD8549",
"A% c #BD8551",
"A& c #BD8552",
"A' c #BD8647",
"A( c #BD8650",
"A) c #BD8651",
"A* c #BD8752",
"A+ c #BD8753",
"A, c #BD8754",
"A- c #BD8758",
"A. c #BD875A",
"A/ c #BD884B",
"A0 c #BD884F",
"A1 c #BD8852",
"A2 c #BD8951",
"A3 c #BD8953",
"A4 c #BD8959",
"A5 c #BD8A56",
"A6 c #BD8A61",
"A7 c #BD8B52",
"A8 c #BD8B53",
"A9 c #BD8B5A",
"A: c #BD8E5B",
"A; c #BD8E5F",
"A< c #BD9364",
"A= c #BD9565",
"A> c #BE713D",
"A? c #BE783F",
"A@ c #BE793A",
"AA c #BE7A43",
"AB c #BE7B42",
"AC c #BE7B43",
"AD c #BE7B45",
"AE c #BE7C43",
"AF c #BE7C45",
"AG c #BE7D49",
"AH c #BE7E49",
"AI c #BE7F45",
"AJ c #BE7F47",
"AK c #BE8042",
"AL c #BE8047",
"AM c #BE8147",
"AN c #BE8148",
"AO c #BE814A",
"AP c #BE814B",
"AQ c #BE814D",
"AR c #BE8150",
"AS c #BE8244",
"AT c #BE824A",
"AU c #BE824B",
"AV c #BE824C",
"AW c #BE8349",
"AX c #BE834E",
"AY c #BE844B",
"AZ c #BE844F",
"A[ c #BE8453",
"A] c #BE854E",
"A^ c #BE8550",
"A_ c #BE8554",
"A` c #BE8558",
"Aa c #BE864A",
"Ab c #BE864D",
"Ac c #BE8652",
"Ad c #BE8653",
"Ae c #BE8752",
"Af c #BE884B",
"Ag c #BE8852",
"Ah c #BE8853",
"Ai c #BE8856",
"Aj c #BE8A52",
"Ak c #BE8A5C",
"Al c #BE8B51",
"Am c #BE8C57",
"An c #BE8C58",
"Ao c #BE8D60",
"Ap c #BF7645",
"Aq c #BF7A44",
"Ar c #BF7A45",
"As c #BF7B41",
"At c #BF7E44",
"Au c #BF7E47",
"Av c #BF7E48",
"Aw c #BF7E49",
"Ax c #BF7F49",
"Ay c #BF7F4A",
"Az c #BF7F4B",
"A{ c #BF7F4C",
"A| c #BF803F",
"A} c #BF8043",
"A~ c #BF8045",
"B! c #BF8147",
"B# c #BF823F",
"B$ c #BF824A",
"B% c #BF824C",
"B& c #BF824F",
"B' c #BF8346",
"B( c #BF834B",
"B) c #BF834C",
"B* c #BF834E",
"B+ c #BF844A",
"B, c #BF844C",
"B- c #BF844E",
"B. c #BF8550",
"B/ c #BF8650",
"B0 c #BF8651",
"B1 c #BF8654",
"B2 c #BF8747",
"B3 c #BF8759",
"B4 c #BF884F",
"B5 c #BF894F",
"B6 c #BF8955",
"B7 c #BF8957",
"B8 c #BF8A51",
"B9 c #BF8A54",
"B: c #BF8A59",
"B; c #BF8B52",
"B< c #BF8B53",
"B= c #BF8B5C",
"B> c #BF8C55",
"B? c #BF8E5C",
"B@ c #BF8F59",
"BA c #BF8F5D",
"BB c #BF9061",
"BC c #BF9269",
"BD c #BF9352",
"BE c #BF965C",
"BF c #C0754A",
"BG c #C07C46",
"BH c #C07D41",
"BI c #C07E46",
"BJ c #C07F44",
"BK c #C07F4B",
"BL c #C0804A",
"BM c #C0804C",
"BN c #C0814A",
"BO c #C08245",
"BP c #C08248",
"BQ c #C0824A",
"BR c #C0824D",
"BS c #C08346",
"BT c #C0834C",
"BU c #C0834D",
"BV c #C08351",
"BW c #C08446",
"BX c #C0844B",
"BY c #C0844C",
"BZ c #C0844E",
"B[ c #C0854C",
"B] c #C08550",
"B^ c #C08553",
"B_ c #C0864E",
"B` c #C0864F",
"Ba c #C08655",
"Bb c #C08656",
"Bc c #C0884D",
"Bd c #C08853",
"Be c #C08855",
"Bf c #C0885A",
"Bg c #C0894F",
"Bh c #C08955",
"Bi c #C08957",
"Bj c #C08A54",
"Bk c #C08C54",
"Bl c #C08C5C",
"Bm c #C08D57",
"Bn c #C08E58",
"Bo c #C08E5D",
"Bp c #C08E5E",
"Bq c #C08F59",
"Br c #C0905B",
"Bs c #C09060",
"Bt c #C09160",
"Bu c #C17853",
"Bv c #C17B3F",
"Bw c #C17B4A",
"Bx c #C17D42",
"By c #C17E45",
"Bz c #C17F45",
"B{ c #C18045",
"B| c #C18048",
"B} c #C1804A",
"B~ c #C18149",
"C! c #C1814A",
"C# c #C18248",
"C$ c #C18256",
"C% c #C18345",
"C& c #C18346",
"C' c #C1834A",
"C( c #C18649",
"C) c #C1864B",
"C* c #C18651",
"C+ c #C1874D",
"C, c #C1874E",
"C- c #C1874F",
"C. c #C18751",
"C/ c #C18758",
"C0 c #C1884E",
"C1 c #C18A57",
"C2 c #C18B52",
"C3 c #C18B56",
"C4 c #C18B5A",
"C5 c #C18D57",
"C6 c #C18D58",
"C7 c #C18D5B",
"C8 c #C18D5E",
"C9 c #C18F60",
"C: c #C19062",
"C; c #C1915D",
"C< c #C19467",
"C= c #C19568",
"C> c #C27D47",
"C? c #C27E46",
"C@ c #C27E47",
"CA c #C27F48",
"CB c #C28046",
"CC c #C2804F",
"CD c #C28142",
"CE c #C28144",
"CF c #C28249",
"CG c #C28348",
"CH c #C28349",
"CI c #C2844A",
"CJ c #C2844B",
"CK c #C28546",
"CL c #C28548",
"CM c #C2854E",
"CN c #C2864D",
"CO c #C2864F",
"CP c #C2874A",
"CQ c #C2874F",
"CR c #C28750",
"CS c #C28755",
"CT c #C28850",
"CU c #C2894B",
"CV c #C2894D",
"CW c #C2894E",
"CX c #C28953",
"CY c #C28A57",
"CZ c #C28A58",
"C[ c #C28B4F",
"C] c #C28B56",
"C^ c #C28B58",
"C_ c #C28D4F",
"C` c #C28D51",
"Ca c #C28F51",
"Cb c #C28F5E",
"Cc c #C29052",
"Cd c #C29668",
"Ce c #C3733F",
"Cf c #C3794C",
"Cg c #C37C40",
"Ch c #C37D42",
"Ci c #C37D44",
"Cj c #C37E43",
"Ck c #C37E47",
"Cl c #C37F44",
"Cm c #C37F47",
"Cn c #C38144",
"Co c #C38150",
"Cp c #C38245",
"Cq c #C38249",
"Cr c #C3824F",
"Cs c #C38440",
"Ct c #C38452",
"Cu c #C38547",
"Cv c #C38548",
"Cw c #C3854A",
"Cx c #C38552",
"Cy c #C3864C",
"Cz c #C3874F",
"C{ c #C38750",
"C| c #C38851",
"C} c #C38951",
"C~ c #C38957",
"D! c #C38A4E",
"D# c #C38A55",
"D$ c #C38B4D",
"D% c #C38B59",
"D& c #C38B5A",
"D' c #C38C50",
"D( c #C38C51",
"D) c #C38C59",
"D* c #C38D5B",
"D+ c #C38D5C",
"D, c #C38F4F",
"D- c #C39054",
"D. c #C39058",
"D/ c #C39154",
"D0 c #C3935E",
"D1 c #C3944E",
"D2 c #C39460",
"D3 c #C47C41",
"D4 c #C47E42",
"D5 c #C47E48",
"D6 c #C47F47",
"D7 c #C47F49",
"D8 c #C48041",
"D9 c #C48042",
"D: c #C48044",
"D; c #C48147",
"D< c #C4824D",
"D= c #C48346",
"D> c #C48451",
"D? c #C48548",
"D@ c #C48847",
"DA c #C4884B",
"DB c #C4884E",
"DC c #C48850",
"DD c #C48851",
"DE c #C4894B",
"DF c #C4894F",
"DG c #C48A4E",
"DH c #C48A59",
"DI c #C48B4E",
"DJ c #C48B56",
"DK c #C48B5B",
"DL c #C48D51",
"DM c #C48D5C",
"DN c #C48E5A",
"DO c #C48F5A",
"DP c #C49356",
"DQ c #C4966D",
"DR c #C49958",
"DS c #C5844D",
"DT c #C58451",
"DU c #C58547",
"DV c #C58549",
"DW c #C58551",
"DX c #C5864B",
"DY c #C5874E",
"DZ c #C5894E",
"D[ c #C58950",
"D] c #C58951",
"D^ c #C58A51",
"D_ c #C58A54",
"D` c #C58B55",
"Da c #C58C52",
"Db c #C58C59",
"Dc c #C58D48",
"Dd c #C58D57",
"De c #C58E51",
"Df c #C58E52",
"Dg c #C58E53",
"Dh c #C58E5A",
"Di c #C58F4D",
"Dj c #C58F5B",
"Dk c #C59059",
"Dl c #C5905B",
"Dm c #C59151",
"Dn c #C5915E",
"Do c #C5924D",
"Dp c #C5925A",
"Dq c #C5965B",
"Dr c #C68241",
"Ds c #C68246",
"Dt c #C6834A",
"Du c #C68447",
"Dv c #C6854B",
"Dw c #C6864E",
"Dx c #C68651",
"Dy c #C6884E",
"Dz c #C68949",
"D{ c #C68953",
"D| c #C68A4E",
"D} c #C68C4B",
"D~ c #C68C4E",
"E! c #C68D56",
"E# c #C68E51",
"E$ c #C69056",
"E% c #C69160",
"E& c #C6925C",
"E' c #C77F43",
"E( c #C78044",
"E) c #C78245",
"E* c #C78448",
"E+ c #C7854D",
"E, c #C7874F",
"E- c #C7894C",
"E. c #C78B4B",
"E/ c #C78C53",
"E0 c #C78C56",
"E1 c #C78D57",
"E2 c #C78D58",
"E3 c #C78F63",
"E4 c #C7904D",
"E5 c #C79451",
"E6 c #C79457",
"E7 c #C79765",
"E8 c #C88140",
"E9 c #C88245",
"E: c #C88448",
"E; c #C88648",
"E< c #C8864A",
"E= c #C88651",
"E> c #C88849",
"E? c #C8884C",
"E@ c #C8894D",
"EA c #C88951",
"EB c #C88952",
"EC c #C88B57",
"ED c #C88C52",
"EE c #C88D4E",
"EF c #C88D50",
"EG c #C89055",
"EH c #C89865",
"EI c #C98044",
"EJ c #C98240",
"EK c #C98344",
"EL c #C9864D",
"EM c #C9874E",
"EN c #C98951",
"EO c #C98A4A",
"EP c #C98B49",
"EQ c #C98B4B",
"ER c #C98C4E",
"ES c #C98C56",
"ET c #C98D52",
"EU c #C98E57",
"EV c #C99863",
"EW c #C99C58",
"EX c #CA8847",
"EY c #CA8952",
"EZ c #CA8C4F",
"E[ c #CA8D53",
"E] c #CA8E51",
"E^ c #CA8E55",
"E_ c #CA8E5A",
"E` c #CA9157",
"Ea c #CA9255",
"Eb c #CA925C",
"Ec c #CB8147",
"Ed c #CB8A47",
"Ee c #CB8B47",
"Ef c #CB8D4B",
"Eg c #CB8D51",
"Eh c #CB8E4F",
"Ei c #CB8E56",
"Ej c #CB9158",
"Ek c #CB955B",
"El c #CB9C60",
"Em c #CC8D4A",
"En c #CC9458",
"Eo c #CC9950",
"Ep c #CD8E4F",
"Eq c #CD915C",
"Er c #CD9350",
"Es c #CE8E4C",
"Et c #CE904D",
"Eu c #CE904F",
"Ev c #CE9252",
"Ew c #CE9D6F",
"Ex c #CF8649",
"Ey c #CF884C",
"Ez c #CF8E4F",
"E{ c #CF904B",
"E| c #CF945B",
"E} c #D08944",
"E~ c #D08B47",
"F! c #D0904C",
"F# c #D09153",
"F$ c #D09251",
"F% c #D18D54",
"F& c #D18D56",
"F' c #D28F55",
"F( c #D2934E",
"F) c #D3914E",
"F* c #D39D60",
"F+ c #D49A57",
/* pixels */
"?q%`!&'j.94l=w4H3>AJ7:CJ=^<3AO$p%$EuD-=B@+0p4n6ZBV>?DO7&:|?R134n89AbD=-m55,b:i)H96@X>S=J.`!D;q9w>C);0vAIBc5-'D<_&m8z/4#?'t5A7'E?",
"<S*w%H.]&U?REj0I/j'u:g6j@G14>4(>*/El@0@U&`-SBT?~@Y+]:C7#3u=?*eDW6zDDEZC[+X%w)o9-8}#G;);j>-),4@@&B^?k:{EfB+,i$w02/28,56$0?%Dd3.*+",
")u+V.m#^(t?x5S)~/i8X6o*O&h1;>%B]-7?18]BuA`B<Bg<F@-.@-`Bi5h(U-2E24h5=Ei=K;|6D/O1{)l!CB'>b#v&S8-7j?K=61k8&='0_3g8v5XAL).,Y0;3I){<`",
"$.(r7R,A*SBb%@4.(Q&q!Q%]663P?O),?bF#5O?Q=R>%9FAG@^<~1V+M.M?`;y627w2h2}7h/A<P;>:m!s'>A@3H--'x<N@87}-V/E=p/N7|3!B6B,/,6X0x$x#XBx*]",
"=74Q&d.->/@J2o!%!_$I$%63:D7>3l7!.NDl6EAoC]?g9+#9;E?z4Y-~;}EQ:e$j4&!G1G:$A-;f?@*)**@b>iA0BB8G0OC40&6*;n,*4K+7$u>BD?9&0l@R-g&I1e9#",
">20r,l$71#6C5i/6*HEM:r2h$n#34m%f&,>f<z>M,q.7%2&3.{D+3C;&28?u=@0A+E=>DJDbAL)]1Q$b((21>}C+D&,!.:B[D~:+2K)-'R+j0DE>CsBS'g@S=s4C35@v",
"#=+q8n'A%O4c;_)/={)?8q5c1f/r/'(^0K<DA]9/,J6_([*2C3:U%A>~ED2A536k?M;,;8<$AQ(9/m4y1f55422mC%/^?AAL97-'.*1EDM-+$$@AC#:#%M!,C{<h5>3y",
"!9,d,K+oD7Cn>j'rAD<L=06`CEE(=+Ak&f/#D'-K%R1q;m2n@/!j%n3?+e63CNE_:w*b&T*l7.,g<W'ECl$M%91q6>&O*d<X4v+/.&1D/R?3+f#g2q)E&^,:(h/1?>/y",
"!{'N,&=k4r4m6%,+4H0U1+;tA$<]>o?V3N&eB4<e,Y9*-)+Y,>4$9:2B@CEN>,8m4n%E*h*s(19W-8.p<v/d7X?FEb5Q(=+?%C;+%3-G3,?74W(w.j+3<`.d$t9kDA9;",
"7D+F)v-HAw5s2I1_+S2U-6*P-M3E?'D5>Q5z;B?vCCE4@B'b(H6]1r+{):9(=941@:9>@63s3<*x7:2,:S,HA<2-77?X2CBC7|=P1B4)?]6|1P)Y;B66:T3;4`Cw>9ES",
"AY(5)mE&1y-50K,t!28h7U0rDN4V2D<[>(=AB7C9)vA!*o,W3)/xAdC|=f-X/BD`>J?X4U5j&E%s6M>F/C6QA=)O$O5k/|0!DTBp:(4?.=@30S<1->;):[?{AuDU7v@X",
"8r%pD]<p:Q$G)N#H$e8f=*3k)c-9;v@,CLAs?GB0/}<Y)i%Y<`5E.q4R<|9E,N#R,h(m;F:3*C9dBj2:/%:N2V4<$[3/'o9%/_<k,o-pD=5k8U*.(69b?TAj4(%P4|EI",
"3|2]F)Eo=v-?+`:s#Q+&6f/5<':q8F+O<Y>1D6E9BwB1;Z,#+-(4,G.h'Z7H&x&o3q;5<}5N;C3bEsE=(B&p%F)X-a2M6G=[;);t684j<b9T>q(F5w9i*?0e1e(|A>*M",
"8:CmDrEg1[!_;P;??*<X%c-^<aB!CO7A/7=-DGDc0[2~5tAvC&8&(++w<j#_;N6/>+&L%8&)+i@ECF-J'?!V'P1.1l0K@O6&!N%X2$8+7t-[@y6->r?t.h/K#tCkC>A{",
"C)>T7d+$*&5T/T'!-f%~*M3t;X6{:a&l-M,?A2@s+%9|.L1jDi90)V+L:n9P#])}0C4F!i-O,>0E@[$c$a/79!.d4n(Y#b,(.E3!-T&64B1C3D3o+y5.@z-((.2B<#F$",
".L(<5#0T.iB%)f5$1z4r2u5*:<?R2(-V.J52DI$N#4<n%(;Q2|0X!e&R0z@+2r$g9J%=$=$f4[+0:$941%87?X?M@V?H)e0c1e/q>*<n-t8V=#0I0R@?7<#l+WE6BU8~",
"*a&G$8+F.C8j#T!X,ZCQ?f;yCY/?=eBE2&():W,{269Z1W(sC';6%i4=7S,(;G9Q.r9M#I1I?8,|;/%J'B/e1ABO:x7c:t>p0>4,;'.+3)Cn@<<f=N;;$D%t1p?-/k#D",
"/84-!!$?<=.H&a!).586DQER;6!x7T:8*Z=<&YA+2>)G>b)+65.A.1>;4w#q2G?y;~;x;i9j<`*b6#9^9',44C6h;T6y1!608C*.1**{!]8=7I1s7|0h(z/q<?,4![./",
"7+*K+a;5Ed$v%h9D/`6KE^C6%++;,7:]9U4_<!A#Dp153{Aq&N-{#2+DA}&b']2y,6.t9I$|6R8W,_ExBz2j#M$o.j+M(k=EDz)P8',*'[=h%i$4#{7u:`?[,|'(.KAT",
"$F!h>65G0m!=+_9G8+B)?h>4$,'a$i(u?66l+vCT'F#C!t7r>t5h,L:y3%(7*.>^8|6;1!-/(n&1'L263',^,5+!:E$%+d1vE8=y2B;^9|7K<4?d'A5};12S(p,4<dEp",
"2<$*/U@$%:!O?Z/&0j#`/x(!$s4e/q7]59:)>R.Y!K!$/0/38F7k@e&'*8!z&[4x=52u(d$A:>8k#J<x6A*''.%L5a/}2z2!9f825,1&6$=FC*/G6?+I(2%d6RAe8CCU",
"5I>D*]3c3m;}746t'q9!6g$R3[1L>_B2&0Ac7Y#1)n/D?W7o0y62%g!:'^5D6x=@1:'w!a#a<J,r38>K6J=,#Z:t.e2ZBh;/>sE,@k=U0eDa?}:P-417,}-M=?-e#0*q",
"/S@6,$3!EeAH4i<,,f>w=19d.f1,@`-@#n5).R2B9/Dw:/*N7,D*-1'/2T;<1l+82E-5#F&F.gE/<_:H%e,/,g>#)g5lB`1T<{8LDq7+DSCh@'7M8O*u,Y;RB#/|#5%G",
"2f0n0#,>=m%q%K)S*7<9)J0f31.29<.)!M,P<A1z1~02)j-t9I!W=}4!:A:Z!<#A:REO&'#:<zA337#r'3#+=VCy7N0G4g7'-HC:C<,p6'Ct7&3GB@>m(~D3>)'e!U*|",
"*F-i*y>:EA4t8E-G73>N)S7e;$0G0~7`$9+v<Y/~)%22249J9=Dh5gBF;[:G!o*TE}>n;>.q*~,349-*$C,2>G(%>X<M3(=o259N2I-j@]A%DF8t8IB~!8:*49'V2e0J",
"8/0+4IC1D>;G,z5+>!/L,a9],s0T5p0{20)?2$&tEL.$C/=D3>>I;D;hBr<8%m4GBX7[+R3*?l,D5M71$S)#2%6n9m'WB.CuCR,_$1'#E1E@4d9e@o*Y$H5zCV9pB}/M",
"?f@2BH/D(T@F!m7@2_.Y51?f<y79>[/c6WA_5mCGC,/T1$3R)w6v@L@i=j%l7a9FBs1>%S<+EV;}/9,V31)d'T+H7>8c;A;5<i9x$z!.>LEH;g@gAn7_-h13EE>Z$J$Y",
",.=Z36)08w*m'l3e+s'g(E0w,^.Q1d+K;O:04}E.-t3`7p853g-z;}1]-}(_5Z?$E%$y%?=c?/6,&>%N9k91${%<7(:7.;559D$/2_*a3L3X'6>-D26P%>'2&S>V5u!Y",
"&K*==aEPEJ$2.L;Y9z,M?92d*J/u7q5r??3iBd1F=0$+>b&k#@+B:F*f.w!S#{8A>4,90WCc8Z0q3$/t)j2F*:450f8v)b/@7;8&>i:*16.s*(736@6:)L(0+=!@46++",
"67>xDf5;+A/p;B>v:'4o#i1c5|2+!l-W/<:f/V0s#k._0=0)0'/<)1-%.2!P4z;b-U({$(<rBN@aAO2@2!3Z'M:39)$8$!9q3q3!=_:^$B%7,j!b=rDa4u>'Al%k)TEF",
"2yD6@}+>+mEB6)(5@j)r(o(''X(S!H.)805k7s2)B{8!'5*X/O9c/F./-n.39V=y&v$#-&,|6r,o,t#K/QBQ2Q2L-t')&(:z2n1r6$9X:B!}786aDy'{84>;<u,d&s@H",
"BZEYC|=|ArE7?5Cd?c(X1N(]2=$~.A?G:9#S0o4WA!5(>k;>*V$LA)3+/+8e.Q2l.K#D!~C=?&3S,v$r-F9#4Z)`,;)Z*R:H76$l'X/P&g-r?4A.'E:l:o*kCb7**N=q",
"(8D%/x$-)D..:YEw1/404n-R.n@3/v6}+{8M,X9)DE0'2a*-#6':;!2[9aCg0L9C9D1;(&>H<5,T/X838+7V1J=27==G9.(!8D&%/S8m@+40E$3A(aDs'S5H#E,E8U6!",
"'44L4f,O(!)8:J'I:#0&-C,*!1#Y2%4M1-At7g1Y/u//%0)).L1f=T8<*j3l(P6w1{)79u1`)5,@*Y2E@x>k&;;WEt6B!($'(g(J&F8s9H$hD#57D]E+*14T&?2N1w@f",
"(N&w7)%,-B@m>a'm/*#X8u:c*g&.(c6S<9&{'h+(>r@Z0P7ZB-<(.c+c+Z5%09?#6,!I7/2`>^;#9~9D-o:Q(?&5>F1m'@(l.g&y3(CO>~'H0K5JDZ9u9S;w*Y28#>.^",
"766FBg=(&E+<2w1_Cx%I!3#o(f/J.F&Q&/5o8()y0/5v1U5U990@6''=01)!(l/h39)t@l.W-b@)Cv(`?^/J'C5n58!r6}@tB_<t>'@C>:0QC~53.h(vDu;}*m3O,w+$",
"=O'*CW@#%33U)D.D,Q5,!5!q#7'jDX-P%;2t.G7F1&A&=x=z3n-D8z9,@dD6+Q'F?a@wBR.T,=3-,YAp1/&X%-)p:k:5AW=x=T@|'U;r2g12272v(r,71{<01O)[&!Cp",
"-qBl=a'<#w$q985A*m4A0%0$,'%z4:!p&&1h/w;3,m4#Cj0g067$2#.ZBKEC!g1{:3:b(W&V,-4E6b.?;Y9o3n'G'p/~==6c5Q$_'v%[%u6<=!.y'c2d#m#j176V!R-s",
")M.~=d-I!;-wB>1{74/f%U,h'9)41dAUCr>U:V8b+P4D@7%1.o@@/L.%8t>4*#+-EX<F04-#B|D!@A/=)=0?A|0^!Z:2A$$U*v:M+t,5(Z8N@Q,,+k/98g&*1{7.$d!L",
"&<4KB=9_!y3Q#c#V$)#&!E=b*5$ZAB)@)>@4B99E9A:3-=!k)A:j*[@c,|(-$E-;@o@r3<*v%&;J,[6(07)23h0b).AaEz!'$QDP>$=1;@<2CK%*'i7{&W$m;a?L$;6-",
"'fDe8.!Z$L<RCB$j#;',88?|=$)*4a0!)p<`?!,~6LC{;G)|1&=U3#3w4o(f!*%vAA&'4#.g1M5K/v*Y50A^<e+q(I@;A/-k5vC21t?P033J)U)q?UEG81#O7z@n+g.0",
";c.U%j2;-,B8;o8l/$/.1z7J7B2W6D0=15:!4{2#5WBfAM9{1|DH;f)T,FAVD[1u-y-u(Q'8Ci8#+}-UAyAU8B-{&':{BDC$EqF+&$2k@_7P5N:,1gCa3&&7:?C!(i)R",
"A4$K0|5M0k<g;p2p#f4k*JCg3a.B+1:;CM>h9B4*5C%o?p>05@A%>=.[5L<U6+8C0~,}/L)<+9(*>PDL-Y&ACI>e,U7yD18@%bBY-!)J0l0(+*&E3xDm:))$5f'|!B&0",
"<6*A#|60<>+u+G;M6I+#3],IE#Bo#<?DCH*W+'>,AT8%:L0M9L?.2?)98X4--M49E]+6,5:4*w/-Aj=i'Y%54+/:$WAS@.7i+23}?i0F9h-Q.Y8rDv;d+y!4$X9v)IAh",
"$<!c(V*4;{1a5`EW&2+l8o7n8Q'0*L+U;.6377AL6#&A4O*,-.9LD%3W%'&Z7f:}6T%%%6;]A7Dk=M)W!+1:Ba;10V8_DI?I95+z:nE{A'7l+-=)/)'71&(,&+3BB(7R",
"!0)(1x-o51:pC5C_0:'$61*z*U6=.v2R7CCoD<BvDV@h0N3##d.uC77E$T;S?:>W(M3B7-:_=X1K#,#$,yC-*c'+<T/]<o0o.>43?+E5*$*B&u+^*})N1D:A(O-s00''",
"&H:H.V,),R4-<q,x*D&99o#}#x-M(q7]45=ID;0j@{AxB3/X/W(lE|8T89E<;:9}AEEm:=;41w=/43(/AR?B(&>q;_0o2{7%4^:.5R#N%Z#u6-7O1D#)0A<]<f*9+4.x",
"<76O#8&L:1!w,B9X+9%z+t!#$P,2,C(90}9$B~BeCZ<@@TD{=.Dt>O7^?2C;/>*!4s?j<I5[>]@~C87B)3?a;q5p8p$q-x=z)-4/4~#W(j3-7GD0895h>q>$>7,<*p-s",
"/g/a's-O4+&}+e;G&r*R0!!?&8=46,6N6W8;%{-!?)0]=%EcA?EK8SA9<fDg3:'JE`=G/r3^@u4X:XE3=4>A0->l?e:V2/AFDn.|6.*t)s6r;0BA'y;s-M8=0d6Q1'&}",
"1}6u5:;<691)Bn*F3_:h9$!dF'>4>5Am*n#p*P=:2o%)C?@?-Z>j=L6$+)?,3:.P8>8Y1X/(/V5&8%DxF*Bq,$8KA8?w!F&z/l-3%B-{'`+H=S7GAi>{+,6^@5DY9O/[",
"&|*3-l*z0<0Z'&#B+-1b5{.'ET+~4H.<#L%#A~;7+9:iE:D},Y$w.V)A*N8P.,>y))#sAC8?;e2c33=l8J;L0H>LA16I!6#-(C,s.S'k6m-Z+N%_1?8*6,C(-<B.>>.l",
"<Z75C><G=KAg08(f#h5x:f5<F&!7$:$^'1=Q9K=A>gEyEaAf$k!|)6#P=T'O;D.#%2/';`9?/Z-A429l@M5V1<)F,n.8+9'~3K:I;z.I$j*E9P%V6w5s5d18*r%|=122",
"1Z/r+fBP*$+u<%=]<h/;)-'QB&5]%^'-,.By>i0($]F%9[2O'z.(%!'~3'-v@j4p+O:O5/0>3T>39R#/.4A*3Y@K3e#T,U=`)_7LCu-E!-!,,+:/7~=&8x+e)^/zBG9s",
"=~A5012Y2x(L>|.%2,?;6Y<C;9C[6H.b5'/])z;J,45B0Y.k)nB/@D/Z5r0|1!<s=H<:A6,)8d>p8R#z'|:6/zC^,e3d?E0G*08$E~/o,%$39g;5$6+v/bA4$&&4?C*s",
"1i;K*4:v$}(A6&3~AN2i=n%r@x:E,u$V,^&S#j<*926+82+|64<m6u%W+Q?m2*:K=g*<-|235Y6e)9!/Dy:&&=!^!f.Q>@)f$q:&@WCe0a6k@p+86-;k/n1=3u2_B~CA",
"*;(:0u=u%Q%MA[$@05:%+n#[7m4z%y?N)&%D0u+++W.Q,12.5F8[:):}?rDjCP99(;*64J-r,x+M2+2'<O32*W#*+1-L/S)x.MCq7Q6-05;H4Q![-r1^#!(3'}*%>6@P",
"3V7]AU2x+@0BAX'K1@1:%/,`A(5c5^F(,24;Ev(a%4:K(e<VD.=YB_<)>CE;9x<.*Q5}EkD^/I*>-:*i,k&U-$;uE[+B3r3}&i1d)k99C+>E?J)#7(+p!n$>54-[72</",
".O&P2+&M&_Bt4N-N#~1M3@/';e6[5?EhB*9r6|-cErDo&:=;<9113f9n::(@+[?s?PDa2s)'$j.m#%&c3.;=<&B?@N10(G2&;08`439oBJ.y.z<c=C6i3}'p+r<@+|B;",
"!>!A$o!J#.1S<w5!/H9:/8:@?m;}B59K1n9YA;,sCD@(4]@!@I&n'dC.D|>&BMD$;-:uAz0`<;5_0-9@,c?$Bk8a93*$#y55C`@=+.D9=[2H$5EM;bE!7p(K/u9`2b?S",
"##&j9y#e&].}0*@%E-A,D)1H9PD_B>CS8/.!1R#UE'/s(x328+<<)qD/D(7u(#48E*BI+5+:>`E)D@.].)6U+T2^)61(30En?0Ad7b5q&J!u:d6g@*:9BU.X(y5b0i+C",
"+b4%=W7W19,09H8y6d918)@9<BDB9!*@-E=8)x(}?<>c,d(b702X;(DR6s&@*F2h@13y3z;zAZC'F!EU,)<^;UCf>d4S47;)3=>z!T#(*`/<4>D4#'(D6q=t!v!`%T6<",
"?(,8,2+h(a>:5M=G5s%*0fB$C{Cz5o4'%3<H@q29C@3v%};*:&*_=z0t5:&BD8649$C}?_E0)h;%.6)C,Z7x5e4b5y,4:-441d'E';8{($2J0.:~?R)).q+J(R,m.R;I",
"B:$q%x+5DK$`.e'_4y/{2/8^>q>8<E:u/Y*,319VC<&~3j?CCz4q;l>f<K?YBW4.-d?n8H4P3p'%<h'n>.1o;V'p+x.a&#-H9t't>Y?=>u8X34<-@>)a/d2P/=5A)BBm",
":N*G&C%aCX6~*^A:)Q)6;2A*DC<HD:1t&T=L?o3M5P=?3yBL*I42<QAP4H5H><7?-];5C03u-_)K-0.H=3AK,S%]0,*r,](_'+%.6p/!-W5~<TD,3)8i.=&-&D3F28<l"
};
