/* XPM */
static char *sand_01[] = {
/* columns rows colors chars-per-pixel */
"64 64 2693 2",
/* colors */
"!! c #504939",
"!# c #514530",
"!$ c #514734",
"!% c #514735",
"!& c #51493A",
"!' c #52482F",
"!( c #524D3E",
"!) c #534833",
"!* c #544937",
"!+ c #544A39",
"!, c #544A3D",
"!- c #544C40",
"!. c #544F3E",
"!/ c #55483A",
"!0 c #554939",
"!1 c #554A39",
"!2 c #554B3C",
"!3 c #554B3E",
"!4 c #554C3A",
"!5 c #554D3C",
"!6 c #554D40",
"!7 c #554E3C",
"!8 c #554F3F",
"!9 c #564A37",
"!: c #564B39",
"!; c #564C3C",
"!< c #564E34",
"!= c #564F3F",
"!> c #564F40",
"!? c #56503F",
"!@ c #574C3C",
"!A c #574C41",
"!B c #574D3C",
"!C c #574D3D",
"!D c #574E35",
"!E c #574E41",
"!F c #575041",
"!G c #575139",
"!H c #57523C",
"!I c #57533C",
"!J c #584537",
"!K c #584940",
"!L c #584C39",
"!M c #584C3F",
"!N c #584D3B",
"!O c #584E41",
"!P c #584F42",
"!Q c #58503C",
"!R c #58513F",
"!S c #585140",
"!T c #585141",
"!U c #58533E",
"!V c #59493E",
"!W c #594B3A",
"!X c #594C3A",
"!Y c #594C40",
"!Z c #594D38",
"![ c #594D3D",
"!] c #594D40",
"!^ c #594E37",
"!_ c #594E3A",
"!` c #594E3B",
"!a c #594E3C",
"!b c #594E3D",
"!c c #594E3E",
"!d c #594F36",
"!e c #594F39",
"!f c #594F3D",
"!g c #594F43",
"!h c #59503F",
"!i c #595042",
"!j c #595139",
"!k c #595142",
"!l c #595145",
"!m c #59523C",
"!n c #595241",
"!o c #595245",
"!p c #595344",
"!q c #5A4C3B",
"!r c #5A4C3E",
"!s c #5A4C40",
"!t c #5A4D3C",
"!u c #5A4D40",
"!v c #5A4D41",
"!w c #5A4E39",
"!x c #5A4E3E",
"!y c #5A4F3A",
"!z c #5A4F3B",
"!{ c #5A4F3C",
"!| c #5A4F3E",
"!} c #5A4F41",
"!~ c #5A503E",
"#! c #5A513B",
"## c #5A5142",
"#$ c #5A5144",
"#% c #5A5145",
"#& c #5A523B",
"#' c #5A523F",
"#( c #5A5241",
"#) c #5A5242",
"#* c #5A5243",
"#+ c #5A5244",
"#, c #5A533F",
"#- c #5A5346",
"#. c #5A543B",
"#/ c #5A5441",
"#0 c #5B493A",
"#1 c #5B4B34",
"#2 c #5B4B3F",
"#3 c #5B4E3F",
"#4 c #5B4F3E",
"#5 c #5B4F3F",
"#6 c #5B4F40",
"#7 c #5B503A",
"#8 c #5B503E",
"#9 c #5B513D",
"#: c #5B5142",
"#; c #5B5242",
"#< c #5B5247",
"#= c #5B533E",
"#> c #5B5341",
"#? c #5B5342",
"#@ c #5B5345",
"#A c #5B5444",
"#B c #5B5544",
"#C c #5B5547",
"#D c #5B5645",
"#E c #5B5744",
"#F c #5C4E3A",
"#G c #5C4E41",
"#H c #5C4F3E",
"#I c #5C4F42",
"#J c #5C4F43",
"#K c #5C503F",
"#L c #5C5042",
"#M c #5C5043",
"#N c #5C513B",
"#O c #5C513D",
"#P c #5C513E",
"#Q c #5C5140",
"#R c #5C5141",
"#S c #5C523D",
"#T c #5C523E",
"#U c #5C5240",
"#V c #5C533B",
"#W c #5C533D",
"#X c #5C533E",
"#Y c #5C533F",
"#Z c #5C5340",
"#[ c #5C5344",
"#] c #5C5345",
"#^ c #5C5440",
"#_ c #5C5441",
"#` c #5C5443",
"#a c #5C553F",
"#b c #5C5542",
"#c c #5C5543",
"#d c #5C5545",
"#e c #5C5549",
"#f c #5C5849",
"#g c #5D4837",
"#h c #5D4E3F",
"#i c #5D4F3D",
"#j c #5D5039",
"#k c #5D503A",
"#l c #5D503D",
"#m c #5D503E",
"#n c #5D513B",
"#o c #5D513E",
"#p c #5D5140",
"#q c #5D5144",
"#r c #5D5239",
"#s c #5D523C",
"#t c #5D523F",
"#u c #5D5240",
"#v c #5D5241",
"#w c #5D5242",
"#x c #5D5246",
"#y c #5D5247",
"#z c #5D533C",
"#{ c #5D533D",
"#| c #5D5340",
"#} c #5D5341",
"#~ c #5D5342",
"$! c #5D5343",
"$# c #5D5344",
"$$ c #5D5346",
"$% c #5D543D",
"$& c #5D543E",
"$' c #5D5442",
"$( c #5D5446",
"$) c #5D553F",
"$* c #5D5540",
"$+ c #5D5544",
"$, c #5D5545",
"$- c #5D5546",
"$. c #5D5743",
"$/ c #5D5745",
"$0 c #5D5746",
"$1 c #5D5945",
"$2 c #5E4D39",
"$3 c #5E4E3E",
"$4 c #5E4F39",
"$5 c #5E4F3E",
"$6 c #5E4F40",
"$7 c #5E5040",
"$8 c #5E513B",
"$9 c #5E513D",
"$: c #5E5140",
"$; c #5E5148",
"$< c #5E523C",
"$= c #5E523D",
"$> c #5E5242",
"$? c #5E5247",
"$@ c #5E533F",
"$A c #5E5340",
"$B c #5E5341",
"$C c #5E5344",
"$D c #5E5345",
"$E c #5E543E",
"$F c #5E5440",
"$G c #5E5442",
"$H c #5E5443",
"$I c #5E5446",
"$J c #5E553F",
"$K c #5E5542",
"$L c #5E5544",
"$M c #5E5546",
"$N c #5E5547",
"$O c #5E554A",
"$P c #5E5641",
"$Q c #5E5645",
"$R c #5E5647",
"$S c #5E5741",
"$T c #5E5743",
"$U c #5E5748",
"$V c #5E5842",
"$W c #5E5844",
"$X c #5E5845",
"$Y c #5E5846",
"$Z c #5E5849",
"$[ c #5E5948",
"$] c #5E5A48",
"$^ c #5F4F3C",
"$_ c #5F4F3D",
"$` c #5F4F3F",
"$a c #5F4F40",
"$b c #5F503C",
"$c c #5F503D",
"$d c #5F503F",
"$e c #5F5041",
"$f c #5F5043",
"$g c #5F513F",
"$h c #5F5140",
"$i c #5F5143",
"$j c #5F5144",
"$k c #5F523C",
"$l c #5F523D",
"$m c #5F523F",
"$n c #5F5241",
"$o c #5F5242",
"$p c #5F5245",
"$q c #5F5342",
"$r c #5F5344",
"$s c #5F543E",
"$t c #5F5443",
"$u c #5F5446",
"$v c #5F544A",
"$w c #5F5539",
"$x c #5F553A",
"$y c #5F553E",
"$z c #5F553F",
"${ c #5F5541",
"$| c #5F5542",
"$} c #5F5543",
"$~ c #5F5545",
"%! c #5F5546",
"%# c #5F563E",
"%$ c #5F5642",
"%% c #5F5643",
"%& c #5F5644",
"%' c #5F5645",
"%( c #5F5646",
"%) c #5F5647",
"%* c #5F564B",
"%+ c #5F5744",
"%, c #5F5745",
"%- c #5F5748",
"%. c #5F5840",
"%/ c #5F5842",
"%0 c #5F5844",
"%1 c #5F5849",
"%2 c #5F584A",
"%3 c #5F5945",
"%4 c #5F5946",
"%5 c #5F594B",
"%6 c #5F5A47",
"%7 c #5F5A49",
"%8 c #604F3D",
"%9 c #604F3E",
"%: c #604F3F",
"%; c #604F40",
"%< c #60513F",
"%= c #605140",
"%> c #605144",
"%? c #605146",
"%@ c #605241",
"%A c #605246",
"%B c #60533F",
"%C c #605341",
"%D c #605343",
"%E c #605344",
"%F c #60543E",
"%G c #60543F",
"%H c #605441",
"%I c #605442",
"%J c #605443",
"%K c #605445",
"%L c #605449",
"%M c #60553C",
"%N c #60553F",
"%O c #605544",
"%P c #605545",
"%Q c #605547",
"%R c #60563D",
"%S c #605640",
"%T c #605641",
"%U c #605642",
"%V c #605643",
"%W c #605644",
"%X c #605646",
"%Y c #605647",
"%Z c #605742",
"%[ c #605743",
"%] c #605744",
"%^ c #605745",
"%_ c #605746",
"%` c #605747",
"%a c #60574D",
"%b c #605842",
"%c c #605845",
"%d c #605847",
"%e c #605849",
"%f c #60584B",
"%g c #605946",
"%h c #60594B",
"%i c #60594D",
"%j c #605A43",
"%k c #605A46",
"%l c #605A49",
"%m c #605A4A",
"%n c #605B4A",
"%o c #605B4C",
"%p c #605B4F",
"%q c #61503E",
"%r c #61513E",
"%s c #615142",
"%t c #615144",
"%u c #615146",
"%v c #61523C",
"%w c #61523D",
"%x c #61523E",
"%y c #615240",
"%z c #615241",
"%{ c #615242",
"%| c #615243",
"%} c #615244",
"%~ c #615246",
"&! c #61533C",
"&# c #615340",
"&$ c #615341",
"&% c #615342",
"&& c #615442",
"&' c #615443",
"&( c #615444",
"&) c #615446",
"&* c #61553E",
"&+ c #615541",
"&, c #615543",
"&- c #615546",
"&. c #615548",
"&/ c #61563F",
"&0 c #615640",
"&1 c #615641",
"&2 c #615643",
"&3 c #615644",
"&4 c #615645",
"&5 c #615647",
"&6 c #615648",
"&7 c #615740",
"&8 c #615742",
"&9 c #615745",
"&: c #615746",
"&; c #615747",
"&< c #615748",
"&= c #615749",
"&> c #61574A",
"&? c #615843",
"&@ c #615845",
"&A c #615848",
"&B c #615941",
"&C c #615942",
"&D c #615943",
"&E c #615945",
"&F c #615946",
"&G c #61594B",
"&H c #615A46",
"&I c #615A47",
"&J c #615A48",
"&K c #615A4A",
"&L c #615A4D",
"&M c #615B46",
"&N c #615B49",
"&O c #615B4B",
"&P c #615B4D",
"&Q c #615C4F",
"&R c #624E3A",
"&S c #624F3D",
"&T c #625040",
"&U c #62513D",
"&V c #62513F",
"&W c #625141",
"&X c #62523F",
"&Y c #625240",
"&Z c #625243",
"&[ c #625246",
"&] c #62533B",
"&^ c #62533D",
"&_ c #625340",
"&` c #625341",
"&a c #625343",
"&b c #625344",
"&c c #62543F",
"&d c #625440",
"&e c #625441",
"&f c #625442",
"&g c #625443",
"&h c #625444",
"&i c #625448",
"&j c #62553F",
"&k c #625541",
"&l c #625542",
"&m c #625543",
"&n c #625545",
"&o c #625547",
"&p c #62563B",
"&q c #62563F",
"&r c #625641",
"&s c #625642",
"&t c #625643",
"&u c #625644",
"&v c #625646",
"&w c #625647",
"&x c #62564A",
"&y c #62564B",
"&z c #625740",
"&{ c #625743",
"&| c #625745",
"&} c #625746",
"&~ c #625747",
"'! c #625749",
"'# c #62574A",
"'$ c #62574D",
"'% c #625844",
"'& c #625845",
"'' c #625846",
"'( c #625847",
"') c #625849",
"'* c #62584B",
"'+ c #625941",
"', c #625943",
"'- c #625944",
"'. c #625946",
"'/ c #625947",
"'0 c #625948",
"'1 c #625949",
"'2 c #62594E",
"'3 c #625A45",
"'4 c #625A47",
"'5 c #625A48",
"'6 c #625A49",
"'7 c #625A4D",
"'8 c #625B42",
"'9 c #625B45",
"': c #625B4B",
"'; c #625B4C",
"'< c #625B4D",
"'= c #625B4E",
"'> c #625C49",
"'? c #625C4A",
"'@ c #625C4E",
"'A c #625C50",
"'B c #625D4A",
"'C c #625D51",
"'D c #625E4A",
"'E c #634E3A",
"'F c #63503E",
"'G c #635145",
"'H c #635242",
"'I c #635243",
"'J c #635245",
"'K c #635343",
"'L c #635344",
"'M c #635345",
"'N c #63543C",
"'O c #635443",
"'P c #635446",
"'Q c #63553F",
"'R c #635543",
"'S c #635544",
"'T c #635545",
"'U c #635546",
"'V c #63563C",
"'W c #63563F",
"'X c #635641",
"'Y c #635642",
"'Z c #635643",
"'[ c #635645",
"'] c #635647",
"'^ c #635648",
"'_ c #635649",
"'` c #63564B",
"'a c #63573F",
"'b c #635740",
"'c c #635741",
"'d c #635743",
"'e c #635744",
"'f c #635745",
"'g c #635746",
"'h c #635747",
"'i c #63574A",
"'j c #635842",
"'k c #635843",
"'l c #635844",
"'m c #635845",
"'n c #635846",
"'o c #635847",
"'p c #635848",
"'q c #635849",
"'r c #63584A",
"'s c #63584B",
"'t c #63584C",
"'u c #635946",
"'v c #635947",
"'w c #635948",
"'x c #635949",
"'y c #63594D",
"'z c #635A43",
"'{ c #635A46",
"'| c #635A47",
"'} c #635A48",
"'~ c #635A49",
"(! c #635A4B",
"(# c #635A4E",
"($ c #635B45",
"(% c #635B46",
"(& c #635B49",
"(' c #635B4B",
"(( c #635B4C",
"() c #635B4D",
"(* c #635B4E",
"(+ c #635C45",
"(, c #635C49",
"(- c #635C4C",
"(. c #635D4B",
"(/ c #635D4C",
"(0 c #635D4D",
"(1 c #635E47",
"(2 c #635F4A",
"(3 c #63614E",
"(4 c #64503F",
"(5 c #645140",
"(6 c #64523F",
"(7 c #645240",
"(8 c #645243",
"(9 c #64533E",
"(: c #645342",
"(; c #645441",
"(< c #645444",
"(= c #64553F",
"(> c #645540",
"(? c #645541",
"(@ c #645542",
"(A c #645544",
"(B c #645545",
"(C c #645546",
"(D c #645549",
"(E c #64554A",
"(F c #64563F",
"(G c #645643",
"(H c #645644",
"(I c #645645",
"(J c #645647",
"(K c #645648",
"(L c #645649",
"(M c #64573D",
"(N c #64573F",
"(O c #645742",
"(P c #645743",
"(Q c #645745",
"(R c #645747",
"(S c #645748",
"(T c #645749",
"(U c #64574A",
"(V c #64583E",
"(W c #645840",
"(X c #645841",
"(Y c #645843",
"(Z c #645844",
"([ c #645845",
"(] c #645846",
"(^ c #645847",
"(_ c #645848",
"(` c #645849",
"(a c #64584A",
"(b c #64584B",
"(c c #64584C",
"(d c #645940",
"(e c #645943",
"(f c #645944",
"(g c #645945",
"(h c #645946",
"(i c #645947",
"(j c #645948",
"(k c #64594A",
"(l c #64594B",
"(m c #64594E",
"(n c #64594F",
"(o c #645A44",
"(p c #645A45",
"(q c #645A47",
"(r c #645A48",
"(s c #645A4A",
"(t c #645A4B",
"(u c #645A4C",
"(v c #645B45",
"(w c #645B47",
"(x c #645B49",
"(y c #645B4A",
"(z c #645B4B",
"({ c #645B4C",
"(| c #645B4D",
"(} c #645B4E",
"(~ c #645B4F",
")! c #645B50",
")# c #645C45",
")$ c #645C48",
")% c #645C4A",
")& c #645C4E",
")' c #645C50",
")( c #645D44",
")) c #645D47",
")* c #645D4A",
")+ c #645D4C",
"), c #645D4D",
")- c #645D4F",
"). c #645E47",
")/ c #645E4A",
")0 c #645E4E",
")1 c #645E51",
")2 c #645F4D",
")3 c #645F4E",
")4 c #645F50",
")5 c #64604B",
")6 c #646250",
")7 c #655140",
")8 c #655243",
")9 c #65533F",
"): c #655343",
"); c #655344",
")< c #655347",
")= c #65543C",
")> c #655442",
")? c #655447",
")@ c #655542",
")A c #655545",
")B c #655546",
")C c #655547",
")D c #655548",
")E c #655641",
")F c #655645",
")G c #655646",
")H c #655648",
")I c #65573F",
")J c #655741",
")K c #655743",
")L c #655745",
")M c #655749",
")N c #65574A",
")O c #65583F",
")P c #655844",
")Q c #655845",
")R c #655846",
")S c #655847",
")T c #655848",
")U c #655849",
")V c #65584A",
")W c #65584B",
")X c #65584E",
")Y c #655945",
")Z c #655946",
")[ c #655947",
")] c #655948",
")^ c #655949",
")_ c #65594A",
")` c #655A41",
")a c #655A42",
")b c #655A43",
")c c #655A44",
")d c #655A45",
")e c #655A46",
")f c #655A47",
")g c #655A48",
")h c #655A49",
")i c #655A4A",
")j c #655A4B",
")k c #655A4C",
")l c #655A4D",
")m c #655B47",
")n c #655B48",
")o c #655B49",
")p c #655B4C",
")q c #655B4E",
")r c #655C44",
")s c #655C46",
")t c #655C48",
")u c #655C49",
")v c #655C4A",
")w c #655C4B",
")x c #655C4C",
")y c #655C4D",
")z c #655C4E",
"){ c #655C51",
")| c #655D48",
")} c #655D4A",
")~ c #655D50",
"*! c #655E49",
"*# c #655E4B",
"*$ c #655E4E",
"*% c #655E4F",
"*& c #655E50",
"*' c #655E53",
"*( c #655F4C",
"*) c #655F4D",
"** c #655F4E",
"*+ c #655F4F",
"*, c #655F51",
"*- c #65604D",
"*. c #65604E",
"*/ c #656051",
"*0 c #656052",
"*1 c #66533C",
"*2 c #66543F",
"*3 c #665441",
"*4 c #665443",
"*5 c #665542",
"*6 c #665543",
"*7 c #665544",
"*8 c #665545",
"*9 c #665547",
"*: c #66554C",
"*; c #66563F",
"*< c #665641",
"*= c #665642",
"*> c #665643",
"*? c #665644",
"*@ c #665645",
"*A c #665647",
"*B c #665649",
"*C c #665740",
"*D c #665741",
"*E c #665742",
"*F c #665743",
"*G c #665744",
"*H c #665745",
"*I c #665747",
"*J c #665748",
"*K c #665749",
"*L c #66574B",
"*M c #66583E",
"*N c #665844",
"*O c #665847",
"*P c #665848",
"*Q c #665849",
"*R c #66584A",
"*S c #66584B",
"*T c #665851",
"*U c #665941",
"*V c #665943",
"*W c #665944",
"*X c #665945",
"*Y c #665946",
"*Z c #665947",
"*[ c #665948",
"*] c #665949",
"*^ c #66594A",
"*_ c #66594B",
"*` c #66594E",
"*a c #66594F",
"*b c #665A44",
"*c c #665A45",
"*d c #665A46",
"*e c #665A48",
"*f c #665A49",
"*g c #665A4A",
"*h c #665A4C",
"*i c #665A4E",
"*j c #665A50",
"*k c #665B44",
"*l c #665B46",
"*m c #665B47",
"*n c #665B48",
"*o c #665B49",
"*p c #665B4A",
"*q c #665B4B",
"*r c #665B4C",
"*s c #665B4D",
"*t c #665B4F",
"*u c #665C46",
"*v c #665C47",
"*w c #665C48",
"*x c #665C49",
"*y c #665C4A",
"*z c #665C4B",
"*{ c #665C4C",
"*| c #665D48",
"*} c #665D4B",
"*~ c #665D4C",
"+! c #665D4E",
"+# c #665D4F",
"+$ c #665D50",
"+% c #665E48",
"+& c #665E4B",
"+' c #665E4C",
"+( c #665E4D",
"+) c #665E4E",
"+* c #665E4F",
"++ c #665E51",
"+, c #665F45",
"+- c #665F49",
"+. c #665F4A",
"+/ c #665F4B",
"+0 c #665F4C",
"+1 c #665F4E",
"+2 c #665F4F",
"+3 c #665F51",
"+4 c #66604A",
"+5 c #66604F",
"+6 c #666050",
"+7 c #66614F",
"+8 c #666151",
"+9 c #675344",
"+: c #675541",
"+; c #675543",
"+< c #675545",
"+= c #67563F",
"+> c #675641",
"+? c #675643",
"+@ c #675646",
"+A c #675647",
"+B c #675649",
"+C c #675743",
"+D c #675744",
"+E c #675745",
"+F c #675748",
"+G c #67583F",
"+H c #675842",
"+I c #675844",
"+J c #675845",
"+K c #675847",
"+L c #675848",
"+M c #675849",
"+N c #67584A",
"+O c #67584B",
"+P c #675943",
"+Q c #675944",
"+R c #675945",
"+S c #675947",
"+T c #675948",
"+U c #675949",
"+V c #67594B",
"+W c #675A42",
"+X c #675A43",
"+Y c #675A45",
"+Z c #675A46",
"+[ c #675A47",
"+] c #675A48",
"+^ c #675A49",
"+_ c #675A4A",
"+` c #675A4B",
"+a c #675A4C",
"+b c #675B43",
"+c c #675B45",
"+d c #675B47",
"+e c #675B48",
"+f c #675B49",
"+g c #675B4A",
"+h c #675B4B",
"+i c #675B4C",
"+j c #675B4E",
"+k c #675C46",
"+l c #675C47",
"+m c #675C48",
"+n c #675C49",
"+o c #675C4B",
"+p c #675C4C",
"+q c #675C4D",
"+r c #675C4F",
"+s c #675C51",
"+t c #675D43",
"+u c #675D46",
"+v c #675D47",
"+w c #675D49",
"+x c #675D4A",
"+y c #675D4C",
"+z c #675D4F",
"+{ c #675E46",
"+| c #675E49",
"+} c #675E4A",
"+~ c #675E4B",
",! c #675E4C",
",# c #675E4D",
",$ c #675E4E",
",% c #675E4F",
",& c #675F4B",
",' c #675F4C",
",( c #675F4D",
",) c #675F4E",
",* c #675F4F",
",+ c #675F50",
",, c #675F51",
",- c #67604C",
",. c #67604F",
",/ c #676050",
",0 c #676150",
",1 c #676151",
",2 c #67624B",
",3 c #685442",
",4 c #685445",
",5 c #685541",
",6 c #685542",
",7 c #685642",
",8 c #685649",
",9 c #685743",
",: c #685744",
",; c #685745",
",< c #685746",
",= c #685748",
",> c #68574A",
",? c #68574C",
",@ c #685841",
",A c #685844",
",B c #685845",
",C c #685847",
",D c #685848",
",E c #685849",
",F c #685941",
",G c #685946",
",H c #685947",
",I c #685948",
",J c #68594A",
",K c #68594C",
",L c #68594D",
",M c #685A43",
",N c #685A45",
",O c #685A46",
",P c #685A47",
",Q c #685A48",
",R c #685A4B",
",S c #685A4C",
",T c #685A4D",
",U c #685B44",
",V c #685B46",
",W c #685B47",
",X c #685B48",
",Y c #685B49",
",Z c #685B4B",
",[ c #685B4D",
",] c #685B4E",
",^ c #685B4F",
",_ c #685C46",
",` c #685C47",
",a c #685C48",
",b c #685C4A",
",c c #685C4B",
",d c #685C4C",
",e c #685C4D",
",f c #685C4F",
",g c #685C50",
",h c #685D45",
",i c #685D46",
",j c #685D47",
",k c #685D48",
",l c #685D49",
",m c #685D4A",
",n c #685D4B",
",o c #685D4C",
",p c #685D4D",
",q c #685D4E",
",r c #685D50",
",s c #685D51",
",t c #685E46",
",u c #685E48",
",v c #685E49",
",w c #685E4A",
",x c #685E4B",
",y c #685E4C",
",z c #685E4D",
",{ c #685E4E",
",| c #685E4F",
",} c #685E50",
",~ c #685E51",
"-! c #685F49",
"-# c #685F4A",
"-$ c #685F4B",
"-% c #685F4C",
"-& c #685F4D",
"-' c #685F4E",
"-( c #685F50",
"-) c #685F51",
"-* c #685F52",
"-+ c #685F54",
"-, c #68604A",
"-- c #68604C",
"-. c #68604E",
"-/ c #686050",
"-0 c #686051",
"-1 c #68614D",
"-2 c #686151",
"-3 c #686154",
"-4 c #68624F",
"-5 c #686250",
"-6 c #686251",
"-7 c #686253",
"-8 c #686353",
"-9 c #68644E",
"-: c #686450",
"-; c #686453",
"-< c #686454",
"-= c #695740",
"-> c #695745",
"-? c #695746",
"-@ c #695749",
"-A c #69574A",
"-B c #695842",
"-C c #695843",
"-D c #695844",
"-E c #695845",
"-F c #695846",
"-G c #695847",
"-H c #695848",
"-I c #695849",
"-J c #69584A",
"-K c #695940",
"-L c #695942",
"-M c #695947",
"-N c #695948",
"-O c #695949",
"-P c #695A43",
"-Q c #695A45",
"-R c #695A46",
"-S c #695A47",
"-T c #695A48",
"-U c #695A49",
"-V c #695A4A",
"-W c #695A4B",
"-X c #695A4E",
"-Y c #695A4F",
"-Z c #695B45",
"-[ c #695B46",
"-] c #695B47",
"-^ c #695B48",
"-_ c #695B49",
"-` c #695B4A",
"-a c #695B4C",
"-b c #695B4D",
"-c c #695B4E",
"-d c #695B50",
"-e c #695B51",
"-f c #695C44",
"-g c #695C47",
"-h c #695C48",
"-i c #695C49",
"-j c #695C4A",
"-k c #695C4B",
"-l c #695C4C",
"-m c #695C4E",
"-n c #695C4F",
"-o c #695C51",
"-p c #695D44",
"-q c #695D47",
"-r c #695D48",
"-s c #695D49",
"-t c #695D4A",
"-u c #695D4B",
"-v c #695D4C",
"-w c #695D4D",
"-x c #695D50",
"-y c #695D53",
"-z c #695E44",
"-{ c #695E47",
"-| c #695E48",
"-} c #695E49",
"-~ c #695E4A",
".! c #695E4B",
".# c #695E4C",
".$ c #695E4D",
".% c #695E4E",
".& c #695E4F",
".' c #695F49",
".( c #695F4B",
".) c #695F4D",
".* c #695F4E",
".+ c #695F4F",
"., c #695F50",
".- c #696049",
".. c #69604A",
"./ c #69604B",
".0 c #69604D",
".1 c #69604E",
".2 c #69604F",
".3 c #696050",
".4 c #696054",
".5 c #69614C",
".6 c #69614D",
".7 c #69614E",
".8 c #69614F",
".9 c #696150",
".: c #696151",
".; c #696154",
".< c #69624A",
".= c #69624B",
".> c #69634D",
".? c #696351",
".@ c #696353",
".A c #696355",
".B c #696358",
".C c #69644F",
".D c #696450",
".E c #696452",
".F c #696859",
".G c #6A5541",
".H c #6A5543",
".I c #6A5643",
".J c #6A5742",
".K c #6A5744",
".L c #6A574A",
".M c #6A5844",
".N c #6A5942",
".O c #6A5944",
".P c #6A5947",
".Q c #6A5949",
".R c #6A5A45",
".S c #6A5A47",
".T c #6A5A48",
".U c #6A5A49",
".V c #6A5A4A",
".W c #6A5A4B",
".X c #6A5A4D",
".Y c #6A5A4E",
".Z c #6A5B44",
".[ c #6A5B45",
".] c #6A5B47",
".^ c #6A5B48",
"._ c #6A5B49",
".` c #6A5B4A",
".a c #6A5B4B",
".b c #6A5B4C",
".c c #6A5B4E",
".d c #6A5B50",
".e c #6A5C46",
".f c #6A5C47",
".g c #6A5C49",
".h c #6A5C4B",
".i c #6A5C4C",
".j c #6A5C4D",
".k c #6A5C4F",
".l c #6A5C51",
".m c #6A5D46",
".n c #6A5D48",
".o c #6A5D49",
".p c #6A5D4B",
".q c #6A5D4C",
".r c #6A5D4D",
".s c #6A5D4E",
".t c #6A5D4F",
".u c #6A5D50",
".v c #6A5D51",
".w c #6A5E47",
".x c #6A5E48",
".y c #6A5E49",
".z c #6A5E4A",
".{ c #6A5E4C",
".| c #6A5E4D",
".} c #6A5E4E",
".~ c #6A5E4F",
"/! c #6A5E50",
"/# c #6A5E51",
"/$ c #6A5F48",
"/% c #6A5F4A",
"/& c #6A5F4B",
"/' c #6A5F4C",
"/( c #6A5F4D",
"/) c #6A5F4E",
"/* c #6A5F4F",
"/+ c #6A5F50",
"/, c #6A5F51",
"/- c #6A5F52",
"/. c #6A6049",
"// c #6A604A",
"/0 c #6A604B",
"/1 c #6A604C",
"/2 c #6A604D",
"/3 c #6A604F",
"/4 c #6A6050",
"/5 c #6A6051",
"/6 c #6A6054",
"/7 c #6A6149",
"/8 c #6A614B",
"/9 c #6A614C",
"/: c #6A614D",
"/; c #6A614E",
"/< c #6A614F",
"/= c #6A6150",
"/> c #6A6152",
"/? c #6A6153",
"/@ c #6A6155",
"/A c #6A624C",
"/B c #6A624D",
"/C c #6A624F",
"/D c #6A6251",
"/E c #6A6252",
"/F c #6A6253",
"/G c #6A6255",
"/H c #6A6256",
"/I c #6A634F",
"/J c #6A6350",
"/K c #6A6351",
"/L c #6A6352",
"/M c #6A6353",
"/N c #6A6355",
"/O c #6A644C",
"/P c #6A644D",
"/Q c #6A644F",
"/R c #6A6450",
"/S c #6A6453",
"/T c #6A6553",
"/U c #6A6555",
"/V c #6B5741",
"/W c #6B5748",
"/X c #6B5842",
"/Y c #6B5843",
"/Z c #6B5845",
"/[ c #6B5846",
"/] c #6B5947",
"/^ c #6B5948",
"/_ c #6B594B",
"/` c #6B5A41",
"/a c #6B5A44",
"/b c #6B5A47",
"/c c #6B5A48",
"/d c #6B5A4A",
"/e c #6B5A4B",
"/f c #6B5A4C",
"/g c #6B5A51",
"/h c #6B5B44",
"/i c #6B5B46",
"/j c #6B5B47",
"/k c #6B5B48",
"/l c #6B5B49",
"/m c #6B5B4B",
"/n c #6B5B4C",
"/o c #6B5B4D",
"/p c #6B5C46",
"/q c #6B5C47",
"/r c #6B5C48",
"/s c #6B5C49",
"/t c #6B5C4A",
"/u c #6B5C4C",
"/v c #6B5C4D",
"/w c #6B5C4F",
"/x c #6B5D46",
"/y c #6B5D47",
"/z c #6B5D49",
"/{ c #6B5D4A",
"/| c #6B5D4B",
"/} c #6B5D4C",
"/~ c #6B5D4D",
"0! c #6B5D4E",
"0# c #6B5D4F",
"0$ c #6B5D50",
"0% c #6B5D52",
"0& c #6B5E47",
"0' c #6B5E48",
"0( c #6B5E49",
"0) c #6B5E4A",
"0* c #6B5E4B",
"0+ c #6B5E4C",
"0, c #6B5E4D",
"0- c #6B5E4E",
"0. c #6B5E4F",
"0/ c #6B5E50",
"00 c #6B5F48",
"01 c #6B5F4A",
"02 c #6B5F4B",
"03 c #6B5F4C",
"04 c #6B5F4D",
"05 c #6B5F4E",
"06 c #6B5F4F",
"07 c #6B5F50",
"08 c #6B5F52",
"09 c #6B5F54",
"0: c #6B6048",
"0; c #6B6049",
"0< c #6B604A",
"0= c #6B604C",
"0> c #6B604D",
"0? c #6B604E",
"0@ c #6B604F",
"0A c #6B6050",
"0B c #6B6051",
"0C c #6B6052",
"0D c #6B6147",
"0E c #6B614D",
"0F c #6B614E",
"0G c #6B614F",
"0H c #6B6150",
"0I c #6B6152",
"0J c #6B6153",
"0K c #6B624C",
"0L c #6B624D",
"0M c #6B624E",
"0N c #6B624F",
"0O c #6B6253",
"0P c #6B6254",
"0Q c #6B6255",
"0R c #6B634E",
"0S c #6B634F",
"0T c #6B6350",
"0U c #6B6351",
"0V c #6B6354",
"0W c #6B6355",
"0X c #6B644B",
"0Y c #6B644E",
"0Z c #6B644F",
"0[ c #6B6450",
"0] c #6B6451",
"0^ c #6B6452",
"0_ c #6B6453",
"0` c #6B6456",
"0a c #6B6550",
"0b c #6B6551",
"0c c #6B6552",
"0d c #6B6554",
"0e c #6B6653",
"0f c #6C5445",
"0g c #6C564A",
"0h c #6C5742",
"0i c #6C5845",
"0j c #6C5846",
"0k c #6C5948",
"0l c #6C5949",
"0m c #6C594A",
"0n c #6C5A44",
"0o c #6C5A45",
"0p c #6C5A46",
"0q c #6C5A48",
"0r c #6C5A4D",
"0s c #6C5B43",
"0t c #6C5B46",
"0u c #6C5B48",
"0v c #6C5B49",
"0w c #6C5B4A",
"0x c #6C5B4D",
"0y c #6C5B4F",
"0z c #6C5C45",
"0{ c #6C5C46",
"0| c #6C5C49",
"0} c #6C5C4A",
"0~ c #6C5C4B",
"1! c #6C5C4E",
"1# c #6C5C50",
"1$ c #6C5C52",
"1% c #6C5D45",
"1& c #6C5D48",
"1' c #6C5D4A",
"1( c #6C5D4B",
"1) c #6C5D4C",
"1* c #6C5D4D",
"1+ c #6C5D4E",
"1, c #6C5D4F",
"1- c #6C5D50",
"1. c #6C5D51",
"1/ c #6C5E45",
"10 c #6C5E4A",
"11 c #6C5E4B",
"12 c #6C5E4C",
"13 c #6C5E4D",
"14 c #6C5E4E",
"15 c #6C5E4F",
"16 c #6C5E50",
"17 c #6C5E53",
"18 c #6C5F4A",
"19 c #6C5F4B",
"1: c #6C5F4C",
"1; c #6C5F4D",
"1< c #6C5F4E",
"1= c #6C5F4F",
"1> c #6C5F50",
"1? c #6C5F51",
"1@ c #6C5F52",
"1A c #6C5F54",
"1B c #6C6049",
"1C c #6C604A",
"1D c #6C604C",
"1E c #6C604D",
"1F c #6C604E",
"1G c #6C604F",
"1H c #6C6050",
"1I c #6C6051",
"1J c #6C6052",
"1K c #6C6149",
"1L c #6C614C",
"1M c #6C614D",
"1N c #6C614E",
"1O c #6C614F",
"1P c #6C6151",
"1Q c #6C6153",
"1R c #6C6154",
"1S c #6C6155",
"1T c #6C624B",
"1U c #6C624C",
"1V c #6C624D",
"1W c #6C624F",
"1X c #6C6250",
"1Y c #6C6251",
"1Z c #6C6252",
"1[ c #6C6253",
"1] c #6C6256",
"1^ c #6C634C",
"1_ c #6C634E",
"1` c #6C6350",
"1a c #6C6351",
"1b c #6C6353",
"1c c #6C6354",
"1d c #6C6355",
"1e c #6C6358",
"1f c #6C644D",
"1g c #6C644F",
"1h c #6C6451",
"1i c #6C6452",
"1j c #6C6453",
"1k c #6C6454",
"1l c #6C6457",
"1m c #6C654E",
"1n c #6C654F",
"1o c #6C6553",
"1p c #6C6556",
"1q c #6C6652",
"1r c #6C6655",
"1s c #6C6658",
"1t c #6C6659",
"1u c #6D5541",
"1v c #6D5945",
"1w c #6D5A47",
"1x c #6D5A48",
"1y c #6D5B44",
"1z c #6D5B45",
"1{ c #6D5B47",
"1| c #6D5B48",
"1} c #6D5B49",
"1~ c #6D5B4A",
"2! c #6D5B4C",
"2# c #6D5B4D",
"2$ c #6D5B51",
"2% c #6D5C43",
"2& c #6D5C47",
"2' c #6D5C4A",
"2( c #6D5C4E",
"2) c #6D5C52",
"2* c #6D5D45",
"2+ c #6D5D47",
"2, c #6D5D48",
"2- c #6D5D49",
"2. c #6D5D4A",
"2/ c #6D5D4B",
"20 c #6D5D4C",
"21 c #6D5D4E",
"22 c #6D5D50",
"23 c #6D5E46",
"24 c #6D5E47",
"25 c #6D5E49",
"26 c #6D5E4B",
"27 c #6D5E4D",
"28 c #6D5E4E",
"29 c #6D5E4F",
"2: c #6D5E50",
"2; c #6D5F4B",
"2< c #6D5F4C",
"2= c #6D5F4D",
"2> c #6D5F4E",
"2? c #6D5F53",
"2@ c #6D5F54",
"2A c #6D5F55",
"2B c #6D6047",
"2C c #6D6048",
"2D c #6D604A",
"2E c #6D604B",
"2F c #6D604C",
"2G c #6D604E",
"2H c #6D6050",
"2I c #6D6055",
"2J c #6D614B",
"2K c #6D614C",
"2L c #6D614D",
"2M c #6D6150",
"2N c #6D6151",
"2O c #6D6153",
"2P c #6D6157",
"2Q c #6D624B",
"2R c #6D624C",
"2S c #6D624E",
"2T c #6D624F",
"2U c #6D6250",
"2V c #6D6251",
"2W c #6D6252",
"2X c #6D6253",
"2Y c #6D6254",
"2Z c #6D6256",
"2[ c #6D6257",
"2] c #6D634C",
"2^ c #6D634D",
"2_ c #6D634F",
"2` c #6D6350",
"2a c #6D6351",
"2b c #6D6352",
"2c c #6D6354",
"2d c #6D6355",
"2e c #6D644E",
"2f c #6D644F",
"2g c #6D6450",
"2h c #6D6451",
"2i c #6D6452",
"2j c #6D6453",
"2k c #6D6454",
"2l c #6D6457",
"2m c #6D6459",
"2n c #6D654F",
"2o c #6D6550",
"2p c #6D6552",
"2q c #6D6553",
"2r c #6D6554",
"2s c #6D6556",
"2t c #6D6651",
"2u c #6D6652",
"2v c #6D6655",
"2w c #6D6658",
"2x c #6D6754",
"2y c #6D6755",
"2z c #6D6757",
"2{ c #6D6759",
"2| c #6D6858",
"2} c #6E5848",
"2~ c #6E5A48",
"3! c #6E5A4A",
"3# c #6E5A4B",
"3$ c #6E5B49",
"3% c #6E5B4A",
"3& c #6E5B4F",
"3' c #6E5C46",
"3( c #6E5C47",
"3) c #6E5C4B",
"3* c #6E5C4C",
"3+ c #6E5C4F",
"3, c #6E5D44",
"3- c #6E5D48",
"3. c #6E5D4A",
"3/ c #6E5D4B",
"30 c #6E5D4D",
"31 c #6E5D4E",
"32 c #6E5D4F",
"33 c #6E5D50",
"34 c #6E5E46",
"35 c #6E5E47",
"36 c #6E5E49",
"37 c #6E5E4A",
"38 c #6E5E4B",
"39 c #6E5E4C",
"3: c #6E5E4D",
"3; c #6E5E4E",
"3< c #6E5E4F",
"3= c #6E5E50",
"3> c #6E5E51",
"3? c #6E5E53",
"3@ c #6E5F49",
"3A c #6E5F4A",
"3B c #6E5F4B",
"3C c #6E5F4C",
"3D c #6E5F4D",
"3E c #6E5F4E",
"3F c #6E5F4F",
"3G c #6E5F50",
"3H c #6E5F52",
"3I c #6E5F54",
"3J c #6E5F55",
"3K c #6E6047",
"3L c #6E604A",
"3M c #6E604B",
"3N c #6E604C",
"3O c #6E604E",
"3P c #6E604F",
"3Q c #6E6050",
"3R c #6E6051",
"3S c #6E6052",
"3T c #6E614C",
"3U c #6E614D",
"3V c #6E614E",
"3W c #6E614F",
"3X c #6E6151",
"3Y c #6E6152",
"3Z c #6E6153",
"3[ c #6E6155",
"3] c #6E6246",
"3^ c #6E6249",
"3_ c #6E624B",
"3` c #6E624C",
"3a c #6E624D",
"3b c #6E624E",
"3c c #6E624F",
"3d c #6E6250",
"3e c #6E6251",
"3f c #6E6252",
"3g c #6E6253",
"3h c #6E6254",
"3i c #6E6255",
"3j c #6E6257",
"3k c #6E634D",
"3l c #6E634E",
"3m c #6E634F",
"3n c #6E6350",
"3o c #6E6351",
"3p c #6E6352",
"3q c #6E6353",
"3r c #6E6355",
"3s c #6E6356",
"3t c #6E6357",
"3u c #6E644E",
"3v c #6E644F",
"3w c #6E6450",
"3x c #6E6451",
"3y c #6E6452",
"3z c #6E6453",
"3{ c #6E6454",
"3| c #6E6455",
"3} c #6E6551",
"3~ c #6E6554",
"4! c #6E6555",
"4# c #6E6557",
"4$ c #6E6558",
"4% c #6E6650",
"4& c #6E6653",
"4' c #6E6655",
"4( c #6E6656",
"4) c #6E6657",
"4* c #6E6658",
"4+ c #6E6659",
"4, c #6E6753",
"4- c #6E6754",
"4. c #6E6757",
"4/ c #6E675D",
"40 c #6E6855",
"41 c #6E6957",
"42 c #6F5A4B",
"43 c #6F5B47",
"44 c #6F5B49",
"45 c #6F5D46",
"46 c #6F5D47",
"47 c #6F5D4F",
"48 c #6F5D51",
"49 c #6F5E47",
"4: c #6F5E49",
"4; c #6F5E4B",
"4< c #6F5E4C",
"4= c #6F5E4D",
"4> c #6F5E4F",
"4? c #6F5E51",
"4@ c #6F5E52",
"4A c #6F5F47",
"4B c #6F5F48",
"4C c #6F5F4A",
"4D c #6F5F4C",
"4E c #6F5F4D",
"4F c #6F5F4F",
"4G c #6F5F50",
"4H c #6F5F52",
"4I c #6F604A",
"4J c #6F604B",
"4K c #6F604C",
"4L c #6F604D",
"4M c #6F604E",
"4N c #6F604F",
"4O c #6F6050",
"4P c #6F6051",
"4Q c #6F614A",
"4R c #6F614B",
"4S c #6F614C",
"4T c #6F614D",
"4U c #6F614E",
"4V c #6F614F",
"4W c #6F6150",
"4X c #6F6151",
"4Y c #6F6152",
"4Z c #6F6153",
"4[ c #6F624A",
"4] c #6F624C",
"4^ c #6F624D",
"4_ c #6F624F",
"4` c #6F6250",
"4a c #6F6251",
"4b c #6F6252",
"4c c #6F6254",
"4d c #6F6255",
"4e c #6F6257",
"4f c #6F634B",
"4g c #6F634D",
"4h c #6F634E",
"4i c #6F634F",
"4j c #6F6350",
"4k c #6F6351",
"4l c #6F6352",
"4m c #6F6355",
"4n c #6F6356",
"4o c #6F644B",
"4p c #6F644C",
"4q c #6F644D",
"4r c #6F644E",
"4s c #6F644F",
"4t c #6F6450",
"4u c #6F6451",
"4v c #6F6452",
"4w c #6F6453",
"4x c #6F6454",
"4y c #6F6456",
"4z c #6F6457",
"4{ c #6F6458",
"4| c #6F654D",
"4} c #6F654F",
"4~ c #6F6551",
"5! c #6F6552",
"5# c #6F6553",
"5$ c #6F6554",
"5% c #6F6555",
"5& c #6F6558",
"5' c #6F664F",
"5( c #6F6650",
"5) c #6F6651",
"5* c #6F6652",
"5+ c #6F6653",
"5, c #6F6654",
"5- c #6F6655",
"5. c #6F6656",
"5/ c #6F6657",
"50 c #6F6658",
"51 c #6F6753",
"52 c #6F6756",
"53 c #6F675B",
"54 c #6F6851",
"55 c #6F6853",
"56 c #6F6856",
"57 c #6F685A",
"58 c #6F685B",
"59 c #6F6954",
"5: c #6F6959",
"5; c #6F6B5D",
"5< c #705B4E",
"5= c #705C46",
"5> c #705D4A",
"5? c #705D4D",
"5@ c #705D4E",
"5A c #705D4F",
"5B c #705D50",
"5C c #705E49",
"5D c #705E4A",
"5E c #705E4B",
"5F c #705E4C",
"5G c #705E4D",
"5H c #705E51",
"5I c #705F46",
"5J c #705F4B",
"5K c #705F4F",
"5L c #705F51",
"5M c #706046",
"5N c #706048",
"5O c #70604A",
"5P c #70604E",
"5Q c #70604F",
"5R c #706050",
"5S c #706051",
"5T c #706052",
"5U c #70614A",
"5V c #70614B",
"5W c #70614C",
"5X c #70614D",
"5Y c #70614F",
"5Z c #706150",
"5[ c #706151",
"5] c #706152",
"5^ c #706153",
"5_ c #706154",
"5` c #706155",
"5a c #70624B",
"5b c #70624C",
"5c c #70624E",
"5d c #70624F",
"5e c #706250",
"5f c #706251",
"5g c #706252",
"5h c #706253",
"5i c #706256",
"5j c #70634B",
"5k c #70634C",
"5l c #70634D",
"5m c #706350",
"5n c #706351",
"5o c #706352",
"5p c #706353",
"5q c #706354",
"5r c #706356",
"5s c #70644D",
"5t c #706451",
"5u c #706452",
"5v c #706453",
"5w c #706454",
"5x c #706455",
"5y c #706457",
"5z c #70654F",
"5{ c #706551",
"5| c #706552",
"5} c #706553",
"5~ c #706554",
"6! c #706555",
"6# c #706559",
"6$ c #70655A",
"6% c #70664D",
"6& c #706650",
"6' c #706651",
"6( c #706652",
"6) c #706653",
"6* c #706654",
"6+ c #706655",
"6, c #706656",
"6- c #706657",
"6. c #706658",
"6/ c #706751",
"60 c #706752",
"61 c #706754",
"62 c #706755",
"63 c #706757",
"64 c #706759",
"65 c #706853",
"66 c #706855",
"67 c #706856",
"68 c #706857",
"69 c #706859",
"6: c #70685B",
"6; c #706956",
"6< c #706957",
"6= c #70695B",
"6> c #70695D",
"6? c #706A55",
"6@ c #706A58",
"6A c #706A5A",
"6B c #706C58",
"6C c #706C5F",
"6D c #715B50",
"6E c #715D4B",
"6F c #715D4C",
"6G c #715E4D",
"6H c #715F49",
"6I c #715F4B",
"6J c #715F4C",
"6K c #715F4D",
"6L c #715F4E",
"6M c #715F4F",
"6N c #715F50",
"6O c #716049",
"6P c #71604C",
"6Q c #716050",
"6R c #716053",
"6S c #716058",
"6T c #71614A",
"6U c #71614C",
"6V c #71614D",
"6W c #71614E",
"6X c #71614F",
"6Y c #716151",
"6Z c #716152",
"6[ c #71624A",
"6] c #71624B",
"6^ c #71624E",
"6_ c #71624F",
"6` c #716250",
"6a c #716251",
"6b c #716252",
"6c c #716253",
"6d c #716254",
"6e c #716256",
"6f c #71634B",
"6g c #71634D",
"6h c #71634E",
"6i c #71634F",
"6j c #716350",
"6k c #716351",
"6l c #716352",
"6m c #716353",
"6n c #716356",
"6o c #716358",
"6p c #71644E",
"6q c #71644F",
"6r c #716450",
"6s c #716451",
"6t c #716452",
"6u c #716453",
"6v c #716454",
"6w c #716455",
"6x c #716456",
"6y c #716458",
"6z c #71654D",
"6{ c #71654E",
"6| c #716550",
"6} c #716551",
"6~ c #716552",
"7! c #716553",
"7# c #716554",
"7$ c #716555",
"7% c #716556",
"7& c #716557",
"7' c #716558",
"7( c #716559",
"7) c #716650",
"7* c #716651",
"7+ c #716653",
"7, c #716654",
"7- c #716655",
"7. c #716656",
"7/ c #716657",
"70 c #716754",
"71 c #716755",
"72 c #716756",
"73 c #716757",
"74 c #716758",
"75 c #716759",
"76 c #71675B",
"77 c #716851",
"78 c #716854",
"79 c #716855",
"7: c #716857",
"7; c #716858",
"7< c #71685A",
"7= c #71685B",
"7> c #716955",
"7? c #716956",
"7@ c #716957",
"7A c #716959",
"7B c #71695A",
"7C c #716A56",
"7D c #716A58",
"7E c #716A5C",
"7F c #716B56",
"7G c #716B59",
"7H c #716B5B",
"7I c #716C59",
"7J c #716C5A",
"7K c #716D5D",
"7L c #725B49",
"7M c #725D48",
"7N c #725D4C",
"7O c #725E4C",
"7P c #725E50",
"7Q c #725F4A",
"7R c #725F4C",
"7S c #726048",
"7T c #726050",
"7U c #726051",
"7V c #72614B",
"7W c #72614C",
"7X c #72614E",
"7Y c #72614F",
"7Z c #726150",
"7[ c #726153",
"7] c #72624C",
"7^ c #72624E",
"7_ c #72624F",
"7` c #726250",
"7a c #726251",
"7b c #726253",
"7c c #726257",
"7d c #726348",
"7e c #72634A",
"7f c #72634D",
"7g c #72634F",
"7h c #726352",
"7i c #726353",
"7j c #726354",
"7k c #726355",
"7l c #726356",
"7m c #72644C",
"7n c #72644D",
"7o c #72644E",
"7p c #72644F",
"7q c #726450",
"7r c #726451",
"7s c #726452",
"7t c #726453",
"7u c #726454",
"7v c #726455",
"7w c #726456",
"7x c #726458",
"7y c #72654F",
"7z c #726551",
"7{ c #726552",
"7| c #726553",
"7} c #726554",
"7~ c #726555",
"8! c #726556",
"8# c #726557",
"8$ c #726558",
"8% c #72664D",
"8& c #72664F",
"8' c #726650",
"8( c #726651",
"8) c #726652",
"8* c #726653",
"8+ c #726654",
"8, c #726655",
"8- c #726656",
"8. c #726657",
"8/ c #726658",
"80 c #726751",
"81 c #726752",
"82 c #726753",
"83 c #726754",
"84 c #726755",
"85 c #726756",
"86 c #726757",
"87 c #726758",
"88 c #72675B",
"89 c #726852",
"8: c #726853",
"8; c #726854",
"8< c #726855",
"8= c #726857",
"8> c #726858",
"8? c #72685A",
"8@ c #72685B",
"8A c #72685C",
"8B c #726954",
"8C c #726955",
"8D c #726956",
"8E c #726958",
"8F c #726959",
"8G c #72695B",
"8H c #726A59",
"8I c #726A5B",
"8J c #726B58",
"8K c #726B5B",
"8L c #726C5A",
"8M c #735F47",
"8N c #735F49",
"8O c #73604C",
"8P c #73604F",
"8Q c #73614F",
"8R c #736151",
"8S c #73624B",
"8T c #73624C",
"8U c #736252",
"8V c #73634B",
"8W c #73634D",
"8X c #73634F",
"8Y c #736350",
"8Z c #736351",
"8[ c #736353",
"8] c #736354",
"8^ c #73644E",
"8_ c #73644F",
"8` c #736450",
"8a c #736451",
"8b c #736452",
"8c c #736453",
"8d c #736454",
"8e c #736458",
"8f c #73654E",
"8g c #73654F",
"8h c #736550",
"8i c #736551",
"8j c #736552",
"8k c #736553",
"8l c #736554",
"8m c #736555",
"8n c #736556",
"8o c #736557",
"8p c #736650",
"8q c #736653",
"8r c #736654",
"8s c #736655",
"8t c #736656",
"8u c #736658",
"8v c #736659",
"8w c #736750",
"8x c #736751",
"8y c #736752",
"8z c #736753",
"8{ c #736754",
"8| c #736755",
"8} c #736757",
"8~ c #736758",
"9! c #736759",
"9# c #736851",
"9$ c #736853",
"9% c #736854",
"9& c #736855",
"9' c #736856",
"9( c #736857",
"9) c #736858",
"9* c #736859",
"9+ c #73685A",
"9, c #73685C",
"9- c #736951",
"9. c #736954",
"9/ c #736955",
"90 c #736956",
"91 c #736958",
"92 c #736959",
"93 c #73695A",
"94 c #73695C",
"95 c #736A58",
"96 c #736A59",
"97 c #736A5A",
"98 c #736A5C",
"99 c #736B58",
"9: c #736B59",
"9; c #736B5A",
"9< c #736B5B",
"9= c #736C5D",
"9> c #736C5F",
"9? c #736C60",
"9@ c #736E5B",
"9A c #736F5E",
"9B c #745E4A",
"9C c #745F4F",
"9D c #74604F",
"9E c #74614F",
"9F c #746154",
"9G c #74624B",
"9H c #74624E",
"9I c #746251",
"9J c #746252",
"9K c #746253",
"9L c #74634B",
"9M c #746350",
"9N c #746351",
"9O c #746352",
"9P c #746353",
"9Q c #746356",
"9R c #74644E",
"9S c #746450",
"9T c #746451",
"9U c #746453",
"9V c #746454",
"9W c #746456",
"9X c #746457",
"9Y c #746458",
"9Z c #746550",
"9[ c #746552",
"9] c #746553",
"9^ c #746554",
"9_ c #746555",
"9` c #746557",
"9a c #74664E",
"9b c #746652",
"9c c #746653",
"9d c #746654",
"9e c #746655",
"9f c #746656",
"9g c #746657",
"9h c #746659",
"9i c #746753",
"9j c #746754",
"9k c #746755",
"9l c #746756",
"9m c #746757",
"9n c #746759",
"9o c #74675A",
"9p c #746852",
"9q c #746855",
"9r c #746856",
"9s c #746857",
"9t c #746858",
"9u c #74685D",
"9v c #746952",
"9w c #746954",
"9x c #746955",
"9y c #746956",
"9z c #746957",
"9{ c #746959",
"9| c #74695B",
"9} c #74695C",
"9~ c #746A56",
":! c #746A57",
":# c #746A58",
":$ c #746A59",
":% c #746A5A",
":& c #746A5C",
":' c #746B59",
":( c #746B5A",
":) c #746B5B",
":* c #746B5D",
":+ c #746C57",
":, c #746C59",
":- c #746C5B",
":. c #746D5A",
":/ c #746D5B",
":0 c #746D5C",
":1 c #746D5D",
":2 c #746D5F",
":3 c #746E5E",
":4 c #746F5B",
":5 c #75614A",
":6 c #75614B",
":7 c #75614E",
":8 c #756150",
":9 c #75624D",
":: c #75624E",
":; c #756253",
":< c #756255",
":= c #75634C",
":> c #75634F",
":? c #756350",
":@ c #756352",
":A c #756353",
":B c #756355",
":C c #75644C",
":D c #75644D",
":E c #75644E",
":F c #756450",
":G c #756451",
":H c #756452",
":I c #756455",
":J c #75654A",
":K c #75654C",
":L c #756550",
":M c #756551",
":N c #756553",
":O c #756554",
":P c #756555",
":Q c #756558",
":R c #75664D",
":S c #756651",
":T c #756652",
":U c #756653",
":V c #756654",
":W c #756656",
":X c #756658",
":Y c #756659",
":Z c #75674F",
":[ c #756750",
":] c #756751",
":^ c #756752",
":_ c #756753",
":` c #756754",
":a c #756755",
":b c #756756",
":c c #756850",
":d c #756853",
":e c #756854",
":f c #756855",
":g c #756856",
":h c #756857",
":i c #756859",
":j c #75685A",
":k c #756955",
":l c #756956",
":m c #756957",
":n c #756958",
":o c #75695A",
":p c #756A53",
":q c #756A54",
":r c #756A56",
":s c #756A57",
":t c #756A58",
":u c #756A59",
":v c #756A5A",
":w c #756A5B",
":x c #756B57",
":y c #756B58",
":z c #756B5A",
":{ c #756B5B",
":| c #756C57",
":} c #756C5B",
":~ c #756C5C",
";! c #756C5F",
";# c #756D58",
";$ c #756D5D",
";% c #756D5E",
";& c #756D5F",
";' c #756D60",
";( c #756E5F",
";) c #756F5D",
";* c #76604C",
";+ c #766250",
";, c #766351",
";- c #76644D",
";. c #766450",
";/ c #766454",
";0 c #76654D",
";1 c #766550",
";2 c #766552",
";3 c #766555",
";4 c #766558",
";5 c #766651",
";6 c #766653",
";7 c #766654",
";8 c #766656",
";9 c #766657",
";: c #76665A",
";; c #766753",
";< c #766754",
";= c #766755",
";> c #766756",
";? c #766759",
";@ c #76675B",
";A c #766853",
";B c #766854",
";C c #766855",
";D c #766857",
";E c #766858",
";F c #766859",
";G c #76685A",
";H c #766951",
";I c #766954",
";J c #766955",
";K c #766956",
";L c #766957",
";M c #766958",
";N c #766959",
";O c #76695A",
";P c #76695B",
";Q c #766A54",
";R c #766A55",
";S c #766A56",
";T c #766A57",
";U c #766A58",
";V c #766A59",
";W c #766A5A",
";X c #766A5B",
";Y c #766A5C",
";Z c #766A5D",
";[ c #766B56",
";] c #766B57",
";^ c #766B58",
";_ c #766B5A",
";` c #766B5B",
";a c #766B5E",
";b c #766C58",
";c c #766C59",
";d c #766C5B",
";e c #766C5C",
";f c #766C5D",
";g c #766D5B",
";h c #766D5F",
";i c #766E5A",
";j c #766E5B",
";k c #766F5D",
";l c #776354",
";m c #776450",
";n c #776455",
";o c #776556",
";p c #776652",
";q c #776654",
";r c #776655",
";s c #776656",
";t c #776751",
";u c #776752",
";v c #776755",
";w c #77684E",
";x c #776855",
";y c #776857",
";z c #776859",
";{ c #77685A",
";| c #77694E",
";} c #776952",
";~ c #776954",
"<! c #776955",
"<# c #776956",
"<$ c #776958",
"<% c #776959",
"<& c #77695A",
"<' c #77695B",
"<( c #776A53",
"<) c #776A56",
"<* c #776A57",
"<+ c #776A58",
"<, c #776A59",
"<- c #776A5A",
"<. c #776A5B",
"</ c #776B56",
"<0 c #776B57",
"<1 c #776B58",
"<2 c #776B59",
"<3 c #776B5A",
"<4 c #776B5C",
"<5 c #776B5D",
"<6 c #776B60",
"<7 c #776C59",
"<8 c #776C5A",
"<9 c #776C5B",
"<: c #776C5C",
"<; c #776C5E",
"<< c #776D58",
"<= c #776D59",
"<> c #776D5B",
"<? c #776D5D",
"<@ c #776E5E",
"<A c #776E60",
"<B c #776F5F",
"<C c #78614E",
"<D c #78624E",
"<E c #786451",
"<F c #786453",
"<G c #786552",
"<H c #786553",
"<I c #786557",
"<J c #786652",
"<K c #786654",
"<L c #786658",
"<M c #786751",
"<N c #786753",
"<O c #786756",
"<P c #786757",
"<Q c #786858",
"<R c #786859",
"<S c #786956",
"<T c #786957",
"<U c #786958",
"<V c #786959",
"<W c #78695A",
"<X c #786A54",
"<Y c #786A55",
"<Z c #786A56",
"<[ c #786A57",
"<] c #786A59",
"<^ c #786A5A",
"<_ c #786B53",
"<` c #786B55",
"<a c #786B58",
"<b c #786B5B",
"<c c #786B5C",
"<d c #786C59",
"<e c #786C5C",
"<f c #786C5D",
"<g c #786D59",
"<h c #786D5B",
"<i c #786D5C",
"<j c #786D5D",
"<k c #786E5B",
"<l c #786E5C",
"<m c #786E5D",
"<n c #786E5E",
"<o c #786E60",
"<p c #786F59",
"<q c #786F5C",
"<r c #786F61",
"<s c #786F62",
"<t c #787160",
"<u c #787161",
"<v c #787461",
"<w c #796550",
"<x c #796551",
"<y c #796654",
"<z c #796656",
"<{ c #79665C",
"<| c #796755",
"<} c #796852",
"<~ c #796854",
"=! c #796856",
"=# c #79685A",
"=$ c #796951",
"=% c #796956",
"=& c #796A55",
"=' c #796A57",
"=( c #796A58",
"=) c #796A5B",
"=* c #796B56",
"=+ c #796B58",
"=, c #796B59",
"=- c #796B5A",
"=. c #796B5B",
"=/ c #796B5E",
"=0 c #796C53",
"=1 c #796C58",
"=2 c #796C59",
"=3 c #796C5B",
"=4 c #796C5C",
"=5 c #796C5D",
"=6 c #796C5E",
"=7 c #796D57",
"=8 c #796D59",
"=9 c #796D5C",
"=: c #796D5D",
"=; c #796D5E",
"=< c #796D5F",
"== c #796E57",
"=> c #796E58",
"=? c #796E59",
"=@ c #796E5A",
"=A c #796E5C",
"=B c #796E5E",
"=C c #796F5B",
"=D c #796F5F",
"=E c #79705E",
"=F c #797061",
"=G c #797063",
"=H c #797261",
"=I c #7A6857",
"=J c #7A6859",
"=K c #7A685B",
"=L c #7A6954",
"=M c #7A6955",
"=N c #7A6956",
"=O c #7A6957",
"=P c #7A6A52",
"=Q c #7A6A55",
"=R c #7A6A58",
"=S c #7A6A5A",
"=T c #7A6B57",
"=U c #7A6B58",
"=V c #7A6B59",
"=W c #7A6B5A",
"=X c #7A6B5C",
"=Y c #7A6C58",
"=Z c #7A6C59",
"=[ c #7A6C5D",
"=] c #7A6C5E",
"=^ c #7A6D59",
"=_ c #7A6D5B",
"=` c #7A6D5D",
"=a c #7A6D63",
"=b c #7A6E5B",
"=c c #7A6E5C",
"=d c #7A6E5D",
"=e c #7A6E5F",
"=f c #7A6E61",
"=g c #7A6F5B",
"=h c #7A6F5D",
"=i c #7A705B",
"=j c #7A705E",
"=k c #7A7060",
"=l c #7A7061",
"=m c #7A715E",
"=n c #7A7162",
"=o c #7A7165",
"=p c #7A7266",
"=q c #7A7360",
"=r c #7A7465",
"=s c #7B6854",
"=t c #7B6952",
"=u c #7B6955",
"=v c #7B6956",
"=w c #7B6957",
"=x c #7B6959",
"=y c #7B695A",
"=z c #7B6A53",
"={ c #7B6A58",
"=| c #7B6A59",
"=} c #7B6B55",
"=~ c #7B6B58",
">! c #7B6B59",
"># c #7B6B5B",
">$ c #7B6B5C",
">% c #7B6C58",
">& c #7B6C59",
">' c #7B6C5A",
">( c #7B6C5C",
">) c #7B6D58",
">* c #7B6D5A",
">+ c #7B6D5C",
">, c #7B6E5B",
">- c #7B6F5C",
">. c #7B705F",
">/ c #7B715E",
">0 c #7B715F",
">1 c #7B7161",
">2 c #7B7260",
">3 c #7B7464",
">4 c #7C6753",
">5 c #7C6855",
">6 c #7C6A54",
">7 c #7C6A56",
">8 c #7C6B57",
">9 c #7C6B5B",
">: c #7C6C58",
">; c #7C6C59",
">< c #7C6D58",
">= c #7C6D5A",
">> c #7C6D5C",
">? c #7C6D5D",
">@ c #7C6E5D",
">A c #7C6E5E",
">B c #7C6E5F",
">C c #7C6F59",
">D c #7C6F5B",
">E c #7C6F5D",
">F c #7C6F5F",
">G c #7C6F60",
">H c #7C705F",
">I c #7C7060",
">J c #7C7066",
">K c #7C715D",
">L c #7C7161",
">M c #7C7262",
">N c #7C735C",
">O c #7D6A58",
">P c #7D6C58",
">Q c #7D6C5A",
">R c #7D6C5B",
">S c #7D6D58",
">T c #7D6E5A",
">U c #7D6E5C",
">V c #7D6F5B",
">W c #7D6F61",
">X c #7D6F62",
">Y c #7D705B",
">Z c #7D705D",
">[ c #7D705E",
">] c #7D7061",
">^ c #7D7160",
">_ c #7D7162",
">` c #7D7164",
">a c #7D7261",
">b c #7D7262",
">c c #7D7360",
">d c #7D7362",
">e c #7D7364",
">f c #7D7468",
">g c #7E6C57",
">h c #7E6E5A",
">i c #7E6E5C",
">j c #7E6E5E",
">k c #7E6E60",
">l c #7E6F57",
">m c #7E6F5F",
">n c #7E705F",
">o c #7E7061",
">p c #7E7163",
">q c #7E7263",
">r c #7F6C5B",
">s c #7F6E59",
">t c #7F6E5C",
">u c #7F6F5E",
">v c #7F705C",
">w c #7F705F",
">x c #7F7061",
">y c #7F715C",
">z c #7F715D",
">{ c #7F715F",
">| c #7F7161",
">} c #7F7263",
">~ c #7F735D",
"?! c #7F7360",
"?# c #7F7365",
"?$ c #7F7466",
"?% c #7F7668",
"?& c #7F7967",
"?' c #806E5C",
"?( c #806F5A",
"?) c #806F5E",
"?* c #807161",
"?+ c #807264",
"?, c #80735F",
"?- c #807361",
"?. c #807363",
"?/ c #807464",
"?0 c #807466",
"?1 c #807562",
"?2 c #807563",
"?3 c #80786C",
"?4 c #81725D",
"?5 c #81745E",
"?6 c #817565",
"?7 c #817965",
"?8 c #82745C",
"?9 c #827563",
"?: c #837465",
/* pixels */
"(S'=,P9b=L6|(w9b1q5N8Y;_93=E7)6i=26f6h=P6j/C0=3a+,8;8;:q?5<X;H5c26,@/t,#8z;c4~6&&d2G&9/&5}5l1X9{2T3{=l>`>w?*?/>d9u5i=|3m#5#k/|!x",
"$r#)&**X7]382/;I6p/`/x<1<=2W8b6{$z'+/q1/4T1(+'(X00:/4q;|:C;-:J4U8)3T'x34>D;d8)<_8k/z/7,w/s(f2p1Z5$<:=n>q>t?!=(?:;K8k>!83,u$F'w#D",
",R+R3l6`7d,Y8q7z;A.I1y<k9S*U:x7D/].n1C9a00-_4r-t7F9A<b<#81=%-&5u>E/l1F>~=_:*=,:`6(0>;~0#!7'&3d,Y4&=3=&>R=(?99f;E:A3;;u;25u0~'0+j",
"2H-l0Z17/k'f1>3i.16F*p<h9d8z)t/v5s4U><>C#p&;4p3e3y8+73:t7p*o5x<S6u=O:n5+?2:#3z5}-|6u3O%_#c/l9T;b>?<J:]8$>;;U:Y=Y;K2H7r1i)i,z*,*'",
"03)j9K*])A+m%t*J1>0j8W=B>K7h3d.D-|-g8'.x.j(E/(4t6r*m1N'k.f3b;A6h;U<O5g9e;`8?6s9$:r9[,a$M/'4I:x8E<[8Z6+:&<T<9>o88;Y8//J0<1M/}${9E",
"3p-}+i7k5?&'&%4C',!'5D5n+w&S'R//9R0'1M2>$!)Z4`/c.q1,+x)++#.'1+6k7m.S6c8`5p719$<c.*4a.90A-g3u=],y,x:1;x7!,e:(4x1Q74,~3g1N:%8m0?>)",
"2s/J*h.u2G#2$6)j7%!r#~-5,8#0!1,v2E1z7V4J0{%9,P)v,3/Z2'(E'z7P0T'Y357g:^:V>@<o2H9p7~.c&t5u2=9V8t'u6y;Q*B9Q=4-1';.90$3J3j7G3f:Q/B6`",
"%e%^&o!T!A(8(71;3D&R+]*g#z#H!*(e'W*1&u%7$_(K0F0l&,.P+}.K,B;n2:%:6V:N20=M?+=<+d<I8A-X(u7&9e6s5w2l3p6D3)9W-J+V5<2$5p5_,z,o06,G'X<U",
",{)p1:!3)R(Q,<5Z->!L#|,l/&*?$|5}2V,W$+$p,D&(+g0m:@3=1u.I;m8i-`.L6J*o6L<]1h7b/f4v+Y$U,|=W9v3x;P3W)*3Y+(!a*r3H)N1$.l2A.v0,/*$R!.0K",
"'w,h!$'E#}'r'R$l%4!N!N06&F(H,p,-5q'm'G3R&h*@.{)R-@3/$p43,C4P/w2:/,3D7l201'6j/g,i'Z,s1'>.9O:W6q4N=A7y3Z+A+e<5(T'L3[!K!v%C!6!R$V#P",
"1M$t!)#T(j$s(?#,(=$c#g&U,X+C'.4]01):*?2-0k,>1g*5.g106b-W.S9h9+-y;Z75-_8Q1o+i#4391J.i;6>1>Q>m4e=x4;0p-G%r6u9n+M)W2a#M$D0|$u!&.p*6",
")/&3!y&?0'(?#m#.!#!H#&*<6_/z&E9.3q'g!n%Y1`(q(/+;.h+Q3k(A3/-S6v4N&C,J215P/>'K'3,I*g=*>(=9=$=b8~8j={;=28+D<f4z/~;@3>%f)U)j/+1;6s89",
"-R,x$G4K;J2L-L1':_6i-|>*5*5};K=q:3.p,w<l417B:z/3.)16'9$h'v6m6d-42g'T*Z5q,z%W(S'h*q:v96=':P<m06-d<e4U2M5e/'<r-H.],?%u&g3E*q0t<N.|",
",J1Q3u:P6@/97a.(650?6*7g3~0483=r973p3v:~4*,+.C0W-%1E/T1[0557.@.!.+4',$&B+1#K'F&)4_8[1P;F<z6x08:h=[;{;G9_7T;d-T%q*L1|1{5[3E*35R6^",
"(l7#.a2K9y.q)_0G*O1E*|-]<#5v2q6A0Q*)198F-1,,(05^'o)6)0-#;I>,9k#}(f8d)b'b2E&c)K::6U3o7}6_2'8@2[8k<?:w%{9c=M7$4<5>-U8^<}7*7{6H3,-R",
"$l5d)e0(2Z6k&`,_,W.6-65X,|6:5/6+1h5x0Y4k6!;`1b($4X/;*},v8i;b9c6];t;L5d.[3-7n25*C3N72*x4j(t582c-07B/))m5y4i7~-W%s-P;q5J5m-x+H.G&x",
"#L(q'q6k$~--)G#'4L;//[*X/K5d/L5:7K-m-X:$4H75/4+T1=,o63909T7;<,<%:Z9i/~([92=>24-Q+o'/$Q5%0J/S76:25$9)8u7.5#;E3O.}4M1~.S,c)I$2&W##",
"%V+n)g0/+)#y&&(y<7>s7]0*>&9/9%>/4x%j,{1t%])-0@4l,!,c:.:!7u:o>K?1;^3p/-7.=d1g5(0n&!,d>+5$5v;)*--V9q/)1G8c'e)e1D,A0s1%193y2B#1%E'1",
",b+a-a#Y&n%K)S>@>l;s5Q2L<S;R<Y7!7-5!6/+(*p9>:o*s9n9o7I6)7%?%>0<a4^(J<t8_;]<v3w#F-&3c,n+7.+/=0M/t8&)t#K2M.n8f)M,X4R3M-^/A*=$^(w$;",
"8,)n,-!g&='>*S:H>S1P&,/j8q:T3C9c91<Q-v(H3#4*;W1K;?8a=c9N;z>B>=:d.M;L>Z4]6&6|3`$f3/6^,n)&$[/?2f0-5}3r05/'9b7}(~&#<*%T*H-b%[!>#](^",
"*P,t%J#Z!06b.f3C9X7Y,t9Z>N8b6a<9=p-%*|4F+^08/c0l+~=_;j8-83=c;S+d4U6,;I/2)((]#b'I8i:%*}%](k4N,m7$7,%l/U5$2h,m%)%b2f&U.O.i/p!5!C2d",
"62/;'u*{9,3z0x4~3+;B2E:S=)>I<9<d874w6c:h)}<j>X0[1<:}2z9*5,-%(&1W04)o900S*o3r4u,/>e:))15-:&7H2r2{*$.A5/,!'6.+,o/M0~,4;K5p)z&P+o4!",
"70*u'0*75@8{'_-I7p,=#32+6g/y6Y2K(h7-:U-M<F9}4W5]1H;'>#5S1V956&+z*K>h6L1(2}1;5v,X$>02*R/)-..79+(31o;(51/3,m1o;^3P:s;M1#2d/N+y8>4-",
"3b$&%$)`%/0A7U'-,F4[#4&57!=^6W4}1k5$9{<+=!8}4=9E-u<[=w,w/8*^&y-w)G.R;+-t,:5b;o0h0}2?;32=2x-c()'[4%2k0B/<+2:-8p45:L-`#;*+/<8M6j7C",
",j-|(%/.0K,'8x&l$`.e&<$O=24T&?%}+q*y<N<09':h8s$L:j?'7X-h+[,^-n19<D0f7Z1F6X996x1-<b<.4d<<2@/H+8:y=f5]3h5r2Y;`<':b<E/q.32a=l;[0c.*",
"7'/Q2V.>4i2p/$)i/%,}%*8r9s2r/:3R9|>A9k31=)4b+r0[(B6W)d1329(m3!7t/|:80r6R8b)<8o=.3t4@3S%a)y)!'U9m6=;{6a7.6o>c>x;`<U;72@<A7=1?/<.6",
"/+)V:%)R*l4N(N%B6k)q.Y5`6.07(t)x?#>|9x=,6_3d%d(O*N,n4o(B,T$H)7<C<y9E132i%;%K)B3L36.N,S.l%-4v7r8L>2=K<L8#52?!8_3Y))5Z472u6n3W/r6v",
":_0b)}0G'<'*6~8C.T0X5|)_6~5-,./;=T>[8j1&(>)^(_!E$58Q-^*P(b'P/D=I:H4P3q9Y!p#C.35P8|&5(-((.,7x.O4y<u67-33I;j9]<K9&0!1!8g1a<-.-2;.r",
"7?561m':)18J>{4x5k=v:{/o,f2X=(4085>b6`%6)G,H$N#$&^.1'l$!+_-a7|32:O9V6u1Y.i)o/R8s1R%^$Z$j0@7l/_4z>J>W=55T=a>U2;(c1b(#%(.32f:G5l)v",
"(2:e*~),4>?,;C5Y=Z>M4T('&w8K1c#97v9l)Q%v$J!|#E$x#r&|!~#G*I18={9D>50l0U;%$d$s(q)n)o/!%L,;4w3s:;<s<B;a5,6<<&>-385H0P1S/Z,p')9d7R0)",
":O'%%2,r<p;e9w>%<*784)*i9'>3-9-~$X)v'4*2%S$$#C#s*2(Q#v'L.a.^.5:E48,[/C2X*67^/+!:,0'$$3&7/d8|2E;:=F8D9g<R>V=e4P:l6:7G11./9z9j)d.!",
"&e%m,+)2,*;i<44Y:,/,*'7[7A-<.m'p$P.J&D)9&Y)f3_3]5b(Q)Y+Q0x>97R/V'n+h)],k-=46'N464+&.446E1Y6c1,7$<2=y>O=s9_:P6h;r4t03/^811j$]*~+_",
"#('s(]1::<9@1;(_*('7-8.z'51@*n,9&q'c#a!w!%)J0o/X5O'O!z-W+o6I8N6P3m,!/2._*<4E.T-k5p'R!4'j=<>_3Q:$?#>]>79L867}=+:m9#-o$o0>-7;f3R+S",
")Y(F-H5w8J16+b/A/F(i=@&H/O=k5=/X2'2&+4(M(V+n2N;,-R.R.P(R*#(5055e*_%68*+@*<8i.;&=1214*Y61>f<;4u=f=`>y<1;79==:<[==546$0):k>1,l'a&&",
"$7*Z9J1N.972(A'@55<:-2+_-W6B,E/e'k1_7J:k+k0M82(Q*W4I8&&W&&.'3F5T2h$('W(;/{+y)%!g7{4_.34x>}7/;O8n<);U4Q5J39<*8'058~.4(D;&8m#o$B'S",
"1i.(9/:47;662a/?>A>:9|<V;M;V2T5'0:5|<q-f*m042^%<1|0u%.(]%D*.%y#>+%)v%Q&}&>%i#+&Z075A0g7v8>=X;>8U?6:T4B8;795d3_<k9-3{+c407h.i+R$.",
":M=^=A0].07i5!4c;2;}?.:X3o;L7/...=8<:|*D//8+-t-{,V+C!8!i4.$*-[!m+[$o-D&:&]03#A1)1x4K2~83?3=i3X:u?7>Y=-;K:r9;5d:p3~7~:[:i61.y4S.#",
";U.2<Q07&M7,,K,^(!<{;P,p4i7@(i1L4h7H51+Y*k.(1>07+J0v)@&O2Y38$K*>*l/1,})T#R(.&N+<4A:T<w9F2o1F9g:k<`:h2R814k9s841X=D2P=S4v0F/u,p5?",
"=1>T4_.X:l>a*/5&8==U1G4i,`:w8'+t+Z;T8%(G.h5]/#)~-A+'-N({.F2N#/!=-%0e#-&v%o#e*q-D=J<Z)s.!-t*&)E2*5u(v$w9Z*d6(1*/!<];W&-5u)Z3E6`8x",
">6)=%&/:.<(I/*8e2O6m2S,w.'/1'R(e4l:m6['a,58c53,L;82b%P*x2e!I!s13(r1k*s'A%p&f/<6l;1.o!G5U,m&{7Q2%1U%R#N.U0i4?5G,k4n)K,c6?6M4S>8<M",
"5E!h%,)r%=)i1n1X.%.|/F&:.z*v(z2=1B-r0R0&421?6-7_>$28(.(28l:95G8B0a1]%h4/#<*l=;.%'u)k%G,U,P*F6I7V-z%r&8*5.H7`;m6t.h*9(A9r3M=u>g;.",
"%@%^%g#t.!7..6(t,n'^0N'V!f'u)B+F);.p9e4N*44N8[>#9n)w,%701i/W)b+l/8,Y-0$I+]26-'/,&4#h/x)?+>+Q3.%M%x#w'f(a&f8g>n20)C(<6Q80:K;*=~:5",
"/),R'c)].$./$W,E$,$P''#S#u-H1v)J$^7S4D:>7L<Z<~<G9B2v'?;#6;).&/-w2_&L%4%U*_+F--*!%8!d+Y*D3C3@7p&r&1(U*t)f/n8!122=6m1.-T=8>i?(?40w",
"#J(;*b1;0]%5*~2p.)3w+-!U'a+o)>$A%z3G>B>4<x=-;q4T5_-//P784,0Y1^--&@(*(o8y-$#X88$y,V3r%#'Z155n+[#G#p$-$i(@.u.s20'H:P.b8-<%<85W7{.:",
"1w370&,l%H**</<a9~690d%n-m.?1M2U,Q9O?0=|6Y7l7$<@4$)X<i8H651(9U/I+$/@1U.66(1F-,+t'f1P-?(d1T#^$g+i!-!P$E3L&V*E14+`*o']-e.h7q44.a8S",
"492,+b,O$L0(7f9G5j+Q$S$e$<'8-C&[/Y:B6}4O4m8P;9=#2X9]592r7w9V6v8Y,K$#.14(50'd&k'B)#%N)O&@%1$B%O%X#d3p,1)%0j+[/5:h6b'i9::g-V.Q-q;5",
"5b.o#B'v+u7A9w:S/=(1/}+E5C0~#w&,6Z=78R&65T=6?)8D3>6e1h5R9P;7:N6K*D-B$G(&)[*V5b'k#=&~#!&;#i&p*o!O!t&j+/!X!M.i4k3o5S5$2j.w.o+W=t=~",
"(L#),x6~1X8C2S(s6=1s)50N8l.:$?3?7<>u7,2:5T=V5Y9P+B2(8t7O8n7i5K-'$n&k)|&H0M5n4_3U*[5F+?$c%s$6&X+I!2!j*m(C%w7}4`%,,^)z2w&:,Z6a6u82",
"+v'Q02<d2r,l/?04,'-m20)J0,/(+w/0:[=h0I&T/{8j9C+f*P5{<%.|9h3V$r$0$}#9%S'0()'3'w-),(&l&a#n!]$s2D'}%!#%$Y*P0v'{:Y+]%%!k*Q+^&f6u>'19",
"*w1L-:,'/A++)'2o2|8,,n/b,H.32_.t:f>>5g)H7j;D5B3:9I;48.6W3N'f#[._1E+|$1$T-)&h+&'o,0+p'f*c1H0F(x,(&K%]-;1P)$/M2F$+&t(o7>-r5I=0;0/|",
"9]*g4o6i'y/'5+4-?&7E$C)l1A0^'t4{<3936s4|:I8]+P)Y3(115K;7.i!q)f5z2J/)#:,&5y%+,&3g+f!o*R8l5!/1.9'D)S3X:3.8'!<'+s*z.1#?*[3A347W8Q8V",
"+]4g:D=22Q0t5b>L=g2G#@'i.V=`(`8-6k7?0_4s7r9`44,;-F5h9s4Y.r!/#_3}!Q!,+g2y1c8|91*n$v#q-S6i1I#`&,&A,Y2q1r%P.|%Z+0#7#8#6(`%-&b.Z:^-R",
"+K2C3o0N/:.E;!=m9s9y'))N987:=W9t<]-i,Z-'+e*[+L&e,:<96!.{+Z6^,278)c&J2)/G644y:'*y%~/q3N3Y.~0O0+:v1<1i1p*^,)(0$/%X#U*s0=!<#{#L#V#W",
"9d2G6|>H7G82<l6w8|8a*Z(Q;X?$<f6y=46n1@4,<.0E6b2~<P<65]3&22+C.&+5(P2!--685y'x&H)L6w3Q9f8.){<^>p=H;$6>6#+!.B5;)3*j2N(/&z-E(+%F!_(W",
"2N:c8T9(;i>P5$;E4Z,f)D&@3w<;8G/E5g3h4#9<8Y1}-A3$.H3G*I)8,x'T$q8I'e!f2c0-'|0T-Y!u,$*`7s1I7(;q=:=o3|3f/J*:5%7i!;04+f)p&m9i%|!!.]3<",
"12848q6*=C:g;N7,/61l*}9H3k;k=/5#0C7-70609^0x0z+G0D6'*E#O*p/73C;g$@#=*%2t1P-+%I!l'2'T;S5w9d>k=n=G3X)A#f&G5v$[0I)4&I2j<l:`/q+T3c4b",
">F6v2j>q5.6C7r4V1P2n;l3/77=j5y8v.6:a0e519f8k2a5l8X<n.`13)i.#2a6A&0(Y&Q-#.d%`'#'`.d2I>z4V3e>v9!0`4x+q(|-('C+3('#I'u4_/v13*f+R7%2`",
"5Y;Q/{+z942:5~7t9+'()h6_8j+}-*,q%0-,7,(p8O13-Z&$-!7$27'J*e5g)u1G$~0K5)(}$G)w-_%;)o/J1'+^5o:?/v-;6S<-1H*G.}+6(J!V+N3O/|6J-O,Q<$!@",
";6?-4M0B3r;<0.9g/)9^6s8+,W<4>G8r7-:01R3B;<1D4:.^7N=8/p6N3%!e(e#X+:!D-]04!(0+1x&s2L2]/'.s8T6[/>9?7c5P1+)j*0*A%?'11W5L5K5D309j=R(6",
":b+e#*,g(40q1O!B+O<>5P!93';y<!7|5V;_-q+{8w09;2:=?8<g2..p,7,6(Z(o+=/a.2-j3v*a.k;L<W3f9q7}0+4b;h1e<T4H2#+90y'M(a+p-]4G,M0u-p*Z$a(9",
")w$6%A%>9b'v-^&+2m0H$8!?7s2a1N.j7+3n041f3`4b;57M:6+U1M&4/}0/2S:d7a3D'&-i2_-%2`/z3K9r6g)P/y#x2c<&0%910?4m16/m330V1(4>4;5f,]$^$b!W",
",N+`&$)F6(.z,;0@/4!{#Q%c.y>^8}!}2X8:(?3^6z'-/h+S-h-%$'!F,06|3T<a;K$m-h6|-s7?6%*;347e*M!^)a&s%'3s*H-J5G+e1d(-,H.r6K3*4J4],A#j/i!J",
"$G%D!`!c(h*8,D(T$'!+!Y$)2C9{(g23;;5a5O7o=Q4^+..W,V8)+X,H'45X=z=?.N-K3c+S3l,p'c5M6T$4,U$=![$k5c*T1{:F2<;6<|-].Q=N;v9M<$(n$9$%%$!Z",
"&i!S!b&96G6i'P$:-u#l,A6p1N8(<(=}:R8h9Z;w0;'b%3&2+v78%k-D:+>%9M0L3-6O5|)v+**x3v4f'l)f(,'~%,%[5t%X'v/'8i=]>V:7<H>j>r:P;p6T)T&_$g(:"
};
