/* XPM */
static char *stone_tiles_09[] = {
/* columns rows colors chars-per-pixel */
"64 64 1530 2",
/* colors */
"!! c #2D2F33",
"!# c #2E2E31",
"!$ c #2E3034",
"!% c #303134",
"!& c #303336",
"!' c #313134",
"!( c #313135",
"!) c #313136",
"!* c #313335",
"!+ c #313336",
"!, c #313436",
"!- c #323436",
"!. c #323437",
"!/ c #323537",
"!0 c #323636",
"!1 c #333134",
"!2 c #333335",
"!3 c #333336",
"!4 c #333438",
"!5 c #333439",
"!6 c #333536",
"!7 c #333537",
"!8 c #333539",
"!9 c #333639",
"!: c #343438",
"!; c #343439",
"!< c #343538",
"!= c #343539",
"!> c #343639",
"!? c #34373A",
"!@ c #34373B",
"!A c #353436",
"!B c #353537",
"!C c #353538",
"!D c #353539",
"!E c #35353A",
"!F c #353638",
"!G c #353639",
"!H c #35363A",
"!I c #353739",
"!J c #35373A",
"!K c #35373B",
"!L c #35373C",
"!M c #35383B",
"!N c #35383C",
"!O c #35383D",
"!P c #36363A",
"!Q c #36363B",
"!R c #36373B",
"!S c #36383A",
"!T c #36383B",
"!U c #36383C",
"!V c #36383D",
"!W c #36393A",
"!X c #36393B",
"!Y c #37373B",
"!Z c #37373C",
"![ c #37373D",
"!] c #37383A",
"!^ c #37383B",
"!_ c #37383C",
"!` c #37383D",
"!a c #37393B",
"!b c #37393C",
"!c c #37393D",
"!d c #37393E",
"!e c #373A3B",
"!f c #373A3E",
"!g c #383739",
"!h c #38373A",
"!i c #38393B",
"!j c #38393C",
"!k c #38393D",
"!l c #38393E",
"!m c #38393F",
"!n c #383940",
"!o c #383A3C",
"!p c #383A3E",
"!q c #383B3E",
"!r c #383B3F",
"!s c #383B40",
"!t c #39393B",
"!u c #39393C",
"!v c #39393D",
"!w c #393A3D",
"!x c #393A3E",
"!y c #393A3F",
"!z c #393B3C",
"!{ c #393B3D",
"!| c #393B3E",
"!} c #393B3F",
"!~ c #393B40",
"#! c #393C3E",
"## c #393C3F",
"#$ c #393C41",
"#% c #393D3F",
"#& c #3A393C",
"#' c #3A3A3F",
"#( c #3A3B3E",
"#) c #3A3B3F",
"#* c #3A3B40",
"#+ c #3A3B41",
"#, c #3A3C3D",
"#- c #3A3C3E",
"#. c #3A3C3F",
"#/ c #3A3C40",
"#0 c #3A3D3F",
"#1 c #3A3D40",
"#2 c #3A3D41",
"#3 c #3A3E40",
"#4 c #3B3B3D",
"#5 c #3B3B3E",
"#6 c #3B3B3F",
"#7 c #3B3B40",
"#8 c #3B3C3E",
"#9 c #3B3C3F",
"#: c #3B3C40",
"#; c #3B3C41",
"#< c #3B3C42",
"#= c #3B3D3F",
"#> c #3B3D40",
"#? c #3B3D41",
"#@ c #3B3D42",
"#A c #3B3D43",
"#B c #3B3E40",
"#C c #3B3E41",
"#D c #3B3E43",
"#E c #3C3B3E",
"#F c #3C3B3F",
"#G c #3C3C3F",
"#H c #3C3C41",
"#I c #3C3D3E",
"#J c #3C3D3F",
"#K c #3C3D40",
"#L c #3C3D41",
"#M c #3C3D42",
"#N c #3C3D43",
"#O c #3C3E3F",
"#P c #3C3E40",
"#Q c #3C3E41",
"#R c #3C3E42",
"#S c #3C3E43",
"#T c #3C3F41",
"#U c #3C3F42",
"#V c #3C3F43",
"#W c #3D3D3E",
"#X c #3D3D40",
"#Y c #3D3E3F",
"#Z c #3D3E40",
"#[ c #3D3E41",
"#] c #3D3E42",
"#^ c #3D3E43",
"#_ c #3D3E44",
"#` c #3D3F41",
"#a c #3D3F42",
"#b c #3D3F43",
"#c c #3D3F44",
"#d c #3D3F45",
"#e c #3D4041",
"#f c #3D4042",
"#g c #3D4043",
"#h c #3D4044",
"#i c #3D4045",
"#j c #3E3D3F",
"#k c #3E3E40",
"#l c #3E3E42",
"#m c #3E3E43",
"#n c #3E3F40",
"#o c #3E3F41",
"#p c #3E3F42",
"#q c #3E3F43",
"#r c #3E3F44",
"#s c #3E3F46",
"#t c #3E4041",
"#u c #3E4042",
"#v c #3E4043",
"#w c #3E4044",
"#x c #3E4045",
"#y c #3E4046",
"#z c #3E4143",
"#{ c #3E4145",
"#| c #3E4146",
"#} c #3E4245",
"#~ c #3F3F42",
"$! c #3F3F43",
"$# c #3F3F44",
"$$ c #3F4042",
"$% c #3F4043",
"$& c #3F4044",
"$' c #3F4045",
"$( c #3F4046",
"$) c #3F4047",
"$* c #3F4143",
"$+ c #3F4144",
"$, c #3F4145",
"$- c #3F4146",
"$. c #3F4147",
"$/ c #3F4243",
"$0 c #3F4244",
"$1 c #3F4245",
"$2 c #3F4246",
"$3 c #3F4247",
"$4 c #3F4345",
"$5 c #3F4346",
"$6 c #403F3F",
"$7 c #404041",
"$8 c #404042",
"$9 c #404043",
"$: c #404044",
"$; c #404045",
"$< c #404046",
"$= c #404142",
"$> c #404143",
"$? c #404144",
"$@ c #404145",
"$A c #404146",
"$B c #404244",
"$C c #404245",
"$D c #404246",
"$E c #404247",
"$F c #404248",
"$G c #404345",
"$H c #404346",
"$I c #404347",
"$J c #404349",
"$K c #414044",
"$L c #414143",
"$M c #414144",
"$N c #414145",
"$O c #414146",
"$P c #414243",
"$Q c #414244",
"$R c #414245",
"$S c #414246",
"$T c #414247",
"$U c #414249",
"$V c #414345",
"$W c #414346",
"$X c #414347",
"$Y c #414348",
"$Z c #41434A",
"$[ c #414445",
"$] c #414446",
"$^ c #414447",
"$_ c #414448",
"$` c #424042",
"$a c #424145",
"$b c #424244",
"$c c #424245",
"$d c #424246",
"$e c #424247",
"$f c #424248",
"$g c #424249",
"$h c #424344",
"$i c #424345",
"$j c #424346",
"$k c #424347",
"$l c #424348",
"$m c #424349",
"$n c #42434A",
"$o c #424445",
"$p c #424446",
"$q c #424447",
"$r c #424448",
"$s c #424449",
"$t c #424547",
"$u c #424548",
"$v c #424549",
"$w c #42454A",
"$x c #434244",
"$y c #434345",
"$z c #434346",
"${ c #434347",
"$| c #434348",
"$} c #434446",
"$~ c #434447",
"%! c #434448",
"%# c #434449",
"%$ c #43444A",
"%% c #43444B",
"%& c #434546",
"%' c #434547",
"%( c #434548",
"%) c #434549",
"%* c #43454A",
"%+ c #43454B",
"%, c #43454C",
"%- c #434648",
"%. c #434649",
"%/ c #43464A",
"%0 c #43464B",
"%1 c #43474A",
"%2 c #444346",
"%3 c #444347",
"%4 c #444446",
"%5 c #444447",
"%6 c #444448",
"%7 c #444449",
"%8 c #44444A",
"%9 c #444547",
"%: c #444548",
"%; c #444549",
"%< c #44454A",
"%= c #44454B",
"%> c #444646",
"%? c #444648",
"%@ c #444649",
"%A c #44464A",
"%B c #44464B",
"%C c #44464C",
"%D c #44474B",
"%E c #44474C",
"%F c #44484C",
"%G c #454445",
"%H c #454446",
"%I c #454448",
"%J c #454449",
"%K c #454547",
"%L c #454548",
"%M c #454549",
"%N c #45454A",
"%O c #45454B",
"%P c #454647",
"%Q c #454648",
"%R c #454649",
"%S c #45464A",
"%T c #45464B",
"%U c #45464C",
"%V c #45464D",
"%W c #454747",
"%X c #454748",
"%Y c #454749",
"%Z c #45474A",
"%[ c #45474B",
"%] c #45474C",
"%^ c #45474D",
"%_ c #45474E",
"%` c #45484A",
"%a c #45484B",
"%b c #45484C",
"%c c #45484D",
"%d c #45494A",
"%e c #45494B",
"%f c #45494C",
"%g c #464547",
"%h c #464548",
"%i c #46454C",
"%j c #464649",
"%k c #46464A",
"%l c #46464B",
"%m c #46464C",
"%n c #464748",
"%o c #464749",
"%p c #46474A",
"%q c #46474B",
"%r c #46474C",
"%s c #46474D",
"%t c #46474E",
"%u c #46484B",
"%v c #46484C",
"%w c #46484D",
"%x c #46484E",
"%y c #46494A",
"%z c #46494B",
"%{ c #46494C",
"%| c #46494D",
"%} c #46494E",
"%~ c #46494F",
"&! c #464A4B",
"&# c #464A4E",
"&$ c #464A50",
"&% c #47464A",
"&& c #47474A",
"&' c #47474B",
"&( c #474849",
"&) c #47484A",
"&* c #47484B",
"&+ c #47484C",
"&, c #47484D",
"&- c #47484E",
"&. c #47494A",
"&/ c #47494B",
"&0 c #47494C",
"&1 c #47494D",
"&2 c #47494E",
"&3 c #47494F",
"&4 c #474950",
"&5 c #474A4C",
"&6 c #474A4D",
"&7 c #474A4E",
"&8 c #474A4F",
"&9 c #474A50",
"&: c #474B4D",
"&; c #474B50",
"&< c #474C4E",
"&= c #48464A",
"&> c #48474A",
"&? c #48474B",
"&@ c #484849",
"&A c #48484A",
"&B c #48484B",
"&C c #48484C",
"&D c #48484D",
"&E c #48484E",
"&F c #48484F",
"&G c #48494A",
"&H c #48494B",
"&I c #48494C",
"&J c #48494D",
"&K c #48494E",
"&L c #48494F",
"&M c #484950",
"&N c #484951",
"&O c #484A4B",
"&P c #484A4C",
"&Q c #484A4D",
"&R c #484A4E",
"&S c #484A4F",
"&T c #484A50",
"&U c #484B4D",
"&V c #484B4E",
"&W c #484B4F",
"&X c #484B50",
"&Y c #484B51",
"&Z c #484B52",
"&[ c #484C4F",
"&] c #49474A",
"&^ c #49494B",
"&_ c #49494C",
"&` c #49494D",
"&a c #49494E",
"&b c #49494F",
"&c c #494950",
"&d c #494A4D",
"&e c #494A4E",
"&f c #494A4F",
"&g c #494A50",
"&h c #494A51",
"&i c #494B4C",
"&j c #494B4D",
"&k c #494B4E",
"&l c #494B4F",
"&m c #494B50",
"&n c #494B51",
"&o c #494C4D",
"&p c #494C4E",
"&q c #494C4F",
"&r c #494C50",
"&s c #494C51",
"&t c #494C52",
"&u c #494D4F",
"&v c #494D50",
"&w c #4A484B",
"&x c #4A494D",
"&y c #4A494F",
"&z c #4A4A4D",
"&{ c #4A4A4E",
"&| c #4A4A4F",
"&} c #4A4A50",
"&~ c #4A4B4C",
"'! c #4A4B4D",
"'# c #4A4B4E",
"'$ c #4A4B4F",
"'% c #4A4B50",
"'& c #4A4B51",
"'' c #4A4B52",
"'( c #4A4C4E",
"') c #4A4C4F",
"'* c #4A4C50",
"'+ c #4A4C51",
"', c #4A4C52",
"'- c #4A4C53",
"'. c #4A4D4F",
"'/ c #4A4D50",
"'0 c #4A4D51",
"'1 c #4A4D53",
"'2 c #4A4E53",
"'3 c #4A4F53",
"'4 c #4B4A4C",
"'5 c #4B4A4D",
"'6 c #4B4A4E",
"'7 c #4B4B4E",
"'8 c #4B4B4F",
"'9 c #4B4B50",
"': c #4B4C4D",
"'; c #4B4C4E",
"'< c #4B4C4F",
"'= c #4B4C50",
"'> c #4B4C51",
"'? c #4B4C52",
"'@ c #4B4C53",
"'A c #4B4D4E",
"'B c #4B4D4F",
"'C c #4B4D50",
"'D c #4B4D51",
"'E c #4B4D52",
"'F c #4B4D53",
"'G c #4B4D54",
"'H c #4B4E4F",
"'I c #4B4E50",
"'J c #4B4E51",
"'K c #4B4E52",
"'L c #4B4E53",
"'M c #4B4E58",
"'N c #4B4F54",
"'O c #4C4B4D",
"'P c #4C4B4E",
"'Q c #4C4B50",
"'R c #4C4C4D",
"'S c #4C4C4E",
"'T c #4C4C4F",
"'U c #4C4C50",
"'V c #4C4C52",
"'W c #4C4D4F",
"'X c #4C4D50",
"'Y c #4C4D51",
"'Z c #4C4D52",
"'[ c #4C4D53",
"'] c #4C4D54",
"'^ c #4C4E4F",
"'_ c #4C4E50",
"'` c #4C4E51",
"'a c #4C4E52",
"'b c #4C4E53",
"'c c #4C4E54",
"'d c #4C4E55",
"'e c #4C4E56",
"'f c #4C4F50",
"'g c #4C4F52",
"'h c #4C4F53",
"'i c #4C4F54",
"'j c #4C4F55",
"'k c #4C4F56",
"'l c #4C5055",
"'m c #4C5153",
"'n c #4C5154",
"'o c #4D4C4E",
"'p c #4D4C51",
"'q c #4D4C52",
"'r c #4D4D4E",
"'s c #4D4D4F",
"'t c #4D4D50",
"'u c #4D4D51",
"'v c #4D4D52",
"'w c #4D4D53",
"'x c #4D4D54",
"'y c #4D4E50",
"'z c #4D4E51",
"'{ c #4D4E52",
"'| c #4D4E53",
"'} c #4D4E54",
"'~ c #4D4E56",
"(! c #4D4F51",
"(# c #4D4F52",
"($ c #4D4F53",
"(% c #4D4F54",
"(& c #4D4F55",
"(' c #4D4F56",
"(( c #4D4F57",
"() c #4D4F58",
"(* c #4D5052",
"(+ c #4D5053",
"(, c #4D5054",
"(- c #4D5055",
"(. c #4D5056",
"(/ c #4D5152",
"(0 c #4E4C50",
"(1 c #4E4C52",
"(2 c #4E4D50",
"(3 c #4E4D51",
"(4 c #4E4E50",
"(5 c #4E4E51",
"(6 c #4E4E52",
"(7 c #4E4E53",
"(8 c #4E4E54",
"(9 c #4E4F50",
"(: c #4E4F51",
"(; c #4E4F52",
"(< c #4E4F53",
"(= c #4E4F54",
"(> c #4E4F55",
"(? c #4E4F56",
"(@ c #4E4F57",
"(A c #4E5051",
"(B c #4E5052",
"(C c #4E5053",
"(D c #4E5054",
"(E c #4E5055",
"(F c #4E5056",
"(G c #4E5057",
"(H c #4E5058",
"(I c #4E5153",
"(J c #4E5154",
"(K c #4E5155",
"(L c #4E5156",
"(M c #4E5157",
"(N c #4E5158",
"(O c #4E5257",
"(P c #4F4E50",
"(Q c #4F4E53",
"(R c #4F4E54",
"(S c #4F4F52",
"(T c #4F4F53",
"(U c #4F4F54",
"(V c #4F4F55",
"(W c #4F4F56",
"(X c #4F5051",
"(Y c #4F5052",
"(Z c #4F5053",
"([ c #4F5054",
"(] c #4F5055",
"(^ c #4F5056",
"(_ c #4F5057",
"(` c #4F5058",
"(a c #4F5153",
"(b c #4F5154",
"(c c #4F5155",
"(d c #4F5156",
"(e c #4F5157",
"(f c #4F5158",
"(g c #4F5159",
"(h c #4F5253",
"(i c #4F5254",
"(j c #4F5255",
"(k c #4F5256",
"(l c #4F5257",
"(m c #4F5258",
"(n c #4F5259",
"(o c #4F5359",
"(p c #505051",
"(q c #505052",
"(r c #505053",
"(s c #505054",
"(t c #505055",
"(u c #505056",
"(v c #505057",
"(w c #505152",
"(x c #505153",
"(y c #505154",
"(z c #505155",
"({ c #505156",
"(| c #505157",
"(} c #505158",
"(~ c #505254",
")! c #505255",
")# c #505256",
")$ c #505257",
")% c #505258",
")& c #505259",
")' c #505356",
")( c #505357",
")) c #505358",
")* c #505359",
")+ c #50535A",
"), c #505456",
")- c #514F52",
"). c #515051",
")/ c #515053",
")0 c #515153",
")1 c #515154",
")2 c #515155",
")3 c #515156",
")4 c #515157",
")5 c #515158",
")6 c #515253",
")7 c #515254",
")8 c #515255",
")9 c #515256",
"): c #515257",
"); c #515258",
")< c #515259",
")= c #51525B",
")> c #515354",
")? c #515355",
")@ c #515356",
")A c #515357",
")B c #515358",
")C c #515359",
")D c #51535A",
")E c #515456",
")F c #515457",
")G c #515458",
")H c #515459",
")I c #51545A",
")J c #51545D",
")K c #515558",
")L c #51555A",
")M c #525153",
")N c #525154",
")O c #525156",
")P c #525157",
")Q c #525254",
")R c #525255",
")S c #525256",
")T c #525257",
")U c #525258",
")V c #525355",
")W c #525356",
")X c #525357",
")Y c #525358",
")Z c #525359",
")[ c #52535A",
")] c #52535B",
")^ c #525455",
")_ c #525456",
")` c #525457",
")a c #525458",
")b c #525459",
")c c #52545A",
")d c #52545B",
")e c #525558",
")f c #525559",
")g c #52555A",
")h c #52555B",
")i c #52555C",
")j c #52575B",
")k c #535257",
")l c #535356",
")m c #535357",
")n c #535358",
")o c #535359",
")p c #53535A",
")q c #535457",
")r c #535458",
")s c #535459",
")t c #53545A",
")u c #53545C",
")v c #53545D",
")w c #53545E",
")x c #535557",
")y c #535558",
")z c #535559",
"){ c #53555A",
")| c #53555B",
")} c #53555C",
")~ c #53555D",
"*! c #53555E",
"*# c #535657",
"*$ c #535659",
"*% c #53565A",
"*& c #53565B",
"*' c #53565C",
"*( c #53565D",
"*) c #53565F",
"** c #535759",
"*+ c #53575B",
"*, c #53585B",
"*- c #545357",
"*. c #545455",
"*/ c #545457",
"*0 c #545458",
"*1 c #545459",
"*2 c #54545A",
"*3 c #545556",
"*4 c #545557",
"*5 c #545558",
"*6 c #545559",
"*7 c #54555A",
"*8 c #54555B",
"*9 c #54555C",
"*: c #545659",
"*; c #54565A",
"*< c #54565B",
"*= c #54565C",
"*> c #54565D",
"*? c #54565F",
"*@ c #545759",
"*A c #54575A",
"*B c #54575B",
"*C c #54575C",
"*D c #54575D",
"*E c #54575E",
"*F c #545859",
"*G c #54585C",
"*H c #54585D",
"*I c #54585E",
"*J c #555457",
"*K c #555557",
"*L c #555558",
"*M c #555559",
"*N c #55555A",
"*O c #55555B",
"*P c #55555C",
"*Q c #55555D",
"*R c #555656",
"*S c #555658",
"*T c #555659",
"*U c #55565A",
"*V c #55565B",
"*W c #55565C",
"*X c #55565D",
"*Y c #555759",
"*Z c #55575A",
"*[ c #55575B",
"*] c #55575C",
"*^ c #55575D",
"*_ c #55575E",
"*` c #55575F",
"*a c #555761",
"*b c #55585A",
"*c c #55585B",
"*d c #55585C",
"*e c #55585D",
"*f c #55585E",
"*g c #55585F",
"*h c #565457",
"*i c #56565A",
"*j c #56565B",
"*k c #56565C",
"*l c #565757",
"*m c #565759",
"*n c #56575B",
"*o c #56575C",
"*p c #56575D",
"*q c #56575E",
"*r c #56585A",
"*s c #56585B",
"*t c #56585C",
"*u c #56585D",
"*v c #56585E",
"*w c #56585F",
"*x c #565860",
"*y c #56595A",
"*z c #56595B",
"*{ c #56595C",
"*| c #56595D",
"*} c #56595E",
"*~ c #56595F",
"+! c #565960",
"+# c #565961",
"+$ c #565A5D",
"+% c #565A5E",
"+& c #565A60",
"+' c #57565B",
"+( c #57565C",
"+) c #57575A",
"+* c #57575B",
"++ c #57575D",
"+, c #575859",
"+- c #57585C",
"+. c #57585D",
"+/ c #57585E",
"+0 c #57585F",
"+1 c #57595B",
"+2 c #57595C",
"+3 c #57595D",
"+4 c #57595E",
"+5 c #57595F",
"+6 c #575960",
"+7 c #575961",
"+8 c #575963",
"+9 c #575A5B",
"+: c #575A5C",
"+; c #575A5D",
"+< c #575A5E",
"+= c #575A5F",
"+> c #575A65",
"+? c #575B5E",
"+@ c #575B60",
"+A c #575B62",
"+B c #58575B",
"+C c #58575E",
"+D c #58585B",
"+E c #58585C",
"+F c #58585D",
"+G c #58585E",
"+H c #58585F",
"+I c #585860",
"+J c #585861",
"+K c #58595B",
"+L c #58595C",
"+M c #58595D",
"+N c #58595E",
"+O c #58595F",
"+P c #585960",
"+Q c #585963",
"+R c #585A5C",
"+S c #585A5D",
"+T c #585A5E",
"+U c #585A5F",
"+V c #585A60",
"+W c #585A61",
"+X c #585A62",
"+Y c #585A63",
"+Z c #585B5D",
"+[ c #585B5E",
"+] c #585B5F",
"+^ c #585B60",
"+_ c #585B61",
"+` c #585B62",
"+a c #585C5D",
"+b c #585C63",
"+c c #59585C",
"+d c #59595A",
"+e c #59595B",
"+f c #59595C",
"+g c #59595D",
"+h c #59595E",
"+i c #59595F",
"+j c #595960",
"+k c #595A5C",
"+l c #595A5D",
"+m c #595A5E",
"+n c #595A5F",
"+o c #595A60",
"+p c #595A61",
"+q c #595A62",
"+r c #595A63",
"+s c #595B5E",
"+t c #595B5F",
"+u c #595B60",
"+v c #595B61",
"+w c #595B62",
"+x c #595B63",
"+y c #595C5E",
"+z c #595C5F",
"+{ c #595C60",
"+| c #595C61",
"+} c #595C62",
"+~ c #595C64",
",! c #595D5D",
",# c #595D65",
",$ c #5A585A",
",% c #5A595F",
",& c #5A5A5D",
",' c #5A5A5E",
",( c #5A5A5F",
",) c #5A5A61",
",* c #5A5A62",
",+ c #5A5B5E",
",, c #5A5B5F",
",- c #5A5B60",
",. c #5A5B61",
",/ c #5A5B62",
",0 c #5A5B63",
",1 c #5A5C5E",
",2 c #5A5C5F",
",3 c #5A5C60",
",4 c #5A5C61",
",5 c #5A5C62",
",6 c #5A5C63",
",7 c #5A5C64",
",8 c #5A5D60",
",9 c #5A5D61",
",: c #5A5D62",
",; c #5A5D63",
",< c #5B5A5F",
",= c #5B5A60",
",> c #5B5B5D",
",? c #5B5B5F",
",@ c #5B5B60",
",A c #5B5B61",
",B c #5B5B63",
",C c #5B5C5C",
",D c #5B5C5F",
",E c #5B5C60",
",F c #5B5C61",
",G c #5B5C62",
",H c #5B5C63",
",I c #5B5D60",
",J c #5B5D61",
",K c #5B5D62",
",L c #5B5D63",
",M c #5B5D64",
",N c #5B5D67",
",O c #5B5E60",
",P c #5B5E62",
",Q c #5B5E63",
",R c #5B5E64",
",S c #5B5E65",
",T c #5B5F61",
",U c #5B5F67",
",V c #5C5B5E",
",W c #5C5C5E",
",X c #5C5C5F",
",Y c #5C5C60",
",Z c #5C5C62",
",[ c #5C5C63",
",] c #5C5D5F",
",^ c #5C5D60",
",_ c #5C5D61",
",` c #5C5D62",
",a c #5C5D63",
",b c #5C5D64",
",c c #5C5E61",
",d c #5C5E62",
",e c #5C5E63",
",f c #5C5E64",
",g c #5C5E66",
",h c #5C5E67",
",i c #5C5F61",
",j c #5C5F62",
",k c #5C5F63",
",l c #5C5F64",
",m c #5C5F65",
",n c #5C5F69",
",o c #5C6064",
",p c #5D5D61",
",q c #5D5D62",
",r c #5D5D63",
",s c #5D5D64",
",t c #5D5D66",
",u c #5D5E60",
",v c #5D5E61",
",w c #5D5E62",
",x c #5D5E63",
",y c #5D5E64",
",z c #5D5E65",
",{ c #5D5F62",
",| c #5D5F63",
",} c #5D5F64",
",~ c #5D5F65",
"-! c #5D5F66",
"-# c #5D5F67",
"-$ c #5D6062",
"-% c #5D6065",
"-& c #5D6066",
"-' c #5D6067",
"-( c #5D6069",
"-) c #5D6165",
"-* c #5E5C61",
"-+ c #5E5D61",
"-, c #5E5D62",
"-- c #5E5E62",
"-. c #5E5E63",
"-/ c #5E5E64",
"-0 c #5E5E65",
"-1 c #5E5F61",
"-2 c #5E5F62",
"-3 c #5E5F63",
"-4 c #5E5F64",
"-5 c #5E5F65",
"-6 c #5E5F66",
"-7 c #5E5F67",
"-8 c #5E5F68",
"-9 c #5E6062",
"-: c #5E6063",
"-; c #5E6064",
"-< c #5E6065",
"-= c #5E6066",
"-> c #5E6067",
"-? c #5E6069",
"-@ c #5E6164",
"-A c #5E6166",
"-B c #5E6167",
"-C c #5E6168",
"-D c #5E6169",
"-E c #5E616A",
"-F c #5E6265",
"-G c #5E6268",
"-H c #5F5F5F",
"-I c #5F5F62",
"-J c #5F5F63",
"-K c #5F5F65",
"-L c #5F5F66",
"-M c #5F5F68",
"-N c #5F6063",
"-O c #5F6064",
"-P c #5F6162",
"-Q c #5F6163",
"-R c #5F6164",
"-S c #5F6165",
"-T c #5F6166",
"-U c #5F6167",
"-V c #5F6168",
"-W c #5F6169",
"-X c #5F616B",
"-Y c #5F6265",
"-Z c #5F6266",
"-[ c #5F6267",
"-] c #5F6268",
"-^ c #5F6365",
"-_ c #5F6367",
"-` c #5F646B",
"-a c #605F61",
"-b c #606063",
"-c c #606064",
"-d c #606065",
"-e c #606067",
"-f c #606068",
"-g c #606163",
"-h c #606164",
"-i c #606165",
"-j c #606166",
"-k c #606167",
"-l c #606168",
"-m c #606169",
"-n c #606264",
"-o c #606265",
"-p c #606266",
"-q c #606267",
"-r c #606268",
"-s c #606269",
"-t c #60626A",
"-u c #60626B",
"-v c #60626C",
"-w c #606366",
"-x c #606367",
"-y c #606368",
"-z c #606369",
"-{ c #60636C",
"-| c #616063",
"-} c #616165",
"-~ c #616166",
".! c #616167",
".# c #616168",
".$ c #616265",
".% c #616266",
".& c #616267",
".' c #616268",
".( c #616269",
".) c #61626A",
".* c #616366",
".+ c #616367",
"., c #616368",
".- c #616369",
".. c #61636A",
"./ c #61636B",
".0 c #61636D",
".1 c #616468",
".2 c #616469",
".3 c #61646A",
".4 c #61646B",
".5 c #626168",
".6 c #626266",
".7 c #626267",
".8 c #626366",
".9 c #626367",
".: c #626368",
".; c #626369",
".< c #62636A",
".= c #62636B",
".> c #626465",
".? c #626468",
".@ c #626469",
".A c #62646A",
".B c #62646B",
".C c #62646C",
".D c #62646F",
".E c #626566",
".F c #626567",
".G c #62656A",
".H c #62656F",
".I c #636267",
".J c #636365",
".K c #636366",
".L c #636369",
".M c #63636A",
".N c #63636C",
".O c #636465",
".P c #636466",
".Q c #636468",
".R c #636469",
".S c #63646A",
".T c #63646C",
".U c #63646E",
".V c #636567",
".W c #636568",
".X c #636569",
".Y c #63656B",
".Z c #63656E",
".[ c #63666A",
".] c #63666E",
".^ c #636670",
"._ c #63676E",
".` c #646469",
".a c #64646A",
".b c #64646B",
".c c #646569",
".d c #64656A",
".e c #64656B",
".f c #64656D",
".g c #646669",
".h c #64666B",
".i c #646670",
".j c #646769",
".k c #64676A",
".l c #64676B",
".m c #64676C",
".n c #64676D",
".o c #646770",
".p c #64696C",
".q c #656467",
".r c #656568",
".s c #656569",
".t c #65656A",
".u c #65656C",
".v c #65656D",
".w c #656667",
".x c #656669",
".y c #65666A",
".z c #65666B",
".{ c #65666C",
".| c #65666E",
".} c #65676B",
".~ c #65676C",
"/! c #65676D",
"/# c #65676E",
"/$ c #65676F",
"/% c #656868",
"/& c #65686B",
"/' c #65686C",
"/( c #65686D",
"/) c #65686F",
"/* c #656870",
"/+ c #65696F",
"/, c #656970",
"/- c #666667",
"/. c #666668",
"// c #66666A",
"/0 c #66666B",
"/1 c #666768",
"/2 c #66676A",
"/3 c #66676D",
"/4 c #66686B",
"/5 c #66686C",
"/6 c #66686D",
"/7 c #66686F",
"/8 c #66696C",
"/9 c #66696D",
"/: c #66696E",
"/; c #666970",
"/< c #67676C",
"/= c #67676D",
"/> c #67686B",
"/? c #67686C",
"/@ c #67686D",
"/A c #676871",
"/B c #676873",
"/C c #67696D",
"/D c #67696E",
"/E c #676970",
"/F c #676972",
"/G c #676973",
"/H c #676A6D",
"/I c #676A6E",
"/J c #676A6F",
"/K c #676A73",
"/L c #676A74",
"/M c #68686C",
"/N c #68686E",
"/O c #68686F",
"/P c #68696E",
"/Q c #68696F",
"/R c #686970",
"/S c #686A6E",
"/T c #686A6F",
"/U c #686A70",
"/V c #686A71",
"/W c #686A72",
"/X c #686B6D",
"/Y c #686B6F",
"/Z c #686B71",
"/[ c #686B72",
"/] c #686B73",
"/^ c #686C70",
"/_ c #686C76",
"/` c #696871",
"/a c #69696C",
"/b c #69696E",
"/c c #696970",
"/d c #696971",
"/e c #696A6C",
"/f c #696A6D",
"/g c #696A6E",
"/h c #696A6F",
"/i c #696A70",
"/j c #696A72",
"/k c #696B6E",
"/l c #696B72",
"/m c #696B75",
"/n c #696C6F",
"/o c #696C70",
"/p c #696C72",
"/q c #696D72",
"/r c #696E72",
"/s c #6A6A71",
"/t c #6A6B6F",
"/u c #6A6B70",
"/v c #6A6B72",
"/w c #6A6B73",
"/x c #6A6C6F",
"/y c #6A6C71",
"/z c #6A6C72",
"/{ c #6A6C74",
"/| c #6A6D70",
"/} c #6A6D72",
"/~ c #6A6D73",
"0! c #6A6E72",
"0# c #6A6E73",
"0$ c #6B6B6F",
"0% c #6B6C70",
"0& c #6B6C71",
"0' c #6B6C72",
"0( c #6B6C75",
"0) c #6B6D70",
"0* c #6B6D72",
"0+ c #6B6D73",
"0, c #6B6D74",
"0- c #6B6D75",
"0. c #6B6D77",
"0/ c #6B6E73",
"00 c #6B6E76",
"01 c #6B6F75",
"02 c #6C6C72",
"03 c #6C6D6B",
"04 c #6C6D72",
"05 c #6C6D73",
"06 c #6C6D75",
"07 c #6C6D76",
"08 c #6C6E72",
"09 c #6C6E73",
"0: c #6C6E75",
"0; c #6C6E76",
"0< c #6C6F72",
"0= c #6C6F73",
"0> c #6C6F76",
"0? c #6C7075",
"0@ c #6D6D71",
"0A c #6D6D73",
"0B c #6D6D74",
"0C c #6D6D77",
"0D c #6D6E71",
"0E c #6D6E72",
"0F c #6D6E73",
"0G c #6D6E74",
"0H c #6D6F73",
"0I c #6D6F74",
"0J c #6D6F75",
"0K c #6D6F76",
"0L c #6D6F77",
"0M c #6D7071",
"0N c #6D7074",
"0O c #6D7075",
"0P c #6D7077",
"0Q c #6D7078",
"0R c #6D707A",
"0S c #6E6E73",
"0T c #6E6E76",
"0U c #6E6F73",
"0V c #6E6F74",
"0W c #6E6F76",
"0X c #6E7073",
"0Y c #6E7074",
"0Z c #6E7076",
"0[ c #6E7077",
"0] c #6E7078",
"0^ c #6E7079",
"0_ c #6E707B",
"0` c #6E7177",
"0a c #6E7278",
"0b c #6F6F71",
"0c c #6F6F72",
"0d c #6F6F73",
"0e c #6F7071",
"0f c #6F7074",
"0g c #6F7076",
"0h c #6F7077",
"0i c #6F7174",
"0j c #6F7175",
"0k c #6F7176",
"0l c #6F7177",
"0m c #6F7179",
"0n c #6F7276",
"0o c #6F7277",
"0p c #6F7376",
"0q c #707075",
"0r c #707076",
"0s c #707078",
"0t c #707178",
"0u c #707179",
"0v c #70717A",
"0w c #70717C",
"0x c #707275",
"0y c #707277",
"0z c #707278",
"0{ c #70727B",
"0| c #707375",
"0} c #707377",
"0~ c #707378",
"1! c #717173",
"1# c #717176",
"1$ c #717177",
"1% c #717179",
"1& c #717273",
"1' c #717274",
"1( c #717275",
"1) c #717277",
"1* c #717279",
"1+ c #71727B",
"1, c #717376",
"1- c #717377",
"1. c #71737A",
"1/ c #717475",
"10 c #717478",
"11 c #727275",
"12 c #727277",
"13 c #727378",
"14 c #727379",
"15 c #72737B",
"16 c #727478",
"17 c #727479",
"18 c #72747A",
"19 c #72747B",
"1: c #727576",
"1; c #727579",
"1< c #72757A",
"1= c #72757B",
"1> c #72757E",
"1? c #737376",
"1@ c #737377",
"1A c #737478",
"1B c #737479",
"1C c #73747D",
"1D c #737577",
"1E c #737578",
"1F c #73757B",
"1G c #73757E",
"1H c #73767A",
"1I c #73767B",
"1J c #747478",
"1K c #747479",
"1L c #747578",
"1M c #74757B",
"1N c #74757F",
"1O c #747678",
"1P c #747679",
"1Q c #74767A",
"1R c #74767B",
"1S c #74767D",
"1T c #74767E",
"1U c #74777B",
"1V c #74787D",
"1W c #75757B",
"1X c #75767B",
"1Y c #75767D",
"1Z c #75777B",
"1[ c #75777C",
"1] c #75777F",
"1^ c #757781",
"1_ c #75797C",
"1` c #75797E",
"1a c #757A7E",
"1b c #76767D",
"1c c #767779",
"1d c #76777B",
"1e c #76787B",
"1f c #76787D",
"1g c #767880",
"1h c #76797C",
"1i c #76797E",
"1j c #767981",
"1k c #77787D",
"1l c #77797F",
"1m c #777A7D",
"1n c #777A82",
"1o c #78787B",
"1p c #78797B",
"1q c #78797C",
"1r c #78797D",
"1s c #78797E",
"1t c #78797F",
"1u c #787A7E",
"1v c #787A80",
"1w c #787A84",
"1x c #797980",
"1y c #797A80",
"1z c #797A84",
"1{ c #797B7D",
"1| c #797B7E",
"1} c #797B80",
"1~ c #797C81",
"2! c #797C82",
"2# c #797C85",
"2$ c #7A7A7E",
"2% c #7A7A7F",
"2& c #7A7A80",
"2' c #7A7D80",
"2( c #7A7D82",
"2) c #7A7D83",
"2* c #7B7B7F",
"2+ c #7B7C7F",
"2, c #7B7D85",
"2- c #7B7D86",
"2. c #7B7E83",
"2/ c #7B7E84",
"20 c #7B7F83",
"21 c #7C7C81",
"22 c #7C7C83",
"23 c #7C7D82",
"24 c #7C7D83",
"25 c #7C7D84",
"26 c #7C7E81",
"27 c #7C7E83",
"28 c #7C7E85",
"29 c #7C7E89",
"2: c #7C7F86",
"2; c #7C7F8A",
"2< c #7D7D87",
"2= c #7D7E82",
"2> c #7D7E84",
"2? c #7D7F82",
"2@ c #7D7F83",
"2A c #7D7F86",
"2B c #7D7F87",
"2C c #7D8086",
"2D c #7E7E86",
"2E c #7E7F83",
"2F c #7E7F84",
"2G c #7E7F85",
"2H c #7E8086",
"2I c #7E8286",
"2J c #7F7F86",
"2K c #7F8088",
"2L c #808186",
"2M c #808283",
"2N c #808286",
"2O c #808287",
"2P c #808288",
"2Q c #808289",
"2R c #80828A",
"2S c #808385",
"2T c #818085",
"2U c #818187",
"2V c #818388",
"2W c #818389",
"2X c #81838A",
"2Y c #818488",
"2Z c #818489",
"2[ c #81848A",
/* pixels */
"!.%)/B0('U&i&Q&)#`#k&[&f!|#q%L&1!?!t$(!A$%$h#v#-&k%K#p!~%]$,$X!d%_'<&7,X*}(t'[){)B&l,E'?&e'a(C+`)]'(%v%<%]$y#v$#%@$%#o!@#I$,).#?",
"!z1o2,2[11/x1S1u0y.E/50~0}/y2K2?0d0b+n*h/216-s/!-%*c+S)!2A,l/I.E*82[1`2[2[2[2[2[2[1D1<2'2[2[2[2[2[2[1P1k1|1e.&1c1E.y+5*82[+4.n-h",
"#L+9,-*[(d*L)?&&*[,](!+p.e.f1F0h.'-O*8'$*>)#(=+c+@,.'o+./{-u,e,l*^280O1Q231H0/.81H12+m.}1v1X2!2Q2C0I,`'v'*'=(G.J.1/@)%&f*4(K)y,k",
"!f'5(q&H$D$N#?$V#x#z%y&f($$C#`$q%[&@#'%3$n$|$k'+%b'd%^&N%C$p-6*B%x/2.c)S&g-_(y(j(B'I*E+A*t)@*u([&3$a#($D$'%}(-$r$D$&%($A!^#;,T)B",
"$((b(c$~%A#S!x#,#f'|)P)8&+$w$D$A$.#N$-'+%U#1$m$s(D'-&y(]&($_)H(e%t-&,2%w):,c(D&*&5)T.-.(-p*u+{)h'>%T$r$q$D#F')$i$-$!#h(%#x$;,j(c",
"$2+%(D%k'>#b!m'E$-$#%M&q$B%+$H#>!X#c($'P$p$d%;'-#y'M(H'&%*&4*>.?%S/z.A&R){(c&E,9)X(n*n/).a,y(v%b$-&f&f%$&l&g+=&u($%m$k%T#t$r)_.,",
"#Q(w.2$l'R#x!e%j$S$:#Z$q(k%9%!%j!k(d(d'?&f%v*7)Y%s*!(<%6&b,v-5.|(i.c0l&Y.9+u(E.w,o-A*s)r.l0C,n)w%^')'b(=&_(e)`(b&5&-#b#:#>*1-s.L",
"'Z/$+V'[)U'L$3%;&g'X#J'Z)$#b$X&n(N(o+},t((&M'e*w,0$X!v$F%B&,.Y-!*71_0w+u,l-3-X){+5.{)s/3/s-m.T,z('&S)B,:+O($%w)#(D!z#-#($9*W0#2%",
"'h.c+S&Q$+$!$8&a%1$O%k#K%!$/!^#a$S&2'+-?',&>+Q+q+6&=(>$R%0$j-].}*~2[2)))(D)f,#/]*W+(.v.<-E-7-V)d#y%i'Z*U'X'$'^.G*%#R#[!v%]'{242N",
"%b*[,9(+%<%s'-$i$0!i!x$x$:$A#@!/!w#:#2&X%}'7''&g&T($$T$W&&*)1w2#/F2[1`'H(.%u-`.n*`(e&K.A,?+/-q)a$q#e$u(%&e'I%u'B+.,Z%;%p&d(S1v2+",
")v-+(K)r-K'G*`(0&I%A#?'<'q#v#K!G!L%R#u%C$D!}!_&%$j(.%/$%-e.40R1z'E2.0S(Z+s*:,d.$-4/_-'.{,<''(L&K$5${$H'<%'(7$H(D+M,e%l'%({(5.Y2[",
"+^/(),&+-:)#&:$f&o$b$&)q)e'*$<!.!+$4!o%)%c!*!`!F!^&0&+'l+6.^2B/''b1U05(J-T+s-!+N-r-..!/}1M,5'C%`#w%*!|#B$p&2%B(z(c'Z'a'E(d)|/Y2[",
"!})-)H'8-=+f%;!d!K!w!>#u&e$u![#E#6!C#?%6(;#B$,!x#2%@-*)<,.-&2[.&'=1J1x.%04-n,G(?);','O*q-d+M'5(|(G(z$t#:&;$b'L'1'E*;)Y*}+](D2[1?",
"$]&f*%$_&7'Z%?!q#1'1#B$L#m$@#-!>!o#*%*&R&R&J%v(O%C+U/)*u)t+U*:*v'{.22[.Z.{1M-<*L*7(z(u(7%q%[-r'h,c&T%l'b#K%Q(y$T#>&K*k,z({)Y.;,9",
"*7)S($#Y&T&'&1%g*&'F(k#!#]#>#=!Q!N#&$%$R&t(|*?,A+:({,~)h)/$@(L(x&$/P0X)M/!-B-#+V*$'2+|'''4#_&J'C&+(v()(2'L)9)%'v$r$_&q,F,,&1/%-y",
"&h/t1]*a*X+=%w&b+U'k('$k#Q#|#$#.!5!7!4#s(},N)J+Y)='3+x)[%v#?'d,`(=0>/u)$,|/l+O+i)a$&(c*&)Z&U%)!y&e$D#]'=)s'>%r'6&K'=,G);+I(%.}0B",
"&!-&1T,*,(,$%z&C(_)c&2%!!-#&#p#l!0!(!9%k+L'Y*w'~'|*=,3,7(I!W%|+o%f-a/''Y-F-b-i-B*u)Z'_/i,:*%$=&T#z#Z!R$l%]$8$r&l%8,z*H'J&p%#-H1.",
"!e(Q*=)O$c$k%u*~)h%<#O!V#g!%!3!>!k#^!}$e'=&M):'|)#+O+['g&q%M&d+=&M,}*u&g*/(e-$-z+2(%*B,;-C)(&1'(&K',$2#/$%'U)9)z*$+O)B$I&l$g*W,v",
"#8%U)m%v%k'!)A*-'b(C%Z!I!R#9#P!D!J#5#`!|%x'+)5*-+W+~,W'E&W$r,8*Z%*-/+z$#'t(>)4*=(!*d+O*e+1)a+a&j&_%0$@#G$$&J)U*6(y(Y'0%4#Z$l,!*C",
"$?(P+T%S&U%p%[&`($'b&6%!#`#v#l!R!a&^#]%q)C)T%['v*C&#%@'h&1%{,r+<$d.*0/%c&S'h)a)g($&Q0Z/+)m(b..*X)U(z(})%%.(+(E&2&1&6'D&1&+#U+:,M",
"$)&r'}%u'(#q$.&_+P,H&f'Y#w#q#L!x#C%#!s'v)I)>&Z'[(U%6)2*<'r)%0]*1$(+O.x)t,A'g*K)$*<*7.?.<)!&0)m&h)D)g-f.])y(,,3+v'?'[*z&k&s'T/e-W",
"#>%/&*'W%v$+!{$C(e*u'b&l$w!o$>'g'F'J#{%W-6(y&1%@#w&R'E*I)c+V.A+Z$T+?-<+z+0)A(E)q'z,H0G+7&0'9*-%p*=.(.R19*q'c,x/r0,+0.''D)a*N.q0n",
"!P#w&Q%-&K%)$k'U)z'Y%o#b#L#4%]%8&,'<'E%`(f&l%z'o(n%!$6$j(K+N.(*k%w-~0k,f,a(L->/>.p.B-V,y,-,4)c+O/=+&'`,P.e(_.:0a/&)t){)3)@+/0',4",
"#4%|'+!~'b&1%[-p(d)?(,$T#M&R&m')%Z%`&2'C'E'{$,%l);%^%S'F)%&1.i0Q.0/X0*,E+=)8+S27141V.9,y-;+O.R-./?+5*<*|,|)^/=,F-5-Q/8+F)U+N/j.K",
"!U)s%T!|'/%p'9,h.C'Y*;,-)r%@&I$y!H$T%!&l$G%H&m,K*F'u$H#>'$%a**22/A2</~-U-r(:-?151i0F-_0A(+&l(3(E,6-L%s'b%X&P(C/V,3-=')'E*<,r0m05",
"%^'X'a#2%]([*O'E)L,[*=,''&%U)3%Y$l$%%u%{%/&''%)+)s*u%a'*(t%=,4+;,a0~18-_,m/?,y._/z/7,|.Y,3&_)r(7)y*S')%d%-%p);,+,1,y0R+D,g,%0P1Z",
"(=-c,5$N&''Z*P,`+T-V+r)!%z)#+^*J(5&&$$${%A%;%f(s&f'b&U'a&{'Z,Q--*#.61E+n/p+u)A-3/;,l)'/#.6){)b'*&P$o&6$B&0'=+z/4/a*v1g1l)8.b192Z",
"+4/l/E&2&a$X(^)t-N*t'=$,%S){'['(&0%a##$B&R#R&|(*)l)K&0&1(%)b+h,x++.&0F,D,w'$+i*]-J*X,R,J'E,J)e&I%@+<$I#J(C(+.m/c1B/h/w1%-[+^1=1[",
")c/N/D(;&2$y&2(L(F'J%/$:!k#n$2&w#a$K#[&B&)%R$A'?'i'(!w$?%S$q-d1!,G132E*T'C$S'F(l(D*]*i'G$Q$-'P%T%S$k$@#P#R&G(d-<,f+<)r..-<,G1i2Z",
"%]1Y..&0(n(=*0*d+|)c'h$W#w$|#;&1#7#a#b$A$A#9$N)j)*&[#-!S!n#/1>2:.@2G1d'+'a&C+h.N/W-3'h)T%|%.'b'a(a'>'{#U$w$N&|-k'C(r(C+L,K(T0p10",
"#Q/M/Q/f1)2[2[2[2[2[2L/Z-A0&0?1K/p/b2[2=/u.}.m1y241R2A.h,a0{2;1t,`2[1f2Z2[2[2[2[2[2[2[2[2[2[2[2[2[2[2[2[2F121u2[2[2>2[2[2[251f0;",
"#d-o+w*=+o-3*f,,(b(%)'&g%e)H(d'=%<%]):'i%]%}&X-q*u))#Q#*#w(%&W%D$N2X,@-U1]/z2U0t0I1-/:)t'?)E.O&t'Y)a+R$I%N&d){);*m)y(I(7&1(;'!%*",
"%`%s%R,2-U+',3-3,Z);)k']&J+.&2'x'J&c&j&}'g,-,{(^.U(}!<!;$X*x*+%k#T&m&k+O-')Y'u&8&7)c)C&1!]!p$t)s!j!|!7!$#w!h!B!}$$#b!P!>$=%T!B&F",
"!w2[0f2[2[2[2[2[2[2I0|0z2[2[2[2[2[2[0r0}2P2[2[2[2[1D,O0W2[1n2T0+$&2[/b2W1$/l1p092M0k0!,{.w.;0@2[1q1S({*i-;-~(A.+1:-W+$&00M,?.&$Q",
"!2+v.y08271b2:041M1i)z-k.Q1@200&/.0q+S)Y+2+/0m2D0D0Y.G1C1I-N.F,I!8*/)_.S,=+o,'',,V-o+E(F,Y.{/1-w-1(u(d'X%2#t#[*8//-Z'8#w)0*6$h$r",
"!'&R(]*u+U*<)h,P+&,n*f+O.?)('j&*%5'a&K&,'v&Q*=.S'Z'8%<)c+l#c0c)a!1%+%^(l$&#R#p&1$1%Y)''<$|)7,&'F&&!=#D!^!o!b!b%B%-#}!,!)#R!I&P#*",
"!8&q)2'J(D,j+4*2+>-(.d+u,3/6,d*]'E%S'a&|(&&{*7*N*D'}*;.}*d#r)z&d!x'V$X#Q%[#u#k#:#(&2*N&d$9&V'U&2%D%)&a$]#`!{%j$2$&#+#7&R#b%!&{#D",
"!+)a)y'0)z(Z(+/f,m*p(e,^.T.}0w&v#/$k(E'n);$X(C'v(./l+5+0$r$u*i*t!!)`&I%.%|#;%u)e&1'E$E$%%])#&C%c!_%z&Q*o(O&}(D#w#K(E%#&P%~$&%j)f",
"${(E.$#%)_)a(l-Z,,)`+4*U-c+3*p'>%B*2)],7'E'9)H)Q)B.)-!*k%6%S,E.'#@&k)z$'%^$!)g.G*B(V&1(Z'v)Y'%(',[)H&2$_)<)Y+G%a%)%##]#]!u!#%M(J",
"&z,r)F$&(b&Q($'P({,p'[,|*]'=&X(C(%)F+J)C'a&Q&V*0)n.D+8$s&s&2.X/Y%e(*'a$V#b%S)@(M%q,m%Q)C){%#(k'D)@(L%Y#T%w&I'#%|'<&f,~&,%:%L*v.X",
"*i2H.`$1%M&r%)+h)[(E-S+{)X(<%!${%r'b,K./(]'*&[+T1G/L)p%@)l&R1E1,&z/4+0#b!E$C#*#/%Z%<*[&'*w,B&g$W$V%D#x%v&`(*'&*t&e%c&R&f%b%!.:0$",
")#0j/9&7&f&0's&d&m'`)!+2&1(**U'0&X$C&f/J,6)x&&%;/*0^(V)G%;'i2@2V$%.s,O$B!_$9&`$r%j%E'U)|)z*o'8$R&O&k#z'%&W+E):)Z'7%v$R$l!o$P.71(",
"'{1s-N&S+i({)$(~)$*Y(6)|'(&)'y&H+*'#%5-r,R(y$R!v,)0s(T(E%h'E-g2V%P.W,>%(&2$q&r){)$$q)Y.T)Z*V%j$Y$M$,%5%~)~,~'&$4)a%|%]!O!q'S)$0*",
"'C21-p#g+o+<'=&k+g'J%O,J0%*Y/;#v%;(D#/&m+w$r%@&Q.N)u)$*{'t'D/<2&%]0A,a%L*0%'$z'a'>%+)K.>,o)N'X!w!M$d%.#q$''w#X#9${%=#(#W&J(1(h,X",
"%p.~/g)o0Z-x*^'{%S$C$D').%)Y*$/`&f!c%Y&e-%'+(-)?-D,|(c-!*A'V2Z1O$y-R,]+d(z(E&r&q$v'E&X'C)e(>%K$S#j!&#-$B&'$+$Z#w$N%A#h#v&1'11-*Z",
"&R-50:.T0./:,r)B(%'E'+(,'b%N(T)b%|$F(')A%)&W(^(f(%&J*r-;.A(%.+*u#S(]/T%D(%(D'8%|%@')*E+C%X$7)?$a$l#H#H%+$-'$$C!c$&#)%((8&Q'7)_,p",
"%[.+.@,40+.&-;*s*Q);)o$D&I%I$S$D$D(s$1%[)2(Y+],?(`&J'>*X-q)3'b(y#g+,,2&l)Y&P%[%s)b)#,U#d$0!6!w#U&q'C!~$E$'#[&L#b'>'L&e(,(a$>%;'h",
"%c/0/(*t/Q*;*f+{)B(W$^%B$Q'>-_'u$O#i$X)Y,0+U*B&p&l(+'>*A.[(#)@0<$!+<+3'+,.'0%p%A%{$C#0!a!}$9!j!T$C)r$C$Y&a#()&&8&m'b%($|$>!:%&(y",
"(}/[0g+n/S/?+O,q)8($%r$T#L%F)V,()|&3*p-V-U)6'8)W(a+e-k*`*8!Z(j.x&}*e.c*B*<(%%!'+$C$S$S!H#(%r%:!v%%$J$s(=(^$@$k([#X#>%M!{$`!Y(t-T",
"!{,3/5*1-)-9-61N'i'/)|'K%:#p(7,I+S*5,)+p(,+z)*(b+u+y-Y&~%!$q'<)F%#,p,F(z&S)X)z):'*)Y&<%5#]$k%^&'&J%!$z&+$k$P!x&A#U%Z(J#]$B$D(]*t",
"$r-^1j)H+v-,/,0_/F*8'>&m+.+.,q(D%L)?&m%.%7'E*r&@({.}*m(;$T&I-w+/&1)o*U)|'U(+,(*2(R.i(C#v%O'9,z%C%c$s%,$.#)&z&%$A$k&r*7%['6'%(y&6",
"$k.;10+1+l.&.@010[){-@(b,y,Q+s*[&{);(z(T'%+-,k%v(m-O($$O(r)_.r/S#F,225&I$C&a*t)}&V(y'h'&$%$i&?$H'&&J%Z%`#=&]'('t($&{'h(E'=&S(z)G",
"$m.&/U,u0x+t*T,<.a){+t+-,S,g*O-6)s'E,6*g-=(~)9)t'*(x'#(4,4)g1I1A%C.M0Z$D'a&x(X%;&Q(6&V+M*V)c&Q&f(d%q%b$[#B#](:(*'|%<%w%|&J'G,~)B",
")e/y/d/G1^-3+S-j*H+u.X,b*|,K*d)c+4+5)o,k.,*<*]+N'h'j,~*Z+n)C/T1~%**V/~(b)f(-(E'E&n'd'l([,s-#);(%&S*,'Z-M+*)A(!%J%v(|)#'*-U){)_+u",
"-v2-2[0K/l+R,i-Y+1.y-z-q+O*@'/*S)c*~({,|2/,_,L-I*m'7'I+D+D*3/?02&f*_06*P*G)z*%)a'b'g'a(J([(t'+(}*;,k*(+q*b(/'A'D&W#g'|)|,/'Q*7-l",
"-X2[2R-{,E*(+40E,p.t/P&k$?$D)())*_(](_,g0L0`*$*o,?*5)a)9*;*:,`-A'/+Z-='f):&Q%**U(k+s'U%u%r#a(E(?%A'Z*D'N*8,G%#%[-B-8,K&1$q&g&S.o",
"('2A/h(+-d*[*R0Y.(,}.I)1%a*l)s)!'y'B%[&9*=)T)@,J/P-j'P%Q)`'_.,0N%j+L*;&b'b#r'.+^.S+#)s'=%?)}*>*g*]($*^(%(V+!*n+_*8-E&D&/$D&J2907",
"'00=0k+@.}-g)R+h+i-20A/R.n)@-U*C)i)''`(*(e+B*7,,/0+m+.,W';&S*&.+#R)y)G%X$U&I+U)q(|,s*n'b(p(C.H.5+b(i)%*O(g+6)}+n*U-Z-|)U&J%K1+--",
")h.z1;(e-0+..#(t(q*n-t0V/O-1(a+-*7*;':'++.+U+.0T0u.z0%/y,^+?.g1{&I(~+)%>&2*7+U(}*<+H(7)D(c*T/m.=+u)#'E)(,4+n&n*',d-F+j*V%*%G)`/3",
")F.j/|)f-.'m&l*;*M)C*o+l/41*.3&,):.+)g)X001a060u/v09,?-},{*c/C/k%@/I.Y'#(d'J%[)#*]*<(B)A-4.u.!+3'c*j(K(&)s&g%p&q)9*9*:'W%@!g*t+k",
"*y0A0o*N-j%Y'c(v&n)a&q$})b'+(<'z&.'`'a'p-G/q.A+G+/,.'W'{*m*[0)1h$+-P/H%n$q*u)#)4){*u%u(&+6*W)3)$'@$*#^'V%V($'0%)%)%R&1(b%v#v(9+K",
"#V2J17(,)z'I0v.i/++N%S$,$X'Y)9*u&s$e#p&k$C#3-r-5+N-p,K&a&I&01r1I%r-U,}$v%p)B*u&1)r(c$;(@*N'$+i(}%7$l#:#A$A#/$d#<!G#b&e+X'E'<-O(S",
"!w2W1m2S2[2[2[2[2[2[2Y0i1L2[2[2[1e2*2[2[2@1?262[2[2[2[1}1&/g1W1/'#.P*B/-.[2Z2[2[2[2O0U/K0e2(2[2E-R/&2P1'09,D,;1#.k0H2.0J,C/^03*C",
"!r2$.V+n,},9/n/5,**^)a'|'{)f(J%`$r#~'_&e&J&-(,+y0-/o'+&0&k&:$s%y$?,v$]';)#(c*.)$)$(Z)%%b&V)@)}):(V&I'`#9#w#?$T%u%U'%)Z%^!l'E&8#:"
};
