/* XPM */
static char *stone_tiled_bricks_09[] = {
/* columns rows colors chars-per-pixel */
"64 64 1563 2",
/* colors */
"!! c #343839",
"!# c #363A3C",
"!$ c #363C3C",
"!% c #383C3D",
"!& c #383D3D",
"!' c #383F3F",
"!( c #383F40",
"!) c #393D3F",
"!* c #393D40",
"!+ c #393F40",
"!, c #394040",
"!- c #3A3F40",
"!. c #3A4040",
"!/ c #3A4041",
"!0 c #3A4140",
"!1 c #3C4040",
"!2 c #3C4041",
"!3 c #3C4141",
"!4 c #3C4143",
"!5 c #3C4144",
"!6 c #3C4344",
"!7 c #3D4141",
"!8 c #3D4143",
"!9 c #3D4343",
"!: c #3D4344",
"!; c #3D4444",
"!< c #3F4343",
"!= c #3F4344",
"!> c #3F4345",
"!? c #3F4444",
"!@ c #3F4445",
"!A c #3F4544",
"!B c #3F4545",
"!C c #3F4547",
"!D c #404444",
"!E c #404445",
"!F c #404447",
"!G c #404545",
"!H c #404547",
"!I c #404748",
"!J c #40484B",
"!K c #414445",
"!L c #414545",
"!M c #414547",
"!N c #414747",
"!O c #414748",
"!P c #414848",
"!Q c #41484B",
"!R c #434747",
"!S c #434748",
"!T c #434749",
"!U c #434848",
"!V c #434849",
"!W c #434948",
"!X c #434949",
"!Y c #43494C",
"!Z c #434B4E",
"![ c #444547",
"!] c #444847",
"!^ c #444848",
"!_ c #444849",
"!` c #44484B",
"!a c #444948",
"!b c #444949",
"!c c #44494B",
"!d c #44494C",
"!e c #444B49",
"!f c #444B4B",
"!g c #444B4C",
"!h c #444B4E",
"!i c #444C4C",
"!j c #454848",
"!k c #454849",
"!l c #454949",
"!m c #45494B",
"!n c #45494C",
"!o c #454B4B",
"!p c #454B4C",
"!q c #454B4E",
"!r c #454C49",
"!s c #454C4B",
"!t c #454C4C",
"!u c #454C4E",
"!v c #454E4C",
"!w c #454E4E",
"!x c #454F50",
"!y c #454F52",
"!z c #47494B",
"!{ c #474B48",
"!| c #474B4C",
"!} c #474B4E",
"!~ c #474B4F",
"#! c #474C49",
"## c #474C4B",
"#$ c #474C4C",
"#% c #474C4E",
"#& c #474C4F",
"#' c #474E4E",
"#( c #474E4F",
"#) c #474E50",
"#* c #474E52",
"#+ c #474F4F",
"#, c #474F50",
"#- c #475053",
"#. c #484C4C",
"#/ c #484C4E",
"#0 c #484E4C",
"#1 c #484E4E",
"#2 c #484E4F",
"#3 c #484E50",
"#4 c #484F4E",
"#5 c #484F4F",
"#6 c #484F50",
"#7 c #484F52",
"#8 c #485053",
"#9 c #485056",
"#: c #485253",
"#; c #494E4E",
"#< c #494E4F",
"#= c #494F4E",
"#> c #494F4F",
"#? c #494F50",
"#@ c #49504E",
"#A c #49504F",
"#B c #495050",
"#C c #495052",
"#D c #495053",
"#E c #495252",
"#F c #495254",
"#G c #495256",
"#H c #4B4F4E",
"#I c #4B4F4F",
"#J c #4B4F50",
"#K c #4B4F52",
"#L c #4B5050",
"#M c #4B5052",
"#N c #4B5252",
"#O c #4B5253",
"#P c #4B5352",
"#Q c #4B5353",
"#R c #4B5354",
"#S c #4B5356",
"#T c #4B5456",
"#U c #4B5457",
"#V c #4B5458",
"#W c #4C4F50",
"#X c #4C5050",
"#Y c #4C5052",
"#Z c #4C5252",
"#[ c #4C5253",
"#] c #4C5353",
"#^ c #4C5354",
"#_ c #4C5453",
"#` c #4C5454",
"#a c #4C5456",
"#b c #4C5457",
"#c c #4C5458",
"#d c #4C5658",
"#e c #4C5758",
"#f c #4E4F52",
"#g c #4E5250",
"#h c #4E5252",
"#i c #4E5253",
"#j c #4E5352",
"#k c #4E5353",
"#l c #4E5354",
"#m c #4E5454",
"#n c #4E5456",
"#o c #4E5457",
"#p c #4E545A",
"#q c #4E5656",
"#r c #4E5657",
"#s c #4E565B",
"#t c #4E5758",
"#u c #4E575A",
"#v c #4F5252",
"#w c #4F5354",
"#x c #4F5453",
"#y c #4F5456",
"#z c #4F5653",
"#{ c #4F5654",
"#| c #4F5656",
"#} c #4F5657",
"#~ c #4F5658",
"$! c #4F5754",
"$# c #4F5757",
"$$ c #4F575A",
"$% c #4F575B",
"$& c #4F585A",
"$' c #4F585B",
"$( c #4F5A5A",
"$) c #4F5A5B",
"$* c #4F5A5E",
"$+ c #505452",
"$, c #505454",
"$- c #505656",
"$. c #505657",
"$/ c #505658",
"$0 c #505754",
"$1 c #505756",
"$2 c #505757",
"$3 c #505758",
"$4 c #50575B",
"$5 c #505856",
"$6 c #505858",
"$7 c #50585A",
"$8 c #50585B",
"$9 c #50585C",
"$: c #505A5B",
"$; c #505A5C",
"$< c #505A5E",
"$= c #505B5C",
"$> c #505B5E",
"$? c #525754",
"$@ c #525757",
"$A c #52575A",
"$B c #52575B",
"$C c #525857",
"$D c #525858",
"$E c #52585A",
"$F c #52585B",
"$G c #52585E",
"$H c #525A57",
"$I c #525A58",
"$J c #525A5A",
"$K c #525A5B",
"$L c #525A5C",
"$M c #525A5E",
"$N c #525B5B",
"$O c #525B5C",
"$P c #525B5E",
"$Q c #525B5F",
"$R c #525C5C",
"$S c #525C5F",
"$T c #535757",
"$U c #535758",
"$V c #535857",
"$W c #53585A",
"$X c #535A57",
"$Y c #535A58",
"$Z c #535A5A",
"$[ c #535A5B",
"$] c #535A5C",
"$^ c #535A5E",
"$_ c #535B5B",
"$` c #535B5C",
"$a c #535B5E",
"$b c #535B5F",
"$c c #535C5B",
"$d c #535C5E",
"$e c #535C5F",
"$f c #535C61",
"$g c #535E5F",
"$h c #535E61",
"$i c #535F5F",
"$j c #535F62",
"$k c #545A58",
"$l c #545A5A",
"$m c #545A5B",
"$n c #545A5C",
"$o c #545B5A",
"$p c #545B5B",
"$q c #545B5F",
"$r c #545C5C",
"$s c #545C5E",
"$t c #545C5F",
"$u c #545C61",
"$v c #545E61",
"$w c #545E62",
"$x c #545F61",
"$y c #545F62",
"$z c #545F63",
"${ c #546162",
"$| c #565B5A",
"$} c #565B5B",
"$~ c #565B5C",
"%! c #565C5C",
"%# c #565C5E",
"%$ c #565C61",
"%% c #565E5E",
"%& c #565E5F",
"%' c #565E61",
"%( c #565F61",
"%) c #565F62",
"%* c #565F63",
"%+ c #565F65",
"%, c #566162",
"%- c #566163",
"%. c #566165",
"%/ c #566265",
"%0 c #575A5A",
"%1 c #575B5C",
"%2 c #575C5C",
"%3 c #575C5F",
"%4 c #575E5E",
"%5 c #575E5F",
"%6 c #575E63",
"%7 c #575E66",
"%8 c #575F61",
"%9 c #575F63",
"%: c #57615F",
"%; c #576163",
"%< c #576165",
"%= c #576263",
"%> c #576265",
"%? c #576266",
"%@ c #576365",
"%A c #576567",
"%B c #585C5E",
"%C c #585E5C",
"%D c #585F5E",
"%E c #585F5F",
"%F c #585F62",
"%G c #585F65",
"%H c #58615F",
"%I c #586161",
"%J c #586162",
"%K c #586163",
"%L c #586165",
"%M c #586263",
"%N c #586265",
"%O c #586266",
"%P c #586366",
"%Q c #586569",
"%R c #5A5F5E",
"%S c #5A615F",
"%T c #5A6161",
"%U c #5A6165",
"%V c #5A6261",
"%W c #5A6262",
"%X c #5A6263",
"%Y c #5A6265",
"%Z c #5A6267",
"%[ c #5A6365",
"%] c #5A6366",
"%^ c #5A6367",
"%_ c #5A6369",
"%` c #5A636A",
"%a c #5A6566",
"%b c #5A6567",
"%c c #5A6569",
"%d c #5A6669",
"%e c #5A666B",
"%f c #5A676B",
"%g c #5A696D",
"%h c #5B6161",
"%i c #5B6261",
"%j c #5B6262",
"%k c #5B6263",
"%l c #5B6265",
"%m c #5B6266",
"%n c #5B6363",
"%o c #5B6366",
"%p c #5B6367",
"%q c #5B6565",
"%r c #5B6567",
"%s c #5B6569",
"%t c #5B656A",
"%u c #5B6667",
"%v c #5B6669",
"%w c #5B666A",
"%x c #5B6769",
"%y c #5B676A",
"%z c #5B6A6E",
"%{ c #5C6262",
"%| c #5C6265",
"%} c #5C6362",
"%~ c #5C6365",
"&! c #5C6566",
"&# c #5C6567",
"&$ c #5C6569",
"&% c #5C656A",
"&& c #5C6667",
"&' c #5C6669",
"&( c #5C666A",
"&) c #5C666B",
"&* c #5C6769",
"&+ c #5C676A",
"&, c #5C676B",
"&- c #5C676D",
"&. c #5C6969",
"&/ c #5C696A",
"&0 c #5C696D",
"&1 c #5C6A6A",
"&2 c #5C6A6D",
"&3 c #5C6A6E",
"&4 c #5E6362",
"&5 c #5E6561",
"&6 c #5E6567",
"&7 c #5E6569",
"&8 c #5E6667",
"&9 c #5E6669",
"&: c #5E666A",
"&; c #5E666B",
"&< c #5E6769",
"&= c #5E676A",
"&> c #5E676B",
"&? c #5E676D",
"&@ c #5E6969",
"&A c #5E696A",
"&B c #5E696B",
"&C c #5E696D",
"&D c #5E696E",
"&E c #5E6A6B",
"&F c #5E6A6D",
"&G c #5E6A6E",
"&H c #5E6B6E",
"&I c #5F666A",
"&J c #5F676A",
"&K c #5F676B",
"&L c #5F676D",
"&M c #5F696A",
"&N c #5F696B",
"&O c #5F696D",
"&P c #5F696E",
"&Q c #5F6A6B",
"&R c #5F6A6D",
"&S c #5F6A6E",
"&T c #5F6A70",
"&U c #5F6B6B",
"&V c #5F6B6D",
"&W c #5F6B70",
"&X c #5F6B71",
"&Y c #5F6D6E",
"&Z c #5F6E70",
"&[ c #616669",
"&] c #616769",
"&^ c #61676B",
"&_ c #61676D",
"&` c #61696B",
"&a c #61696D",
"&b c #616A6A",
"&c c #616A6B",
"&d c #616A6D",
"&e c #616A6E",
"&f c #616A70",
"&g c #616B6D",
"&h c #616B6E",
"&i c #616B70",
"&j c #616D6D",
"&k c #616D6E",
"&l c #616D70",
"&m c #616D71",
"&n c #616D72",
"&o c #616E71",
"&p c #626A6D",
"&q c #626A6E",
"&r c #626B69",
"&s c #626B6B",
"&t c #626B6D",
"&u c #626B6E",
"&v c #626B70",
"&w c #626D6D",
"&x c #626D6E",
"&y c #626D70",
"&z c #626D71",
"&{ c #626E70",
"&| c #626E71",
"&} c #626E72",
"&~ c #627070",
"'! c #627071",
"'# c #627072",
"'$ c #627074",
"'% c #627174",
"'& c #636967",
"'' c #636B6B",
"'( c #636B6E",
"') c #636B70",
"'* c #636B71",
"'+ c #636D6E",
"', c #636D70",
"'- c #636D71",
"'. c #636D72",
"'/ c #636E6E",
"'0 c #636E70",
"'1 c #636E71",
"'2 c #636E72",
"'3 c #636E74",
"'4 c #636E76",
"'5 c #637071",
"'6 c #637072",
"'7 c #637074",
"'8 c #637075",
"'9 c #637172",
"': c #637175",
"'; c #656969",
"'< c #656D6D",
"'= c #656D70",
"'> c #656D72",
"'? c #656E70",
"'@ c #656E71",
"'A c #656E74",
"'B c #656E75",
"'C c #656E76",
"'D c #657070",
"'E c #657071",
"'F c #657072",
"'G c #657074",
"'H c #657172",
"'I c #657174",
"'J c #657175",
"'K c #657176",
"'L c #657274",
"'M c #657275",
"'N c #657276",
"'O c #657278",
"'P c #657578",
"'Q c #666D70",
"'R c #666E70",
"'S c #666E71",
"'T c #666E72",
"'U c #666E74",
"'V c #667070",
"'W c #667072",
"'X c #667074",
"'Y c #667076",
"'Z c #667172",
"'[ c #667174",
"'] c #667175",
"'^ c #667274",
"'_ c #667275",
"'` c #667476",
"'a c #667478",
"'b c #667479",
"'c c #66757A",
"'d c #677072",
"'e c #677074",
"'f c #677171",
"'g c #677172",
"'h c #677174",
"'i c #677175",
"'j c #677176",
"'k c #677178",
"'l c #677274",
"'m c #677275",
"'n c #677276",
"'o c #677278",
"'p c #67727A",
"'q c #677475",
"'r c #677476",
"'s c #677478",
"'t c #677479",
"'u c #67747A",
"'v c #677578",
"'w c #697072",
"'x c #697172",
"'y c #697174",
"'z c #697175",
"'{ c #697176",
"'| c #697272",
"'} c #697274",
"'~ c #697275",
"(! c #697276",
"(# c #697474",
"($ c #697475",
"(% c #697476",
"(& c #697478",
"(' c #697479",
"(( c #69747A",
"() c #697575",
"(* c #697576",
"(+ c #697578",
"(, c #697579",
"(- c #69757A",
"(. c #69757C",
"(/ c #697678",
"(0 c #69767A",
"(1 c #69787A",
"(2 c #69787C",
"(3 c #697A80",
"(4 c #6A7174",
"(5 c #6A7176",
"(6 c #6A7178",
"(7 c #6A7275",
"(8 c #6A7276",
"(9 c #6A7278",
"(: c #6A7476",
"(; c #6A7478",
"(< c #6A7479",
"(= c #6A7574",
"(> c #6A7575",
"(? c #6A7576",
"(@ c #6A7578",
"(A c #6A7579",
"(B c #6A757A",
"(C c #6A7676",
"(D c #6A7678",
"(E c #6A7679",
"(F c #6A767A",
"(G c #6A767D",
"(H c #6A7879",
"(I c #6A787A",
"(J c #6A787C",
"(K c #6A797C",
"(L c #6A797E",
"(M c #6B7474",
"(N c #6B7476",
"(O c #6B7478",
"(P c #6B7479",
"(Q c #6B7575",
"(R c #6B7576",
"(S c #6B7578",
"(T c #6B7579",
"(U c #6B757A",
"(V c #6B7676",
"(W c #6B7678",
"(X c #6B7679",
"(Y c #6B767A",
"(Z c #6B7878",
"([ c #6B7879",
"(] c #6B787A",
"(^ c #6B787C",
"(_ c #6B787D",
"(` c #6B7979",
"(a c #6B797A",
"(b c #6B797C",
"(c c #6B797D",
"(d c #6B7A7C",
"(e c #6B7C7D",
"(f c #6B7C80",
"(g c #6D7476",
"(h c #6D7479",
"(i c #6D747A",
"(j c #6D7575",
"(k c #6D7578",
"(l c #6D7579",
"(m c #6D757A",
"(n c #6D757C",
"(o c #6D7678",
"(p c #6D7679",
"(q c #6D767A",
"(r c #6D767C",
"(s c #6D7879",
"(t c #6D787A",
"(u c #6D787C",
"(v c #6D787D",
"(w c #6D797A",
"(x c #6D797C",
"(y c #6D797D",
"(z c #6D797E",
"({ c #6D7981",
"(| c #6D7A7C",
"(} c #6D7A7E",
"(~ c #6D7C7C",
")! c #6D7C7E",
")# c #6D7C81",
")$ c #6D7D7E",
")% c #6E7679",
")& c #6E767A",
")' c #6E767C",
")( c #6E767D",
")) c #6E7878",
")* c #6E7879",
")+ c #6E787A",
"), c #6E787C",
")- c #6E797C",
"). c #6E797D",
")/ c #6E797E",
")0 c #6E7980",
")1 c #6E7A7C",
")2 c #6E7A7D",
")3 c #6E7A7E",
")4 c #6E7A80",
")5 c #6E7C7D",
")6 c #6E7C7E",
")7 c #6E7C81",
")8 c #6E7D7E",
")9 c #6E7D80",
"): c #6E7D81",
"); c #6E7D84",
")< c #6E8084",
")= c #707578",
")> c #70767A",
")? c #707879",
")@ c #70787A",
")A c #70787C",
")B c #70797A",
")C c #70797C",
")D c #70797D",
")E c #70797E",
")F c #707A7C",
")G c #707A7D",
")H c #707A7E",
")I c #707A80",
")J c #707C7D",
")K c #707C7E",
")L c #707C80",
")M c #707D7E",
")N c #707D80",
")O c #707D81",
")P c #707E80",
")Q c #707E83",
")R c #708084",
")S c #71797A",
")T c #71797C",
")U c #717980",
")V c #717A7A",
")W c #717A7D",
")X c #717A7E",
")Y c #717A80",
")Z c #717C7D",
")[ c #717C7E",
")] c #717C80",
")^ c #717C81",
")_ c #717D7E",
")` c #717D80",
")a c #717D81",
")b c #717D83",
")c c #717E80",
")d c #717E81",
")e c #717E83",
")f c #718081",
")g c #727A7A",
")h c #727A7C",
")i c #727A7D",
")j c #727A80",
")k c #727A83",
")l c #727C7E",
")m c #727C81",
")n c #727D80",
")o c #727D81",
")p c #727D83",
")q c #727D84",
")r c #727E80",
")s c #727E81",
")t c #727E83",
")u c #727E84",
")v c #728081",
")w c #728084",
")x c #728087",
")y c #728184",
")z c #728387",
"){ c #747A79",
")| c #747A7D",
")} c #747C7D",
")~ c #747C7E",
"*! c #747C83",
"*# c #747D7E",
"*$ c #747D80",
"*% c #747D81",
"*& c #747D83",
"*' c #747E81",
"*( c #747E83",
"*) c #747E84",
"** c #748083",
"*+ c #748084",
"*, c #748085",
"*- c #748087",
"*. c #748183",
"*/ c #748184",
"*0 c #748185",
"*1 c #748187",
"*2 c #748383",
"*3 c #748385",
"*4 c #748387",
"*5 c #748487",
"*6 c #748489",
"*7 c #757D7D",
"*8 c #757D7E",
"*9 c #757D80",
"*: c #757D81",
"*; c #757D84",
"*< c #757E7E",
"*= c #757E80",
"*> c #757E81",
"*? c #757E83",
"*@ c #757E84",
"*A c #75807E",
"*B c #758081",
"*C c #758083",
"*D c #758084",
"*E c #758085",
"*F c #758087",
"*G c #758183",
"*H c #758184",
"*I c #758185",
"*J c #758188",
"*K c #758383",
"*L c #758384",
"*M c #758385",
"*N c #758388",
"*O c #75848B",
"*P c #758588",
"*Q c #758589",
"*R c #75858B",
"*S c #767D7E",
"*T c #767D83",
"*U c #767E7E",
"*V c #767E83",
"*W c #768083",
"*X c #768084",
"*Y c #768085",
"*Z c #768183",
"*[ c #768184",
"*] c #768185",
"*^ c #768187",
"*_ c #768188",
"*` c #768384",
"*a c #768385",
"*b c #768387",
"*c c #768388",
"*d c #768484",
"*e c #768485",
"*f c #768487",
"*g c #768488",
"*h c #768489",
"*i c #768587",
"*j c #768785",
"*k c #768788",
"*l c #787E81",
"*m c #788085",
"*n c #788185",
"*o c #788384",
"*p c #788385",
"*q c #788387",
"*r c #788388",
"*s c #788485",
"*t c #788487",
"*u c #788488",
"*v c #788489",
"*w c #788585",
"*x c #788587",
"*y c #788588",
"*z c #788589",
"*{ c #78858C",
"*| c #78868A",
"*} c #788787",
"*~ c #788788",
"+! c #788789",
"+# c #788889",
"+$ c #78888D",
"+% c #798083",
"+& c #798184",
"+' c #798185",
"+( c #798385",
"+) c #798387",
"+* c #798388",
"++ c #798487",
"+, c #798488",
"+- c #798489",
"+. c #798587",
"+/ c #798588",
"+0 c #798589",
"+1 c #79858A",
"+2 c #798689",
"+3 c #79868A",
"+4 c #79868C",
"+5 c #798787",
"+6 c #798788",
"+7 c #798888",
"+8 c #7A8085",
"+9 c #7A8483",
"+: c #7A8485",
"+; c #7A8487",
"+< c #7A8587",
"+= c #7A858D",
"+> c #7A868D",
"+? c #7A888E",
"+@ c #7A8C8E",
"+A c #7B8388",
"+B c #7B8389",
"+C c #7B8588",
"+D c #7B8589",
"+E c #7B858A",
"+F c #7B858C",
"+G c #7B8689",
"+H c #7B868A",
"+I c #7B868C",
"+J c #7B868D",
"+K c #7B8889",
"+L c #7B888A",
"+M c #7B8989",
"+N c #7B898A",
"+O c #7B898D",
"+P c #7B898E",
"+Q c #7B8A8F",
"+R c #7C8486",
"+S c #7C8488",
"+T c #7C8586",
"+U c #7C8588",
"+V c #7C858A",
"+W c #7C858C",
"+X c #7C858D",
"+Y c #7C8688",
"+Z c #7C868A",
"+[ c #7C868C",
"+] c #7C8889",
"+^ c #7C888A",
"+_ c #7C888C",
"+` c #7C888D",
"+a c #7C898A",
"+b c #7C898C",
"+c c #7C898D",
"+d c #7C8A8C",
"+e c #7C8A8D",
"+f c #7C8A90",
"+g c #7C8B90",
"+h c #7C8C8D",
"+i c #7D8386",
"+j c #7D8586",
"+k c #7D8589",
"+l c #7D8685",
"+m c #7D8689",
"+n c #7D888F",
"+o c #7D898E",
"+p c #7D898F",
"+q c #7D8A8E",
"+r c #7E848A",
"+s c #7E868A",
"+t c #7E878D",
"+u c #7E888A",
"+v c #7E888C",
"+w c #7E888D",
"+x c #7E898A",
"+y c #7E898C",
"+z c #7E898D",
"+{ c #7E898E",
"+| c #7E8990",
"+} c #7E8A8A",
"+~ c #7E8A8C",
",! c #7E8A8D",
",# c #7E8A8E",
",$ c #7E8A91",
",% c #7E8B8D",
",& c #7E8B8E",
",' c #7E8C8F",
",( c #7E8D8E",
",) c #7F8689",
",* c #7F868A",
",+ c #7F878B",
",, c #7F898B",
",- c #7F898D",
",. c #7F898E",
",/ c #7F8A8A",
",0 c #7F8A8B",
",1 c #7F8A8D",
",2 c #7F8A8E",
",3 c #7F8B8D",
",4 c #80878A",
",5 c #80878B",
",6 c #808888",
",7 c #80898D",
",8 c #80898E",
",9 c #80898F",
",: c #808A8B",
",; c #808A8E",
",< c #808A8F",
",= c #808A90",
",> c #808B8A",
",? c #808B91",
",@ c #808C8D",
",A c #808C8E",
",B c #808C8F",
",C c #808C90",
",D c #808C91",
",E c #808D8E",
",F c #808D8F",
",G c #808D90",
",H c #808D91",
",I c #808D92",
",J c #808E91",
",K c #808E92",
",L c #808F92",
",M c #81878E",
",N c #818A8C",
",O c #818A8E",
",P c #818C8E",
",Q c #818C90",
",R c #818D8E",
",S c #818D8F",
",T c #818D90",
",U c #818E8F",
",V c #818E94",
",W c #818F90",
",X c #82888A",
",Y c #82898A",
",Z c #828A8D",
",[ c #828A8E",
",] c #828B92",
",^ c #828C8D",
",_ c #828C91",
",` c #828D8D",
",a c #828D8E",
",b c #828D91",
",c c #828D92",
",d c #828D93",
",e c #828E91",
",f c #828E92",
",g c #828E93",
",h c #828F93",
",i c #829094",
",j c #838B8F",
",k c #838C8E",
",l c #838C8F",
",m c #838C90",
",n c #838D8C",
",o c #838D8F",
",p c #838D90",
",q c #838D91",
",r c #838D92",
",s c #838D93",
",t c #838E90",
",u c #838E91",
",v c #838E92",
",w c #838E93",
",x c #838F91",
",y c #838F92",
",z c #838F94",
",{ c #839092",
",| c #839094",
",} c #848C90",
",~ c #848D8D",
"-! c #848D90",
"-# c #848D93",
"-$ c #848E90",
"-% c #848E94",
"-& c #848F90",
"-' c #848F93",
"-( c #848F94",
"-) c #849093",
"-* c #849094",
"-+ c #849095",
"-, c #849194",
"-- c #849195",
"-. c #849296",
"-/ c #858D92",
"-0 c #858E8F",
"-1 c #858F92",
"-2 c #858F93",
"-3 c #858F94",
"-4 c #859092",
"-5 c #859093",
"-6 c #859094",
"-7 c #859191",
"-8 c #859193",
"-9 c #859292",
"-: c #868D91",
"-; c #868F91",
"-< c #868F93",
"-= c #869091",
"-> c #869092",
"-? c #869093",
"-@ c #869094",
"-A c #869097",
"-B c #869192",
"-C c #869193",
"-D c #869194",
"-E c #869195",
"-F c #869197",
"-G c #869293",
"-H c #869294",
"-I c #869297",
"-J c #869394",
"-K c #869397",
"-L c #869495",
"-M c #879094",
"-N c #879096",
"-O c #879194",
"-P c #879196",
"-Q c #879294",
"-R c #879296",
"-S c #879297",
"-T c #879394",
"-U c #879396",
"-V c #879397",
"-W c #879398",
"-X c #879597",
"-Y c #889093",
"-Z c #889094",
"-[ c #889095",
"-] c #889192",
"-^ c #889193",
"-_ c #889194",
"-` c #889195",
"-a c #889197",
"-b c #889293",
"-c c #889295",
"-d c #889296",
"-e c #889297",
"-f c #889298",
"-g c #889395",
"-h c #889396",
"-i c #889397",
"-j c #889495",
"-k c #889498",
"-l c #889499",
"-m c #899094",
"-n c #899193",
"-o c #899194",
"-p c #899292",
"-q c #899294",
"-r c #899297",
"-s c #899395",
"-t c #899396",
"-u c #899397",
"-v c #899398",
"-w c #899399",
"-x c #899496",
"-y c #899497",
"-z c #899498",
"-{ c #899597",
"-| c #89959A",
"-} c #899697",
"-~ c #899698",
".! c #89969B",
".# c #8A9195",
".$ c #8A9295",
".% c #8A9296",
".& c #8A9297",
".' c #8A9395",
".( c #8A9396",
".) c #8A9496",
".* c #8A9497",
".+ c #8A9499",
"., c #8A9595",
".- c #8A9597",
".. c #8A9599",
"./ c #8A9699",
".0 c #8A969A",
".1 c #8B9394",
".2 c #8B9395",
".3 c #8B9397",
".4 c #8B9398",
".5 c #8B9495",
".6 c #8B9497",
".7 c #8B9498",
".8 c #8B9597",
".9 c #8B9598",
".: c #8B9599",
".; c #8B959A",
".< c #8B9698",
".= c #8B9699",
".> c #8B969A",
".? c #8B979A",
".@ c #8B989A",
".A c #8C9396",
".B c #8C9397",
".C c #8C949A",
".D c #8C9597",
".E c #8C9598",
".F c #8C9599",
".G c #8C9695",
".H c #8C9697",
".I c #8C9698",
".J c #8C9699",
".K c #8C969A",
".L c #8C969B",
".M c #8C979A",
".N c #8C979C",
".O c #8C989A",
".P c #8C989B",
".Q c #8C989C",
".R c #8D9698",
".S c #8D9699",
".T c #8D969A",
".U c #8D969B",
".V c #8D969C",
".W c #8D9797",
".X c #8D9799",
".Y c #8D979A",
".Z c #8D979B",
".[ c #8D989A",
".] c #8D989C",
".^ c #8D999B",
"._ c #8D999C",
".` c #8D999D",
".a c #8E9499",
".b c #8E9598",
".c c #8E9697",
".d c #8E969A",
".e c #8E969B",
".f c #8E979A",
".g c #8E979B",
".h c #8E979C",
".i c #8E979D",
".j c #8E989A",
".k c #8E989B",
".l c #8E989C",
".m c #8E999A",
".n c #8E999C",
".o c #8E999D",
".p c #8E9A9D",
".q c #8E9B9E",
".r c #8F969A",
".s c #8F969D",
".t c #8F9798",
".u c #8F9799",
".v c #8F979A",
".w c #8F989A",
".x c #8F989B",
".y c #8F989C",
".z c #8F989D",
".{ c #8F999A",
".| c #8F999B",
".} c #8F999C",
".~ c #8F999D",
"/! c #8F9A9D",
"/# c #8F9B9D",
"/$ c #8F9B9E",
"/% c #8F9C9F",
"/& c #8F9CA0",
"/' c #90979A",
"/( c #90989A",
"/) c #90999A",
"/* c #90999C",
"/+ c #90999D",
"/, c #909A9C",
"/- c #909B9D",
"/. c #909C9D",
"// c #909C9F",
"/0 c #909CA0",
"/1 c #91989D",
"/2 c #91999B",
"/3 c #91999C",
"/4 c #91999D",
"/5 c #91999E",
"/6 c #919A9D",
"/7 c #919A9E",
"/8 c #919B9D",
"/9 c #919B9F",
"/: c #919C9F",
"/; c #919CA0",
"/< c #919EA0",
"/= c #92999B",
"/> c #92999C",
"/? c #92999E",
"/@ c #929A9C",
"/A c #929A9D",
"/B c #929A9E",
"/C c #929A9F",
"/D c #929B9F",
"/E c #929BA0",
"/F c #929C9D",
"/G c #929C9E",
"/H c #929C9F",
"/I c #929CA0",
"/J c #929FA2",
"/K c #939A9D",
"/L c #939C9D",
"/M c #939C9E",
"/N c #939C9F",
"/O c #939CA0",
"/P c #939DA0",
"/Q c #939DA2",
"/R c #939E9F",
"/S c #939EA1",
"/T c #939FA2",
"/U c #949A9C",
"/V c #949C9D",
"/W c #949C9E",
"/X c #949C9F",
"/Y c #949CA0",
"/Z c #949D9E",
"/[ c #949DA0",
"/] c #949DA1",
"/^ c #949E9F",
"/_ c #949EA0",
"/` c #949EA1",
"/a c #949EA2",
"/b c #949FA1",
"/c c #949FA2",
"/d c #949FA3",
"/e c #94A1A3",
"/f c #94A1A4",
"/g c #959CA0",
"/h c #959DA1",
"/i c #959EA0",
"/j c #959EA1",
"/k c #959EA2",
"/l c #959EA3",
"/m c #959FA3",
"/n c #95A0A1",
"/o c #95A0A3",
"/p c #95A1A5",
"/q c #969CA0",
"/r c #969D9F",
"/s c #969DA0",
"/t c #969E9F",
"/u c #969EA1",
"/v c #969FA0",
"/w c #96A0A3",
"/x c #96A0A5",
"/y c #979CA1",
"/z c #979EA0",
"/{ c #979EA1",
"/| c #979EA2",
"/} c #979FA0",
"/~ c #979FA1",
"0! c #979FA2",
"0# c #979FA3",
"0$ c #979FA4",
"0% c #979FA5",
"0& c #97A0A2",
"0' c #97A0A3",
"0( c #97A0A4",
"0) c #97A0A5",
"0* c #97A1A2",
"0+ c #97A1A3",
"0, c #97A1A5",
"0- c #97A2A3",
"0. c #97A2A5",
"0/ c #989FA2",
"00 c #98A0A3",
"01 c #98A0A4",
"02 c #98A1A3",
"03 c #98A1A4",
"04 c #98A1A5",
"05 c #98A2A5",
"06 c #98A4A8",
"07 c #999FA1",
"08 c #99A0A3",
"09 c #99A0A5",
"0: c #99A1A1",
"0; c #99A1A4",
"0< c #99A1A5",
"0= c #99A2A3",
"0> c #99A2A4",
"0? c #99A2A5",
"0@ c #99A3A4",
"0A c #99A3A7",
"0B c #99A3A9",
"0C c #99A4A5",
"0D c #99A4A6",
"0E c #99A4A7",
"0F c #9A9FA1",
"0G c #9AA0A1",
"0H c #9AA0A4",
"0I c #9AA0A5",
"0J c #9AA1A3",
"0K c #9AA1A4",
"0L c #9AA1A5",
"0M c #9AA1A6",
"0N c #9AA2A5",
"0O c #9AA3A5",
"0P c #9AA3A6",
"0Q c #9AA4A5",
"0R c #9AA4A6",
"0S c #9AA5A9",
"0T c #9BA3A6",
"0U c #9BA4A7",
"0V c #9BA4A8",
"0W c #9BA5A6",
"0X c #9BA5A7",
"0Y c #9BA5A8",
"0Z c #9CA1A4",
"0[ c #9CA4A6",
"0] c #9CA4A7",
"0^ c #9CA4A8",
"0_ c #9CA5A7",
"0` c #9CA5A8",
"0a c #9CA5A9",
"0b c #9CA6A7",
"0c c #9DA3A4",
"0d c #9DA3A5",
"0e c #9DA4A6",
"0f c #9DA4A8",
"0g c #9DA5A6",
"0h c #9DA5A8",
"0i c #9DA6A8",
"0j c #9DA6A9",
"0k c #9DA7A8",
"0l c #9DA7A9",
"0m c #9DA7AB",
"0n c #9EA4A7",
"0o c #9EA5A6",
"0p c #9EA6AA",
"0q c #9EA7A8",
"0r c #9EA7AA",
"0s c #9EA8AA",
"0t c #9EA8AB",
"0u c #9EA9AB",
"0v c #9FA4A8",
"0w c #9FA5A7",
"0x c #9FA6AA",
"0y c #9FA7A9",
"0z c #9FA7AA",
"0{ c #9FA9AB",
"0| c #A0A5A8",
"0} c #A0A6A8",
"0~ c #A0A7A9",
"1! c #A0A7AA",
"1# c #A0A7AB",
"1$ c #A0A8A9",
"1% c #A0A8AB",
"1& c #A0A9AA",
"1' c #A0A9AB",
"1( c #A0AAAB",
"1) c #A0AAAC",
"1* c #A0AAAD",
"1+ c #A1A8AB",
"1, c #A1A9AB",
"1- c #A1A9AC",
"1. c #A1AAAC",
"1/ c #A1AAAE",
"10 c #A2A9AC",
"11 c #A2AAAB",
"12 c #A2AAAC",
"13 c #A2AAAE",
"14 c #A2ABAD",
"15 c #A3A7AB",
"16 c #A3AAAD",
"17 c #A3AAAE",
"18 c #A3ABAD",
"19 c #A3ABAE",
"1: c #A3ACAD",
"1; c #A3ACAE",
"1< c #A3ACAF",
"1= c #A3ADAF",
"1> c #A4ABAE",
"1? c #A4ABAF",
"1@ c #A4ACAE",
"1A c #A4ADAF",
"1B c #A4ADB0",
"1C c #A4ADB1",
"1D c #A4AFB1",
"1E c #A5ABAE",
"1F c #A5ADAE",
"1G c #A5ADAF",
"1H c #A5AEB0",
"1I c #A6ABAD",
"1J c #A6ADAF",
"1K c #A6ADB0",
"1L c #A6ADB1",
"1M c #A6AEAF",
"1N c #A6AEB1",
"1O c #A6AFB1",
"1P c #A6AFB2",
"1Q c #A7AEB1",
"1R c #A7AFB1",
"1S c #A7B0B1",
"1T c #A8ADAE",
"1U c #A8AFB1",
"1V c #A8B0B1",
"1W c #A8B0B3",
"1X c #A8B2B3",
"1Y c #A9B0B1",
"1Z c #A9B0B2",
"1[ c #A9B0B4",
"1] c #AAB0B3",
"1^ c #AAB2B4",
"1_ c #AAB2B6",
"1` c #ABB0B3",
"1a c #ABB1B3",
"1b c #ABB2B2",
"1c c #ABB2B4",
"1d c #ABB3B5",
"1e c #ABB3B6",
"1f c #ABB3B7",
"1g c #ABB4B6",
"1h c #ABB4B7",
"1i c #ACB3B4",
"1j c #ACB3B5",
"1k c #ACB3B7",
"1l c #ADB3B5",
"1m c #ADB3B6",
"1n c #ADB3B7",
"1o c #ADB4B7",
"1p c #AEB3B6",
"1q c #AEB4B6",
"1r c #AEB5B7",
"1s c #AEB5B8",
"1t c #AEB6B8",
"1u c #AEB7BA",
"1v c #AFB5B7",
"1w c #AFB6B9",
"1x c #AFB7B8",
"1y c #AFB7B9",
"1z c #B0B5B9",
"1{ c #B0B6B9",
"1| c #B0B7B9",
"1} c #B1B6B8",
"1~ c #B1B7B8",
"2! c #B1B7B9",
"2# c #B1B8B9",
"2$ c #B1B8BA",
"2% c #B1BABC",
"2& c #B2B8B9",
"2' c #B2B8BA",
"2( c #B2B8BB",
"2) c #B2B9BB",
"2* c #B2B9BC",
"2+ c #B2BABB",
"2, c #B3B8BB",
"2- c #B3B8BC",
"2. c #B3B9BC",
"2/ c #B3BABC",
"20 c #B4B8BB",
"21 c #B4BABC",
"22 c #B4BBBB",
"23 c #B4BBBC",
"24 c #B4BBBD",
"25 c #B4BCBE",
"26 c #B5BCBF",
"27 c #B5BDBF",
"28 c #B6BBBC",
"29 c #B6BCBE",
"2: c #B7BCBE",
"2; c #B7BDBE",
"2< c #B7BDBF",
"2= c #B7BEBF",
"2> c #B7BEC0",
"2? c #B8BDBF",
"2@ c #B8BEBF",
"2A c #B8BEC1",
"2B c #B9BEBF",
"2C c #B9BEC0",
"2D c #B9BFC1",
"2E c #BAC0C2",
"2F c #BAC1C2",
"2G c #BBC0C2",
"2H c #BBC1C3",
"2I c #BCC2C3",
"2J c #BCC2C4",
"2K c #BCC2C5",
"2L c #BDC2C3",
"2M c #BDC3C5",
"2N c #BEC2C4",
"2O c #BEC4C5",
"2P c #BEC4C6",
"2Q c #BEC5C8",
"2R c #BFC4C5",
"2S c #BFC4C7",
"2T c #BFC5C7",
"2U c #C0C5C6",
"2V c #C0C6C8",
"2W c #C1C7C8",
"2X c #C2C7C8",
"2Y c #C2C7C9",
"2Z c #C2C8C9",
"2[ c #C2C8CB",
"2] c #C3C8CA",
"2^ c #C3C9CB",
"2_ c #C4C9CB",
"2` c #C5C9CB",
"2a c #C5C9CC",
"2b c #C5CBCC",
"2c c #C5CBCD",
"2d c #C7CCCD",
"2e c #C8CCCE",
"2f c #C8CDCE",
"2g c #C8CDCF",
"2h c #C9CECF",
"2i c #CACFD0",
"2j c #CBCFD0",
"2k c #CBD0D1",
"2l c #CBD0D2",
"2m c #CCD1D3",
"2n c #CFD3D5",
"2o c #CFD4D5",
"2p c #D0D4D6",
"2q c #D1D5D6",
"2r c #D2D6D7",
"2s c #D2D6D8",
"2t c #D3D6D8",
"2u c #D3D7D8",
"2v c #D3D8D9",
"2w c #D4D8D9",
"2x c #D8DBDC",
"2y c #D9DDDE",
"2z c #DBDEDF",
"2{ c #DCE0E1",
"2| c #DDE0E2",
"2} c #DEE1E2",
/* pixels */
"$!$5#A!p!@!g!c$_$I!H#O!g!i#?#R#5#<!u#>!X#(!i!u!g%2%~$~#<!V!c!p!u#]#0#'!f#Z!N$2!G#$#y#k!=#k#L#?#%#'$##B!P!V!O#?$m!u#m#m!9#$!G!N#;",
"!N!N!X$3!N#$#L$##C#6!t!f#O#'!I#O#m#]!_#/#a!i!G!c#m$n$/$U#$!l!c$@#'#1!G!o!N!c#C!l!&#l#y!|!V#?!|#Z!H#'!t$3!u!=!>#%#M%h#m!f!M!_!U!o",
"!3!,!Y%G$a'S(7&$#)'(%r#U!p#$!I#O$q%($8%a(J&y&%'j&8&u'*$M!D!D!.!D$9*+'A$8%v)[),'{$d,<,;,=)H&^#.!^$b%K),*[%P%x&$%s*C(]&L&v'X$g$%$>",
"!9!@)K.v/x0`.d*z'2'X'+$$#?!N$:&a&q&/)Y++).,T*H(E)H*b0l&0!E#%!_!G&L-a)N&a(A,1-N0x(E+E/q0J,r(u$T#.(x/v0Q1s/K+/,F0$-6.J-@/W/y,u,u'h",
"!%!6'U2!2$.V-%/4&v).(X&/#'!D&N-Z,./D,w2G-u+z+H/+(G'm,W%u!D#y!8!.&<20.@,B,&,G2(2(.]2w1]-!(X&K%{$?,Y,M&;/K*B)E-/0V)(0]1`1p08-2.-&t",
"!.!2(u*(({%c','E&-$j(%#F#$#@(g0d0;0M.J(n+!)t&N($+{%))z$e!_#%#Z!U#F(8(c(-'n-O/I-M)a/q-r)A&f$s$@!v%8%<$w%x(()0$&&S%;)i(:,4*W(i+0#c",
"!.!H'(&B$y*+$g&B't%Y(!$=$,!r&h/D1s1a-c-q*}+@)Q-'.z-t+J&k!j#h#J!G'I/i-*-P);.?/I.g)p.|0L.x-@&v#0!a&N*@(q1+0y,B'i1k)-1i0!0v*('w&v&_",
"!3!P)k+z('*X,<($,9*I/u%v!@#=%b'G(v,Q*:.D1.0i*b'6).,e'G$;!f!_#L!=%u,O0!-*+4+$0t+H'8,r.'+A.()a#$$+)H*@/*0|.$.8*[+).8/s+C.~(@'T.%'B",
"!g!5&p/V*[(:*a.^,d+q29(}!#!=$z)3,r.J,d1#2L+L&>%d&y-h1U'-!G!=#y!z)o1d-u/I,=,D.}/H(_.h/I1N/h(?#!&5&[.v,j*m1L.*0K0&-O2B11(q,.+v-?(T",
"!@!I*800+`'{&O,v,s'J1?$)!=#&%*-y+))a/D0O2:+:(:'l%;&v)x$;!S!_#M!/&E+W.61W-@(:+G(+$v/-)8*E+y%*#I$0*S'T'T(B+B(5&p'T(p,.-O*D(F,y.(,~",
"!/!;%n'0'+&v'-)t.;1>1@)a!b!L&E1r2,2d1s0m2m2$.K*~)m)])a&H!R!k#$!G(E/32&2x/4-c-t1r-r0#0%0a2)&z#X$C*#)>.H1T/t*T+r)j.B2R0e1q.o,|'?$N",
"!@!@%~*[(p&N'W)V&x&y*y&d!u!T$w(U,u+W.#'i*F(.']$9%M'N(I's!X!N#Z!o%u)G0//~+1*X/311-M1R+#-r0H)U#I%{%q-[/=0Z(B/6.y-c,8.{-5,`-=-@&=$$",
"!?!u$:+Y+b%P,1.a*q1U.O(d!U#$#d'z)@+8.)),(A.!)7%d%f*3(v&*!L!_#H!@&c-2+k-_)a)H0@-W(X/v+H*g-6'J!o#}&d,-.v.2'a.s./,$,i.>(;0h.F,-+[&q",
"!N!(!u*V/_(r-y)&%d(^*L#G#'#'#8(S,o,q-s(A-t0[(D(&')(A,o&=!<!o#I!D'@-@.f+*,I---|1l.K17/I,b.*%;#/#m)}/U/W+t%x'8)b)u's&n%+'Z(q(%,a&M",
"!=!$!u/329-6/]0)-w/~0='D#5#Q#o)F*9+7&v*[+j+&*9*:-_11/6)J!L#;#X!U$6*B)-'G&3)^':+_(%*D*W0c.S&M#k#?*U,Z+s+F*()q-(+n.~1z0d/2(?,S-N,6",
"!5!P#r(k*[&)&T%c&f')*W$K!G#.,x-:0H0L1E,<*^-x(&&v+A(U)X(q#$#Z$-!L$9,5,='k'u+=-*(<'W%r(N+R(9$F!p#2'R%U&$&f%b#9(6&;)0(+)a*D%;(T'(%;",
"!g#'#<#`$3!D!D$I%E%F%8#O!V%B&4''#l#m'<$m%i$#$-#I#$!=#O%V$o$Z%T%E#2#O#O#>#5#n#(#Q!G#]%n$E$D#m#5%I!u$|$6$s!c#_$6%:#q#O#y$[!f!N%!!N",
"#Z!o!G$1%{!b!G#L%D#E#m#?$m';#|#m#j#2#}$U%0%R%D#P!l#'#l$,$D%|#?#/#&#L#M#M!X!g!f!f!s$D&]%W$Z#]#O%4%H'&#{#m!4#+$#!o#Z#$#k$p!X!9!u!c",
"#<!U#$(#(=%]#D%[$$&N$S%[#a&/$4#p#j$l#V%l&*'F&N'~$x&d'b-O-@-P$w!Q#?#<#~&9&B'y%Y(k'x-00n)~%'#D#S$G%V#I%F%&#U&a%8%'$v%F$M'm$M#*$'$)",
"#i!G#|,X/3)s*H+b,r+C-9-u*:*O/{*Z!_!u(A,},c-y/|,c'm(O,A,_*^.4)]#b!P!u%>.r/?(7/}.c(S)2+z/z.E-c+Z*o%1#k'V+S,,*#(>'@-/+U+b0~0I,1-R&a",
"!n!H#k&L(;%^(E,h*N.~-D-#090B1^%o#'%C%;/g/m)<1/1v042u2s/`.~0^)b!Z!c$#*%,;*b*D0N0c*K,m-t,p.t'z)`&a$##I(8-b,u*?)]'(+u-t122`-4&-*r'Y",
"!X!G#5,o)H%L$e(-'2)^1K*r-]2$/Z$u#|#]$P.)(K+p*{0h.U1U2I0l)40$.7'@#m#=&u&&&B&K'~)l'm-P2e1-0?1d0[/=!N!l&g-b-;+m'G&9/4,N1-+;(V+Z.r(l",
"!`!G$o-p&+%,$d&J%7()-M-@&u.m+U%r!e#I&r0:,G1G-E-I.~2o-v1;0A/:*J&9#L#1%;'@&y'}-t+H-V*>,3*X)-.C+S)X$m!|'F1T-:'i'}'f.2,T0f**'-)S.I&S",
"!G!3#?(707)W+m)|(S,o0N(D,;-4*$&d!_#;.|2f2S2C2>(S&|,!(^'^)a*H'I#d!D#1'W(`&g'2.v+;++(%-D-N.G,x1,,+#A#k-`1I+U.F,[/),*(P.&(y)_*?/c&j",
"#'!!$W+k1#(='/)?'|+5.,(:)@%]'>+_#0!]'=0F,v*2/!.9.>,h+l,o'.%c+u&V!e#Z(1/N*;&d,71F+K/~02-u(h,k15'@#0##/).b/B.E-t/}1~-o/Z0|*#,P,;%u",
"!C!/#B,>/X(:%))''h&a1z1[1J*H+{.d!b!b)o0J0V,F+3+^/H-*'F*D)H$f&F%=!-!c-Q2_,s-u,l+_+G-y,@(R&K)-+H)M#Z$V(S2N.()W,E)3+}.v1')H'y*=)^&Q",
"!8!G$r+(2h0h-6-108.v-O2M.W-50^,<!c!^'`/H-u)a/T1'2F1',c/-,2*p&m#d!3#Z)F2y,r0a2g1s.K1-1m0y,o0'1e0_!i#L0h2q-!/'.v)H(A)H0?,o,0.T.l)M",
"!G!@%W(m*9&:'e)*/(.3-D+9+D/k2U*n#O!l's,?,g)d,F2z1!1'-u1)1w/$,T$:!3#$+o1t/d1P0U0i*,*,,t,.)n0*0N*H!b#L&J0G,),~.5'I)2*)*q-n1J1F+a&+",
"!@!H$D))0K&e(Y)T*!+k-:.B'n(8(F)F!D#i+4.M13-E)D2_/:..(a)O+H'`/f&.!D#Z&y1R0E--1=0U%^**-4-h,u.{1%(j#k#<'-/@)h-`,:&Q'I.j+Z-M*H*J+b$:",
"!N!+%W,n28)C0k.u/A,^2?2J.?,V.Z*Q!l!l'6+b+o,b,{->1L.`.?)a1u2c22&g!:$~-?2}/1(u'J1r%9%.*K-5,(2;2X/v!_#;-Y1Y/U2@1Z/L0<241g002|.o*z$v",
"!H!8%Y&['y%k'@&K+*/=-0-=&e+{(?%c!p!<(p.~**'-%x(<-u/0,&(%0m.~/[&X!P!p*`2E.N0R1M0f+e(}-y)a+N,H+,''!o!A%J(M){*8(Q(o*#*.+Y-$'i)9&#$#",
"!G!b'x&N(O&((T)@*T,Q-@+z+{'i&P,u!o#$-;1;/T'M&1,A)&'b'c*1-.*R(|%>!2#[%*&(#t#S*H)I%u%O&y&+$w$>).'S!G#h%P),&t&v'e&a&>*D+G)W).)e'n$a",
"#'!F%S%}#m!v$c%E#o$##'!f!t!f#?%3%W#O#l!d!U!l!=#;#=!p!o!V!X!n#$#?!c!g!o$m#^!_%T#B!N#$#B!G!0!t$H#Z!p!O#y#C#?$3#Q!t!G!o#l#2!X!N!@!G",
"!u!U!p$Z%!#'!c$1!I!f#]#m#5!g!;$U!n!`!S!U!+!S!3!l!3#?!G!2!8!k!U!U!)!D!_#m!U!&#$#}!U#Z!N!U!9#5#2#5!N#M#C#}#|!X!t!f#'!N##!X#O!X!L!G",
"'S$`$t&b''#7$9$a!J#$#X!c!G!X!E$9#b'E$&$;!x%/$('-)d.P(3%e!B#a)2(L'$([(w*G'I$d+v+G&~'q$S!@!N$e&U&I#a$K'g$O$O$9%8&y$f%J#L#z&@$M#u(7",
"-Y*s'}+;*7*>,11<)a!o#I!7!L#$#k%P1e2X.|0?+b,@,P*s*5+M)n$;!S!='_,G,H2$1W1<)_*j,S/,1r+6%P!=!N%,)1*G(E,Q0l*H,U2d.-,v0#'R#L!S,p)L-U,u",
")%,q.5.X-;'='@)+%u!V#&!v#$!N!@+^,p0h0N1c,S*e,&,:,e1R/I(^!U!=&Q1O2W1j1d2}/B0V+v.*,S.J&Q!8!G&{1h.>,I-R/+(:+U,a*<(4&b#~#;#I%)*Z,A(p",
"%J%M&q)%&p(90T,p'8!c!X!G#?!N#<&h(W,+1r2n/;1A2a2=-K/p.|'`!i!U%)/#2/.;/w2_)K/M2#232i1g/I!P!8)2.P+_+F2:192<2}1t-#)//{%=#I#L&*.v+U*W",
"*Y,o-^/V*],o+Y,p$w#/#?!S!9#'!u%w0,050-2'(*0Q2d-y+H1r0.'!!3!g(J+b0u--)y2/2Q,y1M0W1D14+_!N!/)Z)[*q.]2&2^0Y1f1O-&.1,d($#I!o)l/}+y&B",
",q+_'g*l'd%['<)g)]#X#I#/!O!l!X%u)9'o*'2r,9,F2Y1d,H2$/6'-!P!))H2Z2v1)0E2}0{27+b)+-)1&(o!D!N)M1V-_2#1R.[1G-?'6*T0o+-*W#1!l)D/o*)*H",
"),+)(S)&*n+'.w1d&&!/#>!=#g#4!N$L)D&d,f0k&g%M%$&J'},A,u(,#(!X)l'M-J*/*x.|($,T*x'H'g.E'q!f!G*`00(t1b0w,y1r.:)n-729+H,H#.!N&N+/).(@",
"$y&Q&`%Y%o'-&c0L'@!G!c!*!S$1!f$i*i.71A,K%w)L-z/!0./!/&+g#5!?#F)5,(),1;1K,|2b2:.k/72l1^!N!u-~212Y2D2O0(2D(B.+2-2Y2M(:$@#X%X&d'Q(S",
")4,v.K/r.A0p/I0}(Z!o!X!2!N!D#$#8(W-O/<&F#r&$&s#b(>-h(0(b!_!@$=-H.<(A.=/k,C,b*x'q*>.^(!!8!S(#.(+d2;0O/H/F('(!1o2J1>'l$V!o%8,A/32C",
"/n(w'=,o,o-@/N*A&@!a#;!U!w!p!8!Z+Q/d*h,J%X-,/%%m&~.v+2%P#/!e%@(0/!'n(&+O-h.p/e(S,q0r'r!D!c(a0K-u/I-g1$2X,#-j,S2A10)L#]!f)-0U/C,H",
"(R%,&d-<'e)%&<)-&a#Z!o!L!N#C#2!y%`&?&0*=+/)$1d-K*>1i*L)a!G#q-*,H-k/.-F+y-F-,1_2f/8/D*f#^!**u.|.})v0<1C/E+L/#.01Q0S(]#=!l$&)e'<'+",
"(A)+-]/>-6.S'h1}-y%2#Z!7#'!G#1!h.Q**,A-d-m(t0}0?/G/!.v+_!l!l+w$),&/+.T/e.J-*(Y.R+_&B'q#y!I+z2p1x0N0g1F*C(u*0,B1|*6$&#<#'%r*t)N(}",
"'p)u$v%N+?-5%u'^',#L!D!L!N#C#/#D$w%M$;':$M'`,!&u*u*v)],T!I!H%)#e%P&k%u&e%b+_,T&h/6*L&Q#?!@+b,;,A.</H,z)H'-&j&/&}%?%*#L!P$Q%.%)&R",
"!N!o!c#M#k%E!u!u$W%##7#$#?#C#L#?$E$p#;$~#k#i#O%k#]#$#'%2!o!8!.!{!8!g#B#I!c#3#]!t#x$/$/#K!H!p!p!c!f$m%j#?!c#[$A#O!X#B!V!M#>#7!@!P",
"!8!S#A#1#I$Y!t!c$X#k$}!p!G!~#B!|#J#i$k$~$2!o#;#M#k#(#I#i#|!N!@!+#/#k#?!N!n$/#O!D!b#Z#M#2!U#L!D!7#f#L#Z#$!X$.#L#%#>#Z#<$A#I!i!f!H",
"#,#6#^$E#R$]#&%5%(!o#W#U$=$<$O'q$u$t%q([&k'q&l-F%-&<$V$J!|!=!.!1!+!q!c!f!G!H#?!3!:!o#]!o#)&,(?%x':,c*p)r+D&u.O-6&B#I#Z&6$B$&$8$$",
"&N'F'_*c&((p(8&($h#k#O%M&m%t(D),+i*<)=1x(,$7'f/H1@/-#/#i*k)w(/'5*q([,:(s(W)-+]#F!`!S#$!X%P/P1|*],R-T,:,q.z*[-8*>$>!t!m%v&S'G'O,r",
"($&'(/$x'+0s2%,L&o#<#%%@(^,K)]+t1H*i0q2+03',&d'i+b()#/$.%a(X(x'5+H,o-M1s-c/^/N'W!X!K$D#?%P,v-{-G)M(+(b*-+G(C+D*q.P!i!X*M/[1s*]*^",
"%)&g$w%['^'q)B'%#-!=!}$S&i':%M$4%p&w'3+~$^%Y%9'1'M+P!S#m25-V+h1(2V2k2.2P'I0z2r$)!B!N$,#$&g,G1X0d0L/5-8,b1%/9.<.L${!;!3'7*M(%'@%_",
"&!$d'9&K(b-h,o.q&d!=#<(e):,f%O'+'y&R'i+H+%&7'h.Y+!&2!_#Z,G)P%a'l)c(A'F,I-A-y.K#:!w#=#>#<&$&S'#'i,]&n&y'q'4,'-L(E$S!t!N&y*v,v*&)[",
"'W&$&Q&Q%s2H-})z'P!N#2$Q%z)a&Y*')!.Z0P1n,y%P','Z&h$$!N#k*)2-0h0+0+(W(%,v&v0,2W$=!X$Y!|#>/:-2/H1B2j2E,B(w+n*u/R)3(2#A!u*4*a'^'q,O",
"-O+H)t&{$;(~.?(*%y#(!t$R$M(^&m)d.I-C*d,o--'L,F1#*P+I#$#L0Q2D,D0+1{1:0h2[-y.~2}'2!'#X#i#<'q-/1F-@/2/G)]&>,T)w(*(J#T!f!D&E-S*b1@,#",
".I/j*c*s&&/:,h)y&G!N#=(f&D(-,C.n2Y2t2T/_1k+q/b19+b&{#L$@*d1%(A/!0>+<-y,G+/)t.v%%!W#I$-!c.H1t0O/m171d/;.?.>-*,%'v#d!X!U'_/B+[+x+!",
"'*-t-y(&%;*3)e&W%Q#<!W#s%A-*(d%z,F.w*w']%c)1)`)[&+%w#l$3&{-i,I-+/#+b*K0P1d0=0O**!9#v#k#I(?-_-),B,v2$2>.L04212#+G$d#$#<'Z,o,y(W*.",
"*E12/7,/(D,F(I*|&/!L!e$O%g)R(](w/b2{1P//2K._0D.>)a%x$~#=)f06-l*1,G,G,r.E1s-,+6%a!L#Y#L!v(b-B.<*u.Q1o2@0h,</++L,S$d!U!S'@+0+G.)1@",
"*f,r/I*L-)-*(t'I&y!N!c$g'N/J1y041y/I-O)H+v(%+'+T&&%<#L#w+K/Q--+c-(-y'2,r/_0`1:&Y!G!S#m#N,C0i/_-u0C1S2<1{0P-3-X,!&!!_!='[+|+o/N,|",
"%y'2)#*f(b+L&,'n%P#/!N&R&Z&o'M)n)N+3&v'J%>%v%_).&A%;$/#y%>0b*F/O-R-R,#+V*,170X$$!1![#Q#|*0182]1k2*1J0,/Y+f/l's.T%J$,!L&d/S'n),+`",
"'F)G&i&h&U+`%P&i$d!o!l(],x'I)y+b+D)D(t*z'7*I2.12-5)5%X#],G1L26+u+.*u'^)n)e.o/c$t!.!c!@!+*z-u*I(b,G+u(]*_(-*{-*1i&v##!N$*-e)4(H&C",
"((+D(<',+G'I%d&Q&<!D!G'f+N'o-5,F0z-*&y,.+2/!%>&+',%8$.#L%u/k0p,9.e.}.i0j(!/+/H$P!H!`#w!I(+01,R-@/[2_0U/C/a1'1*0'&d#]!u(J-f+>.*'U",
"'{'W'[&x&O,D'2%Z%;!?!N$e'3&(&((^)t(p'1&v(/*H$b'N'-%u#m$6)6.K,p&v)E*@*H'C&e+3)K%;!3!_#^!4%N*L)t+I)H/:16)u(,)u*v-A(!#B!g&W'K(z+X%6"
};
