/* XPM */
static char *stone_09[] = {
/* columns rows colors chars-per-pixel */
"64 64 985 2",
/* colors */
"!! c #2F3032",
"!# c #333435",
"!$ c #333534",
"!% c #333839",
"!& c #33383B",
"!' c #343435",
"!( c #343535",
"!) c #343539",
"!* c #34383A",
"!+ c #34383B",
"!, c #34393A",
"!- c #34393E",
"!. c #343A3B",
"!/ c #353535",
"!0 c #353635",
"!1 c #353636",
"!2 c #353638",
"!3 c #353639",
"!4 c #353838",
"!5 c #353839",
"!6 c #35383A",
"!7 c #353939",
"!8 c #35393A",
"!9 c #353A3B",
"!: c #353A3D",
"!; c #353B3E",
"!< c #363839",
"!= c #36383A",
"!> c #36393D",
"!? c #363A3B",
"!@ c #363A3D",
"!A c #363B3B",
"!B c #363B3D",
"!C c #363B3E",
"!D c #363C3E",
"!E c #363C3F",
"!F c #363D3D",
"!G c #383639",
"!H c #383838",
"!I c #383839",
"!J c #383939",
"!K c #38393A",
"!L c #383A3A",
"!M c #383A3B",
"!N c #383A3D",
"!O c #383A3E",
"!P c #383B39",
"!Q c #383B3D",
"!R c #383B3E",
"!S c #383B3F",
"!T c #383C40",
"!U c #383D3E",
"!V c #383D3F",
"!W c #383E3E",
"!X c #383E40",
"!Y c #383F3F",
"!Z c #383F41",
"![ c #393939",
"!] c #393A3A",
"!^ c #393A3B",
"!_ c #393A3D",
"!` c #393A3E",
"!a c #393B3A",
"!b c #393B3B",
"!c c #393B3D",
"!d c #393B3E",
"!e c #393B3F",
"!f c #393C3F",
"!g c #393C40",
"!h c #393D3C",
"!i c #393D3E",
"!j c #393E3E",
"!k c #393E3F",
"!l c #393E40",
"!m c #393E41",
"!n c #393F3C",
"!o c #393F40",
"!p c #393F41",
"!q c #394041",
"!r c #394043",
"!s c #3A3836",
"!t c #3A3A38",
"!u c #3A3A3D",
"!v c #3A3A3E",
"!w c #3A3B3B",
"!x c #3A3B3D",
"!y c #3A3B3E",
"!z c #3A3D3D",
"!{ c #3A3D3E",
"!| c #3A3D3F",
"!} c #3A3D40",
"!~ c #3A3E3E",
"#! c #3A3E3F",
"## c #3A3E40",
"#$ c #3A3E41",
"#% c #3A3F3E",
"#& c #3A3F3F",
"#' c #3A3F40",
"#( c #3A3F41",
"#) c #3A3F43",
"#* c #3A4040",
"#+ c #3A4041",
"#, c #3A4043",
"#- c #3A4044",
"#. c #3A4045",
"#/ c #3A4141",
"#0 c #3A4144",
"#1 c #3A4145",
"#2 c #3B393A",
"#3 c #3B3A3A",
"#4 c #3B3A3B",
"#5 c #3B3A3D",
"#6 c #3B3B3A",
"#7 c #3B3B3B",
"#8 c #3B3B3E",
"#9 c #3B3B40",
"#: c #3B3C3E",
"#; c #3B3E3C",
"#< c #3B3E3E",
"#= c #3B3E3F",
"#> c #3B3E40",
"#? c #3B3F3E",
"#@ c #3B3F3F",
"#A c #3B3F40",
"#B c #3B3F41",
"#C c #3B3F43",
"#D c #3B3F44",
"#E c #3B4040",
"#F c #3B4041",
"#G c #3B4043",
"#H c #3B4044",
"#I c #3B4045",
"#J c #3B4141",
"#K c #3B4143",
"#L c #3B4144",
"#M c #3B4145",
"#N c #3B4344",
"#O c #3B4345",
"#P c #3B4445",
"#Q c #3C3B3E",
"#R c #3C3B3F",
"#S c #3C3E3B",
"#T c #3C3F43",
"#U c #3C4043",
"#V c #3C4143",
"#W c #3C4343",
"#X c #3D3D3E",
"#Y c #3D3D40",
"#Z c #3D3E3D",
"#[ c #3D3E3E",
"#] c #3D3E3F",
"#^ c #3D3E40",
"#_ c #3D3E41",
"#` c #3D3F3D",
"#a c #3D3F3E",
"#b c #3D3F3F",
"#c c #3D3F40",
"#d c #3D3F41",
"#e c #3D403E",
"#f c #3D403F",
"#g c #3D4040",
"#h c #3D4041",
"#i c #3D4044",
"#j c #3D4140",
"#k c #3D4141",
"#l c #3D4144",
"#m c #3D4145",
"#n c #3D4344",
"#o c #3D4345",
"#p c #3D4346",
"#q c #3D4445",
"#r c #3D4446",
"#s c #3D4547",
"#t c #3D4646",
"#u c #3E3B3A",
"#v c #3E3B3B",
"#w c #3E3E3B",
"#x c #3E3E3D",
"#y c #3E3E3E",
"#z c #3E3E3F",
"#{ c #3E3E40",
"#| c #3E3F3D",
"#} c #3E3F3E",
"#~ c #3E3F40",
"$! c #3E3F41",
"$# c #3E403F",
"$$ c #3E4040",
"$% c #3E4041",
"$& c #3E4043",
"$' c #3E4044",
"$( c #3E4140",
"$) c #3E4141",
"$* c #3E4143",
"$+ c #3E4144",
"$, c #3E4145",
"$- c #3E4340",
"$. c #3E4341",
"$/ c #3E4343",
"$0 c #3E4344",
"$1 c #3E4345",
"$2 c #3E4346",
"$3 c #3E4444",
"$4 c #3E4445",
"$5 c #3E4446",
"$6 c #3E4447",
"$7 c #3E4546",
"$8 c #3E4547",
"$9 c #3E4549",
"$: c #3E4646",
"$; c #3E4649",
"$< c #3F3E3B",
"$= c #3F3E3E",
"$> c #3F3E3F",
"$? c #3F3F3B",
"$@ c #3F3F3E",
"$A c #3F3F3F",
"$B c #3F3F40",
"$C c #3F3F41",
"$D c #3F3F43",
"$E c #3F403F",
"$F c #3F4040",
"$G c #3F4041",
"$H c #3F4043",
"$I c #3F4044",
"$J c #3F4140",
"$K c #3F4141",
"$L c #3F4143",
"$M c #3F4144",
"$N c #3F4145",
"$O c #3F4340",
"$P c #3F4341",
"$Q c #3F4343",
"$R c #3F4344",
"$S c #3F4345",
"$T c #3F4346",
"$U c #3F4443",
"$V c #3F4444",
"$W c #3F4445",
"$X c #3F4446",
"$Y c #3F4447",
"$Z c #3F4449",
"$[ c #3F4544",
"$] c #3F4545",
"$^ c #3F4546",
"$_ c #3F4547",
"$` c #3F4549",
"$a c #3F454A",
"$b c #3F454B",
"$c c #3F4646",
"$d c #3F4647",
"$e c #3F4649",
"$f c #3F464A",
"$g c #3F4747",
"$h c #3F474A",
"$i c #3F474B",
"$j c #40403E",
"$k c #40403F",
"$l c #404040",
"$m c #404041",
"$n c #404043",
"$o c #40413F",
"$p c #404141",
"$q c #404143",
"$r c #404144",
"$s c #404340",
"$t c #404341",
"$u c #404343",
"$v c #404344",
"$w c #404345",
"$x c #404443",
"$y c #404444",
"$z c #404445",
"${ c #404446",
"$| c #404447",
"$} c #404449",
"$~ c #404543",
"%! c #404544",
"%# c #404545",
"%$ c #404546",
"%% c #404547",
"%& c #404549",
"%' c #40454A",
"%( c #404644",
"%) c #404645",
"%* c #404646",
"%+ c #404647",
"%, c #404649",
"%- c #40464A",
"%. c #40464B",
"%/ c #404747",
"%0 c #404749",
"%1 c #40474A",
"%2 c #40474B",
"%3 c #40494B",
"%4 c #413E3F",
"%5 c #41403D",
"%6 c #41403E",
"%7 c #414040",
"%8 c #414041",
"%9 c #414143",
"%: c #414144",
"%; c #414145",
"%< c #414146",
"%= c #414341",
"%> c #414343",
"%? c #414344",
"%@ c #414345",
"%A c #414346",
"%B c #414347",
"%C c #414441",
"%D c #414443",
"%E c #414444",
"%F c #414445",
"%G c #414446",
"%H c #414447",
"%I c #414449",
"%J c #414543",
"%K c #414544",
"%L c #414545",
"%M c #414546",
"%N c #414547",
"%O c #414549",
"%P c #41454A",
"%Q c #414645",
"%R c #414646",
"%S c #414647",
"%T c #414649",
"%U c #41464A",
"%V c #41464C",
"%W c #414746",
"%X c #414747",
"%Y c #414749",
"%Z c #41474A",
"%[ c #41474B",
"%] c #414947",
"%^ c #414949",
"%_ c #41494A",
"%` c #41494B",
"%a c #41494C",
"%b c #414A4B",
"%c c #414A4C",
"%d c #434143",
"%e c #434340",
"%f c #434341",
"%g c #434343",
"%h c #434344",
"%i c #434443",
"%j c #434445",
"%k c #434446",
"%l c #434544",
"%m c #434545",
"%n c #434546",
"%o c #434547",
"%p c #434549",
"%q c #434645",
"%r c #434646",
"%s c #434647",
"%t c #434649",
"%u c #43464A",
"%v c #43464B",
"%w c #434746",
"%x c #434747",
"%y c #434749",
"%z c #43474A",
"%{ c #43474B",
"%| c #43474C",
"%} c #434947",
"%~ c #434949",
"&! c #43494A",
"&# c #43494B",
"&$ c #43494C",
"&% c #43494D",
"&& c #434A4A",
"&' c #434A4B",
"&( c #434A4C",
"&) c #434A4D",
"&* c #434B4B",
"&+ c #434B4C",
"&, c #434B4D",
"&- c #444140",
"&. c #444341",
"&/ c #444344",
"&0 c #44443F",
"&1 c #444441",
"&2 c #444443",
"&3 c #444444",
"&4 c #444445",
"&5 c #444541",
"&6 c #444544",
"&7 c #444545",
"&8 c #444546",
"&9 c #444547",
"&: c #444549",
"&; c #444644",
"&< c #444645",
"&= c #444646",
"&> c #444647",
"&? c #444649",
"&@ c #44464A",
"&A c #44464B",
"&B c #444745",
"&C c #444746",
"&D c #444747",
"&E c #444749",
"&F c #44474A",
"&G c #44474B",
"&H c #444947",
"&I c #444949",
"&J c #44494A",
"&K c #44494B",
"&L c #44494C",
"&M c #444A49",
"&N c #444A4A",
"&O c #444A4B",
"&P c #444A4C",
"&Q c #444A4D",
"&R c #444B4B",
"&S c #444B4C",
"&T c #444B4D",
"&U c #444B4F",
"&V c #444C4F",
"&W c #444C51",
"&X c #444D51",
"&Y c #454144",
"&Z c #454441",
"&[ c #454447",
"&] c #454543",
"&^ c #454545",
"&_ c #454546",
"&` c #454547",
"&a c #454549",
"&b c #454643",
"&c c #454645",
"&d c #454646",
"&e c #454647",
"&f c #454649",
"&g c #454745",
"&h c #454746",
"&i c #454747",
"&j c #454749",
"&k c #45474A",
"&l c #45474B",
"&m c #454945",
"&n c #454946",
"&o c #454947",
"&p c #454949",
"&q c #45494A",
"&r c #45494B",
"&s c #45494C",
"&t c #454A47",
"&u c #454A49",
"&v c #454A4A",
"&w c #454A4B",
"&x c #454A4C",
"&y c #454A4D",
"&z c #454A4F",
"&{ c #454B4A",
"&| c #454B4B",
"&} c #454B4C",
"&~ c #454B4D",
"'! c #454B4F",
"'# c #454B50",
"'$ c #454C4B",
"'% c #454C4D",
"'& c #454C4F",
"'' c #454C50",
"'( c #454D50",
"') c #464343",
"'* c #464444",
"'+ c #464544",
"', c #464545",
"'- c #464547",
"'. c #464645",
"'/ c #464646",
"'0 c #464744",
"'1 c #464747",
"'2 c #464749",
"'3 c #464947",
"'4 c #464949",
"'5 c #46494A",
"'6 c #46494B",
"'7 c #46494C",
"'8 c #464A47",
"'9 c #464A49",
"': c #464A4A",
"'; c #464A4B",
"'< c #464A4C",
"'= c #464A4D",
"'> c #464B49",
"'? c #464B4A",
"'@ c #464B4B",
"'A c #464B4C",
"'B c #464B4D",
"'C c #464B4F",
"'D c #464C4A",
"'E c #464C4B",
"'F c #464C4C",
"'G c #464C4D",
"'H c #464C4F",
"'I c #464C50",
"'J c #464C52",
"'K c #464D4D",
"'L c #464D4F",
"'M c #464D50",
"'N c #464D51",
"'O c #464F50",
"'P c #464F51",
"'Q c #465052",
"'R c #465053",
"'S c #474546",
"'T c #474645",
"'U c #474646",
"'V c #474647",
"'W c #474747",
"'X c #474947",
"'Y c #474949",
"'Z c #47494A",
"'[ c #47494B",
"'] c #474A47",
"'^ c #474A49",
"'_ c #474A4A",
"'` c #474A4B",
"'a c #474A4C",
"'b c #474A4D",
"'c c #474B49",
"'d c #474B4A",
"'e c #474B4B",
"'f c #474B4C",
"'g c #474B4D",
"'h c #474B4F",
"'i c #474C4B",
"'j c #474C4C",
"'k c #474C4D",
"'l c #474C4F",
"'m c #474C50",
"'n c #474C51",
"'o c #474D4C",
"'p c #474D4D",
"'q c #474D4F",
"'r c #474D50",
"'s c #474D51",
"'t c #474D52",
"'u c #474F4F",
"'v c #474F50",
"'w c #474F51",
"'x c #474F52",
"'y c #474F53",
"'z c #475050",
"'{ c #475052",
"'| c #475053",
"'} c #494644",
"'~ c #494747",
"(! c #494949",
"(# c #49494A",
"($ c #494A4A",
"(% c #494A4B",
"(& c #494A4D",
"(' c #494B49",
"(( c #494B4B",
"() c #494B4C",
"(* c #494B4D",
"(+ c #494B4F",
"(, c #494C4A",
"(- c #494C4B",
"(. c #494C4C",
"(/ c #494C4D",
"(0 c #494C4F",
"(1 c #494C50",
"(2 c #494D4A",
"(3 c #494D4B",
"(4 c #494D4C",
"(5 c #494D4D",
"(6 c #494D4F",
"(7 c #494D50",
"(8 c #494D51",
"(9 c #494D52",
"(: c #494F4D",
"(; c #494F4F",
"(< c #494F50",
"(= c #494F51",
"(> c #494F52",
"(? c #494F53",
"(@ c #49504F",
"(A c #495050",
"(B c #495051",
"(C c #495052",
"(D c #495053",
"(E c #495152",
"(F c #495153",
"(G c #495155",
"(H c #4A4949",
"(I c #4A4A46",
"(J c #4A4A4A",
"(K c #4A4A4B",
"(L c #4A4A4C",
"(M c #4A4B4A",
"(N c #4A4B4B",
"(O c #4A4B4C",
"(P c #4A4B4D",
"(Q c #4A4C4A",
"(R c #4A4C4B",
"(S c #4A4C4C",
"(T c #4A4C4D",
"(U c #4A4C4F",
"(V c #4A4C50",
"(W c #4A4D4A",
"(X c #4A4D4B",
"(Y c #4A4D4C",
"(Z c #4A4D4D",
"([ c #4A4D4F",
"(] c #4A4D50",
"(^ c #4A4D51",
"(_ c #4A4F4C",
"(` c #4A4F4D",
"(a c #4A4F4F",
"(b c #4A4F50",
"(c c #4A4F51",
"(d c #4A4F52",
"(e c #4A4F53",
"(f c #4A504D",
"(g c #4A504F",
"(h c #4A5050",
"(i c #4A5051",
"(j c #4A5052",
"(k c #4A5053",
"(l c #4A5150",
"(m c #4A5151",
"(n c #4A5152",
"(o c #4A5153",
"(p c #4A5155",
"(q c #4A5255",
"(r c #4A5256",
"(s c #4A5357",
"(t c #4B4B49",
"(u c #4B4B4B",
"(v c #4B4C4B",
"(w c #4B4C4C",
"(x c #4B4C4D",
"(y c #4B4C4F",
"(z c #4B4C50",
"({ c #4B4D4A",
"(| c #4B4D4B",
"(} c #4B4D4D",
"(~ c #4B4D4F",
")! c #4B4D50",
")# c #4B4F4D",
")$ c #4B4F4F",
")% c #4B4F50",
")& c #4B4F51",
")' c #4B4F52",
")( c #4B504B",
")) c #4B504D",
")* c #4B504F",
")+ c #4B5050",
"), c #4B5051",
")- c #4B5052",
"). c #4B5053",
")/ c #4B5055",
")0 c #4B5151",
")1 c #4B5152",
")2 c #4B5153",
")3 c #4B5155",
")4 c #4B5156",
")5 c #4B5250",
")6 c #4B5253",
")7 c #4B5255",
")8 c #4B5256",
")9 c #4B5257",
"): c #4B5258",
"); c #4B5355",
")< c #4B5356",
")= c #4B5357",
")> c #4B5556",
")? c #4C4A49",
")@ c #4C4C4D",
")A c #4C4C4F",
")B c #4C4D4A",
")C c #4C4D4C",
")D c #4C4D4D",
")E c #4C4D4F",
")F c #4C4D50",
")G c #4C4F4F",
")H c #4C4F50",
")I c #4C4F51",
")J c #4C4F52",
")K c #4C504D",
")L c #4C504F",
")M c #4C5050",
")N c #4C5051",
")O c #4C5052",
")P c #4C5053",
")Q c #4C514D",
")R c #4C5150",
")S c #4C5151",
")T c #4C5152",
")U c #4C5153",
")V c #4C5155",
")W c #4C5252",
")X c #4C5253",
")Y c #4C5255",
")Z c #4C5256",
")[ c #4C5257",
")] c #4C5353",
")^ c #4C5355",
")_ c #4C5356",
")` c #4C5357",
")a c #4C5556",
")b c #4C5558",
")c c #4D4C4C",
")d c #4D4D4D",
")e c #4D4D4F",
")f c #4D4D51",
")g c #4D4F4D",
")h c #4D4F4F",
")i c #4D4F50",
")j c #4D4F51",
")k c #4D4F52",
")l c #4D504C",
")m c #4D504D",
")n c #4D504F",
")o c #4D5050",
")p c #4D5051",
")q c #4D5052",
")r c #4D5053",
")s c #4D5055",
")t c #4D514F",
")u c #4D5150",
")v c #4D5151",
")w c #4D5152",
")x c #4D5153",
")y c #4D5155",
")z c #4D5156",
"){ c #4D5250",
")| c #4D5251",
")} c #4D5252",
")~ c #4D5253",
"*! c #4D5255",
"*# c #4D5256",
"*$ c #4D5351",
"*% c #4D5352",
"*& c #4D5353",
"*' c #4D5355",
"*( c #4D5356",
"*) c #4D5357",
"** c #4D5358",
"*+ c #4D535A",
"*, c #4D5555",
"*- c #4D5556",
"*. c #4D5557",
"*/ c #4D5558",
"*0 c #4D555A",
"*1 c #4D5655",
"*2 c #4D565A",
"*3 c #4F4F4F",
"*4 c #4F504D",
"*5 c #4F5050",
"*6 c #4F5051",
"*7 c #4F5052",
"*8 c #4F5053",
"*9 c #4F5151",
"*: c #4F5152",
"*; c #4F5153",
"*< c #4F5155",
"*= c #4F5250",
"*> c #4F5251",
"*? c #4F5252",
"*@ c #4F5253",
"*A c #4F5255",
"*B c #4F5256",
"*C c #4F5352",
"*D c #4F5353",
"*E c #4F5355",
"*F c #4F5356",
"*G c #4F5357",
"*H c #4F5555",
"*I c #4F5556",
"*J c #4F5557",
"*K c #4F5558",
"*L c #4F5656",
"*M c #4F5657",
"*N c #4F5658",
"*O c #4F565A",
"*P c #504F4C",
"*Q c #504F4F",
"*R c #50504F",
"*S c #50514F",
"*T c #505152",
"*U c #505250",
"*V c #505252",
"*W c #505253",
"*X c #505256",
"*Y c #505352",
"*Z c #505353",
"*[ c #505355",
"*] c #505356",
"*^ c #505357",
"*_ c #505553",
"*` c #505556",
"*a c #505557",
"*b c #505558",
"*c c #50555A",
"*d c #505655",
"*e c #505656",
"*f c #505657",
"*g c #505658",
"*h c #50565A",
"*i c #50565B",
"*j c #505756",
"*k c #505757",
"*l c #505758",
"*m c #50575A",
"*n c #50575B",
"*o c #50585A",
"*p c #50585B",
"*q c #50585C",
"*r c #515251",
"*s c #515252",
"*t c #515255",
"*u c #515352",
"*v c #515353",
"*w c #515355",
"*x c #515356",
"*y c #515552",
"*z c #515553",
"*{ c #515555",
"*| c #515556",
"*} c #515557",
"*~ c #515558",
"+! c #515655",
"+# c #515656",
"+$ c #515657",
"+% c #515658",
"+& c #51565A",
"+' c #51565B",
"+( c #515757",
"+) c #515758",
"+* c #51575A",
"++ c #515858",
"+, c #51585B",
"+- c #51585C",
"+. c #515B5B",
"+/ c #525151",
"+0 c #52524F",
"+1 c #525252",
"+2 c #525253",
"+3 c #525351",
"+4 c #525352",
"+5 c #525355",
"+6 c #525553",
"+7 c #525555",
"+8 c #525556",
"+9 c #525557",
"+: c #525558",
"+; c #525655",
"+< c #525656",
"+= c #525657",
"+> c #525658",
"+? c #52565A",
"+@ c #525756",
"+A c #525757",
"+B c #525758",
"+C c #52575A",
"+D c #52575B",
"+E c #52575C",
"+F c #525858",
"+G c #52585A",
"+H c #52585B",
"+I c #52585C",
"+J c #525A5B",
"+K c #525B5D",
"+L c #535553",
"+M c #535656",
"+N c #535658",
"+O c #535755",
"+P c #535756",
"+Q c #535757",
"+R c #535758",
"+S c #53575A",
"+T c #53575B",
"+U c #53575C",
"+V c #535855",
"+W c #535857",
"+X c #535858",
"+Y c #53585A",
"+Z c #53585B",
"+[ c #53585C",
"+] c #53585D",
"+^ c #535A5A",
"+_ c #535A5B",
"+` c #535A5C",
"+a c #535A5D",
"+b c #535B5C",
"+c c #535B5D",
"+d c #555756",
"+e c #555757",
"+f c #55575A",
"+g c #55575B",
"+h c #555858",
"+i c #55585A",
"+j c #55585B",
"+k c #55585C",
"+l c #555A5A",
"+m c #555A5B",
"+n c #555A5C",
"+o c #555A5D",
"+p c #555B5C",
"+q c #555B5D",
"+r c #555B61",
"+s c #555C5C",
"+t c #555C5D",
"+u c #555C60",
"+v c #555D5E",
"+w c #565652",
"+x c #565857",
"+y c #565858",
"+z c #56585A",
"+{ c #56585B",
"+| c #56585C",
"+} c #565A57",
"+~ c #565A5A",
",! c #565A5C",
",# c #565A5D",
",$ c #565A5E",
",% c #565B5A",
",& c #565B5C",
",' c #565B5E",
",( c #565B61",
",) c #565C5D",
",* c #565C5E",
",+ c #565C61",
",, c #565D5E",
",- c #57585B",
",. c #575A58",
",/ c #575A5C",
",0 c #575B5B",
",1 c #575B5C",
",2 c #575B5D",
",3 c #575C5C",
",4 c #575C5E",
",5 c #575C60",
",6 c #575C61",
",7 c #575D5D",
",8 c #575D60",
",9 c #576063",
",: c #585A57",
",; c #585C58",
",< c #585C5B",
",= c #585C5C",
",> c #585C5D",
",? c #585C5E",
",@ c #585D5D",
",A c #585D5E",
",B c #585D60",
",C c #585E60",
",D c #586163",
",E c #586164",
",F c #5A5B5B",
",G c #5A5D61",
",H c #5A5D62",
",I c #5A5E5C",
",J c #5A5E5E",
",K c #5A5E60",
",L c #5A5E61",
",M c #5A6064",
",N c #5A6162",
",O c #5B5D5C",
",P c #5B5D5E",
",Q c #5B5D61",
",R c #5B5E62",
",S c #5B6062",
",T c #5B625E",
",U c #5B6264",
",V c #5C5B5B",
",W c #5C6161",
",X c #5C6162",
",Y c #5D6364",
",Z c #5D6366",
",[ c #5E6161",
",] c #5E6163",
",^ c #5E6264",
",_ c #5E6366",
",` c #5E6466",
",a c #5E666A",
",b c #606364",
",c c #646A6E",
/* pixels */
"%%'N%Z$q#l$_(i%O''(k!V!*#.%1%[)3%U(8#=$p$=';&-$P!f!?%:)%%%'4&?$u)T&f'{%-#m%T%$&f#k$7(7+F'q#~&~%@)W)W'k'/#g$Q$X()*a%Z(=)O#k&O'r(B",
")3'r%M!S$X%_&#$'(p&x'l$d(7#L)U(=*[(w%S#[&t'_)v&!$&!f$g$3%,(5&A)O(n*g(a&%%S&$$e&f&y#_&P(5(>'G#f&7+%(h!A$*%r&l%$%Y(C*#*E&y(O$.)<(D",
"(B&E#W%M!r&s$8%$'@(o)=*!)V!k$X's'Y%j$r'G%$$C*'%_$1##%0%T$w'1,)&K$%*I$G!3#)%`'G%%#^$&$G(7(6%y&~%m%_!W!i!F##&#%*'m%T(D(k(!#}#q$^&K",
"&L+A'@(<%:%o$^$S%0%T'I)-%$#k$1(L(N'4+=(c)M#o!f%,$/%F$I&p%,,2%),#'A%T&~#A$z&G%[$0#h%T(c+p(c&r+B%.'I&r#8%R!q'f!,$X$X&T(6%Z'<'X$!%?",
"&P).(j'G*G)2#h##([$d%+#d!+!%#o'n(b)N(+)1%Y!N$|'@';%T&D'`+)*!*L(z+%)F'<'A%x%U&}%,'q'H&#*N'%&~$$$L'%%`$+(c%?&k)E#G!X%T*.*}'o',$f&}",
"%Z+_*')`'y&P'N#)$_$z#B#A#8'5%S!i$*)r'A#{'B%%)x()#V%+%W%R'/)}+!&k(B${#m%z+Y)-&}$W%Y*/)X)x&r$,#V#K&w)-*w&N'f*E)&%s#n#G*K)U&K*G&P)^",
"%`,Z(c%`&U$*%Z!j([%t$y&?'f)),W$A'p'f%y%y%~%x'f#K&|)O$O)**y,0,1(7'G#l!o*'*@*I&O)N(k,S+B)1$1%L%y'!%z)-'l&!([)n+f%r%E'8&j)&)%)^&x$|",
"*`(c(6&}#O%S%+%y)*&w&>$z(2)m*Z*v)+*@+9%+%`#V'I&('G$y%()n+/,!%x&x&S&x()&q'%'k*[(j+Y,H+C*-'r&|(`'s(6&L$z)%$2&v&r$$)h)C&j&q'<$X$4#-",
"(C(;'A&U$R$L*_$[#@&D$n#7#'&.%>'2&~)0(<!{#o$G$b(n!l(a'd'i)v*J&~%^$'$1#B(h(o$q*I*''H)2)3+*'k,!)I%y&y).#h![*g([&;&D)D(O(T(}&}(6%,#U",
"$W#]%1#O)~(T+g$z'.$)&|$(&H(w%Q&q&x*j(j&w$0$K'L+I#,#W$_(]*!*|+%)~$1#B#B'L%~'9+B&K*!,>)9,?*~%!&N(<&S'G)Y$((c(o*e)h)j)v)N)D'5(.#,(;",
"%S&x!r%T&T'r*K+#*u'j'@+y&<)o%l$L%_%Q%[)w#h##!g'G&E%M'g).*['r$1!X#O$4&9%*$]&O*H$>(K,8(8's(b$_&E#V'k!m#F#z(7*,*l)p*s(.'B([&q&T'h#!",
"&i%M!d!q'='@+1&6+y&g),#6&0']':%x#V#}&w'L$_&P#g'4&d)-)W&J+G(c#,$^!V&|#>%n#<'v+.'k#G'V).&I$z%F*F#K###Z$X#G'O&y&F*](x(w)H#[()'A%t$%",
"()&i$+!;&U&O,A'0'@)Q(Q%m&p$G#=$L%%$^+9)S([#l%x&T)Y+$)V*!'M(>!-#0$V$7'L'H$z)O+H''(k's'H%m#b%!'K%:%x$u!@&J(/!M'1%E(0()%Y&F%s()';&F",
"&i&i';$*#o%+*;$^)}+)&v'@$E$S%$$1)S)Z,&,:*))_*f)Z'J*G*^%,%v%0$8!&%N!C'&!U$r'{*0*(%%%y$z#?!9(5(~),$W%T#0$^$X#^%{%9'4)$)p#V#Q%E&D%t",
"%x$)%X%%&P)-'p(],6(1%T$n#g%L&Q(/,b)q,;*F&L*J(<)1&J(G)P(8%s%t$&$|&=(F%S#V!b&S)O'H#T!X$/$V!n)1*o!?!e&K'&#!!d$!(=#H)T*A(<%2#O%s)M(4",
"(`%j'1''+C,J)O&P+u*p*E'm%Z#-&,+K(P)q+W(h'r*;+m+&(<&P&P&N&'$z%t%o)X';%##?(,#^%t(o$Q#n#H&|!1%%$G!6(=$^&q%y!U&x&|$0*@(b$u&S*D#K)~)%",
"'j&w%j!5+j+N&D(6)M)U(7'B!X'H'q&l&e&k%M'5*1*C)1*e$[(0'h'G(5$V'u,]+$#z$-%Q#g!0%d!m%z'G)w&}%b)^(&%@#~)H&S$%#l&w&w&F'r'H!U&>*!(T(}#{",
"&R$d*'%X+S*|%$+t)$%Y$u#=#M!E'r&q$y)?'5&p(A*?*v)O*E*'),'f*D&I)2+D+=!J(.#E%r#@(%$X'<)w%n(C'x,9%N'<%@*n'A(M)$$W&v*?&K&D*E$r(g(g(t(/",
"%L#F'x*@*`(]&q*`)O)+*Z'h#K#A'<)V(5(<(A)$,7)n,.,/)3+D(c(C)a*H+q&8$z';!L%r#<&v$;&y(]$](5(r$N%N,E*)%N'(*r(a(N)N([,V,2$R(]*G)w(v)B#3",
");##'6)-+|)E)V&#)H),(6'l#K$+%$&F(1*r,7*E++)S+y*A(c%N%z'l#.(=+i%#&;#d'@$M%?%#'f&K#F$E(}*)'!%z&P).!z&v)D')*[)$+#*C+<(=*`&q)-)W*@%o",
"%c#]#R(d(j'@(]'g)~+R)U+*$G#q#!*E*;+7%8(Q)+)Y*Z*E$X)X%R'k'H),(.'W%L%S%J&D'B'B'w!:'%*D%D+F)Y)_,C*e&}&}&j,F(X%z*?+S+}'p&L%,(i'a+l'k",
"$0&P)1&z(o'r%y)R&E*C*[$|$^#F%-$+&Y(i)d$K%m+w,@'F%%$4#h%$(h&D'?*Y!j#&(0&}*-)N&w(j#B*9)5%x&>*D&D)O(7&r+M'g%N(6*[+j,P+B&Q#-'k&;(b*@",
"%%'I+[&W)>)U&q+F%p)T%&#;$Y*F%`%z$!*!*8&F$J&B%)))*9$*!=%S)1$q#4$0%O$4(c)X&R(d'm+C(b)v)L'A$y'i)U(i't%T'G+C'/+~,B)N,1+C'x&y)S'A%:%x",
"'q*`(c*#&~#~*'&`&S'T$Q#y'<'m%%(T!D&v*A)W)~#h$.)}&F#B(b'f'5$n)&$W)+([)T'q'l*J*J)N'C'F!~&y%k(8'B(5+S%&(i)U$R&.+y+8+:&}$*&K$y%E'5!z",
"(c$Y&P*J(B%Z(7&!)|$y+#&}#|*I&#%t%$$W#n'A'H'm)V+8%M),,8&F)T)})|)T+T(b+),$''*m'l'B)w*'''!m&$%{&P$^)7*I)-*?*z%h)w)w'K*J!e%Z&x&E#3#2",
"$2#G'q's#B+$'&&q)M&#':).(.'G'l$`%m)v$w(j(B)!+j*g%O+I'r(u'e&=';&r*#*I,8'H+{'`+I*J(p%Z(/&~%M&##V'<'B*},L**,T,=)N'p';(7&w&P(?*'&R$%",
"%U%y&F%$$1&P)U%s)G%k%}$j)W&J&O%S$e&7'B(z+$(>)Y+H!>'<&(&S'U)%%+#G&s#-!}'<&#'r)N(n*N%[&'&R$z$_#B!x%x*F+H)s,I(b&=$Q&O$_%+&E#(%-&V%%",
"%,%Y#>(~'@$2'A&i*]&I'>(M%~%r#h)T)h(a'5+o(V)T&F's$e(c%n$!'l)X'C%%)q$^%S&d$e&!*x)-&x(m(i'E$G#T%x$y(a&j$D%Y%~'k'F&((i'q'A!{$*#T%Z&9",
"!i#*&I%7*F&w#!(b)K(|'?*|)~%r%_$K'l*$)@)~#f'r$Q%H(i%Z(.&c+d)+'G&F)Y*`&J%f&!%[$|)z*''q)R'A#F%##W&H&t'3$;&U)''q*I*k&w+$)-)T%N#^(1&)",
"&$#^##(0*e!~%*'l&~'l(k'%(A$H'A)O&u(M':%e%n#5'=%Z(<,N%D%D'}+$*D)*(5'l&L$^${%U,`+m&r'g%s&=)O!k$P&B%m#V!X$9#F$1&a)<(/&}&x)y+q!y)T(o",
"%U#L%'$_,!&#$)'B)1&J'A$1+>%R&s*L(/#y(,%6'k#t)}%%$R'k(S$u$E)-&}(W(Q'C&~)1$^$^,,,1&v%Y#b)$(~'p$z'X(~(l%R#/$4#L*W&P$/)T'B'&%y(E*X&F",
",5%u#o+U%m(i(6$;(6&w(<'$%U$5'f*|+4*C#a#`#V$c*!%O$1#+$F!j$(#e)L)+)M&<$/*)$|&q+m*F%N$8%L%F'e$1(<(i*'&E$1!:#G!X(b&F%+'z'l'I'r%u(i%?",
"&w'B&r%z($)M&n#j*})q&q'A&s$^)+)&,%+2'Y&5(K$_$4!C'l!{#u!'#g':(S*|)u)(+R%+%z$X)1*a&P%S(R$L#k!Q)x+8';&w'<$6#1!:+('H&P)1%&)2*!(i)%#4",
"),'[&j(c)S(b&I&2)2,3%,#o&L'M)+&v(:(H*P*S*R$4&#!p&!&H(Y&='d'F+7(Y'd*F*a*I&K(B&}&T&!!#%r'E'v'q&#'H(c&O#O#L'L'F);*/*:)0&D(p${*(%u#^",
")H(%%h(^*(%S*,&f*:&p)W*I&P(j*h%o&4*%)H)]*A%d(='w'M%K&p#f!G+#)W&p$L'H),*w(=)O'f*-!=%u$]%Y%z*($4%m%R'G(9):*:)0+s'R+$),%s!E,)'*()&>",
"&j(#'-%x'F(h+(+F(u+O'A+Z,G'&(m%y';*''H&F*I%=(C'H&*&P)~)#,[+6(Z#A&=#@!L+0)T%7%~*a#l%Y'I%y$W)Y*5'F'H%g$1(8*E+*+J&v$A)+%n';((&_*<&F",
"(x*6(~'W&|)v%)'^+L':(T(=&F%-*K'B)0(A*f,O(($X%1&r%z)2)_'%(b(.'f!Q!Q$S$*(I#g(Z+R%Z%H$G$g(j&r'#&='B&v&%'b*M$_,**!%K%r+5)}(*+M(j'r&K",
")d*7*T)U)W(5&C&6(}(0(a()!b(=(0&x(,$|'i)x)<(6(8)^,U)-'Q(o&q)#'^&Z#f&o$k(($)'A)0(C(n%s$/%S!p%`'^*;$_&%+i,H&w*T'k'A$)%x%S${%B%y(7(y",
"*T)e%G)x)%%)%R%r%x!*&=!w%S#o'!&r#c)W&j&w'!%%).%_+*,(&!(j%3#3$z&3%>).,c'k&x&q+C)6)S'5%Y*)&#&T){%W(>*q)[,X*f%E'f(b(b,4+)&P$w&j%:$v",
")k+5*:()*a)2(6)&$5%X)&#f$$&''l'A&u*@)O*@'B'B)7*i,a,'*-&U&x%-&((c&O)O,K*('C!N&$'=&j*|(b%X(c'q,-%^&~'A,5(=$Q%n&q(N)2(;(U*x&i(a%t(S",
")H(K&k#i)-&z&U$T#)*f(n$$!K#^(1$z&I)S,Q+z,J)U'!'!,M*J(o#>+I$h#(!Q!7%$(d#B%[*/%a(1(i&&#g*{+j*I+P'r's+%+m'M#_'L*F%1%Y#U)N&k#>'&(c)i",
"(S()%X)7&E),'_#F$Q'v&N&I#A$S'<&x#&'@'y)3&|,%&i#p*O,_%|'r)2(j&|$5$1&J%&#U&J&P$4'q%x%~(5';(4,=&O'M'r%Z%/'B&k&>'s&Q(>'h+?%z#C&w*t*3",
"(J)d&J)'$Q$V)$$.%w$V(0&E(B)-&#%x+G&'&P*@$<'e'i%1)_)'*V$z%L!J$.&q%+),%G&r'w%1'B*b%s'c(;*A(a+;'B)~%U)Y*N&E&}#U#c$.'B'A(<%T$Y$m)%([",
"#v)n)E&F$y&>(['A&C$v&}'p*f+p+#*!*()2&>),(a&c(3*b'q,++J#U&}&#%q!/!z(i%L!a$&#q'&&}(6&3(5+^,K*H(='P%,%+'|!c&!%z'k'k(e(@(c+`),&#&P&d",
"'6(*)A,A(d&v)Y*Q&J%Z'A)6)2'e*[+B'I&I'L&R)N)+).,)%T#p%Z+D'C+A&o!$%q)C!z*E+&!}'M'H(i&p%l)~(<)i&w)X(h#O%,%1(6*`)T&?'=!q$w'<+b'M$&#X",
")6%;$'+a,?'r)%(=*:)T)1+W(.&>(S*n)Y)+'d+V'4)N)Z+]&J(V%*+?*!*`#E!!$(!j&C#v!d&##M%0'r)J)F&p!<!_$W%?*J(8'M&N'4(/$^*@'6$_&S%T&P!T$8#]",
"#D#d%s'^+&%N(7(.(a(a'H'l)+*&(h(j()&D&v&q*[)-*m'q)Y&!)%)I(j)]$W'l)1%l&n'D$x!s('!2$X&#)<*m&L+c$m'a's,K(d#G%=%l,@),'^#k)&*|(y!l#K)8",
"%<%N&P'p'f&>(<()(h)~)~),*>%y*I*`&I&p(a*E+H(j&K%[#J$W&K*&*E%O(?+Q&E(a'9#c&b$~%5$(!g${$r'a(7),$N!^#9+,'k%M$U&v':';(Z'i$+&Q!f!N(j%T",
"$N%m#W&I)f&|'G&&$c*H%z'A'm%[)v+=+x)+*@*|'M%T'q(]&S'm$6%T&}%N),&!'A*?)N#w)g&<)$%d%z$_'l(=!i#P!N#T&X$G!j$J%#$='5)M*u$#%S)2!U'!'x(k",
"&N!)#l&!)T&}&S&}%~%]$4()%+'&%Z'r+K&~%$),$5$f%y%Z%Z(p&~'l(C*)*a%M&r&E$v$]$o)G%L%y##'H$a#R$X'l&(%z$h%,#&!(%g#S(-'.*z,<*@#0!.$6*('L",
"$T#G%X%+&!&O&S&}&>%+&p'l$1)-&#%+#s$9&|&N'x(7$y$*&}&O(F&#*K+G(='k%1'?#[!P%>(/(7(j#G)V&E&}%y!B!i&J&T'A'e$@$s*U*Z'+(_'j'`!C#'!Y&P#M",
"!O%[%G$7&+%R(b'p'^'S(c(7*J'f!B$S$z&!%_$d$8%X(|$L%G'@&i&P,B)~'!#i&L&I%,'r&O%])1%q&J%O&#'A$/%L#F!M%c'4&]$k$#%D':)L$x%K#k$1$1'm'm%Z",
"!l%`$w%0&K$3&!%%$$$z+$)})U'f&>#(%Y#'*h&T&|'e%s$B&<$t$P*d,J'F$S&w(i&#,4(((S&h)Y*F(](N%o+X*_%C%n*&%{#:&#&/!t*{&c'~#n&O%#!^&Q)V%*!4",
"!k%m(0!o$S%{(=(=#7%L*;*?()%r%L*W)X)&,3(5&~*|(:'H'e#h)N,P(a&v%R(N&}%z*a(/%Y(6(6)3%E'C&r)N'_)l'e)X(=$8'f)c&N&M'r!I#V'Z%F)1%[(7)-!p",
"%N&?'r&F'r&''G(B(}'K'f&I$E'F%Q*L)x),)~)2([&w+@)T%Y#b'f'f*Y)t)K)u$W(7&~)T'k%E&y$u&i),&>)w(/(S)^*h,D%V&T&{&H(6'^$Q&!(/$R!p!:'&%+*(",
"&['7%%#n$S#n'G)}$V&i$@$K$K$?'.%E&F&H(<#c&F(c+?&q(y%S)-&O)N#k*E+e&~)X(>)v%z&i&I%T&}%~)x*B)$+B,?,^)b(r*L&1#x&q*4$F'G+:#n!Q$^&w)U&)",
"$^&q'm$}(d$8&R*F&J&!(<';&m)|*>({$l%l&O&'%F%(+j'f)8*.!i%X(b*=&7#e$e$^'A%s#J%w'4(4$u)T*e$+%&+k+a+p)U$%%z&^%>(n)o#%)w';##!`!8#A%I%N",
"%p+D(D&Q#B+r(d'g(i%%*J'g&~'v+h)w*A'G&r*%&R!{#k+n,?(0%Z(b&J%~(f%J&J#h%R!d$K*Z),).'@'g%j&~'H#,&R%w+$$/&q*E'f&~(*)2&I'H$0#N%$#r&'(m",
"%-$i*G'w+D%U)/#1%Z$5&K&J&!'')O(b&>(b'B%Z'L$8(=+E)W&R#c*!%Z#V)M$z#o'I$$&D#W(=*G)&*I*'&r%r&w(=*[+P*Z'l$4$z'f'g(Z#Z#@#b'l&Q$1%[$e%Y",
"#-$6'x(k,5)4&K&(!y$1'=(8!Z%Z)Y%v%j(c*g,R#H(d#O*J*c&!(7%`!H'A([!v!h+D*F$v&p%?(b&T(]*G'm&!&#+j+n+a,Y(k$++-#$).'q$W$5&#*n+&%G%,#n%S",
"$6&T*E(i*M)U(D&L#q!*'&&P!q$5!D!7#&!J)3)8#m''%t&K)X&T++(c)%%t$]##+'(8*!#'#:'G&P*I${$r&x*a'6(h(m([(='G%z#*!o$[$v$5&~&x'N(q'v$^$0!M",
"$Y)-%+)%%`*+(s'n%$$h'C#U$`#-#M#F$_!H!v&F%8'l%c&~#@'A%R!u(a%~!@!V(7)X%T!M&Q%$$Y#K!R#($0())!*)+b)H$u$3%#%M#c#+&~%Z&G),&x)7*e$:%G%N",
"&w%+(6(j%A&)*2+Y*!!E${$5%`%-$M$S%%#Y!|$T'e%4&J(5%P#H(<&:$K&9#c'G$|'C$$%t&P)N#G%0#=!x$r#}()'q'M*(%o#g!j#Z!B%y$l'q'_,L&O%a#n)0'M'w",
"&Q&!$Z's!k&T${#L&@&y!?!c!d#I&##T$|%z&O!_!]!M%i%S%&%F!^!_#F$'$|%M)Z%U%1#G*'$*'k&O$*#:%@)6+v$v(B'!(c'p#@'l'G&P+q+3&6)W$r&U$8&P*/%%"
};
