/* XPM */
static char *stone_tiles_01[] = {
/* columns rows colors chars-per-pixel */
"64 64 2689 2",
/* colors */
"!! c #817278",
"!# c #847B83",
"!$ c #857376",
"!% c #85787B",
"!& c #857A7D",
"!' c #857B7F",
"!( c #86777E",
"!) c #86787C",
"!* c #867E84",
"!+ c #867E86",
"!, c #87787A",
"!- c #877881",
"!. c #877D81",
"!/ c #877D82",
"!0 c #877E83",
"!1 c #897D82",
"!2 c #897D83",
"!3 c #897E82",
"!4 c #8A7B7F",
"!5 c #8A7C7E",
"!6 c #8A7C82",
"!7 c #8A7D7F",
"!8 c #8A7D82",
"!9 c #8A7E81",
"!: c #8A7E82",
"!; c #8B7E81",
"!< c #8B7F83",
"!= c #8B8083",
"!> c #8B8085",
"!? c #8B8286",
"!@ c #8C7B7F",
"!A c #8C7E84",
"!B c #8C8081",
"!C c #8C8082",
"!D c #8C8183",
"!E c #8C8184",
"!F c #8C8186",
"!G c #8C8286",
"!H c #8C8586",
"!I c #8C878D",
"!J c #8D787C",
"!K c #8D7B7A",
"!L c #8D7C7E",
"!M c #8D7E7F",
"!N c #8D7E81",
"!O c #8D807E",
"!P c #8D8186",
"!Q c #8D8286",
"!R c #8D858A",
"!S c #8D858D",
"!T c #8D8685",
"!U c #8D868D",
"!V c #8F7A7B",
"!W c #8F7B7D",
"!X c #8F7D7F",
"!Y c #8F7D81",
"!Z c #8F8083",
"![ c #8F8085",
"!] c #8F8284",
"!^ c #8F8285",
"!_ c #8F8286",
"!` c #8F8386",
"!a c #8F8388",
"!b c #907D7F",
"!c c #907E7F",
"!d c #908085",
"!e c #908181",
"!f c #908185",
"!g c #908283",
"!h c #908385",
"!i c #908588",
"!j c #90858A",
"!k c #90858D",
"!l c #908689",
"!m c #90868A",
"!n c #90878D",
"!o c #918085",
"!p c #918285",
"!q c #918385",
"!r c #918588",
"!s c #91858A",
"!t c #91858B",
"!u c #918688",
"!v c #91868A",
"!w c #918789",
"!x c #91878B",
"!y c #91898D",
"!z c #91898E",
"!{ c #928389",
"!| c #928586",
"!} c #928588",
"!~ c #928589",
"#! c #928685",
"## c #928686",
"#$ c #928688",
"#% c #92868B",
"#& c #928788",
"#' c #92888B",
"#( c #92898D",
"#) c #92898E",
"#* c #928B8B",
"#+ c #938184",
"#, c #938186",
"#- c #938286",
"#. c #938386",
"#/ c #938585",
"#0 c #938586",
"#1 c #93858A",
"#2 c #938686",
"#3 c #938688",
"#4 c #938689",
"#5 c #93868A",
"#6 c #938789",
"#7 c #93878A",
"#8 c #93878D",
"#9 c #93888B",
"#: c #93888D",
"#; c #93888E",
"#< c #93898A",
"#= c #93898B",
"#> c #93898D",
"#? c #93898E",
"#@ c #938B8E",
"#A c #938B8F",
"#B c #938C91",
"#C c #958285",
"#D c #958585",
"#E c #958588",
"#F c #958688",
"#G c #958689",
"#H c #95868A",
"#I c #958789",
"#J c #95878D",
"#K c #95888E",
"#L c #95898A",
"#M c #95898B",
"#N c #95898F",
"#O c #958B8F",
"#P c #958C91",
"#Q c #958D91",
"#R c #968589",
"#S c #96858A",
"#T c #968686",
"#U c #968688",
"#V c #968789",
"#W c #96878A",
"#X c #96888B",
"#Y c #96888D",
"#Z c #96898B",
"#[ c #96898E",
"#] c #968B8B",
"#^ c #968B8D",
"#_ c #968B8F",
"#` c #968C8F",
"#a c #968C90",
"#b c #968D90",
"#c c #968D95",
"#d c #978385",
"#e c #978586",
"#f c #978786",
"#g c #978888",
"#h c #97888B",
"#i c #97888D",
"#j c #97888E",
"#k c #97898E",
"#l c #97898F",
"#m c #978B8B",
"#n c #978B90",
"#o c #978D90",
"#p c #978D91",
"#q c #978D94",
"#r c #978F91",
"#s c #978F96",
"#t c #988688",
"#u c #98888B",
"#v c #98898B",
"#w c #98898D",
"#x c #98898E",
"#y c #988B8A",
"#z c #988B8B",
"#{ c #988C8E",
"#| c #988C8F",
"#} c #988C90",
"#~ c #988D90",
"$! c #988D91",
"$# c #988D92",
"$$ c #988E92",
"$% c #988F94",
"$& c #998689",
"$' c #998789",
"$( c #99888A",
"$) c #99888D",
"$* c #99888E",
"$+ c #998989",
"$, c #99898A",
"$- c #99898B",
"$. c #998B8D",
"$/ c #998B8E",
"$0 c #998B90",
"$1 c #998C8E",
"$2 c #998D8E",
"$3 c #998D90",
"$4 c #998D94",
"$5 c #998E8F",
"$6 c #998E90",
"$7 c #998E94",
"$8 c #998F92",
"$9 c #999195",
"$: c #9A898B",
"$; c #9A8B8B",
"$< c #9A8B8E",
"$= c #9A8C8B",
"$> c #9A8C8E",
"$? c #9A8C8F",
"$@ c #9A8C90",
"$A c #9A8D90",
"$B c #9A8D91",
"$C c #9A8E8D",
"$D c #9A8E90",
"$E c #9A8E96",
"$F c #9A8F92",
"$G c #9A8F94",
"$H c #9A9194",
"$I c #9A9196",
"$J c #9A9296",
"$K c #9B8F93",
"$L c #9C8284",
"$M c #9C8685",
"$N c #9C8789",
"$O c #9C888A",
"$P c #9C8B8F",
"$Q c #9C8C8D",
"$R c #9C8C8F",
"$S c #9C8D8F",
"$T c #9C8D92",
"$U c #9C8D94",
"$V c #9C8E90",
"$W c #9C8E91",
"$X c #9C8E92",
"$Y c #9C9093",
"$Z c #9C9190",
"$[ c #9C9192",
"$] c #9C9194",
"$^ c #9C9292",
"$_ c #9C9294",
"$` c #9C9296",
"$a c #9C9297",
"$b c #9C9396",
"$c c #9C9399",
"$d c #9D8C8D",
"$e c #9D8D8D",
"$f c #9D8D8E",
"$g c #9D8D8F",
"$h c #9D8D91",
"$i c #9D8D92",
"$j c #9D8E8F",
"$k c #9D8E90",
"$l c #9D8E92",
"$m c #9D8F8F",
"$n c #9D8F94",
"$o c #9D9191",
"$p c #9D9194",
"$q c #9D9196",
"$r c #9D9292",
"$s c #9D9295",
"$t c #9D9395",
"$u c #9D9396",
"$v c #9D9397",
"$w c #9D939A",
"$x c #9D9499",
"$y c #9D9697",
"$z c #9D969A",
"${ c #9D989C",
"$| c #9E8B8A",
"$} c #9E8C8A",
"$~ c #9E8C8F",
"%! c #9E8C90",
"%# c #9E8D8E",
"%$ c #9E8D8F",
"%% c #9E8D90",
"%& c #9E8E8E",
"%' c #9E8E90",
"%( c #9E8F90",
"%) c #9E8F91",
"%* c #9E8F95",
"%+ c #9E9192",
"%, c #9E9194",
"%- c #9E9195",
"%. c #9E9294",
"%/ c #9E9295",
"%0 c #9E9297",
"%1 c #9E9396",
"%2 c #9E9399",
"%3 c #9E9499",
"%4 c #9E949A",
"%5 c #9E9697",
"%6 c #9E9699",
"%7 c #9E969A",
"%8 c #9E979B",
"%9 c #9E979C",
"%: c #9F8F91",
"%; c #9F8F94",
"%< c #9F9191",
"%= c #9F9192",
"%> c #9F9194",
"%? c #9F9195",
"%@ c #9F9292",
"%A c #9F9294",
"%B c #9F9395",
"%C c #9F9396",
"%D c #9F9397",
"%E c #9F9495",
"%F c #9F9496",
"%G c #9F9499",
"%H c #9F949B",
"%I c #9F9696",
"%J c #9F9697",
"%K c #9F9699",
"%L c #9F969A",
"%M c #9F969B",
"%N c #9F979A",
"%O c #9F979B",
"%P c #9F979C",
"%Q c #9F989A",
"%R c #9F989B",
"%S c #A08C8F",
"%T c #A08D90",
"%U c #A08E8E",
"%V c #A08F8F",
"%W c #A08F91",
"%X c #A0918F",
"%Y c #A09190",
"%Z c #A09191",
"%[ c #A09192",
"%] c #A09195",
"%^ c #A09196",
"%_ c #A0928F",
"%` c #A09291",
"%a c #A09292",
"%b c #A09296",
"%c c #A09394",
"%d c #A09396",
"%e c #A09399",
"%f c #A09496",
"%g c #A09497",
"%h c #A09696",
"%i c #A09697",
"%j c #A09699",
"%k c #A0969A",
"%l c #A0979A",
"%m c #A0989A",
"%n c #A0989B",
"%o c #A0989C",
"%p c #A0999B",
"%q c #A0999D",
"%r c #A19194",
"%s c #A19294",
"%t c #A19295",
"%u c #A19391",
"%v c #A19395",
"%w c #A19397",
"%x c #A1939A",
"%y c #A19495",
"%z c #A19497",
"%{ c #A19499",
"%| c #A1949A",
"%} c #A19596",
"%~ c #A19697",
"&! c #A19699",
"&# c #A1969A",
"&$ c #A1969B",
"&% c #A19799",
"&& c #A1979A",
"&' c #A1979C",
"&( c #A1989A",
"&) c #A1989B",
"&* c #A1989C",
"&+ c #A1999B",
"&, c #A19A9C",
"&- c #A19A9F",
"&. c #A29898",
"&/ c #A29A9C",
"&0 c #A38E8D",
"&1 c #A38F8F",
"&2 c #A39190",
"&3 c #A39192",
"&4 c #A3938E",
"&5 c #A39392",
"&6 c #A39396",
"&7 c #A39494",
"&8 c #A39496",
"&9 c #A39497",
"&: c #A39697",
"&; c #A3969A",
"&< c #A39796",
"&= c #A39798",
"&> c #A39799",
"&? c #A3979A",
"&@ c #A3979B",
"&A c #A3979C",
"&B c #A39897",
"&C c #A39899",
"&D c #A3989A",
"&E c #A3989B",
"&F c #A3989C",
"&G c #A3989D",
"&H c #A3999A",
"&I c #A3999D",
"&J c #A39A9D",
"&K c #A39A9F",
"&L c #A48E8B",
"&M c #A49296",
"&N c #A49391",
"&O c #A49396",
"&P c #A49495",
"&Q c #A4969A",
"&R c #A4969B",
"&S c #A49795",
"&T c #A49796",
"&U c #A49797",
"&V c #A49799",
"&W c #A4979B",
"&X c #A4979C",
"&Y c #A49899",
"&Z c #A4989A",
"&[ c #A4989B",
"&] c #A4989C",
"&^ c #A4989D",
"&_ c #A4999A",
"&` c #A4999C",
"&a c #A4999F",
"&b c #A49A9D",
"&c c #A49CA0",
"&d c #A49CA1",
"&e c #A59390",
"&f c #A59496",
"&g c #A59695",
"&h c #A59799",
"&i c #A5979A",
"&j c #A5979B",
"&k c #A5979C",
"&l c #A59896",
"&m c #A59897",
"&n c #A59899",
"&o c #A5989B",
"&p c #A5989C",
"&q c #A59997",
"&r c #A59999",
"&s c #A5999C",
"&t c #A5999D",
"&u c #A5999F",
"&v c #A59A9C",
"&w c #A59A9D",
"&x c #A59A9F",
"&y c #A59AA0",
"&z c #A59AA1",
"&{ c #A59B9C",
"&| c #A59B9E",
"&} c #A59C9D",
"&~ c #A59C9F",
"'! c #A59CA0",
"'# c #A59D9F",
"'$ c #A59DA0",
"'% c #A59DA1",
"'& c #A59DA3",
"'' c #A59EA2",
"'( c #A69195",
"') c #A69391",
"'* c #A69396",
"'+ c #A69691",
"', c #A69696",
"'- c #A69797",
"'. c #A69799",
"'/ c #A6979B",
"'0 c #A69897",
"'1 c #A69899",
"'2 c #A69996",
"'3 c #A6999A",
"'4 c #A6999B",
"'5 c #A6999C",
"'6 c #A69A9B",
"'7 c #A69A9C",
"'8 c #A69A9D",
"'9 c #A69C9B",
"': c #A69C9F",
"'; c #A69CA0",
"'< c #A69CA1",
"'= c #A69DA0",
"'> c #A69DA2",
"'? c #A69E9F",
"'@ c #A69EA0",
"'A c #A69EA1",
"'B c #A69EA2",
"'C c #A79C9B",
"'D c #A79C9E",
"'E c #A79FA1",
"'F c #A89697",
"'G c #A89797",
"'H c #A8979A",
"'I c #A89899",
"'J c #A8989A",
"'K c #A89996",
"'L c #A8999A",
"'M c #A8999B",
"'N c #A8999C",
"'O c #A89A97",
"'P c #A89A9A",
"'Q c #A89A9B",
"'R c #A89A9C",
"'S c #A89AA0",
"'T c #A89C9C",
"'U c #A89C9D",
"'V c #A89CA0",
"'W c #A89D9F",
"'X c #A89DA0",
"'Y c #A89EA0",
"'Z c #A89EA1",
"'[ c #A89EA3",
"'] c #A89FA1",
"'^ c #A8A1A3",
"'_ c #A8A1A4",
"'` c #A8A1A6",
"'a c #A8A2A7",
"'b c #A99497",
"'c c #A99694",
"'d c #A99796",
"'e c #A99797",
"'f c #A99899",
"'g c #A99999",
"'h c #A9999A",
"'i c #A9999B",
"'j c #A999A0",
"'k c #A99A9B",
"'l c #A99A9C",
"'m c #A99A9F",
"'n c #A99B9A",
"'o c #A99B9D",
"'p c #A99C9B",
"'q c #A99C9C",
"'r c #A99C9E",
"'s c #A99C9F",
"'t c #A99D9B",
"'u c #A99D9D",
"'v c #A99DA0",
"'w c #A99DA1",
"'x c #A99DA2",
"'y c #A99E9D",
"'z c #A99EA1",
"'{ c #A99FA1",
"'| c #A99FA2",
"'} c #A9A0A2",
"'~ c #A9A2A0",
"(! c #A9A2A7",
"(# c #AA9699",
"($ c #AA9A97",
"(% c #AA9A99",
"(& c #AA9A9A",
"(' c #AA9A9C",
"(( c #AA9A9D",
"() c #AA9B9A",
"(* c #AA9B9F",
"(+ c #AA9C9B",
"(, c #AA9C9D",
"(- c #AA9C9F",
"(. c #AA9D9B",
"(/ c #AA9DA0",
"(0 c #AA9DA1",
"(1 c #AA9E9C",
"(2 c #AA9E9E",
"(3 c #AA9E9F",
"(4 c #AA9EA1",
"(5 c #AA9EA2",
"(6 c #AA9F9C",
"(7 c #AA9FA0",
"(8 c #AA9FA1",
"(9 c #AA9FA2",
"(: c #AA9FA4",
"(; c #AAA0A2",
"(< c #AAA0A3",
"(= c #AAA2A2",
"(> c #AAA2A4",
"(? c #AAA3A6",
"(@ c #AB9396",
"(A c #AB999A",
"(B c #AB9C9A",
"(C c #AB9C9C",
"(D c #AB9C9D",
"(E c #AB9C9F",
"(F c #AB9E9D",
"(G c #AB9E9E",
"(H c #AB9EA2",
"(I c #AB9FA0",
"(J c #AB9FA1",
"(K c #AB9FA2",
"(L c #AB9FA3",
"(M c #ABA0A0",
"(N c #ABA1A1",
"(O c #ABA1A2",
"(P c #ABA1A3",
"(Q c #ABA2A3",
"(R c #ABA2A4",
"(S c #ABA2A6",
"(T c #ABA5A9",
"(U c #AC9B9D",
"(V c #AC9C99",
"(W c #AC9C9A",
"(X c #AC9C9C",
"(Y c #AC9D9C",
"(Z c #AC9D9D",
"([ c #AC9D9F",
"(] c #AC9DA0",
"(^ c #AC9E9C",
"(_ c #AC9EA0",
"(` c #AC9EA1",
"(a c #AC9EA2",
"(b c #AC9EA4",
"(c c #AC9FA0",
"(d c #AC9FA2",
"(e c #ACA1A1",
"(f c #ACA1A2",
"(g c #ACA1A3",
"(h c #ACA1A4",
"(i c #ACA2A2",
"(j c #ACA2A3",
"(k c #ACA2A6",
"(l c #ACA3A3",
"(m c #ACA3A4",
"(n c #ACA3A6",
"(o c #ACA3A7",
"(p c #ACA4A4",
"(q c #ACA5AB",
"(r c #AD9C9D",
"(s c #AD9D9B",
"(t c #AD9E9D",
"(u c #AD9E9F",
"(v c #AD9EA0",
"(w c #AD9F9F",
"(x c #AD9FA1",
"(y c #ADA0A0",
"(z c #ADA0A1",
"({ c #ADA0A3",
"(| c #ADA1A1",
"(} c #ADA1A2",
"(~ c #ADA1A4",
")! c #ADA2A1",
")# c #ADA2A3",
")$ c #ADA2A4",
")% c #ADA3A4",
")& c #ADA3A8",
")' c #ADA4A6",
")( c #AE9C9F",
")) c #AE9D9D",
")* c #AEA09D",
")+ c #AEA09F",
"), c #AEA1A1",
")- c #AEA29C",
"). c #AEA4A0",
")/ c #AEA4A7",
")0 c #AEA6A4",
")1 c #AEA6A8",
")2 c #AEA8A8",
")3 c #AF9699",
")4 c #AF9DA0",
")5 c #AF9FA3",
")6 c #AFA09C",
")7 c #AFA1A0",
")8 c #AFA1A1",
")9 c #AFA1A2",
"): c #AFA1A3",
"); c #AFA1A4",
")< c #AFA2A2",
")= c #AFA2A3",
")> c #AFA2A4",
")? c #AFA3A3",
")@ c #AFA3A4",
")A c #AFA3A6",
")B c #AFA4A6",
")C c #AFA4A9",
")D c #AFA5A5",
")E c #AFA5A6",
")F c #AFA5A7",
")G c #AFA5A8",
")H c #AFA7A9",
")I c #B09999",
")J c #B09EA0",
")K c #B09F9D",
")L c #B0A09F",
")M c #B0A19D",
")N c #B0A19F",
")O c #B0A1A1",
")P c #B0A1A2",
")Q c #B0A1A3",
")R c #B0A29B",
")S c #B0A2A3",
")T c #B0A2A4",
")U c #B0A3A2",
")V c #B0A3A3",
")W c #B0A3A4",
")X c #B0A3A5",
")Y c #B0A3A7",
")Z c #B0A4A2",
")[ c #B0A4A4",
")] c #B0A4A5",
")^ c #B0A4A6",
")_ c #B0A5A4",
")` c #B0A5A5",
")a c #B0A5A6",
")b c #B0A5A7",
")c c #B0A5A8",
")d c #B0A6A6",
")e c #B0A7A7",
")f c #B0A7A8",
")g c #B0A7A9",
")h c #B0A7AA",
")i c #B0A7AB",
")j c #B0A7AC",
")k c #B0A8A9",
")l c #B0A8AC",
")m c #B19FA0",
")n c #B1A09F",
")o c #B1A1A0",
")p c #B1A1A1",
")q c #B1A2A2",
")r c #B1A3A2",
")s c #B1A3A3",
")t c #B1A3A4",
")u c #B1A3A6",
")v c #B1A4A2",
")w c #B1A4A7",
")x c #B1A4A9",
")y c #B1A5A4",
")z c #B1A5A5",
"){ c #B1A5A6",
")| c #B1A5A8",
")} c #B1A6A8",
")~ c #B1A7A9",
"*! c #B1A8A7",
"*# c #B1A8AC",
"*$ c #B1A9AC",
"*% c #B29D99",
"*& c #B29E9D",
"*' c #B29E9E",
"*( c #B29F9E",
"*) c #B29F9F",
"** c #B2A0A2",
"*+ c #B2A1A0",
"*, c #B2A1A1",
"*- c #B2A29E",
"*. c #B2A2A2",
"*/ c #B2A2A6",
"*0 c #B2A3A0",
"*1 c #B2A3A2",
"*2 c #B2A3A3",
"*3 c #B2A3A5",
"*4 c #B2A4A2",
"*5 c #B2A4A4",
"*6 c #B2A5A1",
"*7 c #B2A5A2",
"*8 c #B2A5A3",
"*9 c #B2A5A4",
"*: c #B2A5A6",
"*; c #B2A5A7",
"*< c #B2A5A8",
"*= c #B2A6A5",
"*> c #B2A6A6",
"*? c #B2A6A7",
"*@ c #B2A7A4",
"*A c #B2A8A8",
"*B c #B2A8AB",
"*C c #B2A9A7",
"*D c #B2A9AC",
"*E c #B39F9E",
"*F c #B39FA1",
"*G c #B3A0A0",
"*H c #B3A19E",
"*I c #B3A39E",
"*J c #B3A3A6",
"*K c #B3A49F",
"*L c #B3A4A2",
"*M c #B3A4A4",
"*N c #B3A4A7",
"*O c #B3A5A4",
"*P c #B3A5A6",
"*Q c #B3A5A7",
"*R c #B3A6A6",
"*S c #B3A7A6",
"*T c #B3A7A7",
"*U c #B3A7A9",
"*V c #B3A8A6",
"*W c #B3A9A6",
"*X c #B3A9A8",
"*Y c #B49E9D",
"*Z c #B4A1A0",
"*[ c #B4A1A2",
"*] c #B4A2A0",
"*^ c #B4A2A1",
"*_ c #B4A3A1",
"*` c #B4A3A2",
"*a c #B4A4A3",
"*b c #B4A4A4",
"*c c #B4A5A2",
"*d c #B4A5A3",
"*e c #B4A5A4",
"*f c #B4A5A7",
"*g c #B4A5A8",
"*h c #B4A6A4",
"*i c #B4A6A5",
"*j c #B4A6A7",
"*k c #B4A6A9",
"*l c #B4A7A7",
"*m c #B4A7A8",
"*n c #B4A7A9",
"*o c #B4A8A9",
"*p c #B4A8AB",
"*q c #B4A9A9",
"*r c #B4A9AC",
"*s c #B4A9AD",
"*t c #B4AAAD",
"*u c #B4AAAE",
"*v c #B4ABAC",
"*w c #B4ABAD",
"*x c #B5A2A1",
"*y c #B5A3A2",
"*z c #B5A4A2",
"*{ c #B5A4A3",
"*| c #B5A4A4",
"*} c #B5A59F",
"*~ c #B5A5A4",
"+! c #B5A5A8",
"+# c #B5A6A5",
"+$ c #B5A6A7",
"+% c #B5A6A9",
"+& c #B5A7A7",
"+' c #B5A7A8",
"+( c #B5A7A9",
"+) c #B5A7AB",
"+* c #B5A8A5",
"++ c #B5A8A7",
"+, c #B5A8A8",
"+- c #B5A8AA",
"+. c #B5A8AB",
"+/ c #B5A9A6",
"+0 c #B5A9A9",
"+1 c #B5AAA9",
"+2 c #B5AAAC",
"+3 c #B5ABAC",
"+4 c #B5ACAD",
"+5 c #B5ACB0",
"+6 c #B5AEAD",
"+7 c #B69E9A",
"+8 c #B6A2A0",
"+9 c #B6A2A1",
"+: c #B6A2A6",
"+; c #B6A3A3",
"+< c #B6A3A4",
"+= c #B6A4A2",
"+> c #B6A4A5",
"+? c #B6A4A6",
"+@ c #B6A5A3",
"+A c #B6A5A4",
"+B c #B6A5A6",
"+C c #B6A6A5",
"+D c #B6A6A6",
"+E c #B6A6A7",
"+F c #B6A6A8",
"+G c #B6A6A9",
"+H c #B6A7A3",
"+I c #B6A7A4",
"+J c #B6A7A6",
"+K c #B6A7A8",
"+L c #B6A7AA",
"+M c #B6A8A4",
"+N c #B6A8A5",
"+O c #B6A8A9",
"+P c #B6A9A7",
"+Q c #B6A9A9",
"+R c #B6A9AA",
"+S c #B6AAA7",
"+T c #B6AAA9",
"+U c #B6AAAA",
"+V c #B6AAAB",
"+W c #B6AAAC",
"+X c #B6AAAD",
"+Y c #B6ABA8",
"+Z c #B6ABA9",
"+[ c #B6ABAB",
"+] c #B6ABAC",
"+^ c #B6ABAD",
"+_ c #B6ACAA",
"+` c #B6ACAB",
"+a c #B6ADAB",
"+b c #B6AEAE",
"+c c #B7A2A3",
"+d c #B7A39D",
"+e c #B7A49D",
"+f c #B7A4A1",
"+g c #B7A4A2",
"+h c #B7A4A4",
"+i c #B7A5A2",
"+j c #B7A5A3",
"+k c #B7A5A5",
"+l c #B7A5A6",
"+m c #B7A5A7",
"+n c #B7A6A2",
"+o c #B7A7A1",
"+p c #B7A7A4",
"+q c #B7A7A5",
"+r c #B7A7A6",
"+s c #B7A7A8",
"+t c #B7A8A7",
"+u c #B7A9A7",
"+v c #B7A9A8",
"+w c #B7A9A9",
"+x c #B7A9AA",
"+y c #B7A9AB",
"+z c #B7A9AC",
"+{ c #B7AAA5",
"+| c #B7AAA6",
"+} c #B7AAA8",
"+~ c #B7AAA9",
",! c #B7AAAA",
",# c #B7AAAC",
",$ c #B7ABA9",
",% c #B7ABAB",
",& c #B7ABAD",
",' c #B7ACAD",
",( c #B7ADAC",
",) c #B7ADAE",
",* c #B7AEAF",
",+ c #B7AFAF",
",, c #B7B0AD",
",- c #B8A39F",
",. c #B8A4A3",
",/ c #B8A5A3",
",0 c #B8A5A4",
",1 c #B8A6A5",
",2 c #B8A7A6",
",3 c #B8A7A7",
",4 c #B8A8A7",
",5 c #B8A8A8",
",6 c #B8A8A9",
",7 c #B8A9A3",
",8 c #B8A9A7",
",9 c #B8A9A8",
",: c #B8A9AA",
",; c #B8A9AB",
",< c #B8AAA6",
",= c #B8AAA7",
",> c #B8AAA9",
",? c #B8AAAA",
",@ c #B8AAAB",
",A c #B8AAAC",
",B c #B8AAAD",
",C c #B8ABAD",
",D c #B8ACAB",
",E c #B8ACAC",
",F c #B8ACAE",
",G c #B8ADAB",
",H c #B8ADAC",
",I c #B8ADAD",
",J c #B8ADAE",
",K c #B8AEAB",
",L c #B8AEAC",
",M c #B8AFB0",
",N c #B8B0B0",
",O c #B9A2A1",
",P c #B9A3A1",
",Q c #B9A4A3",
",R c #B9A4A5",
",S c #B9A5A2",
",T c #B9A5A3",
",U c #B9A6A4",
",V c #B9A6A7",
",W c #B9A7A6",
",X c #B9A7A7",
",Y c #B9A7AA",
",Z c #B9A8A4",
",[ c #B9A8A5",
",] c #B9A9A8",
",^ c #B9A9A9",
",_ c #B9A9AA",
",` c #B9AAA5",
",a c #B9AAA6",
",b c #B9AAA9",
",c c #B9AAAA",
",d c #B9AAAC",
",e c #B9ABA8",
",f c #B9ABAA",
",g c #B9ABAC",
",h c #B9ACA7",
",i c #B9ADA9",
",j c #B9ADAA",
",k c #B9ADAB",
",l c #B9ADAC",
",m c #B9ADAE",
",n c #B9ADAF",
",o c #B9AEAD",
",p c #B9AEAF",
",q c #B9AEB0",
",r c #B9AEB2",
",s c #B9AFB0",
",t c #B9AFB1",
",u c #B9AFB2",
",v c #B9B1B2",
",w c #B9B2B4",
",x c #B9B3B4",
",y c #BAA5A6",
",z c #BAA6A6",
",{ c #BAA7A2",
",| c #BAA7AA",
",} c #BAA8A3",
",~ c #BAA8A7",
"-! c #BAA8AB",
"-# c #BAA9A9",
"-$ c #BAAAA8",
"-% c #BAAAA9",
"-& c #BAAAAA",
"-' c #BAABA8",
"-( c #BAABAA",
"-) c #BAABAB",
"-* c #BAABAE",
"-+ c #BAACA9",
"-, c #BAACAA",
"-- c #BAACAB",
"-. c #BAACAD",
"-/ c #BAADAC",
"-0 c #BAADAD",
"-1 c #BAADAE",
"-2 c #BAAEAC",
"-3 c #BAAEAE",
"-4 c #BAAFAB",
"-5 c #BAAFAF",
"-6 c #BAAFB1",
"-7 c #BAB0AD",
"-8 c #BAB0AF",
"-9 c #BAB0B3",
"-: c #BAB1B0",
"-; c #BAB1B1",
"-< c #BAB1B3",
"-= c #BAB2AC",
"-> c #BAB2B1",
"-? c #BAB2B2",
"-@ c #BBA3A2",
"-A c #BBA5A6",
"-B c #BBA6A5",
"-C c #BBA7A5",
"-D c #BBA7A7",
"-E c #BBA8A7",
"-F c #BBA8A8",
"-G c #BBA8A9",
"-H c #BBA9A4",
"-I c #BBA9A7",
"-J c #BBA9AB",
"-K c #BBAAA7",
"-L c #BBAAA8",
"-M c #BBAAAA",
"-N c #BBAAAB",
"-O c #BBABA8",
"-P c #BBABA9",
"-Q c #BBABAA",
"-R c #BBABAB",
"-S c #BBABAC",
"-T c #BBACA7",
"-U c #BBACA9",
"-V c #BBACAA",
"-W c #BBACAB",
"-X c #BBACAC",
"-Y c #BBACAD",
"-Z c #BBADAB",
"-[ c #BBADAD",
"-] c #BBADAF",
"-^ c #BBAEAB",
"-_ c #BBAEAC",
"-` c #BBAEAD",
"-a c #BBAEAE",
"-b c #BBAEB0",
"-c c #BBAFA7",
"-d c #BBAFAD",
"-e c #BBAFAE",
"-f c #BBAFAF",
"-g c #BBAFB0",
"-h c #BBAFB1",
"-i c #BBB0AE",
"-j c #BBB0AF",
"-k c #BBB0B0",
"-l c #BBB0B1",
"-m c #BBB1B0",
"-n c #BBB1B2",
"-o c #BBB3B3",
"-p c #BBB3B4",
"-q c #BCA79D",
"-r c #BCA7A7",
"-s c #BCA7A9",
"-t c #BCA8A6",
"-u c #BCA8A9",
"-v c #BCA9AB",
"-w c #BCAAA8",
"-x c #BCABA6",
"-y c #BCABA8",
"-z c #BCABA9",
"-{ c #BCABAB",
"-| c #BCACA8",
"-} c #BCACA9",
"-~ c #BCACAB",
".! c #BCACAD",
".# c #BCADAB",
".$ c #BCADAC",
".% c #BCADAD",
".& c #BCADAE",
".' c #BCADAF",
".( c #BCAEA9",
".) c #BCAEAB",
".* c #BCAEAC",
".+ c #BCAEAD",
"., c #BCAEAE",
".- c #BCAEAF",
".. c #BCAEB1",
"./ c #BCAFAC",
".0 c #BCAFAE",
".1 c #BCAFB3",
".2 c #BCB0AF",
".3 c #BCB0B0",
".4 c #BCB0B1",
".5 c #BCB1AF",
".6 c #BCB1B0",
".7 c #BCB1B1",
".8 c #BCB2B2",
".9 c #BCB2B3",
".: c #BCB3B0",
".; c #BCB3B3",
".< c #BCB3B4",
".= c #BCB3B5",
".> c #BDA8A4",
".? c #BDA9A6",
".@ c #BDA9A8",
".A c #BDA9AB",
".B c #BDAAAC",
".C c #BDABA8",
".D c #BDABAB",
".E c #BDACA7",
".F c #BDACA8",
".G c #BDACAA",
".H c #BDACAB",
".I c #BDACB0",
".J c #BDADAA",
".K c #BDADAB",
".L c #BDADAC",
".M c #BDADAD",
".N c #BDADAF",
".O c #BDADB0",
".P c #BDAEAA",
".Q c #BDAEAD",
".R c #BDAEAE",
".S c #BDAEAF",
".T c #BDAFAC",
".U c #BDAFAD",
".V c #BDAFAE",
".W c #BDAFAF",
".X c #BDAFB0",
".Y c #BDB0AD",
".Z c #BDB0AE",
".[ c #BDB0AF",
".] c #BDB0B0",
".^ c #BDB0B1",
"._ c #BDB0B2",
".` c #BDB0B3",
".a c #BDB1B1",
".b c #BDB2AF",
".c c #BDB2B2",
".d c #BDB2B4",
".e c #BDB3B4",
".f c #BDB3B5",
".g c #BDB4B4",
".h c #BDB4B5",
".i c #BDB5B6",
".j c #BEA8A8",
".k c #BEA9A6",
".l c #BEA9A8",
".m c #BEAAAA",
".n c #BEAAAC",
".o c #BEABA5",
".p c #BEABA7",
".q c #BEABAA",
".r c #BEABAB",
".s c #BEACA8",
".t c #BEACAA",
".u c #BEACAB",
".v c #BEADA9",
".w c #BEADAB",
".x c #BEADAC",
".y c #BEADAD",
".z c #BEADAE",
".{ c #BEAEA6",
".| c #BEAEAB",
".} c #BEAEAC",
".~ c #BEAEAD",
"/! c #BEAFAB",
"/# c #BEAFAC",
"/$ c #BEAFAD",
"/% c #BEAFAE",
"/& c #BEAFAF",
"/' c #BEAFB1",
"/( c #BEB0AC",
"/) c #BEB0AD",
"/* c #BEB0AF",
"/+ c #BEB0B0",
"/, c #BEB0B1",
"/- c #BEB1AE",
"/. c #BEB1AF",
"// c #BEB1B0",
"/0 c #BEB1B1",
"/1 c #BEB2B0",
"/2 c #BEB2B2",
"/3 c #BEB2B3",
"/4 c #BEB3B3",
"/5 c #BEB3B4",
"/6 c #BEB3B8",
"/7 c #BEB4AF",
"/8 c #BEB4B2",
"/9 c #BEB4B4",
"/: c #BEB4B6",
"/; c #BEB5B3",
"/< c #BEB5B4",
"/= c #BEB9BA",
"/> c #BFA9A8",
"/? c #BFAAA6",
"/@ c #BFAAA7",
"/A c #BFAAAC",
"/B c #BFABA8",
"/C c #BFABA9",
"/D c #BFABAA",
"/E c #BFABAC",
"/F c #BFACA9",
"/G c #BFACAA",
"/H c #BFACAB",
"/I c #BFADA8",
"/J c #BFADA9",
"/K c #BFADAB",
"/L c #BFADAC",
"/M c #BFADAD",
"/N c #BFADAF",
"/O c #BFAEA9",
"/P c #BFAEAB",
"/Q c #BFAEAC",
"/R c #BFAEAD",
"/S c #BFAEAE",
"/T c #BFAEAF",
"/U c #BFAEB0",
"/V c #BFAEB1",
"/W c #BFAFAC",
"/X c #BFAFAD",
"/Y c #BFAFAE",
"/Z c #BFAFAF",
"/[ c #BFB0AD",
"/] c #BFB0AE",
"/^ c #BFB0AF",
"/_ c #BFB0B0",
"/` c #BFB0B2",
"/a c #BFB1AC",
"/b c #BFB1AF",
"/c c #BFB1B0",
"/d c #BFB1B1",
"/e c #BFB1B2",
"/f c #BFB2AE",
"/g c #BFB2B1",
"/h c #BFB2B2",
"/i c #BFB2B4",
"/j c #BFB3B1",
"/k c #BFB3B2",
"/l c #BFB4B5",
"/m c #BFB5B4",
"/n c #BFB5B5",
"/o c #BFB5B8",
"/p c #BFB6B4",
"/q c #BFB6B5",
"/r c #BFB6B6",
"/s c #BFB6B9",
"/t c #C0A9A6",
"/u c #C0AAA9",
"/v c #C0AAAC",
"/w c #C0ABA9",
"/x c #C0ABAA",
"/y c #C0ABAB",
"/z c #C0ACA7",
"/{ c #C0ACA9",
"/| c #C0ACAB",
"/} c #C0ADA9",
"/~ c #C0ADAC",
"0! c #C0ADAD",
"0# c #C0ADB0",
"0$ c #C0AEAA",
"0% c #C0AEAD",
"0& c #C0AEAF",
"0' c #C0AEB0",
"0( c #C0AFAD",
"0) c #C0AFAE",
"0* c #C0AFAF",
"0+ c #C0AFB0",
"0, c #C0AFB2",
"0- c #C0B0AD",
"0. c #C0B0AE",
"0/ c #C0B0B0",
"00 c #C0B0B1",
"01 c #C0B1AD",
"02 c #C0B1AE",
"03 c #C0B1B0",
"04 c #C0B1B1",
"05 c #C0B1B2",
"06 c #C0B1B5",
"07 c #C0B2AF",
"08 c #C0B2B0",
"09 c #C0B2B1",
"0: c #C0B2B2",
"0; c #C0B2B3",
"0< c #C0B2B5",
"0= c #C0B3B0",
"0> c #C0B3B2",
"0? c #C0B3B3",
"0@ c #C0B3B4",
"0A c #C0B4B1",
"0B c #C0B4B2",
"0C c #C0B4B3",
"0D c #C0B4B4",
"0E c #C0B4B6",
"0F c #C0B5B2",
"0G c #C0B5B3",
"0H c #C0B5B6",
"0I c #C0B6B3",
"0J c #C0B6B6",
"0K c #C0B6B7",
"0L c #C0B7B7",
"0M c #C0B8B6",
"0N c #C0B8B8",
"0O c #C0B8BA",
"0P c #C0B9BA",
"0Q c #C1ABAC",
"0R c #C1ACA9",
"0S c #C1ADAB",
"0T c #C1ADAC",
"0U c #C1ADAD",
"0V c #C1AEAB",
"0W c #C1AEAD",
"0X c #C1AEAF",
"0Y c #C1AFAB",
"0Z c #C1AFAE",
"0[ c #C1AFAF",
"0] c #C1AFB1",
"0^ c #C1B0AD",
"0_ c #C1B0AE",
"0` c #C1B0AF",
"0a c #C1B0B1",
"0b c #C1B1AB",
"0c c #C1B1AC",
"0d c #C1B1AD",
"0e c #C1B1AE",
"0f c #C1B1AF",
"0g c #C1B1B0",
"0h c #C1B1B1",
"0i c #C1B1B2",
"0j c #C1B1B4",
"0k c #C1B2AF",
"0l c #C1B2B0",
"0m c #C1B2B1",
"0n c #C1B2B2",
"0o c #C1B2B4",
"0p c #C1B3AE",
"0q c #C1B3B0",
"0r c #C1B3B2",
"0s c #C1B3B3",
"0t c #C1B3B4",
"0u c #C1B3B5",
"0v c #C1B4B1",
"0w c #C1B4B2",
"0x c #C1B4B3",
"0y c #C1B4B4",
"0z c #C1B4B5",
"0{ c #C1B4B8",
"0| c #C1B5B1",
"0} c #C1B5B3",
"0~ c #C1B5B4",
"1! c #C1B5B5",
"1# c #C1B5B6",
"1$ c #C1B5B7",
"1% c #C1B5B8",
"1& c #C1B6B4",
"1' c #C1B6B5",
"1( c #C1B6B7",
"1) c #C1B6B8",
"1* c #C1B7B6",
"1+ c #C1B7B7",
"1, c #C1B8BA",
"1- c #C2ABAA",
"1. c #C2ADAA",
"1/ c #C2AEAB",
"10 c #C2AEAC",
"11 c #C2AEB0",
"12 c #C2AFAB",
"13 c #C2AFAC",
"14 c #C2AFAE",
"15 c #C2AFB1",
"16 c #C2B0AC",
"17 c #C2B0AD",
"18 c #C2B0AE",
"19 c #C2B0AF",
"1: c #C2B0B2",
"1; c #C2B1AC",
"1< c #C2B1AE",
"1= c #C2B1B0",
"1> c #C2B1B1",
"1? c #C2B1B2",
"1@ c #C2B1B3",
"1A c #C2B2AE",
"1B c #C2B2AF",
"1C c #C2B2B0",
"1D c #C2B2B1",
"1E c #C2B2B2",
"1F c #C2B2B4",
"1G c #C2B3B1",
"1H c #C2B3B2",
"1I c #C2B3B3",
"1J c #C2B3B5",
"1K c #C2B4AF",
"1L c #C2B4B0",
"1M c #C2B4B2",
"1N c #C2B4B3",
"1O c #C2B4B4",
"1P c #C2B4B5",
"1Q c #C2B5B0",
"1R c #C2B5B2",
"1S c #C2B5B3",
"1T c #C2B5B5",
"1U c #C2B5B7",
"1V c #C2B6B2",
"1W c #C2B6B4",
"1X c #C2B6B5",
"1Y c #C2B6B6",
"1Z c #C2B6B8",
"1[ c #C2B6B9",
"1] c #C2B7B5",
"1^ c #C2B7B6",
"1_ c #C2B7B7",
"1` c #C2B7B8",
"1a c #C2B8B6",
"1b c #C2B8B8",
"1c c #C2B8B9",
"1d c #C2B9B5",
"1e c #C2B9B9",
"1f c #C2B9BA",
"1g c #C2BAB8",
"1h c #C2BABA",
"1i c #C3ACAB",
"1j c #C3ADA8",
"1k c #C3AEAE",
"1l c #C3AEAF",
"1m c #C3AFAD",
"1n c #C3AFAF",
"1o c #C3AFB0",
"1p c #C3B0AC",
"1q c #C3B0AE",
"1r c #C3B0AF",
"1s c #C3B0B0",
"1t c #C3B0B1",
"1u c #C3B1AB",
"1v c #C3B1AF",
"1w c #C3B1B0",
"1x c #C3B1B1",
"1y c #C3B1B2",
"1z c #C3B2AE",
"1{ c #C3B2AF",
"1| c #C3B2B0",
"1} c #C3B2B1",
"1~ c #C3B2B2",
"2! c #C3B2B3",
"2# c #C3B3AF",
"2$ c #C3B3B1",
"2% c #C3B3B2",
"2& c #C3B3B3",
"2' c #C3B3B4",
"2( c #C3B4B2",
"2) c #C3B4B3",
"2* c #C3B4B4",
"2+ c #C3B4B6",
"2, c #C3B5AF",
"2- c #C3B5B2",
"2. c #C3B5B3",
"2/ c #C3B5B4",
"20 c #C3B5B5",
"21 c #C3B5B6",
"22 c #C3B6B3",
"23 c #C3B6B4",
"24 c #C3B6B5",
"25 c #C3B6B6",
"26 c #C3B6B7",
"27 c #C3B6B9",
"28 c #C3B7B5",
"29 c #C3B7B6",
"2: c #C3B7B7",
"2; c #C3B7B8",
"2< c #C3B7B9",
"2= c #C3B8B4",
"2> c #C3B8B6",
"2? c #C3B8B7",
"2@ c #C3B8B8",
"2A c #C3B8BA",
"2B c #C3B8BB",
"2C c #C3B9B7",
"2D c #C3B9B8",
"2E c #C3BAB8",
"2F c #C3BABB",
"2G c #C3BBB9",
"2H c #C3BBBA",
"2I c #C3BEBE",
"2J c #C4AFAD",
"2K c #C4AFAE",
"2L c #C4B0AD",
"2M c #C4B1AD",
"2N c #C4B1AE",
"2O c #C4B1AF",
"2P c #C4B1B0",
"2Q c #C4B1B3",
"2R c #C4B2AE",
"2S c #C4B2B0",
"2T c #C4B2B1",
"2U c #C4B2B2",
"2V c #C4B2B3",
"2W c #C4B3AD",
"2X c #C4B3B0",
"2Y c #C4B3B1",
"2Z c #C4B3B2",
"2[ c #C4B3B3",
"2] c #C4B3B4",
"2^ c #C4B4B1",
"2_ c #C4B4B2",
"2` c #C4B4B4",
"2a c #C4B4B5",
"2b c #C4B4B6",
"2c c #C4B5AF",
"2d c #C4B5B3",
"2e c #C4B5B4",
"2f c #C4B5B5",
"2g c #C4B5B6",
"2h c #C4B5B7",
"2i c #C4B6B1",
"2j c #C4B6B2",
"2k c #C4B6B4",
"2l c #C4B6B5",
"2m c #C4B6B6",
"2n c #C4B6B7",
"2o c #C4B6B8",
"2p c #C4B6B9",
"2q c #C4B7B4",
"2r c #C4B7B5",
"2s c #C4B7B6",
"2t c #C4B7B7",
"2u c #C4B7B8",
"2v c #C4B8B4",
"2w c #C4B8B7",
"2x c #C4B8B8",
"2y c #C4B8BA",
"2z c #C4B9B4",
"2{ c #C4B9B6",
"2| c #C4B9B7",
"2} c #C4B9B8",
"2~ c #C4B9BA",
"3! c #C4BAB8",
"3# c #C4BAB9",
"3$ c #C4BABA",
"3% c #C4BABB",
"3& c #C4BBB9",
"3' c #C4BBBC",
"3( c #C4BBBD",
"3) c #C4BEBD",
"3* c #C5AEAF",
"3+ c #C5B0AD",
"3, c #C5B0B3",
"3- c #C5B1B0",
"3. c #C5B2B3",
"3/ c #C5B3AF",
"30 c #C5B3B0",
"31 c #C5B3B1",
"32 c #C5B3B2",
"33 c #C5B3B3",
"34 c #C5B3B6",
"35 c #C5B4B1",
"36 c #C5B4B2",
"37 c #C5B4B3",
"38 c #C5B4B5",
"39 c #C5B5B1",
"3: c #C5B5B3",
"3; c #C5B5B4",
"3< c #C5B5B5",
"3= c #C5B5B6",
"3> c #C5B6B0",
"3? c #C5B6B1",
"3@ c #C5B6B2",
"3A c #C5B6B3",
"3B c #C5B6B4",
"3C c #C5B6B5",
"3D c #C5B6B6",
"3E c #C5B6B7",
"3F c #C5B6B8",
"3G c #C5B7B2",
"3H c #C5B7B4",
"3I c #C5B7B5",
"3J c #C5B7B6",
"3K c #C5B7B7",
"3L c #C5B7B8",
"3M c #C5B8B4",
"3N c #C5B8B6",
"3O c #C5B8B7",
"3P c #C5B8B8",
"3Q c #C5B8B9",
"3R c #C5B8BA",
"3S c #C5B9B8",
"3T c #C5B9B9",
"3U c #C5B9BB",
"3V c #C5BAB5",
"3W c #C5BAB8",
"3X c #C5BAB9",
"3Y c #C5BABC",
"3Z c #C5BBB9",
"3[ c #C5BBBA",
"3] c #C5BBBB",
"3^ c #C5BCBA",
"3_ c #C5BCBB",
"3` c #C5BDBC",
"3a c #C5BDBF",
"3b c #C6AFAC",
"3c c #C6AFAD",
"3d c #C6B0AB",
"3e c #C6B0AD",
"3f c #C6B0B3",
"3g c #C6B2AF",
"3h c #C6B2B0",
"3i c #C6B2B1",
"3j c #C6B2B5",
"3k c #C6B3AD",
"3l c #C6B3AF",
"3m c #C6B3B0",
"3n c #C6B3B1",
"3o c #C6B3B5",
"3p c #C6B4AF",
"3q c #C6B4B0",
"3r c #C6B4B1",
"3s c #C6B4B2",
"3t c #C6B4B3",
"3u c #C6B4B4",
"3v c #C6B4B5",
"3w c #C6B5B0",
"3x c #C6B5B2",
"3y c #C6B5B3",
"3z c #C6B5B4",
"3{ c #C6B5B5",
"3| c #C6B5B7",
"3} c #C6B6B1",
"3~ c #C6B6B3",
"4! c #C6B6B4",
"4# c #C6B6B5",
"4$ c #C6B6B6",
"4% c #C6B6B7",
"4& c #C6B6B8",
"4' c #C6B7B0",
"4( c #C6B7B3",
"4) c #C6B7B4",
"4* c #C6B7B5",
"4+ c #C6B7B6",
"4, c #C6B7B7",
"4- c #C6B8B4",
"4. c #C6B8B6",
"4/ c #C6B8B7",
"40 c #C6B8B9",
"41 c #C6B8BA",
"42 c #C6B8BB",
"43 c #C6B9B3",
"44 c #C6B9B6",
"45 c #C6B9B7",
"46 c #C6B9B8",
"47 c #C6B9B9",
"48 c #C6BAB8",
"49 c #C6BBB8",
"4: c #C6BBB9",
"4; c #C6BBBB",
"4< c #C6BCBB",
"4= c #C6BDBC",
"4> c #C6BDBD",
"4? c #C6BDBE",
"4@ c #C6BFBE",
"4A c #C7AEAE",
"4B c #C7AFAE",
"4C c #C7B1B1",
"4D c #C7B1B2",
"4E c #C7B2B0",
"4F c #C7B2B2",
"4G c #C7B3AE",
"4H c #C7B3B0",
"4I c #C7B3B1",
"4J c #C7B3B3",
"4K c #C7B4AC",
"4L c #C7B4AD",
"4M c #C7B4AF",
"4N c #C7B4B1",
"4O c #C7B4B2",
"4P c #C7B4B3",
"4Q c #C7B4B5",
"4R c #C7B4B6",
"4S c #C7B5AF",
"4T c #C7B5B0",
"4U c #C7B5B2",
"4V c #C7B5B3",
"4W c #C7B5B4",
"4X c #C7B5B6",
"4Y c #C7B5B7",
"4Z c #C7B6B4",
"4[ c #C7B6B5",
"4] c #C7B6B6",
"4^ c #C7B7B3",
"4_ c #C7B7B4",
"4` c #C7B7B5",
"4a c #C7B7B6",
"4b c #C7B7B7",
"4c c #C7B7B8",
"4d c #C7B7BA",
"4e c #C7B8B5",
"4f c #C7B8B6",
"4g c #C7B8B7",
"4h c #C7B8B8",
"4i c #C7B8B9",
"4j c #C7B8BB",
"4k c #C7B9B7",
"4l c #C7B9B8",
"4m c #C7B9B9",
"4n c #C7B9BB",
"4o c #C7BAB6",
"4p c #C7BAB8",
"4q c #C7BAB9",
"4r c #C7BABA",
"4s c #C7BBB5",
"4t c #C7BBB7",
"4u c #C7BBBA",
"4v c #C7BBBB",
"4w c #C7BBBD",
"4x c #C7BBBF",
"4y c #C7BCB9",
"4z c #C7BCBA",
"4{ c #C7BCBB",
"4| c #C7BCBC",
"4} c #C7BCBD",
"4~ c #C7BDBC",
"5! c #C7BDBD",
"5# c #C7BDBE",
"5$ c #C7BEBC",
"5% c #C7BEBF",
"5& c #C7BFBE",
"5' c #C7BFC1",
"5( c #C7C1C0",
"5) c #C8AFAA",
"5* c #C8B1B2",
"5+ c #C8B2B0",
"5, c #C8B3B0",
"5- c #C8B4B0",
"5. c #C8B4B1",
"5/ c #C8B5B0",
"50 c #C8B5B3",
"51 c #C8B5B4",
"52 c #C8B6B4",
"53 c #C8B6B6",
"54 c #C8B6B8",
"55 c #C8B7B1",
"56 c #C8B7B2",
"57 c #C8B7B3",
"58 c #C8B7B4",
"59 c #C8B7B5",
"5: c #C8B7B6",
"5; c #C8B7B7",
"5< c #C8B8B4",
"5= c #C8B8B6",
"5> c #C8B8B7",
"5? c #C8B8B8",
"5@ c #C8B8B9",
"5A c #C8B9B7",
"5B c #C8B9B8",
"5C c #C8B9B9",
"5D c #C8B9BA",
"5E c #C8B9BB",
"5F c #C8BAB6",
"5G c #C8BAB8",
"5H c #C8BAB9",
"5I c #C8BABA",
"5J c #C8BABB",
"5K c #C8BABC",
"5L c #C8BBB7",
"5M c #C8BBB9",
"5N c #C8BBBA",
"5O c #C8BBBB",
"5P c #C8BBBC",
"5Q c #C8BCB5",
"5R c #C8BCB7",
"5S c #C8BCB8",
"5T c #C8BCBA",
"5U c #C8BCBB",
"5V c #C8BCBC",
"5W c #C8BCBD",
"5X c #C8BDB9",
"5Y c #C8BDBA",
"5Z c #C8BDBB",
"5[ c #C8BDBC",
"5] c #C8BDBE",
"5^ c #C8BDBF",
"5_ c #C8BEBE",
"5` c #C8BEBF",
"5a c #C8BFBD",
"5b c #C8BFBE",
"5c c #C8BFBF",
"5d c #C8BFC0",
"5e c #C8C0C2",
"5f c #C9B3B2",
"5g c #C9B4B0",
"5h c #C9B4B3",
"5i c #C9B5B1",
"5j c #C9B5B3",
"5k c #C9B6B0",
"5l c #C9B6B1",
"5m c #C9B6B3",
"5n c #C9B6B4",
"5o c #C9B7B1",
"5p c #C9B7B3",
"5q c #C9B7B4",
"5r c #C9B7B5",
"5s c #C9B7B6",
"5t c #C9B7B8",
"5u c #C9B7B9",
"5v c #C9B8B5",
"5w c #C9B8B6",
"5x c #C9B8B7",
"5y c #C9B8B8",
"5z c #C9B9B5",
"5{ c #C9B9B6",
"5| c #C9B9B7",
"5} c #C9B9B8",
"5~ c #C9B9B9",
"6! c #C9B9BA",
"6# c #C9B9BB",
"6$ c #C9BAB3",
"6% c #C9BAB5",
"6& c #C9BAB6",
"6' c #C9BAB7",
"6( c #C9BAB8",
"6) c #C9BAB9",
"6* c #C9BABA",
"6+ c #C9BABB",
"6, c #C9BBB8",
"6- c #C9BBB9",
"6. c #C9BBBA",
"6/ c #C9BBBB",
"60 c #C9BBBC",
"61 c #C9BCB7",
"62 c #C9BCB9",
"63 c #C9BCBA",
"64 c #C9BCBC",
"65 c #C9BCBD",
"66 c #C9BCBE",
"67 c #C9BDB7",
"68 c #C9BDBC",
"69 c #C9BDBD",
"6: c #C9BDBE",
"6; c #C9BEBD",
"6< c #C9BEBE",
"6= c #C9BFBE",
"6> c #C9BFC1",
"6? c #C9C0BF",
"6@ c #C9C1C0",
"6A c #C9C1C1",
"6B c #C9C2C1",
"6C c #CAB4B0",
"6D c #CAB5B3",
"6E c #CAB7AF",
"6F c #CAB7B4",
"6G c #CAB7B5",
"6H c #CAB7B6",
"6I c #CAB7B7",
"6J c #CAB7B8",
"6K c #CAB8B3",
"6L c #CAB8B4",
"6M c #CAB8B5",
"6N c #CAB8B6",
"6O c #CAB8B7",
"6P c #CAB9B4",
"6Q c #CAB9B6",
"6R c #CAB9B7",
"6S c #CAB9B8",
"6T c #CAB9B9",
"6U c #CAB9BA",
"6V c #CABAB4",
"6W c #CABAB5",
"6X c #CABAB6",
"6Y c #CABAB7",
"6Z c #CABAB8",
"6[ c #CABAB9",
"6] c #CABABA",
"6^ c #CABABB",
"6_ c #CABABD",
"6` c #CABBB6",
"6a c #CABBB7",
"6b c #CABBB8",
"6c c #CABBB9",
"6d c #CABBBA",
"6e c #CABBBB",
"6f c #CABBBC",
"6g c #CABCB8",
"6h c #CABCB9",
"6i c #CABCBB",
"6j c #CABCBC",
"6k c #CABCBD",
"6l c #CABDB8",
"6m c #CABDB9",
"6n c #CABDBA",
"6o c #CABDBC",
"6p c #CABDBD",
"6q c #CABDBE",
"6r c #CABDBF",
"6s c #CABEBB",
"6t c #CABEBC",
"6u c #CABEBD",
"6v c #CABEBF",
"6w c #CABFBB",
"6x c #CABFBE",
"6y c #CABFBF",
"6z c #CABFC0",
"6{ c #CAC0BA",
"6| c #CAC0BD",
"6} c #CAC0BE",
"6~ c #CAC0BF",
"7! c #CAC0C0",
"7# c #CAC1BF",
"7$ c #CAC1C0",
"7% c #CAC1C1",
"7& c #CAC1C2",
"7' c #CAC3C5",
"7( c #CBB5B5",
"7) c #CBB5B7",
"7* c #CBB6B3",
"7+ c #CBB7B4",
"7, c #CBB8B5",
"7- c #CBB8B6",
"7. c #CBB8B7",
"7/ c #CBB8B8",
"70 c #CBB8B9",
"71 c #CBB9B5",
"72 c #CBB9B6",
"73 c #CBB9B7",
"74 c #CBB9B8",
"75 c #CBB9B9",
"76 c #CBB9BB",
"77 c #CBBAB4",
"78 c #CBBAB6",
"79 c #CBBAB7",
"7: c #CBBAB8",
"7; c #CBBAB9",
"7< c #CBBABB",
"7= c #CBBBB7",
"7> c #CBBBB8",
"7? c #CBBBB9",
"7@ c #CBBBBA",
"7A c #CBBBBB",
"7B c #CBBBBC",
"7C c #CBBCB4",
"7D c #CBBCB8",
"7E c #CBBCB9",
"7F c #CBBCBA",
"7G c #CBBCBB",
"7H c #CBBCBC",
"7I c #CBBCBD",
"7J c #CBBCBF",
"7K c #CBBDB8",
"7L c #CBBDB9",
"7M c #CBBDBA",
"7N c #CBBDBB",
"7O c #CBBDBC",
"7P c #CBBDBD",
"7Q c #CBBDBE",
"7R c #CBBDBF",
"7S c #CBBEB6",
"7T c #CBBEB8",
"7U c #CBBEB9",
"7V c #CBBEBC",
"7W c #CBBEBD",
"7X c #CBBEBE",
"7Y c #CBBEBF",
"7Z c #CBBFBC",
"7[ c #CBBFBD",
"7] c #CBBFBE",
"7^ c #CBC0BC",
"7_ c #CBC0BE",
"7` c #CBC0BF",
"7a c #CBC0C0",
"7b c #CBC1BB",
"7c c #CBC1BE",
"7d c #CBC1C1",
"7e c #CBC2C2",
"7f c #CBC3C2",
"7g c #CBC3C3",
"7h c #CBC4C2",
"7i c #CBC5C5",
"7j c #CCB6B4",
"7k c #CCB8B3",
"7l c #CCB8B4",
"7m c #CCB8B5",
"7n c #CCB9B5",
"7o c #CCB9B8",
"7p c #CCBAB5",
"7q c #CCBAB6",
"7r c #CCBAB8",
"7s c #CCBAB9",
"7t c #CCBABB",
"7u c #CCBBB6",
"7v c #CCBBB9",
"7w c #CCBBBA",
"7x c #CCBBBB",
"7y c #CCBBBC",
"7z c #CCBCB7",
"7{ c #CCBCB8",
"7| c #CCBCB9",
"7} c #CCBCBA",
"7~ c #CCBCBC",
"8! c #CCBDB9",
"8# c #CCBDBA",
"8$ c #CCBDBB",
"8% c #CCBDBC",
"8& c #CCBDBD",
"8' c #CCBDBE",
"8( c #CCBDBF",
"8) c #CCBEB7",
"8* c #CCBEB8",
"8+ c #CCBEB9",
"8, c #CCBEBA",
"8- c #CCBEBB",
"8. c #CCBEBC",
"8/ c #CCBEBD",
"80 c #CCBEBF",
"81 c #CCBFBA",
"82 c #CCBFBB",
"83 c #CCBFBC",
"84 c #CCBFBE",
"85 c #CCBFBF",
"86 c #CCC0BC",
"87 c #CCC0BD",
"88 c #CCC0BF",
"89 c #CCC0C1",
"8: c #CCC1BE",
"8; c #CCC1BF",
"8< c #CCC1C0",
"8= c #CCC1C1",
"8> c #CCC2BE",
"8? c #CCC2C0",
"8@ c #CCC2C1",
"8A c #CCC2C2",
"8B c #CCC2C3",
"8C c #CDB5B5",
"8D c #CDB6B2",
"8E c #CDB8B4",
"8F c #CDB8B5",
"8G c #CDB8B7",
"8H c #CDB8B8",
"8I c #CDB9B5",
"8J c #CDB9B7",
"8K c #CDBAB5",
"8L c #CDBAB6",
"8M c #CDBAB7",
"8N c #CDBAB8",
"8O c #CDBABB",
"8P c #CDBBB8",
"8Q c #CDBBB9",
"8R c #CDBBBA",
"8S c #CDBBBB",
"8T c #CDBBBC",
"8U c #CDBCB6",
"8V c #CDBCB8",
"8W c #CDBCB9",
"8X c #CDBCBA",
"8Y c #CDBCBB",
"8Z c #CDBCBC",
"8[ c #CDBCBD",
"8] c #CDBDB9",
"8^ c #CDBDBA",
"8_ c #CDBDBB",
"8` c #CDBDBC",
"8a c #CDBDBD",
"8b c #CDBEB6",
"8c c #CDBEBA",
"8d c #CDBEBB",
"8e c #CDBEBC",
"8f c #CDBEBD",
"8g c #CDBEBE",
"8h c #CDBEBF",
"8i c #CDBEC0",
"8j c #CDBFBA",
"8k c #CDBFBC",
"8l c #CDBFBD",
"8m c #CDBFBE",
"8n c #CDBFBF",
"8o c #CDBFC0",
"8p c #CDC0BD",
"8q c #CDC0BF",
"8r c #CDC0C0",
"8s c #CDC0C2",
"8t c #CDC1BE",
"8u c #CDC1BF",
"8v c #CDC1C1",
"8w c #CDC2C1",
"8x c #CDC2C2",
"8y c #CDC2C3",
"8z c #CDC3C1",
"8{ c #CDC3C3",
"8| c #CEB8B6",
"8} c #CEB8B7",
"8~ c #CEB8B8",
"9! c #CEB9B3",
"9# c #CEB9B5",
"9$ c #CEB9B7",
"9% c #CEB9B8",
"9& c #CEBAB5",
"9' c #CEBAB7",
"9( c #CEBAB8",
"9) c #CEBABD",
"9* c #CEBBB9",
"9+ c #CEBBBA",
"9, c #CEBBBB",
"9- c #CEBCB7",
"9. c #CEBCB8",
"9/ c #CEBCB9",
"90 c #CEBCBA",
"91 c #CEBCBB",
"92 c #CEBCBD",
"93 c #CEBDB9",
"94 c #CEBDBA",
"95 c #CEBDBB",
"96 c #CEBDBC",
"97 c #CEBDBF",
"98 c #CEBEBA",
"99 c #CEBEBB",
"9: c #CEBEBC",
"9; c #CEBEBD",
"9< c #CEBEBE",
"9= c #CEBEBF",
"9> c #CEBFBD",
"9? c #CEBFBE",
"9@ c #CEBFC1",
"9A c #CEC0BB",
"9B c #CEC0BC",
"9C c #CEC0BD",
"9D c #CEC0BE",
"9E c #CEC0BF",
"9F c #CEC0C0",
"9G c #CEC1BC",
"9H c #CEC1BE",
"9I c #CEC1BF",
"9J c #CEC1C0",
"9K c #CEC2BE",
"9L c #CEC2BF",
"9M c #CEC2C0",
"9N c #CEC2C1",
"9O c #CEC2C2",
"9P c #CEC3C2",
"9Q c #CEC3C3",
"9R c #CEC4C2",
"9S c #CEC4C3",
"9T c #CEC4C4",
"9U c #CEC5C6",
"9V c #CEC6C6",
"9W c #CFB9B1",
"9X c #CFB9B8",
"9Y c #CFBAB7",
"9Z c #CFBBB6",
"9[ c #CFBCB8",
"9] c #CFBCBB",
"9^ c #CFBCBC",
"9_ c #CFBDB8",
"9` c #CFBDB9",
"9a c #CFBDBB",
"9b c #CFBDBC",
"9c c #CFBEB9",
"9d c #CFBEBA",
"9e c #CFBEBB",
"9f c #CFBEBC",
"9g c #CFBEBD",
"9h c #CFBEBE",
"9i c #CFBFB9",
"9j c #CFBFBB",
"9k c #CFBFBC",
"9l c #CFBFBD",
"9m c #CFBFBF",
"9n c #CFC0BC",
"9o c #CFC0BD",
"9p c #CFC0BE",
"9q c #CFC0BF",
"9r c #CFC0C0",
"9s c #CFC0C1",
"9t c #CFC1BD",
"9u c #CFC1BF",
"9v c #CFC1C1",
"9w c #CFC2BA",
"9x c #CFC2BE",
"9y c #CFC2BF",
"9z c #CFC2C0",
"9{ c #CFC2C1",
"9| c #CFC2C2",
"9} c #CFC2C3",
"9~ c #CFC3BA",
":! c #CFC3BF",
":# c #CFC3C1",
":$ c #CFC3C2",
":% c #CFC3C3",
":& c #CFC3C4",
":' c #CFC4C3",
":( c #CFC5C2",
":) c #CFC6C8",
":* c #CFC7C7",
":+ c #D0B9B7",
":, c #D0BAB9",
":- c #D0BCB8",
":. c #D0BCBB",
":/ c #D0BDB7",
":0 c #D0BDBB",
":1 c #D0BEB9",
":2 c #D0BFBC",
":3 c #D0BFBD",
":4 c #D0BFBF",
":5 c #D0C0B9",
":6 c #D0C0BA",
":7 c #D0C0BB",
":8 c #D0C0BC",
":9 c #D0C0BD",
":: c #D0C0BE",
":; c #D0C0BF",
":< c #D0C0C0",
":= c #D0C0C1",
":> c #D0C0C2",
":? c #D0C1BB",
":@ c #D0C1BC",
":A c #D0C1BE",
":B c #D0C1BF",
":C c #D0C1C0",
":D c #D0C1C1",
":E c #D0C1C2",
":F c #D0C2BB",
":G c #D0C2BD",
":H c #D0C2BF",
":I c #D0C2C0",
":J c #D0C2C1",
":K c #D0C2C2",
":L c #D0C3BC",
":M c #D0C3BF",
":N c #D0C3C0",
":O c #D0C3C1",
":P c #D0C3C2",
":Q c #D0C3C3",
":R c #D0C4BF",
":S c #D0C4C0",
":T c #D0C4C2",
":U c #D0C4C3",
":V c #D0C5C3",
":W c #D0C5C4",
":X c #D0C5C5",
":Y c #D0C6C2",
":Z c #D0C8C7",
":[ c #D1BBB7",
":] c #D1BCB9",
":^ c #D1BDBA",
":_ c #D1BDBC",
":` c #D1BEB9",
":a c #D1BEBA",
":b c #D1BEBD",
":c c #D1BEBF",
":d c #D1BFB9",
":e c #D1BFBA",
":f c #D1BFBB",
":g c #D1BFBE",
":h c #D1BFBF",
":i c #D1BFC1",
":j c #D1C0BC",
":k c #D1C0BE",
":l c #D1C0BF",
":m c #D1C1BD",
":n c #D1C1BE",
":o c #D1C1BF",
":p c #D1C1C0",
":q c #D1C1C1",
":r c #D1C2BD",
":s c #D1C2BE",
":t c #D1C2BF",
":u c #D1C2C1",
":v c #D1C2C2",
":w c #D1C3BE",
":x c #D1C3BF",
":y c #D1C3C0",
":z c #D1C3C1",
":{ c #D1C3C2",
":| c #D1C3C3",
":} c #D1C3C4",
":~ c #D1C4C0",
";! c #D1C4C1",
";# c #D1C4C2",
";$ c #D1C4C3",
";% c #D1C4C4",
";& c #D1C5C2",
";' c #D1C5C3",
";( c #D1C5C4",
";) c #D1C5C5",
";* c #D1C5C6",
";+ c #D1C6C3",
";, c #D1C6C4",
";- c #D1C7C5",
";. c #D1C8C6",
";/ c #D1C8C8",
";0 c #D2BCBA",
";1 c #D2BCBD",
";2 c #D2BEBA",
";3 c #D2BEBC",
";4 c #D2C0BD",
";5 c #D2C1BE",
";6 c #D2C2BB",
";7 c #D2C2BC",
";8 c #D2C2BD",
";9 c #D2C2BE",
";: c #D2C2C0",
";; c #D2C2C1",
";< c #D2C2C2",
";= c #D2C3BE",
";> c #D2C3BF",
";? c #D2C3C0",
";@ c #D2C3C1",
";A c #D2C3C2",
";B c #D2C4C1",
";C c #D2C4C3",
";D c #D2C4C5",
";E c #D2C5C0",
";F c #D2C5C1",
";G c #D2C5C2",
";H c #D2C5C3",
";I c #D2C5C4",
";J c #D2C5C5",
";K c #D2C5C7",
";L c #D2C6BF",
";M c #D2C6C1",
";N c #D2C6C4",
";O c #D2C6C5",
";P c #D2C6C6",
";Q c #D2C7C5",
";R c #D2C7C7",
";S c #D2C7C8",
";T c #D2C8C9",
";U c #D2CBC9",
";V c #D2CCCD",
";W c #D3BEBD",
";X c #D3BFBA",
";Y c #D3BFBD",
";Z c #D3C1BE",
";[ c #D3C1BF",
";] c #D3C2BD",
";^ c #D3C2BE",
";_ c #D3C2BF",
";` c #D3C2C0",
";a c #D3C2C1",
";b c #D3C3BE",
";c c #D3C3BF",
";d c #D3C3C0",
";e c #D3C3C1",
";f c #D3C3C2",
";g c #D3C4C0",
";h c #D3C4C1",
";i c #D3C4C2",
";j c #D3C4C4",
";k c #D3C5C0",
";l c #D3C5C1",
";m c #D3C5C4",
";n c #D3C5C5",
";o c #D3C6C1",
";p c #D3C6C3",
";q c #D3C6C4",
";r c #D3C6C6",
";s c #D3C7BE",
";t c #D3C7C0",
";u c #D3C7C2",
";v c #D3C7C4",
";w c #D3C7C5",
";x c #D3C7C7",
";y c #D3C7C8",
";z c #D3C7C9",
";{ c #D3C8C3",
";| c #D3C8C4",
";} c #D3C8C5",
";~ c #D3C8C8",
"<! c #D3C9C3",
"<# c #D3C9C5",
"<$ c #D3C9C8",
"<% c #D3C9C9",
"<& c #D3CACA",
"<' c #D4BEBC",
"<( c #D4BEBF",
"<) c #D4C0BD",
"<* c #D4C1BC",
"<+ c #D4C1BE",
"<, c #D4C1BF",
"<- c #D4C2C1",
"<. c #D4C3BC",
"</ c #D4C3BE",
"<0 c #D4C3C0",
"<1 c #D4C3C1",
"<2 c #D4C3C2",
"<3 c #D4C3C3",
"<4 c #D4C4BF",
"<5 c #D4C4C0",
"<6 c #D4C4C1",
"<7 c #D4C4C2",
"<8 c #D4C4C3",
"<9 c #D4C5BE",
"<: c #D4C5C0",
"<; c #D4C5C3",
"<< c #D4C5C4",
"<= c #D4C5C5",
"<> c #D4C6C0",
"<? c #D4C6C1",
"<@ c #D4C6C2",
"<A c #D4C6C4",
"<B c #D4C6C5",
"<C c #D4C6C6",
"<D c #D4C7C3",
"<E c #D4C7C4",
"<F c #D4C7C5",
"<G c #D4C7C6",
"<H c #D4C8C0",
"<I c #D4C8C5",
"<J c #D4C8C6",
"<K c #D4C8C7",
"<L c #D4C8C8",
"<M c #D4C9C5",
"<N c #D4C9C6",
"<O c #D4C9C7",
"<P c #D4C9C8",
"<Q c #D4CAC7",
"<R c #D4CAC9",
"<S c #D5BEBA",
"<T c #D5C0BC",
"<U c #D5C1B3",
"<V c #D5C1BC",
"<W c #D5C2C1",
"<X c #D5C2C2",
"<Y c #D5C2C3",
"<Z c #D5C3BA",
"<[ c #D5C3BE",
"<] c #D5C3BF",
"<^ c #D5C3C0",
"<_ c #D5C4BC",
"<` c #D5C4C2",
"<a c #D5C4C4",
"<b c #D5C5BF",
"<c c #D5C5C1",
"<d c #D5C5C2",
"<e c #D5C5C3",
"<f c #D5C5C4",
"<g c #D5C5C6",
"<h c #D5C6C1",
"<i c #D5C6C3",
"<j c #D5C6C6",
"<k c #D5C6C7",
"<l c #D5C7C0",
"<m c #D5C7C4",
"<n c #D5C7C5",
"<o c #D5C7C6",
"<p c #D5C8C6",
"<q c #D5C8C8",
"<r c #D5C9C4",
"<s c #D5C9C8",
"<t c #D5CAC4",
"<u c #D5CAC7",
"<v c #D5CAC8",
"<w c #D5CACA",
"<x c #D5CBC8",
"<y c #D5CBCC",
"<z c #D5CCC8",
"<{ c #D5CCCB",
"<| c #D6BFBF",
"<} c #D6C4BB",
"<~ c #D6C4BF",
"=! c #D6C5C2",
"=# c #D6C5C4",
"=$ c #D6C6C4",
"=% c #D6C6C5",
"=& c #D6C6C6",
"=' c #D6C7C2",
"=( c #D6C7C4",
"=) c #D6C7C5",
"=* c #D6C7C6",
"=+ c #D6C7C7",
"=, c #D6C8C2",
"=- c #D6C8C4",
"=. c #D6C8C7",
"=/ c #D6C9C5",
"=0 c #D6C9C7",
"=1 c #D6C9CA",
"=2 c #D6CAC7",
"=3 c #D6CAC8",
"=4 c #D6CBC5",
"=5 c #D6CBC8",
"=6 c #D6CBC9",
"=7 c #D6CBCA",
"=8 c #D6CBCB",
"=9 c #D6CCCA",
"=: c #D6CCCB",
"=; c #D6CDC9",
"=< c #D6CDCB",
"== c #D6CFCD",
"=> c #D7C5C5",
"=? c #D7C6C4",
"=@ c #D7C7C2",
"=A c #D7C7C5",
"=B c #D7C7C6",
"=C c #D7C8C2",
"=D c #D7C8C4",
"=E c #D7C8C5",
"=F c #D7C8C6",
"=G c #D7C9C3",
"=H c #D7C9C4",
"=I c #D7C9C5",
"=J c #D7C9C6",
"=K c #D7C9C7",
"=L c #D7C9C8",
"=M c #D7C9CA",
"=N c #D7CAC5",
"=O c #D7CAC8",
"=P c #D7CAC9",
"=Q c #D7CBC5",
"=R c #D7CBC6",
"=S c #D7CBC7",
"=T c #D7CBC8",
"=U c #D7CBC9",
"=V c #D7CCC7",
"=W c #D7CCCA",
"=X c #D7CCCB",
"=Y c #D7CCCC",
"=Z c #D7CDCA",
"=[ c #D7D0CF",
"=] c #D8C0BB",
"=^ c #D8C7C1",
"=_ c #D8C7C2",
"=` c #D8C7C3",
"=a c #D8C7C4",
"=b c #D8C8C4",
"=c c #D8C8C5",
"=d c #D8C8C6",
"=e c #D8C8C7",
"=f c #D8C9C4",
"=g c #D8C9C7",
"=h c #D8C9C9",
"=i c #D8CAC5",
"=j c #D8CAC6",
"=k c #D8CAC8",
"=l c #D8CAC9",
"=m c #D8CBC6",
"=n c #D8CBC8",
"=o c #D8CBC9",
"=p c #D8CCC9",
"=q c #D8CCCD",
"=r c #D8CDCA",
"=s c #D8CDCB",
"=t c #D8CDCC",
"=u c #D8CECE",
"=v c #D8CFCE",
"=w c #D8D0CF",
"=x c #D9C6C6",
"=y c #D9C7C6",
"=z c #D9C8C5",
"={ c #D9C9C4",
"=| c #D9CAC3",
"=} c #D9CAC8",
"=~ c #D9CACA",
">! c #D9CBC7",
"># c #D9CBC9",
">$ c #D9CCC8",
">% c #D9CCCA",
">& c #D9CCCB",
">' c #D9CDC9",
">( c #D9CDCB",
">) c #D9CDCC",
">* c #D9CDCD",
">+ c #D9CECA",
">, c #D9CECE",
">- c #D9CFCB",
">. c #D9CFCD",
">/ c #D9D0CD",
">0 c #D9D1CE",
">1 c #DACAC6",
">2 c #DACAC7",
">3 c #DACAC8",
">4 c #DACBC6",
">5 c #DACBC7",
">6 c #DACBC8",
">7 c #DACCC5",
">8 c #DACCC9",
">9 c #DACDCA",
">: c #DACDCB",
">; c #DACEC9",
">< c #DACECE",
">= c #DAD0CD",
">> c #DAD1D1",
">? c #DBCBC6",
">@ c #DBCBC8",
">A c #DBCBC9",
">B c #DBCCC0",
">C c #DBCCC8",
">D c #DBCCC9",
">E c #DBCCCA",
">F c #DBCDC6",
">G c #DBCDC9",
">H c #DBCDCA",
">I c #DBCDCB",
">J c #DBCDCC",
">K c #DBCDCD",
">L c #DBCEC9",
">M c #DBCECA",
">N c #DBCECB",
">O c #DBCECD",
">P c #DBCECE",
">Q c #DBCFCB",
">R c #DBCFCD",
">S c #DBCFCF",
">T c #DBD0C9",
">U c #DBD0CD",
">V c #DBD0CF",
">W c #DBD1CF",
">X c #DBD1D0",
">Y c #DCCAC6",
">Z c #DCCCC8",
">[ c #DCCCCA",
">] c #DCCDC6",
">^ c #DCCDC9",
">_ c #DCD0C8",
">` c #DCD0CB",
">a c #DCD0CC",
">b c #DCD1CD",
">c c #DCD1D0",
">d c #DDCBC2",
">e c #DDCBC5",
">f c #DDD0CC",
">g c #DDD0CF",
">h c #DDD1CD",
">i c #DDD1CF",
">j c #DDD1D0",
">k c #DDD1D1",
">l c #DDD2CF",
">m c #DDD2D0",
">n c #DECFCB",
">o c #DED2D0",
">p c #DED3D2",
">q c #DED4D4",
">r c #DED6D3",
">s c #DFCEC8",
">t c #DFCFCD",
">u c #DFD1CE",
">v c #DFD3CE",
">w c #DFD3D0",
">x c #DFD4D1",
">y c #DFD5D3",
">z c #E0CFCA",
">{ c #E0D2CB",
">| c #E0D4CE",
">} c #E0D4D1",
">~ c #E0D5D3",
"?! c #E0D5D4",
"?# c #E0D7D4",
"?$ c #E1D4D4",
"?% c #E1D6D2",
"?& c #E1D7D4",
"?' c #E2D7D3",
"?( c #E2D7D5",
"?) c #E2D8D8",
"?* c #E2D9D5",
"?+ c #E2DBD8",
"?, c #E3DAD6",
"?- c #E4D5CD",
"?. c #E4D9D5",
"?/ c #E4DDDB",
"?0 c #E5D7D3",
"?1 c #E5DBDA",
"?2 c #E5DCDB",
"?3 c #E5DDDB",
"?4 c #E6DCD9",
"?5 c #E6DDDC",
"?6 c #E7DDDB",
/* pixels */
"$q$c!x$o!l$#&)$G!+!l!)!P!##n#:$z!m%7!%#/#D'2&B#m!B#0%=)S$l+X)&%p(>(!$J!~#%#Y#N&~#B$I%4'}#K!Q!j$b&*%E$S'T#$%.&v(O'=(R%P(l&_&,(T(>",
"'x/b0>+;/308):/N$K,^0?007X-E3O3N7A(y*`17729[7=0b,0#F/X-t1i;@8h8:+.5&;e-&3h9k7}/d*n)q6d5Q5;6/.s,:)T-e/J5z<K9x6(48)k4i;Q4a<u3A4|1J",
"){4Z.E1A/*6r,|3x&n1#2_:};D0!2%3E:{'-3?1s4P<a>%3.-!!J7:1-8H<f>a1P&$89=_7j1k=h=73R',.y:`>H=}8X9h.,(a+N3e9Z1{5x:p;$)>1W9D951{4a5O7A",
",p?+0W7o1x4Y.}8r$Y3(7Q:q6[6S4]=M;p+V>P1j:B.Q12:<*y$~6D5k:=>(=';n(d0G8E4G8T<p;p1v(R/.<d>v<g9r?%+%&?6y:f<i8X9J0d5W'Y3_:J63:;>#506.",
"):5Z3S3<1P8v5y79(8,f-%31,~,P1B6_=0*e38<)5r2J:|=O3t$=4A;5>}?,=i:Q/69T8F<0>G=-<O4;*f2|::>X;l8l7v0H%^->:I;v;p2%:B2$!o1&<$;}6{1G/+5n",
"%07i8s5W+^.d.S.R%1)0+m-%.M25,c,]2f&f.$/K6i/b44:Y)P!L/#.P3;<z;B5Y)j*>/R01<L;Q.+2:&&/n;G<>0X,k4f+R&!.g>W618-240Z+C##+Z7R5[/d8B.06p",
"%05()b)>-6*w-U--'q,L,91N2l0I8>,G1)(+-l1=+B1&9M-1)W%<2.7^<x;{<I/;%N)D([-}9R<I-b2E(?9S:#2---451N)f%b1e2q084{7C:E)<!5+////o2H5#,j,&",
"(;'$%Q%o%Q%R#9#{%.'?'3&:&r&C&}&w'&'`&|#P$%#a$v#c!3#7$Z&{'U(=$u&/'a$u&`%h$_%F(O#@(R)h({$X&+&H(j'='Z&a'Y'6$a%i!6!'!T!9#=!y&^#)!:!E",
"(k7%/q(,/5-89~,D#M,l/j-z-Q7T/$271e(9-o-.*/3B-!5]'~%C227O3Q:S-//9%8'E0?1O2^3>3W2G&(3`9S:V5N>/=X3#&}6B2>-T7Z2v1R.Y!&*W-70x2A.8,n+'",
"%,/C*p*y9N968_1<%u*7.#3+3w:t0q5A1>)!665@51;^2a>.*a!g/y9l:C<.?&5M&t't2P7b;A;c:N0B$j4s=0>r;%8b;g3!$[0C<w3G:D;}>m3S#b,=-g29-31Q,%>W",
"#R2q+J5M3L.u8x<A#M0q78=-8t:q9H0i.I&n-)=k9m11-L6q,?!O6a6G=^6+4*,C$s,l;9=@;>8^<M.['o2C;B>x<F7?>i0D);.a6e<h=9=O>c2-#y,`.z4)0?,&051v",
"':20*F.H8i3v<V3y%R/f7:7l569e569E2e$g254W6.6(1.1t.$'4:65o<B9z4L/M#=/<;l81759y<t-Z#68z>u9n8X8W>+0s'3.b7r0$=76p4(4q!F2k7N.}140z+I-K",
"&[1H*y+=-(8'=v9.)K4y6&0R799(36:884%'<q=%>j8~9o6!9J(g>J>'=J:96e.&';,o;f:S8V9??24<$X3X<1<98U:7=N6|'J)74[:w;u/$7L3J&w2w5|.C/[4=1H18",
"%c*V(z+U*;+50A(z(|3)+S/7,a(y+~+6:H$s5R>B*=)!1+*C+W'X5_1`,#-j*X'C%6&=1_+w.[*U1c.i%K(N+H+o.x5F<J3W!h)`0F6;40-`.--f#(-;:V,k(U)d,G//",
"$;$^(p!H$$'%'_%m'@$y'[#`!]#L%2+0-c%q)-'r#3$_&C%5&J!I(v&}$]$B$s%D${!U#o$s%6#p&K$x%N!G!p#z#v){)G#^!8&b$$#Q!n%L''%7'^(n%M!S!?!.#]!5",
"%a4:/k*P,+9V2<0H*#)27g1U,E*m,t5%2w,582041^8z<#2E1,$v//.w-S467].6&z+U2l0V87455=.9$.)Z-{2,2#9P7?+Q)u*q9S2k43;.6..a,M5Y6).T8j-K801M",
"'l07*~+c=+9p0g72'P4>455u0t9u<n5?;-&o0^5j<p>]9k=s0r%/9;;a>G<Z>%>p2I'P6%;h56<_;7.V$h-f>=9i8L<!<l6n$N==835.;?;!<`>h%=/(2^9.<o;F<I90",
"%g-%.05=5U9p.x:A'T,&034$-w-M7y602%+g-F:3:R<+>E7F1O(P76:p>D>C=&;((L*6=?4Z9e:r?(3S)a/-7{:!:p=Z:B48'i5_:B<S:p:68M>;$C-B<v6(:t:?>^>2",
"$>,U0*9z4q2):H8m&9.67`4l2/6T=t4v2k&U.~6a=S=!>Z5O27&s<<8R;H>g?57a&62z:5=E4t7E6-5^(j*_;b=L6i:D=l;*(`+*=]>n;B>w=b>z,]*}6.=0=.;@<[5,",
"$0+n2_8`9}70634_'*-6;#9:/T7H2&0w9?-q.?<49G9j>[1v4w'z9q<v:;;j>t2N(B+u=`:N=P8e;|4!#>+{=C9J:C6o;t:(!c24>Y=A>1<@>Q<D+e2r<F9E7}9;<E8]",
"&;1C3-<o9;;a8f;f(49U9J<C1F/u-K8/=Q+71~5/5,7m>J7}4.&Z4I<l<,:b:];:(u-^=a<H=n>N<;/c'{3H98;L8l:u?48t%!-$>:?'>L;o:m82.{4:8%3n9I;<?*;[",
"$:)8/0)E*p+-/867%M5'5c+4*T(3*t,,8D$.1V*K+H<U=;-=)Q'R022.02,h7U5a#V'y4.3J7_=6/W1^#50|2i/X-z8p<%-f'U)f=43N2%:N6Z:p.A6@3$*31N1W3Z;$",
"%c#='#!*#?!m)a)l#s!R#_!/&E&-%7'%#1&(!u#V#f&7'p'u&n!C#&$5%k#z%@!&!=#*&I(Q#{(d'4,u'Y%#'9$2#W%='8'A(q%O%I.e#g&Y']&T*8&Z!t%O+b#{%c'Q",
"&h;w/U:U.W.U;z7d%z.:+t+@-:4>1Z4}+F*@8>6/4p-~1D8u2r$(6w0]5H6&7A*L)^6=9K6g2*:{=o28%y7[2)2*883T9>.W1[2@;C8-9x6a<|=>)J/21?0h9H1L8N2K",
"&j461=:u6d.r6/4V(M/m:S136N;#:W8Y<e)w/P:g9D7k<i?6/%)_;w6M<7>5?.=W*<-d7|>&8d<A;s4Z)|1g2.9=4l7;<r9L+.:*82>d>s:y>'=/&P1]3@9^=*94/G;2",
"#-+l5J4k4V5r/~6R&l*v0c3;552_7G6+84*o6::h<1=!>g>,2m)#5x5<6$5=7l6('v.5:$7Z=y<@9p9y&W-k;I203<6&5-3:,I9H>p;H?->{<-;_'009:K7H9@;h5|:+",
"#S,[,R-y1P8/5{:y&<*O3r351z523@6+5C(K6N=.?37I>#8w0/(e.D1w6Y6O6%0z(0*:5{9f596->l8@(H+}9:;g6(2Y/B.J(t8<>k=c?0;^;X9:(I,.4C=I2]586O=F",
"!-)m,33v;I2`6r=V'7/$:L:j5F3~0e88=K*s8<>}>o;x8i1y-)(`5D4.5A=68#37*$1*8/812Z7O<p9z%v3O:n4g:o2$7K/O)M6u:g5}=d9v=38m)=3B710U8M155u=j",
"!(*'5h7~:v8N0S;:&l0v<i;i=);Z4`5}>-+@;)>I6I;i9:4r<Q%39<:F=J;=7*1B&?8{7w8)2T2b9/4/5e.G=z8*1<5p7u87,81B95:j3m<;>!=$)58`>2=j9<6C7:;0",
"%|+y'O/i5Z*R'<0?#Z(O(F)z5X,W+w1d4l)V0q/f,Z,!2*).,e)k4;.(<?0-3p)R*d-6+E+#,>,B>02D$/)E,1./0m135S4y)U*=4p+A-P,]0z6~%~0H3J<&4;.L493J",
"'x#X!P#_,x&d%K%x%n!x$2%n&m'1)u+3%>%c(s%c&V!z&J$p$V&J)k%U%_&T'G%X&S#8&)%i$D%.,N1h!w#r%y)W(_&V$T-i)@'3+a$o!v$G-p&x!0*r)>!q%@#E(#$W",
"5d2*-f;K3V7c:$2/%z/p5Z-V*{+84Z:S</(s1K,{233P>y1(*Q$`830q2M.F:j1S*l,$*e,:*~1Y<P.6!N%}5<2_9C/Z:{29+v0=4+-{2./*;I6]$n263{5*6W3l=F9&",
"%]6<;N6O>9:H2d6F*b6?4/4a9u57>`=j>|3c;v<:=K17<f6'4]&u8%/z4S:1=,:G(68?9P0h-w4h<Q09%C*i6V5058/Z8+9>)O7!>T8T/A6S>U;;)x8<8*9X:c>I99<~",
",)0C7I=s>95n2j5w,);V/`6c4^;+9A6&77*)?#:@<b4%3s0o/,%+9F6E7p99=H8!&N:Z;T:V24=:3I/5'z)y4a2^3<9L5I6*,q*~8O59;n;C<o<k.3049]=L>3=#9k<T",
"+(6j7/6'9|4_9:<k,C)}9s<R6j6h9/7}:e+|8$6Z9%;f:J8q6^)F3|3k.k=U>$0Y(W3$319'3J7V4o4?!>(C/D3x3u=29p2'(x0~=~8N<(>$<;4Y(x2)<W7:>q:d<*<'",
"&k.m/I4,5q4k;m;E(Y3$4a<j?!3L6i6u:t.c2t9*<D7M0n3;1S%j:P:m<T>~7,0Z$-)*,/8,81+f-[3[!<'C2*1O;C1O:[7_'i.-9(53:b=Y<G/}$f1}<[9q>99r<j9e",
"+O193f6X;e=(39:,2|-m4F9>5|4Q=57B=m)?09>7;@7n4T:',4'w4{3l<`:r=f/^#+-_317S.G4_4p+]#'*?1N6x5~418V2m)4*f=K:s5>;@;I6K'F;F=g7s?$8S<8=x",
"'I+<-J68866p2d7z/10E1I1#28/^/'6u9B#W5L4f4f7O7W68;~)$*N,b-I8-9`6z%[0P2n4y+M.K8;,L(m0O401X*e.$,}2{#[)g<6=<,96b4k4'%$4k8m0/.K.R/::O",
"'M!a!_*B(K#X!K%`%c!1&w#l$s!1#N'Z#m&.#!%f!`%l(L&@*D(S!D$8#N%+#T)'&&'!)g)@$p$k's)H'{)g&w%6!^!f(w!e%7$9%L/=%A!M%Y#G'B%H,w&'!A#O!s!k",
"%x)X1^..8w1Y,<4e$?+`/r,;+~,p7$+[07+,0M;U1X--5!3$1f&Z,((<-j)].+.=';2H=w7h.8)>,m-<)%6A2:,H2:/2:-/k$7-?>0.--41!2u;-&s1a2};y0A4|/d0W",
"$)0)4*4j>)7@5E8Z$~6>2x,W.G6r9|4(8W2&;,:j>R<o<o4#;/(52o0.;y5I6R/2!Y0D7X/^/b/d0~0J'W+T-x7M:U2t;6/l$R5`>_4b349O8q2h$+2f>+6S-A;n4h7~",
"'l/b/T;':k9a:~/x'f)V6(4b3q855}0;2S(.+27w7-?1;k2p2+)e0u:9:z=18d2y#i3T1H-C1O2).}08(J+_4M1p1z=r4f0t)W/h:3:x=+:A8%:p'U2s>K;^505t99<Y",
")s6-4c4R0^3/>68N*y-W92478y5U2X7?<F'q+L;q7=5{7j2*8s'D<]5831.>4E0;&`5R4d5w4|5O645$#}4-.l5}5<=R359S*m0@:>8I5>58787,*g1x=B8X0f0_5|;3",
"&O626Y2&/F3z957r'))n-P4Y=P?/?)8=5U'{-/7)8J2X7|053<(j5y0!4m.z,z*&&P/</d,Q/*.-.N3#)B*S:A8'<B4`4#0x(E1%5j4Z9p8#989d)9/b9_><9l0h6U;9",
")Y.~5;;71n;<<K>e'b,_0'2.:&<2=u:%7F$h*R1/5+9_:24p0a#|406]9<>M16*-'h.2+j8@9|*]4l2~&I+12R0r2*4f6!:$.1,F8`6l91=E8W9,&M*.9+5=>)751D8G",
"'54,3<9N9D466/=.*b3]/S6(:v2a=8;r8%*p*z<};W<{:K2x/#(--(7O:l8A1r)o'-()1{0.-Q+G)(-5$w)i1>1^*G-D/W2>+)1)9g7F7z9b8e;B$'-+5m6o.|*y/Q7s",
"&;*11_8Z84*^5=<G0?-0+q7~;)6<6t8.8('e*I51:_3=9J05.%&Q8q;1541}2[/_%=-26`-Q,T*E3s*d&F(*4m8B0/9u2k1T&R=[9k/{/?:8=p<G($+p;@=n3y/K.q:I",
"$P%B(O*5$r%['y.[*!&Z$Q's$*%{&c(i$S#u$m*:(D(b':&A#x$4$H)~.f$E'>,]!r'k'K$e&0'+'c&5$6#U)#&$)#'s!i$S#J'N(X$}&e(A(V+9+Y)N(Y'm!$#C(/%T",
"&i0:/+454(3C8t;@&2-^+D692e-]7:2m=|(@0A6-0/7Y3D7J,C'/,d4k4a4%;/2@&82r0(1u:j9-;8.)'-*26,-R+>-(,4-/#u-[.o1/4I5<8c>b3M1L:M8n*Y2m7P2!",
"'.))0[4f9C:J8l33)M+v.#>q3200,V.S3F&Q2Q;`3,2Q9,3J04'j0l<39)8[>S24$)4.1./t:d:05f3;!W6i51<+72:48n5G%:+s9!9W:/9[>4>A:M9t>G7|5g2a;J92",
"#j+?2$2h/!6m8k4H$M*44q5W0`64.@1~-v!d-Y5G2U33:^1m3<(r0X3u>V>O=e65$!6o1o-@3-9'2K/e#,.y;j7t8Z1m4!1T&p4q<79Y1u=i={>@,7/>;A3o2e0^514C",
"![/26s1E.y0/;)4X$d.]-,.z7A4m*[0i0&!@+~-s-G.y7=,O0%&1131l>J;P0#+:&X+P2S5?2V)32b3u$&/+8Z4I5p:93i0m%;4<=G9[3d6L;`>F&L-H8^9;9D1y5K7x",
"!d,A:X.S0+1w4p1~%S+z<L5A2[5v*%,133#e3Q3*7w5l/@+i-|!V)I;c<^3}16.!&I/4=q:K:l4Z1O;S&y5T5q;8;54K7H:'%0(x<F7>4N9f8_>?%r2~7r5}2]8n6t<)",
"#.1Y4&+q472&5C:C$L-34]7D724-4-<s6f(~9N;b:i<m7?0T,-!X,S>f;d0k/H9E'8*m7I4D386i-u4n&p039Y939#71:K8{%x*w7(5B1:2%:H20#~:X8Q9{0g64:T4h",
"&#0:1P4#2r6.7|>**,++6-4O18/$1G4u6d$>7Z8C6]7M6Q9k*x&34I/w:^9c6G9K(84~/|6o4J8L0j.K$,1B5)<5;]:a;D:)3%)t734*30;4:95s&P802P-r1>6.5B9@",
"'(&&!r#A&]%i(c0?#t%V&q&g#f&4'2'W$3'u!}!{&u'L%@%('g$<#E!b(%%Z)r*l#q*u%9'5!Z$1#<!4!;!g%Z%s(&('2B7&%G$F)$(F%&!,)y$f!7*A#H!!%J(o)g&*",
"$A-G)/)C0K,*6<1O%[(2.7-Y'n-/3^5S.c&:$t)t*J)L.Z+A+Q%W'd-'4e:H*0.*#_)E1*(&*c0p+1,i#2*95G*:**5N6u7f)c(G/g-e-0)U9M(G,g7e),(h)6(}-92?",
"%e1y1#/&,X:*466j(_(&3]1E/V.n2m5G8o)A.*;n3j0Q2O;M6N+w.p7,8}8P:s2c&n.61;*H3b6M2).a%)4.9[3/7.5w52,2/)-P:e9w8M0e3g4c(^-)5=.t2e0t2;7W",
"$U+$850<:%401D4b,J'H-X4w4m4x;$>>5O/s5#42:=3D8d3K7W$|2L6H9g9*=D00#h3P7+9$728g<u3a,s6i7/;`6H5s<c<N+r/b9*8|9t:.=H6'#I365{6k0?0638:7",
"&!.;2@+K6/0{3E.O%%%A.X21(Z._1X.-,5$60H7<-N27.y7X.v$O3g1q/L4u=..j!|4@9*5i6I4#:u+%(f9S;i4V4B;q=p9N1b2}7q:u8a<q8_/T$s0w:P979D5P/04,",
"$B/95O0r7#5;-a;O%w)O*M1@-*/+*Z*|.u#w,A0,/v/d8%,64l#d=+<X=e6Y5A,@(:5b7y,y5g6/8.3'&G1X8&<=8Q:H;O;*$i1';m6Q5v1|=T9?'V5!3K5V6v0z3U5w",
"%*5[-#4.//-h,m0n$h)1.`-#,Y+x)s*+21#41$5:6#.c/c38*k'S2:106J.|+h1},r5_/S,S/E2l2g.4#;,m1x8l742(834z((+P3-7D6G.#5w25'Z3&7w0G9Q,C8<7X",
"'M)v6y2F4n.^//<y%?&%,d.B.]+s.S+>,d%d+!0&3B.w4`=v.'%t:%;Y75>85~7`(:1!3h/a4f=00%0L#k+O9r=W:z;B6/3Y(`*h6P2W1p7w4U6i+d6},z-&3D;R0h85",
"%-0N.<7'*>-n*=,t&Z&D)++&*5(],v(7-1'|(1)p*(+C2=,K)^(`+w,]-E0s,'*l%e+2*j+t;&-O9S.h!2)[5!7`5`/Y1_*U$@-d+k,8,Z,W;O8K&>0}/],n-<.W2:0y"
};
