/* XPM */
static char *stone_01[] = {
/* columns rows colors chars-per-pixel */
"64 64 3361 2",
/* colors */
"!! c #1C1717",
"!# c #1D1418",
"!$ c #1D1819",
"!% c #1E1817",
"!& c #1E191D",
"!' c #1F1A1C",
"!( c #1F1A1E",
"!) c #1F1C1E",
"!* c #1F1C1F",
"!+ c #1F2226",
"!, c #201723",
"!- c #20191E",
"!. c #201924",
"!/ c #201A1C",
"!0 c #201C1F",
"!1 c #201D1D",
"!2 c #201F26",
"!3 c #221720",
"!4 c #221919",
"!5 c #221A17",
"!6 c #221C1A",
"!7 c #221D22",
"!8 c #22222B",
"!9 c #22232B",
"!: c #22343B",
"!; c #231413",
"!< c #231616",
"!= c #231718",
"!> c #23191D",
"!? c #231A1C",
"!@ c #231A1D",
"!A c #231D1A",
"!B c #231E1D",
"!C c #231E22",
"!D c #231E24",
"!E c #231F22",
"!F c #231F26",
"!G c #232025",
"!H c #232325",
"!I c #23232F",
"!J c #23242B",
"!K c #241A1A",
"!L c #241A22",
"!M c #241C1A",
"!N c #241C1D",
"!O c #241D1E",
"!P c #241D24",
"!Q c #241F1C",
"!R c #242023",
"!S c #242024",
"!T c #242223",
"!U c #242224",
"!V c #242625",
"!W c #24292E",
"!X c #242A22",
"!Y c #251D1F",
"!Z c #251D23",
"![ c #251D24",
"!] c #251E1E",
"!^ c #251E22",
"!_ c #251F20",
"!` c #251F22",
"!a c #25201E",
"!b c #252024",
"!c c #252322",
"!d c #252426",
"!e c #252528",
"!f c #25252A",
"!g c #25282A",
"!h c #261819",
"!i c #261C20",
"!j c #261D1E",
"!k c #261D1F",
"!l c #261E1D",
"!m c #261E1F",
"!n c #261F1E",
"!o c #26201A",
"!p c #262024",
"!q c #262028",
"!r c #262225",
"!s c #262226",
"!t c #262323",
"!u c #262326",
"!v c #262328",
"!w c #262423",
"!x c #262425",
"!y c #262426",
"!z c #262528",
"!{ c #262629",
"!| c #262825",
"!} c #26282A",
"!~ c #262A28",
"#! c #262B34",
"## c #28191A",
"#$ c #28191E",
"#% c #281A20",
"#& c #281E1F",
"#' c #281E20",
"#( c #281E23",
"#) c #281E24",
"#* c #282019",
"#+ c #282020",
"#, c #282026",
"#- c #282028",
"#. c #282222",
"#/ c #282224",
"#0 c #282229",
"#1 c #28222C",
"#2 c #282328",
"#3 c #282329",
"#4 c #28232B",
"#5 c #28232E",
"#6 c #282424",
"#7 c #282428",
"#8 c #28242C",
"#9 c #28251E",
"#: c #282525",
"#; c #282526",
"#< c #282528",
"#= c #28252B",
"#> c #282532",
"#? c #282538",
"#@ c #282624",
"#A c #282628",
"#B c #28262E",
"#C c #282829",
"#D c #28282E",
"#E c #28292B",
"#F c #28292E",
"#G c #282930",
"#H c #282C2E",
"#I c #283238",
"#J c #291C1F",
"#K c #291D20",
"#L c #291D22",
"#M c #291E1D",
"#N c #291E1F",
"#O c #291E22",
"#P c #291E23",
"#Q c #291E24",
"#R c #291F1F",
"#S c #291F22",
"#T c #29201E",
"#U c #292026",
"#V c #292030",
"#W c #29221D",
"#X c #29222E",
"#Y c #29222F",
"#Z c #292322",
"#[ c #292324",
"#] c #292325",
"#^ c #292329",
"#_ c #29232C",
"#` c #29232E",
"#a c #292425",
"#b c #292426",
"#c c #29242C",
"#d c #292524",
"#e c #292525",
"#f c #292528",
"#g c #292529",
"#h c #29252B",
"#i c #292622",
"#j c #292626",
"#k c #292628",
"#l c #292629",
"#m c #29262A",
"#n c #29262B",
"#o c #29262C",
"#p c #292825",
"#q c #292826",
"#r c #29282B",
"#s c #29282C",
"#t c #29292B",
"#u c #29292E",
"#v c #292C2E",
"#w c #293032",
"#x c #2A1D1E",
"#y c #2A2023",
"#z c #2A2322",
"#{ c #2A2324",
"#| c #2A232A",
"#} c #2A2425",
"#~ c #2A2426",
"$! c #2A2428",
"$# c #2A242A",
"$$ c #2A242B",
"$% c #2A242C",
"$& c #2A252B",
"$' c #2A252F",
"$( c #2A2622",
"$) c #2A2623",
"$* c #2A2624",
"$+ c #2A2625",
"$, c #2A2626",
"$- c #2A2629",
"$. c #2A262A",
"$/ c #2A262B",
"$0 c #2A2826",
"$1 c #2A282A",
"$2 c #2A282B",
"$3 c #2A282C",
"$4 c #2A2923",
"$5 c #2A2928",
"$6 c #2A292B",
"$7 c #2A292C",
"$8 c #2A292E",
"$9 c #2A2A28",
"$: c #2A2A2C",
"$; c #2A2A2E",
"$< c #2A2A2F",
"$= c #2A2A32",
"$> c #2A2B2E",
"$? c #2A2C34",
"$@ c #2A2E2E",
"$A c #2A2E34",
"$B c #2A2E3B",
"$C c #2A3037",
"$D c #2B1D1F",
"$E c #2B1F20",
"$F c #2B1F22",
"$G c #2B2022",
"$H c #2B2024",
"$I c #2B2026",
"$J c #2B2225",
"$K c #2B2320",
"$L c #2B2323",
"$M c #2B2422",
"$N c #2B2424",
"$O c #2B2425",
"$P c #2B2426",
"$Q c #2B2429",
"$R c #2B242C",
"$S c #2B2430",
"$T c #2B2432",
"$U c #2B2526",
"$V c #2B2529",
"$W c #2B252E",
"$X c #2B252F",
"$Y c #2B2624",
"$Z c #2B2625",
"$[ c #2B2626",
"$] c #2B2629",
"$^ c #2B2825",
"$_ c #2B2828",
"$` c #2B2829",
"$a c #2B282A",
"$b c #2B282B",
"$c c #2B282E",
"$d c #2B2925",
"$e c #2B2929",
"$f c #2B292A",
"$g c #2B292B",
"$h c #2B292C",
"$i c #2B292E",
"$j c #2B292F",
"$k c #2B2A2E",
"$l c #2B2A31",
"$m c #2B2B2B",
"$n c #2B2B2C",
"$o c #2B2B2E",
"$p c #2B2B34",
"$q c #2B2C2B",
"$r c #2B2C2C",
"$s c #2B2C2E",
"$t c #2B2C2F",
"$u c #2B2C38",
"$v c #2B2E28",
"$w c #2B2E30",
"$x c #2B2E32",
"$y c #2B2F32",
"$z c #2B302F",
"${ c #2B3049",
"$| c #2B312E",
"$} c #2B313A",
"$~ c #2B3236",
"%! c #2C1F26",
"%# c #2C201E",
"%$ c #2C221F",
"%% c #2C2223",
"%& c #2C2322",
"%' c #2C2324",
"%( c #2C2325",
"%) c #2C2326",
"%* c #2C232A",
"%+ c #2C2423",
"%, c #2C2424",
"%- c #2C2428",
"%. c #2C242A",
"%/ c #2C242B",
"%0 c #2C2528",
"%1 c #2C2626",
"%2 c #2C262A",
"%3 c #2C2825",
"%4 c #2C2829",
"%5 c #2C282B",
"%6 c #2C282C",
"%7 c #2C282E",
"%8 c #2C2834",
"%9 c #2C2928",
"%: c #2C2929",
"%; c #2C292B",
"%< c #2C292C",
"%= c #2C2A2A",
"%> c #2C2A2F",
"%? c #2C2A30",
"%@ c #2C2A31",
"%A c #2C2B28",
"%B c #2C2B29",
"%C c #2C2B2B",
"%D c #2C2B2C",
"%E c #2C2B2E",
"%F c #2C2B30",
"%G c #2C2B31",
"%H c #2C2B32",
"%I c #2C2B34",
"%J c #2C2C2B",
"%K c #2C2C2C",
"%L c #2C2C2E",
"%M c #2C2C2F",
"%N c #2C2C31",
"%O c #2C2C32",
"%P c #2C2C34",
"%Q c #2C2E30",
"%R c #2C2E31",
"%S c #2C2E34",
"%T c #2C2F31",
"%U c #2C2F34",
"%V c #2C302F",
"%W c #2C3030",
"%X c #2C3035",
"%Y c #2C3037",
"%Z c #2C303A",
"%[ c #2C3135",
"%] c #2C313A",
"%^ c #2C3234",
"%_ c #2C3235",
"%` c #2C3436",
"%a c #2C343C",
"%b c #2C363C",
"%c c #2C363D",
"%d c #2C3841",
"%e c #2E1E1E",
"%f c #2E2023",
"%g c #2E221F",
"%h c #2E2229",
"%i c #2E231F",
"%j c #2E2324",
"%k c #2E2326",
"%l c #2E2422",
"%m c #2E2425",
"%n c #2E2428",
"%o c #2E2429",
"%p c #2E2522",
"%q c #2E2526",
"%r c #2E2529",
"%s c #2E252F",
"%t c #2E2628",
"%u c #2E2629",
"%v c #2E262B",
"%w c #2E282A",
"%x c #2E282E",
"%y c #2E2929",
"%z c #2E292B",
"%{ c #2E292C",
"%| c #2E292E",
"%} c #2E292F",
"%~ c #2E2930",
"&! c #2E2A28",
"&# c #2E2A2A",
"&$ c #2E2A2B",
"&% c #2E2A2F",
"&& c #2E2A31",
"&' c #2E2B2C",
"&( c #2E2B2E",
"&) c #2E2B2F",
"&* c #2E2B32",
"&+ c #2E2B37",
"&, c #2E2C2E",
"&- c #2E2C2F",
"&. c #2E2C30",
"&/ c #2E2C31",
"&0 c #2E2E2B",
"&1 c #2E2E2E",
"&2 c #2E2E2F",
"&3 c #2E2E30",
"&4 c #2E2E32",
"&5 c #2E2E38",
"&6 c #2E2F2E",
"&7 c #2E2F2F",
"&8 c #2E2F30",
"&9 c #2E2F31",
"&: c #2E2F32",
"&; c #2E2F34",
"&< c #2E2F37",
"&= c #2E2F38",
"&> c #2E3037",
"&? c #2E303A",
"&@ c #2E3134",
"&A c #2E3137",
"&B c #2E313B",
"&C c #2E3232",
"&D c #2E323C",
"&E c #2E323E",
"&F c #2E3435",
"&G c #2E3436",
"&H c #2E3437",
"&I c #2E343C",
"&J c #2E3537",
"&K c #2E3538",
"&L c #2E363A",
"&M c #2E3741",
"&N c #2E3743",
"&O c #2E3844",
"&P c #2E3C48",
"&Q c #2F1D1C",
"&R c #2F2022",
"&S c #2F2025",
"&T c #2F2026",
"&U c #2F2331",
"&V c #2F242E",
"&W c #2F252C",
"&X c #2F252F",
"&Y c #2F2625",
"&Z c #2F262E",
"&[ c #2F281F",
"&] c #2F2825",
"&^ c #2F2826",
"&_ c #2F282B",
"&` c #2F282C",
"&a c #2F2924",
"&b c #2F2929",
"&c c #2F292B",
"&d c #2F292C",
"&e c #2F2930",
"&f c #2F2932",
"&g c #2F2A25",
"&h c #2F2A29",
"&i c #2F2A2B",
"&j c #2F2A2C",
"&k c #2F2A2E",
"&l c #2F2A2F",
"&m c #2F2A32",
"&n c #2F2A34",
"&o c #2F2A35",
"&p c #2F2B29",
"&q c #2F2B2A",
"&r c #2F2B2E",
"&s c #2F2B30",
"&t c #2F2B34",
"&u c #2F2C2F",
"&v c #2F2C31",
"&w c #2F2C34",
"&x c #2F2C35",
"&y c #2F2E2B",
"&z c #2F2E2F",
"&{ c #2F2E31",
"&| c #2F2E34",
"&} c #2F2E35",
"&~ c #2F2F2F",
"'! c #2F2F31",
"'# c #2F2F34",
"'$ c #2F2F36",
"'% c #2F2F3C",
"'& c #2F3030",
"'' c #2F3031",
"'( c #2F3032",
"') c #2F3034",
"'* c #2F3036",
"'+ c #2F303B",
"', c #2F303C",
"'- c #2F3132",
"'. c #2F3134",
"'/ c #2F3136",
"'0 c #2F313D",
"'1 c #2F3236",
"'2 c #2F323A",
"'3 c #2F323C",
"'4 c #2F342F",
"'5 c #2F3437",
"'6 c #2F343A",
"'7 c #2F3534",
"'8 c #2F353B",
"'9 c #2F353D",
"': c #2F353E",
"'; c #2F363C",
"'< c #2F373C",
"'= c #2F373E",
"'> c #2F3A3C",
"'? c #2F3B3D",
"'@ c #2F3C44",
"'A c #2F3E4D",
"'B c #2F4147",
"'C c #302428",
"'D c #30242A",
"'E c #302526",
"'F c #30252A",
"'G c #302625",
"'H c #30262C",
"'I c #30262F",
"'J c #302824",
"'K c #302828",
"'L c #30282C",
"'M c #302830",
"'N c #302928",
"'O c #30292A",
"'P c #30292B",
"'Q c #30292F",
"'R c #302930",
"'S c #302932",
"'T c #302A26",
"'U c #302A2F",
"'V c #302A30",
"'W c #302B29",
"'X c #302B2A",
"'Y c #302B2F",
"'Z c #302B30",
"'[ c #302B31",
"'] c #302B32",
"'^ c #302C2B",
"'_ c #302C2C",
"'` c #302C30",
"'a c #302C31",
"'b c #302C32",
"'c c #302C34",
"'d c #302C35",
"'e c #302E2A",
"'f c #302E2B",
"'g c #302E2C",
"'h c #302E2E",
"'i c #302E30",
"'j c #302E31",
"'k c #302E32",
"'l c #302E36",
"'m c #302E37",
"'n c #302E3B",
"'o c #302F2F",
"'p c #302F30",
"'q c #302F31",
"'r c #302F32",
"'s c #302F34",
"'t c #302F35",
"'u c #302F3B",
"'v c #30302A",
"'w c #303030",
"'x c #303034",
"'y c #303035",
"'z c #303036",
"'{ c #303038",
"'| c #30303B",
"'} c #303135",
"'~ c #30313A",
"(! c #30313D",
"(# c #303230",
"($ c #303234",
"(% c #303235",
"(& c #303237",
"(' c #303238",
"(( c #30323A",
"() c #30323B",
"(* c #30323C",
"(+ c #303435",
"(, c #303437",
"(- c #303438",
"(. c #303447",
"(/ c #303536",
"(0 c #30353A",
"(1 c #30353C",
"(2 c #30353E",
"(3 c #30363A",
"(4 c #30363C",
"(5 c #30363D",
"(6 c #303642",
"(7 c #303738",
"(8 c #30373B",
"(9 c #30373D",
"(: c #30373E",
"(; c #303835",
"(< c #30383C",
"(= c #30383E",
"(> c #303840",
"(? c #303A40",
"(@ c #303B3C",
"(A c #303C40",
"(B c #303E46",
"(C c #304249",
"(D c #31241E",
"(E c #312524",
"(F c #312526",
"(G c #31262A",
"(H c #31262C",
"(I c #312825",
"(J c #312829",
"(K c #31282C",
"(L c #31292A",
"(M c #31292C",
"(N c #31292F",
"(O c #312A2B",
"(P c #312A2C",
"(Q c #312A2E",
"(R c #312A31",
"(S c #312B26",
"(T c #312B31",
"(U c #312C2C",
"(V c #312C2E",
"(W c #312C2F",
"(X c #312C30",
"(Y c #312C31",
"(Z c #312C35",
"([ c #312C36",
"(] c #312E2C",
"(^ c #312E2E",
"(_ c #312E2F",
"(` c #312E30",
"(a c #312E31",
"(b c #312E32",
"(c c #312E36",
"(d c #312F2E",
"(e c #312F2F",
"(f c #312F31",
"(g c #312F32",
"(h c #312F37",
"(i c #312F38",
"(j c #31302C",
"(k c #313030",
"(l c #313032",
"(m c #313034",
"(n c #313036",
"(o c #31303A",
"(p c #31303B",
"(q c #31312E",
"(r c #31312F",
"(s c #313130",
"(t c #313132",
"(u c #313134",
"(v c #313136",
"(w c #313138",
"(x c #31313A",
"(y c #31322F",
"(z c #313234",
"({ c #313235",
"(| c #313236",
"(} c #313237",
"(~ c #31323A",
")! c #31323B",
")# c #31323C",
")$ c #313432",
")% c #313434",
")& c #313437",
")' c #313438",
")( c #31343A",
")) c #31343B",
")* c #31343D",
")+ c #31343E",
"), c #313440",
")- c #313534",
"). c #313535",
")/ c #31353A",
")0 c #313540",
")1 c #313541",
")2 c #31354D",
")3 c #313634",
")4 c #31363B",
")5 c #31363C",
")6 c #313641",
")7 c #313642",
")8 c #313737",
")9 c #313738",
"): c #31373A",
"); c #31373B",
")< c #31373C",
")= c #313740",
")> c #313836",
")? c #313838",
")@ c #31383B",
")A c #313840",
")B c #313A3A",
")C c #313A40",
")D c #313A41",
")E c #313A42",
")F c #313A44",
")G c #313B3E",
")H c #313B49",
")I c #313C41",
")J c #313C44",
")K c #313E46",
")L c #322623",
")M c #32262A",
")N c #322826",
")O c #32282F",
")P c #322922",
")Q c #32292B",
")R c #32292E",
")S c #322940",
")T c #322A2B",
")U c #322A2E",
")V c #322A2F",
")W c #322A31",
")X c #322A34",
")Y c #322A35",
")Z c #322B2A",
")[ c #322B2E",
")] c #322B30",
")^ c #322B3A",
")_ c #322C29",
")` c #322C2B",
")a c #322C30",
")b c #322C31",
")c c #322C32",
")d c #322C34",
")e c #322E30",
")f c #322E31",
")g c #322E32",
")h c #322E34",
")i c #322E3B",
")j c #322E40",
")k c #322F2E",
")l c #322F31",
")m c #322F34",
")n c #322F35",
")o c #322F36",
")p c #322F37",
")q c #322F3A",
")r c #322F3B",
")s c #32302F",
")t c #323030",
")u c #323034",
")v c #323036",
")w c #32312A",
")x c #32312F",
")y c #323130",
")z c #323132",
"){ c #323134",
")| c #323137",
")} c #323138",
")~ c #32313A",
"*! c #32313B",
"*# c #323230",
"*$ c #323232",
"*% c #323234",
"*& c #323236",
"*' c #323237",
"*( c #32323A",
"*) c #32323B",
"** c #32323E",
"*+ c #323436",
"*, c #323437",
"*- c #323438",
"*. c #323442",
"*/ c #323535",
"*0 c #323536",
"*1 c #32353A",
"*2 c #32353B",
"*3 c #32353D",
"*4 c #323540",
"*5 c #323634",
"*6 c #32363A",
"*7 c #32363B",
"*8 c #32363C",
"*9 c #323640",
"*: c #323642",
"*; c #323731",
"*< c #323732",
"*= c #323738",
"*> c #32373A",
"*? c #32373B",
"*@ c #32373C",
"*A c #323740",
"*B c #323741",
"*C c #32374C",
"*D c #323830",
"*E c #323836",
"*F c #32383C",
"*G c #323840",
"*H c #323842",
"*I c #323A3A",
"*J c #323A3C",
"*K c #323A3D",
"*L c #323A46",
"*M c #323A47",
"*N c #323B3E",
"*O c #323B4D",
"*P c #323C43",
"*Q c #323D4D",
"*R c #323E53",
"*S c #324041",
"*T c #32404D",
"*U c #342428",
"*V c #34242A",
"*W c #342829",
"*X c #342925",
"*Y c #342930",
"*Z c #342A2C",
"*[ c #342A2F",
"*] c #342B2B",
"*^ c #342B2C",
"*_ c #342B38",
"*` c #342C2E",
"*a c #342C30",
"*b c #342C32",
"*c c #342C34",
"*d c #342E30",
"*e c #342E31",
"*f c #342E32",
"*g c #342E34",
"*h c #342E37",
"*i c #342F29",
"*j c #342F2B",
"*k c #342F2E",
"*l c #342F2F",
"*m c #342F30",
"*n c #342F32",
"*o c #342F34",
"*p c #342F37",
"*q c #343028",
"*r c #343032",
"*s c #343035",
"*t c #343036",
"*u c #343037",
"*v c #343038",
"*w c #34303A",
"*x c #34303B",
"*y c #343040",
"*z c #343131",
"*{ c #343132",
"*| c #343134",
"*} c #343135",
"*~ c #343137",
"+! c #343138",
"+# c #34313D",
"+$ c #343142",
"+% c #343231",
"+& c #343234",
"+' c #343235",
"+( c #343236",
"+) c #343237",
"+* c #34323A",
"++ c #34323B",
"+, c #34323E",
"+- c #343240",
"+. c #343434",
"+/ c #343436",
"+0 c #343437",
"+1 c #343438",
"+2 c #34343A",
"+3 c #34343B",
"+4 c #34343C",
"+5 c #34343D",
"+6 c #34343E",
"+7 c #343440",
"+8 c #343532",
"+9 c #343537",
"+: c #343538",
"+; c #34353A",
"+< c #34353C",
"+= c #34353D",
"+> c #34353E",
"+? c #343540",
"+@ c #343541",
"+A c #34362F",
"+B c #343632",
"+C c #343634",
"+D c #343635",
"+E c #343636",
"+F c #343637",
"+G c #34363A",
"+H c #34363C",
"+I c #34363E",
"+J c #343642",
"+K c #343734",
"+L c #343735",
"+M c #343736",
"+N c #34373A",
"+O c #34373B",
"+P c #343741",
"+Q c #343742",
"+R c #343743",
"+S c #343744",
"+T c #343837",
"+U c #343838",
"+V c #34383A",
"+W c #34383C",
"+X c #34383D",
"+Y c #34383E",
"+Z c #343841",
"+[ c #343842",
"+] c #343A38",
"+^ c #343A3B",
"+_ c #343A41",
"+` c #343A42",
"+a c #343B3B",
"+b c #343B41",
"+c c #343B42",
"+d c #343B46",
"+e c #343C3E",
"+f c #343C40",
"+g c #343C43",
"+h c #343C44",
"+i c #343C47",
"+j c #343C4D",
"+k c #343D40",
"+l c #343D41",
"+m c #343D46",
"+n c #343E40",
"+o c #34404F",
"+p c #34414C",
"+q c #34414D",
"+r c #344246",
"+s c #344252",
"+t c #344447",
"+u c #34464C",
"+v c #352625",
"+w c #352A2C",
"+x c #352A2E",
"+y c #352B32",
"+z c #352C2A",
"+{ c #352C2E",
"+| c #352C2F",
"+} c #352C36",
"+~ c #352C37",
",! c #352C41",
",# c #352E2B",
",$ c #352E35",
",% c #352E42",
",& c #352F2F",
",' c #352F37",
",( c #353032",
",) c #353038",
",* c #35312C",
",+ c #353132",
",, c #353134",
",- c #353135",
",. c #353136",
",/ c #353138",
",0 c #35313B",
",1 c #35313E",
",2 c #353232",
",3 c #353235",
",4 c #353236",
",5 c #35323A",
",6 c #35323D",
",7 c #35342E",
",8 c #353432",
",9 c #353434",
",: c #353435",
",; c #353436",
",< c #353437",
",= c #353438",
",> c #35343A",
",? c #35343C",
",@ c #353442",
",A c #353446",
",B c #353536",
",C c #353538",
",D c #35353B",
",E c #35353C",
",F c #353632",
",G c #353634",
",H c #353636",
",I c #353638",
",J c #35363B",
",K c #35363C",
",L c #35363D",
",M c #353640",
",N c #353642",
",O c #353737",
",P c #35373C",
",Q c #35373D",
",R c #35373E",
",S c #353741",
",T c #353742",
",U c #353746",
",V c #353748",
",W c #35383A",
",X c #35383B",
",Y c #35383C",
",Z c #35383E",
",[ c #353840",
",] c #353841",
",^ c #353842",
",_ c #353843",
",` c #353844",
",a c #353A3B",
",b c #353A3E",
",c c #353A40",
",d c #353A44",
",e c #353A46",
",f c #353A53",
",g c #353B3D",
",h c #353B42",
",i c #353C3D",
",j c #353C3E",
",k c #353C42",
",l c #353C43",
",m c #353C46",
",n c #353C47",
",o c #353C48",
",p c #353D43",
",q c #353D44",
",r c #353D46",
",s c #353D48",
",t c #353D49",
",u c #353E44",
",v c #353E47",
",w c #35403D",
",x c #35403E",
",y c #354044",
",z c #354047",
",{ c #354050",
",| c #354143",
",} c #354144",
",~ c #354149",
"-! c #35424C",
"-# c #354253",
"-$ c #35434C",
"-% c #35434F",
"-& c #354358",
"-' c #354446",
"-( c #35444D",
"-) c #354647",
"-* c #35464C",
"-+ c #35464E",
"-, c #35484C",
"-- c #354949",
"-. c #362423",
"-/ c #362526",
"-0 c #362B31",
"-1 c #362C2C",
"-2 c #362C2E",
"-3 c #362C30",
"-4 c #362E2F",
"-5 c #362E35",
"-6 c #362F30",
"-7 c #362F31",
"-8 c #362F34",
"-9 c #362F37",
"-: c #362F38",
"-; c #363030",
"-< c #363031",
"-= c #363034",
"-> c #363035",
"-? c #36303C",
"-@ c #36312C",
"-A c #363130",
"-B c #363131",
"-C c #363132",
"-D c #363135",
"-E c #363136",
"-F c #363137",
"-G c #363138",
"-H c #36313A",
"-I c #36313E",
"-J c #363146",
"-K c #363232",
"-L c #363235",
"-M c #363237",
"-N c #363238",
"-O c #36323E",
"-P c #363432",
"-Q c #363436",
"-R c #363438",
"-S c #36343A",
"-T c #36343B",
"-U c #36343C",
"-V c #363440",
"-W c #363537",
"-X c #36353A",
"-Y c #36353B",
"-Z c #363541",
"-[ c #363634",
"-] c #363635",
"-^ c #363636",
"-_ c #363637",
"-` c #363638",
"-a c #36363A",
"-b c #36363C",
"-c c #363646",
"-d c #36364A",
"-e c #363736",
"-f c #363737",
"-g c #363738",
"-h c #36373B",
"-i c #36373E",
"-j c #363741",
"-k c #363744",
"-l c #363838",
"-m c #36383A",
"-n c #36383E",
"-o c #363840",
"-p c #363A37",
"-q c #363A38",
"-r c #363A3B",
"-s c #363A3C",
"-t c #363A3D",
"-u c #363A3E",
"-v c #363A41",
"-w c #363A46",
"-x c #363B3E",
"-y c #363B41",
"-z c #363B42",
"-{ c #363B43",
"-| c #363B44",
"-} c #363B4F",
"-~ c #363C41",
".! c #363C42",
".# c #363C43",
".$ c #363C46",
".% c #363C47",
".& c #363C4C",
".' c #363C4E",
".( c #363D3C",
".) c #363D41",
".* c #363D42",
".+ c #363D43",
"., c #363D4D",
".- c #363E3B",
".. c #363E3D",
"./ c #363E40",
".0 c #363E43",
".1 c #363E44",
".2 c #363E46",
".3 c #363E48",
".4 c #363E4A",
".5 c #363E4D",
".6 c #363E4E",
".7 c #364048",
".8 c #364049",
".9 c #364058",
".: c #364144",
".; c #364241",
".< c #364246",
".= c #364247",
".> c #36424C",
".? c #36434C",
".@ c #36434D",
".A c #364449",
".B c #36474E",
".C c #36494A",
".D c #36494F",
".E c #364E4A",
".F c #364E59",
".G c #36545A",
".H c #372828",
".I c #372A28",
".J c #372A31",
".K c #372C2F",
".L c #372C35",
".M c #372C37",
".N c #372E37",
".O c #372F30",
".P c #372F31",
".Q c #372F32",
".R c #372F34",
".S c #372F35",
".T c #372F36",
".U c #372F3C",
".V c #37302E",
".W c #373032",
".X c #373035",
".Y c #373036",
".Z c #373038",
".[ c #37303A",
".] c #37312E",
".^ c #373130",
"._ c #373136",
".` c #373138",
".a c #37313A",
".b c #37313C",
".c c #37322A",
".d c #37322E",
".e c #373234",
".f c #373236",
".g c #373237",
".h c #37323A",
".i c #37323C",
".j c #373242",
".k c #373431",
".l c #37343A",
".m c #37343C",
".n c #37343E",
".o c #373535",
".p c #373537",
".q c #373538",
".r c #37353A",
".s c #37353B",
".t c #37353C",
".u c #373544",
".v c #373636",
".w c #373637",
".x c #373638",
".y c #37363A",
".z c #37363B",
".{ c #37363C",
".| c #37363E",
".} c #373640",
".~ c #373641",
"/! c #373644",
"/# c #373734",
"/$ c #37373A",
"/% c #37373C",
"/& c #37373D",
"/' c #373740",
"/( c #373838",
"/) c #37383B",
"/* c #37383E",
"/+ c #373841",
"/, c #373842",
"/- c #373844",
"/. c #37384D",
"// c #373A38",
"/0 c #373A3B",
"/1 c #373A3D",
"/2 c #373A3E",
"/3 c #373A43",
"/4 c #373A48",
"/5 c #373A49",
"/6 c #373B36",
"/7 c #373B3C",
"/8 c #373B3D",
"/9 c #373B3E",
"/: c #373B42",
"/; c #373B43",
"/< c #373B44",
"/= c #373B46",
"/> c #373C3B",
"/? c #373C41",
"/@ c #373C42",
"/A c #373C43",
"/B c #373C48",
"/C c #373C49",
"/D c #373C4C",
"/E c #373D41",
"/F c #373D47",
"/G c #373D48",
"/H c #373E3B",
"/I c #373E3C",
"/J c #373E40",
"/K c #373E47",
"/L c #373E4D",
"/M c #373E4E",
"/N c #373E4F",
"/O c #374040",
"/P c #374041",
"/Q c #374043",
"/R c #374046",
"/S c #374048",
"/T c #37404A",
"/U c #374144",
"/V c #374148",
"/W c #374150",
"/X c #374152",
"/Y c #374242",
"/Z c #374247",
"/[ c #374343",
"/] c #374344",
"/^ c #374347",
"/_ c #37434E",
"/` c #374448",
"/a c #37444E",
"/b c #374843",
"/c c #37484F",
"/d c #374E52",
"/e c #382B2A",
"/f c #382C2C",
"/g c #382E30",
"/h c #383029",
"/i c #38302C",
"/j c #383036",
"/k c #383037",
"/l c #38303C",
"/m c #38312E",
"/n c #383137",
"/o c #383138",
"/p c #38313A",
"/q c #383141",
"/r c #383231",
"/s c #383432",
"/t c #383434",
"/u c #383437",
"/v c #383438",
"/w c #383443",
"/x c #383535",
"/y c #383536",
"/z c #383537",
"/{ c #383538",
"/| c #38353A",
"/} c #38353C",
"/~ c #38353D",
"0! c #383543",
"0# c #383631",
"0$ c #383632",
"0% c #383640",
"0& c #383642",
"0' c #383643",
"0( c #383734",
"0) c #383735",
"0* c #383736",
"0+ c #38373A",
"0, c #38373D",
"0- c #383740",
"0. c #383743",
"0/ c #383744",
"00 c #38374A",
"01 c #383835",
"02 c #38383B",
"03 c #38383C",
"04 c #383840",
"05 c #383841",
"06 c #383842",
"07 c #383A31",
"08 c #383A34",
"09 c #383A3B",
"0: c #383A3C",
"0; c #383A3D",
"0< c #383A3E",
"0= c #383A40",
"0> c #383B3D",
"0? c #383B3E",
"0@ c #383B40",
"0A c #383B41",
"0B c #383B43",
"0C c #383B47",
"0D c #383B48",
"0E c #383C3B",
"0F c #383C3C",
"0G c #383C3D",
"0H c #383C3E",
"0I c #383C41",
"0J c #383C46",
"0K c #383D3D",
"0L c #383D3E",
"0M c #383D40",
"0N c #383D43",
"0O c #383D47",
"0P c #383D48",
"0Q c #383D4A",
"0R c #383E3B",
"0S c #383E3D",
"0T c #383E3E",
"0U c #383E40",
"0V c #383E41",
"0W c #383E42",
"0X c #383E44",
"0Y c #383E46",
"0Z c #383E48",
"0[ c #383E49",
"0] c #383E52",
"0^ c #38403B",
"0_ c #384046",
"0` c #384047",
"0a c #384048",
"0b c #38404D",
"0c c #384052",
"0d c #384144",
"0e c #384149",
"0f c #38414C",
"0g c #38414E",
"0h c #38414F",
"0i c #384155",
"0j c #384258",
"0k c #384343",
"0l c #384349",
"0m c #384354",
"0n c #384447",
"0o c #384449",
"0p c #38444C",
"0q c #38444D",
"0r c #38444E",
"0s c #384450",
"0t c #384455",
"0u c #384643",
"0v c #384648",
"0w c #384652",
"0x c #384753",
"0y c #384944",
"0z c #384A54",
"0{ c #3A222F",
"0| c #3A2925",
"0} c #3A2A2A",
"0~ c #3A2E2E",
"1! c #3A2F36",
"1# c #3A2F37",
"1$ c #3A302C",
"1% c #3A3030",
"1& c #3A3130",
"1' c #3A3132",
"1( c #3A3135",
"1) c #3A3138",
"1* c #3A3237",
"1+ c #3A323B",
"1, c #3A323D",
"1- c #3A3240",
"1. c #3A342B",
"1/ c #3A3432",
"10 c #3A3434",
"11 c #3A3437",
"12 c #3A3438",
"13 c #3A343C",
"14 c #3A3534",
"15 c #3A3537",
"16 c #3A3538",
"17 c #3A353A",
"18 c #3A3636",
"19 c #3A3637",
"1: c #3A363A",
"1; c #3A363C",
"1< c #3A363D",
"1= c #3A3640",
"1> c #3A3642",
"1? c #3A3647",
"1@ c #3A364A",
"1A c #3A3738",
"1B c #3A373A",
"1C c #3A373C",
"1D c #3A373D",
"1E c #3A373E",
"1F c #3A3740",
"1G c #3A3741",
"1H c #3A3742",
"1I c #3A3743",
"1J c #3A3836",
"1K c #3A383D",
"1L c #3A3840",
"1M c #3A3844",
"1N c #3A3846",
"1O c #3A3A3C",
"1P c #3A3A3D",
"1Q c #3A3A3E",
"1R c #3A3A40",
"1S c #3A3A41",
"1T c #3A3A42",
"1U c #3A3A43",
"1V c #3A3A46",
"1W c #3A3A47",
"1X c #3A3A48",
"1Y c #3A3B37",
"1Z c #3A3B3B",
"1[ c #3A3B3C",
"1] c #3A3B3E",
"1^ c #3A3B40",
"1_ c #3A3B42",
"1` c #3A3B43",
"1a c #3A3B44",
"1b c #3A3B47",
"1c c #3A3B48",
"1d c #3A3C3D",
"1e c #3A3C3E",
"1f c #3A3C40",
"1g c #3A3C42",
"1h c #3A3C43",
"1i c #3A3C44",
"1j c #3A3C47",
"1k c #3A3C48",
"1l c #3A3C49",
"1m c #3A3C4A",
"1n c #3A3C4C",
"1o c #3A3C4D",
"1p c #3A3C4F",
"1q c #3A3C54",
"1r c #3A3D3C",
"1s c #3A3D3D",
"1t c #3A3D3E",
"1u c #3A3D41",
"1v c #3A3D43",
"1w c #3A3D46",
"1x c #3A3D47",
"1y c #3A3D48",
"1z c #3A3D5B",
"1{ c #3A3E3E",
"1| c #3A3E41",
"1} c #3A3E42",
"1~ c #3A3E43",
"2! c #3A3E46",
"2# c #3A3E48",
"2$ c #3A3E49",
"2% c #3A3E4A",
"2& c #3A3E4C",
"2' c #3A3E4E",
"2( c #3A403D",
"2) c #3A4040",
"2* c #3A4044",
"2+ c #3A4046",
"2, c #3A4047",
"2- c #3A4048",
"2. c #3A4049",
"2/ c #3A404D",
"20 c #3A4141",
"21 c #3A4142",
"22 c #3A4144",
"23 c #3A4147",
"24 c #3A4148",
"25 c #3A414E",
"26 c #3A4150",
"27 c #3A4154",
"28 c #3A4243",
"29 c #3A4246",
"2: c #3A4247",
"2; c #3A4249",
"2< c #3A424A",
"2= c #3A424E",
"2> c #3A4252",
"2? c #3A4347",
"2@ c #3A4348",
"2A c #3A434C",
"2B c #3A434D",
"2C c #3A434E",
"2D c #3A4354",
"2E c #3A4442",
"2F c #3A4444",
"2G c #3A4447",
"2H c #3A444C",
"2I c #3A444D",
"2J c #3A444E",
"2K c #3A4452",
"2L c #3A4649",
"2M c #3A464C",
"2N c #3A464E",
"2O c #3A4748",
"2P c #3A4749",
"2Q c #3A474A",
"2R c #3A474F",
"2S c #3A4752",
"2T c #3A4855",
"2U c #3A494C",
"2V c #3A4950",
"2W c #3A4E50",
"2X c #3A4F4F",
"2Y c #3A5353",
"2Z c #3A535A",
"2[ c #3B3035",
"2] c #3B3036",
"2^ c #3B303A",
"2_ c #3B3140",
"2` c #3B3237",
"2a c #3B3238",
"2b c #3B3434",
"2c c #3B3438",
"2d c #3B344C",
"2e c #3B3536",
"2f c #3B353B",
"2g c #3B3543",
"2h c #3B3636",
"2i c #3B3637",
"2j c #3B3638",
"2k c #3B3641",
"2l c #3B3738",
"2m c #3B373B",
"2n c #3B373C",
"2o c #3B3838",
"2p c #3B383C",
"2q c #3B383D",
"2r c #3B3841",
"2s c #3B3842",
"2t c #3B3843",
"2u c #3B3A3C",
"2v c #3B3A3D",
"2w c #3B3A40",
"2x c #3B3A41",
"2y c #3B3A42",
"2z c #3B3A44",
"2{ c #3B3A46",
"2| c #3B3A4C",
"2} c #3B3A4D",
"2~ c #3B3B3B",
"3! c #3B3B3E",
"3# c #3B3B41",
"3$ c #3B3B43",
"3% c #3B3B46",
"3& c #3B3B48",
"3' c #3B3B49",
"3( c #3B3C3D",
"3) c #3B3C3E",
"3* c #3B3C41",
"3+ c #3B3C43",
"3, c #3B3C46",
"3- c #3B3C48",
"3. c #3B3C4C",
"3/ c #3B3D3B",
"30 c #3B3D40",
"31 c #3B3D42",
"32 c #3B3D43",
"33 c #3B3D47",
"34 c #3B3D4A",
"35 c #3B3D4D",
"36 c #3B3D50",
"37 c #3B3D52",
"38 c #3B3E36",
"39 c #3B3E3B",
"3: c #3B3E40",
"3; c #3B3E41",
"3< c #3B3E44",
"3= c #3B3E46",
"3> c #3B3E48",
"3? c #3B3E49",
"3@ c #3B3E4A",
"3A c #3B3E4E",
"3B c #3B3E4F",
"3C c #3B3E56",
"3D c #3B4035",
"3E c #3B403A",
"3F c #3B403C",
"3G c #3B403E",
"3H c #3B4040",
"3I c #3B4041",
"3J c #3B4046",
"3K c #3B4047",
"3L c #3B404A",
"3M c #3B404E",
"3N c #3B404F",
"3O c #3B4056",
"3P c #3B4140",
"3Q c #3B4141",
"3R c #3B4142",
"3S c #3B4149",
"3T c #3B414A",
"3U c #3B414C",
"3V c #3B4152",
"3W c #3B4244",
"3X c #3B4248",
"3Y c #3B424C",
"3Z c #3B424D",
"3[ c #3B424F",
"3] c #3B4344",
"3^ c #3B4347",
"3_ c #3B4348",
"3` c #3B434E",
"3a c #3B434F",
"3b c #3B4350",
"3c c #3B4442",
"3d c #3B4444",
"3e c #3B4449",
"3f c #3B444D",
"3g c #3B444E",
"3h c #3B4450",
"3i c #3B4452",
"3j c #3B4453",
"3k c #3B4454",
"3l c #3B4653",
"3m c #3B4654",
"3n c #3B4656",
"3o c #3B474A",
"3p c #3B474D",
"3q c #3B474E",
"3r c #3B4946",
"3s c #3B4948",
"3t c #3B4C55",
"3u c #3B4D4F",
"3v c #3B4D58",
"3w c #3B4F58",
"3x c #3B535C",
"3y c #3C2C2E",
"3z c #3C2F31",
"3{ c #3C303E",
"3| c #3C3132",
"3} c #3C3138",
"3~ c #3C3232",
"4! c #3C323C",
"4# c #3C3432",
"4$ c #3C3434",
"4% c #3C3435",
"4& c #3C3535",
"4' c #3C3634",
"4( c #3C363A",
"4) c #3C363B",
"4* c #3C3735",
"4+ c #3C3737",
"4, c #3C3738",
"4- c #3C373C",
"4. c #3C3741",
"4/ c #3C3743",
"40 c #3C3744",
"41 c #3C3748",
"42 c #3C383A",
"43 c #3C383E",
"44 c #3C3840",
"45 c #3C3841",
"46 c #3C3848",
"47 c #3C3A37",
"48 c #3C3A3A",
"49 c #3C3A3B",
"4: c #3C3A3E",
"4; c #3C3A41",
"4< c #3C3A42",
"4= c #3C3A46",
"4> c #3C3B3B",
"4? c #3C3B3E",
"4@ c #3C3B43",
"4A c #3C3B44",
"4B c #3C3B48",
"4C c #3C3C35",
"4D c #3C3C41",
"4E c #3C3C42",
"4F c #3C3C44",
"4G c #3C3C48",
"4H c #3C3C4D",
"4I c #3C3D3B",
"4J c #3C3D3C",
"4K c #3C3D3E",
"4L c #3C3D41",
"4M c #3C3D43",
"4N c #3C3D47",
"4O c #3C3D49",
"4P c #3C3D4D",
"4Q c #3C3E3C",
"4R c #3C3E3E",
"4S c #3C3E40",
"4T c #3C3E41",
"4U c #3C3E44",
"4V c #3C3E48",
"4W c #3C3E49",
"4X c #3C3E4A",
"4Y c #3C3E4C",
"4Z c #3C3E4F",
"4[ c #3C4041",
"4] c #3C4043",
"4^ c #3C4046",
"4_ c #3C4048",
"4` c #3C404A",
"4a c #3C404C",
"4b c #3C404E",
"4c c #3C4050",
"4d c #3C413C",
"4e c #3C4141",
"4f c #3C4143",
"4g c #3C4144",
"4h c #3C4148",
"4i c #3C4149",
"4j c #3C414A",
"4k c #3C414E",
"4l c #3C423E",
"4m c #3C4242",
"4n c #3C4244",
"4o c #3C4246",
"4p c #3C4247",
"4q c #3C4248",
"4r c #3C4249",
"4s c #3C424C",
"4t c #3C424D",
"4u c #3C424F",
"4v c #3C4252",
"4w c #3C4346",
"4x c #3C4349",
"4y c #3C434A",
"4z c #3C434C",
"4{ c #3C434E",
"4| c #3C434F",
"4} c #3C4350",
"4~ c #3C4353",
"5! c #3C4354",
"5# c #3C4446",
"5$ c #3C4449",
"5% c #3C444A",
"5& c #3C444D",
"5' c #3C444E",
"5( c #3C4450",
"5) c #3C4454",
"5* c #3C4646",
"5+ c #3C4647",
"5, c #3C4649",
"5- c #3C464C",
"5. c #3C464F",
"5/ c #3C4652",
"50 c #3C4653",
"51 c #3C4654",
"52 c #3C4747",
"53 c #3C4749",
"54 c #3C474C",
"55 c #3C474D",
"56 c #3C474E",
"57 c #3C475C",
"58 c #3C4856",
"59 c #3C494C",
"5: c #3C4A4A",
"5; c #3C4A4E",
"5< c #3C4A50",
"5= c #3C4A59",
"5> c #3C4C4D",
"5? c #3C4C54",
"5@ c #3C4C56",
"5A c #3C4C5A",
"5B c #3C4C5B",
"5C c #3C4C5E",
"5D c #3C4C61",
"5E c #3C4D53",
"5F c #3C4D58",
"5G c #3C4E55",
"5H c #3C4F55",
"5I c #3C504F",
"5J c #3C5256",
"5K c #3C535A",
"5L c #3C5660",
"5M c #3D3136",
"5N c #3D323A",
"5O c #3D323E",
"5P c #3D342C",
"5Q c #3D3437",
"5R c #3D3536",
"5S c #3D353A",
"5T c #3D3544",
"5U c #3D3546",
"5V c #3D363A",
"5W c #3D363C",
"5X c #3D3641",
"5Y c #3D383B",
"5Z c #3D3842",
"5[ c #3D384D",
"5] c #3D3A3C",
"5^ c #3D3A3D",
"5_ c #3D3A3E",
"5` c #3D3A40",
"5a c #3D3A46",
"5b c #3D3A4A",
"5c c #3D3B3C",
"5d c #3D3B3D",
"5e c #3D3B40",
"5f c #3D3C38",
"5g c #3D3C3D",
"5h c #3D3C42",
"5i c #3D3C4A",
"5j c #3D3D3D",
"5k c #3D3D42",
"5l c #3D3D46",
"5m c #3D3D49",
"5n c #3D3D4D",
"5o c #3D3E37",
"5p c #3D3E40",
"5q c #3D3E42",
"5r c #3D3E44",
"5s c #3D3E48",
"5t c #3D3E4A",
"5u c #3D3E4D",
"5v c #3D3E4F",
"5w c #3D4041",
"5x c #3D4047",
"5y c #3D404D",
"5z c #3D4050",
"5{ c #3D4054",
"5| c #3D4142",
"5} c #3D4143",
"5~ c #3D4147",
"6! c #3D4149",
"6# c #3D414C",
"6$ c #3D414D",
"6% c #3D4156",
"6& c #3D4243",
"6' c #3D4246",
"6( c #3D4248",
"6) c #3D4249",
"6* c #3D424A",
"6+ c #3D424C",
"6, c #3D4252",
"6- c #3D4346",
"6. c #3D4348",
"6/ c #3D4349",
"60 c #3D434A",
"61 c #3D434C",
"62 c #3D434E",
"63 c #3D434F",
"64 c #3D4350",
"65 c #3D4443",
"66 c #3D444A",
"67 c #3D444C",
"68 c #3D4454",
"69 c #3D4644",
"6: c #3D464D",
"6; c #3D464E",
"6< c #3D464F",
"6= c #3D4653",
"6> c #3D4656",
"6? c #3D4748",
"6@ c #3D474D",
"6A c #3D474E",
"6B c #3D4750",
"6C c #3D4752",
"6D c #3D4754",
"6E c #3D484E",
"6F c #3D4853",
"6G c #3D4856",
"6H c #3D494D",
"6I c #3D494F",
"6J c #3D4954",
"6K c #3D4955",
"6L c #3D495C",
"6M c #3D4A4D",
"6N c #3D4A4E",
"6O c #3D4A54",
"6P c #3D4A56",
"6Q c #3D4C56",
"6R c #3D4C58",
"6S c #3D4C59",
"6T c #3D4C5B",
"6U c #3D4D48",
"6V c #3D4D52",
"6W c #3D4D53",
"6X c #3D4D5B",
"6Y c #3D4E50",
"6Z c #3D4E61",
"6[ c #3D4F4F",
"6] c #3D5461",
"6^ c #3E3037",
"6_ c #3E303D",
"6` c #3E3136",
"6a c #3E3238",
"6b c #3E3435",
"6c c #3E3436",
"6d c #3E343A",
"6e c #3E344C",
"6f c #3E353B",
"6g c #3E353D",
"6h c #3E353E",
"6i c #3E3638",
"6j c #3E363D",
"6k c #3E3640",
"6l c #3E364A",
"6m c #3E3737",
"6n c #3E373D",
"6o c #3E383D",
"6p c #3E383E",
"6q c #3E3840",
"6r c #3E3841",
"6s c #3E3843",
"6t c #3E3A3B",
"6u c #3E3A3C",
"6v c #3E3A3E",
"6w c #3E3A43",
"6x c #3E3A46",
"6y c #3E3A4D",
"6z c #3E3B3C",
"6{ c #3E3B3D",
"6| c #3E3B3E",
"6} c #3E3B43",
"6~ c #3E3B44",
"7! c #3E3B47",
"7# c #3E3C3E",
"7$ c #3E3C41",
"7% c #3E3C43",
"7& c #3E3C46",
"7' c #3E3C48",
"7( c #3E3C4A",
"7) c #3E3D41",
"7* c #3E3D42",
"7+ c #3E3D46",
"7, c #3E3D47",
"7- c #3E3D48",
"7. c #3E3E49",
"7/ c #3E3E4A",
"70 c #3E4040",
"71 c #3E4042",
"72 c #3E4046",
"73 c #3E404A",
"74 c #3E404C",
"75 c #3E4142",
"76 c #3E4143",
"77 c #3E4144",
"78 c #3E4147",
"79 c #3E414A",
"7: c #3E4153",
"7; c #3E423D",
"7< c #3E4242",
"7= c #3E4243",
"7> c #3E4244",
"7? c #3E4247",
"7@ c #3E4248",
"7A c #3E424A",
"7B c #3E424C",
"7C c #3E424D",
"7D c #3E424E",
"7E c #3E424F",
"7F c #3E4252",
"7G c #3E4342",
"7H c #3E4344",
"7I c #3E4347",
"7J c #3E434A",
"7K c #3E434C",
"7L c #3E434D",
"7M c #3E434E",
"7N c #3E4350",
"7O c #3E4354",
"7P c #3E4359",
"7Q c #3E4444",
"7R c #3E4449",
"7S c #3E444C",
"7T c #3E444F",
"7U c #3E4450",
"7V c #3E4452",
"7W c #3E4453",
"7X c #3E4647",
"7Y c #3E4648",
"7Z c #3E4649",
"7[ c #3E464E",
"7] c #3E464F",
"7^ c #3E4650",
"7_ c #3E4746",
"7` c #3E474A",
"7a c #3E474D",
"7b c #3E474E",
"7c c #3E4750",
"7d c #3E4754",
"7e c #3E4756",
"7f c #3E484D",
"7g c #3E484E",
"7h c #3E4850",
"7i c #3E4852",
"7j c #3E4853",
"7k c #3E4856",
"7l c #3E4858",
"7m c #3E494C",
"7n c #3E494F",
"7o c #3E4953",
"7p c #3E4954",
"7q c #3E4955",
"7r c #3E4956",
"7s c #3E4959",
"7t c #3E495A",
"7u c #3E4A4D",
"7v c #3E4A50",
"7w c #3E4A53",
"7x c #3E4A54",
"7y c #3E4A55",
"7z c #3E4A58",
"7{ c #3E4A59",
"7| c #3E4C4C",
"7} c #3E4C50",
"7~ c #3E4C54",
"8! c #3E4C5A",
"8# c #3E4D4C",
"8$ c #3E4D59",
"8% c #3E4D60",
"8& c #3E4E4F",
"8' c #3E4E61",
"8( c #3E4F4E",
"8) c #3E4F59",
"8* c #3E5052",
"8+ c #3E5059",
"8, c #3E5244",
"8- c #3E5266",
"8. c #3E5355",
"8/ c #3E535C",
"80 c #402F36",
"81 c #40363A",
"82 c #403738",
"83 c #40373B",
"84 c #40384C",
"85 c #403A3A",
"86 c #403A3D",
"87 c #403A3E",
"88 c #403A46",
"89 c #403B38",
"8: c #403B3D",
"8; c #403B41",
"8< c #403B42",
"8= c #403B44",
"8> c #403B46",
"8? c #403C48",
"8@ c #403D42",
"8A c #403D44",
"8B c #403D4D",
"8C c #403E3C",
"8D c #403E43",
"8E c #403E46",
"8F c #403E47",
"8G c #403E48",
"8H c #403E4D",
"8I c #404041",
"8J c #404042",
"8K c #404046",
"8L c #404047",
"8M c #404048",
"8N c #40404D",
"8O c #404140",
"8P c #404142",
"8Q c #404144",
"8R c #404147",
"8S c #404148",
"8T c #404249",
"8U c #40424A",
"8V c #40424C",
"8W c #40424D",
"8X c #40424E",
"8Y c #40424F",
"8Z c #404252",
"8[ c #404253",
"8] c #404258",
"8^ c #404341",
"8_ c #404344",
"8` c #40434A",
"8a c #40434C",
"8b c #40434D",
"8c c #404353",
"8d c #404354",
"8e c #40443C",
"8f c #404446",
"8g c #404447",
"8h c #40444A",
"8i c #404450",
"8j c #404453",
"8k c #404454",
"8l c #404458",
"8m c #40464E",
"8n c #40464F",
"8o c #404653",
"8p c #404662",
"8q c #404749",
"8r c #40474C",
"8s c #40474D",
"8t c #40474F",
"8u c #404755",
"8v c #40475B",
"8w c #40484E",
"8x c #404941",
"8y c #40494D",
"8z c #404953",
"8{ c #404958",
"8| c #404A4C",
"8} c #404A4D",
"8~ c #404A4E",
"9! c #404A54",
"9# c #404A56",
"9$ c #404A59",
"9% c #404C4F",
"9& c #404C52",
"9' c #404C53",
"9( c #404C55",
"9) c #404D4A",
"9* c #404D52",
"9+ c #404D53",
"9, c #404D54",
"9- c #404D58",
"9. c #404D59",
"9/ c #404D5F",
"90 c #404D65",
"91 c #404E52",
"92 c #404E53",
"93 c #404E54",
"94 c #404E59",
"95 c #404E5E",
"96 c #404E5F",
"97 c #404F53",
"98 c #404F55",
"99 c #404F5A",
"9: c #404F68",
"9; c #405059",
"9< c #405360",
"9= c #405459",
"9> c #40545C",
"9? c #405558",
"9@ c #405559",
"9A c #405567",
"9B c #413136",
"9C c #413138",
"9D c #413246",
"9E c #413543",
"9F c #413734",
"9G c #413838",
"9H c #41383A",
"9I c #413844",
"9J c #413A3B",
"9K c #413A3C",
"9L c #413A3D",
"9M c #413A3E",
"9N c #413B48",
"9O c #413B49",
"9P c #413C40",
"9Q c #413C48",
"9R c #413C4C",
"9S c #413C4D",
"9T c #413D41",
"9U c #413D49",
"9V c #413D4D",
"9W c #413E44",
"9X c #413E48",
"9Y c #414044",
"9Z c #414046",
"9[ c #414047",
"9] c #414048",
"9^ c #41404C",
"9_ c #41404D",
"9` c #414058",
"9a c #414142",
"9b c #414144",
"9c c #414146",
"9d c #414158",
"9e c #414244",
"9f c #414247",
"9g c #414248",
"9h c #41424D",
"9i c #41424E",
"9j c #414347",
"9k c #41434C",
"9l c #41434E",
"9m c #41434F",
"9n c #414352",
"9o c #414447",
"9p c #414448",
"9q c #414449",
"9r c #41444A",
"9s c #41444C",
"9t c #414453",
"9u c #414454",
"9v c #414641",
"9w c #414649",
"9x c #41464A",
"9y c #41464D",
"9z c #414650",
"9{ c #414654",
"9| c #414746",
"9} c #414748",
"9~ c #41474C",
":! c #41474D",
":# c #41474F",
":$ c #414752",
":% c #414754",
":& c #414755",
":' c #414849",
":( c #41484A",
":) c #41484C",
":* c #41484E",
":+ c #414850",
":, c #414852",
":- c #414855",
":. c #414856",
":/ c #414858",
":0 c #41485A",
":1 c #414864",
":2 c #41486B",
":3 c #41494A",
":4 c #414954",
":5 c #414958",
":6 c #414959",
":7 c #41495A",
":8 c #41495B",
":9 c #414A44",
":: c #414A4E",
":; c #414A50",
":< c #414A52",
":= c #414A53",
":> c #414A54",
":? c #414A55",
":@ c #414A56",
":A c #414A58",
":B c #414A5A",
":C c #414C53",
":D c #414C54",
":E c #414C55",
":F c #414C56",
":G c #414C59",
":H c #414C5A",
":I c #414C5C",
":J c #414C68",
":K c #414D4E",
":L c #414D50",
":M c #414D54",
":N c #414D55",
":O c #414D5A",
":P c #414D5E",
":Q c #414D61",
":R c #414E54",
":S c #414E56",
":T c #414E58",
":U c #414E5A",
":V c #414E5C",
":W c #414F4E",
":X c #414F54",
":Y c #414F5A",
":Z c #414F5E",
":[ c #414F64",
":] c #415058",
":^ c #415060",
":_ c #415259",
":` c #41525E",
":a c #415356",
":b c #415358",
":c c #41535B",
":d c #41546C",
":e c #415855",
":f c #415856",
":g c #41595C",
":h c #415B64",
":i c #41616C",
":j c #423140",
":k c #423842",
":l c #423B48",
":m c #423D3A",
":n c #424043",
":o c #424047",
":p c #42404A",
":q c #42404D",
":r c #424134",
":s c #424146",
":t c #424149",
":u c #42414A",
":v c #424150",
":w c #424248",
":x c #42424D",
":y c #424252",
":z c #424344",
":{ c #424349",
":| c #42434C",
":} c #42434E",
":~ c #424441",
";! c #424447",
";# c #424448",
";$ c #424449",
";% c #42444E",
";& c #424456",
";' c #424646",
";( c #424649",
";) c #42464C",
";* c #42464E",
";+ c #424650",
";, c #424653",
";- c #424749",
";. c #42474A",
";/ c #42474C",
";0 c #42474E",
";1 c #424750",
";2 c #424756",
";3 c #42484A",
";4 c #42484E",
";5 c #424852",
";6 c #424854",
";7 c #424855",
";8 c #42494A",
";9 c #424950",
";: c #424952",
";; c #424953",
";< c #424954",
";= c #424959",
";> c #42495C",
";? c #424A4F",
";@ c #424A50",
";A c #424A53",
";B c #424A54",
";C c #424A55",
";D c #424A58",
";E c #424A59",
";F c #424A5A",
";G c #424A5C",
";H c #424A62",
";I c #424C4E",
";J c #424C59",
";K c #424D50",
";L c #424D53",
";M c #424D54",
";N c #424D59",
";O c #424D65",
";P c #424E58",
";Q c #424E5A",
";R c #424E5C",
";S c #424E60",
";T c #424E62",
";U c #424E64",
";V c #424F54",
";W c #424F56",
";X c #424F58",
";Y c #424F59",
";Z c #424F61",
";[ c #425056",
";] c #425058",
";^ c #425059",
";_ c #42505A",
";` c #425061",
";a c #425254",
";b c #42525E",
";c c #425364",
";d c #425365",
";e c #42545A",
";f c #425461",
";g c #425553",
";h c #42565B",
";i c #425855",
";j c #42595C",
";k c #425972",
";l c #425A64",
";m c #425F5A",
";n c #433642",
";o c #433A50",
";p c #433B3C",
";q c #433C40",
";r c #433D49",
";s c #433D4A",
";t c #433D50",
";u c #433E42",
";v c #43403E",
";w c #434040",
";x c #434042",
";y c #434047",
";z c #434142",
";{ c #434143",
";| c #43414C",
";} c #434155",
";~ c #434244",
"<! c #43424C",
"<# c #43424D",
"<$ c #434250",
"<% c #434252",
"<& c #43425C",
"<' c #434342",
"<( c #434355",
"<) c #43444A",
"<* c #43444D",
"<+ c #434450",
"<, c #434452",
"<- c #434454",
"<. c #434455",
"</ c #434456",
"<0 c #43445B",
"<1 c #434647",
"<2 c #434648",
"<3 c #43464A",
"<4 c #43464D",
"<5 c #434650",
"<6 c #434652",
"<7 c #434653",
"<8 c #434654",
"<9 c #434655",
"<: c #43465B",
"<; c #434748",
"<< c #43474A",
"<= c #434750",
"<> c #434755",
"<? c #434756",
"<@ c #434758",
"<A c #43484C",
"<B c #43484E",
"<C c #43484F",
"<D c #434854",
"<E c #43485F",
"<F c #434860",
"<G c #434947",
"<H c #434952",
"<I c #434953",
"<J c #434A48",
"<K c #434A55",
"<L c #434A56",
"<M c #434A59",
"<N c #434C50",
"<O c #434C56",
"<P c #434C5A",
"<Q c #434C5E",
"<R c #434D4A",
"<S c #434D4F",
"<T c #434D53",
"<U c #434D56",
"<V c #434D60",
"<W c #434E55",
"<X c #434E56",
"<Y c #434E58",
"<Z c #434E5F",
"<[ c #434F48",
"<] c #434F53",
"<^ c #434F55",
"<_ c #434F58",
"<` c #434F5A",
"<a c #434F5B",
"<b c #434F5E",
"<c c #43504E",
"<d c #435052",
"<e c #43505A",
"<f c #43505E",
"<g c #435060",
"<h c #435061",
"<i c #43506B",
"<j c #435254",
"<k c #435354",
"<l c #435367",
"<m c #435461",
"<n c #43546E",
"<o c #43555B",
"<p c #43565C",
"<q c #435662",
"<r c #435668",
"<s c #435865",
"<t c #43596A",
"<u c #435E61",
"<v c #436078",
"<w c #443836",
"<x c #443B3E",
"<y c #443C40",
"<z c #443C44",
"<{ c #443D3C",
"<| c #443D42",
"<} c #443E3B",
"<~ c #443E46",
"=! c #443E4D",
"=# c #444050",
"=$ c #444140",
"=% c #444148",
"=& c #44414E",
"=' c #44414F",
"=( c #44424D",
"=) c #444256",
"=* c #444342",
"=+ c #44434A",
"=, c #44434D",
"=- c #44434F",
"=. c #444648",
"=/ c #44464F",
"=0 c #444650",
"=1 c #444654",
"=2 c #444659",
"=3 c #444743",
"=4 c #444749",
"=5 c #44474D",
"=6 c #44474F",
"=7 c #444753",
"=8 c #444754",
"=9 c #444755",
"=: c #44475B",
"=; c #44475E",
"=< c #444852",
"== c #444859",
"=> c #444862",
"=? c #44494C",
"=@ c #44494E",
"=A c #444955",
"=B c #444956",
"=C c #444958",
"=D c #44495A",
"=E c #44495B",
"=F c #444A4A",
"=G c #444A4C",
"=H c #444A50",
"=I c #444A55",
"=J c #444A56",
"=K c #444C4F",
"=L c #444C50",
"=M c #444C53",
"=N c #444C5A",
"=O c #444C5E",
"=P c #444C5F",
"=Q c #444D55",
"=R c #444D58",
"=S c #444D5A",
"=T c #444D60",
"=U c #444E4E",
"=V c #444E50",
"=W c #444E55",
"=X c #444E58",
"=Y c #444E59",
"=Z c #444E5F",
"=[ c #444F4A",
"=] c #444F4E",
"=^ c #444F54",
"=_ c #444F55",
"=` c #444F58",
"=a c #444F59",
"=b c #444F5A",
"=c c #444F5C",
"=d c #44504A",
"=e c #445055",
"=f c #445056",
"=g c #445059",
"=h c #44505A",
"=i c #44505B",
"=j c #44505E",
"=k c #445060",
"=l c #445066",
"=m c #445255",
"=n c #445258",
"=o c #44525E",
"=p c #445260",
"=q c #445264",
"=r c #445266",
"=s c #445352",
"=t c #445356",
"=u c #445359",
"=v c #44535A",
"=w c #44535F",
"=x c #445461",
"=y c #445465",
"=z c #445550",
"={ c #445559",
"=| c #445665",
"=} c #445859",
"=~ c #445860",
">! c #445866",
"># c #44586B",
">$ c #44595C",
">% c #44595E",
">& c #445B60",
">' c #445E5B",
">( c #445E67",
">) c #445E6D",
">* c #44616C",
">+ c #446271",
">, c #463748",
">- c #463A37",
">. c #463D41",
">/ c #463E3C",
">0 c #463E42",
">1 c #464243",
">2 c #464350",
">3 c #464354",
">4 c #464449",
">5 c #464454",
">6 c #464647",
">7 c #46464E",
">8 c #464652",
">9 c #464653",
">: c #464656",
">; c #46474E",
">< c #464752",
">= c #46475F",
">> c #46484C",
">? c #464852",
">@ c #46485A",
">A c #46494E",
">B c #46494F",
">C c #464950",
">D c #464954",
">E c #464955",
">F c #464956",
">G c #464958",
">H c #464A4A",
">I c #464A4C",
">J c #464A4E",
">K c #464A50",
">L c #464A53",
">M c #464A55",
">N c #464A5C",
">O c #464A5F",
">P c #464C53",
">Q c #464C54",
">R c #464C56",
">S c #464C59",
">T c #464C5B",
">U c #464C5C",
">V c #464C67",
">W c #464D56",
">X c #464D58",
">Y c #464D5A",
">Z c #464D5E",
">[ c #464E4D",
">] c #464E4F",
">^ c #464E54",
">_ c #464E55",
">` c #464E58",
">a c #464E5B",
">b c #464E5E",
">c c #464E60",
">d c #464E62",
">e c #464E64",
">f c #464F49",
">g c #464F4E",
">h c #464F58",
">i c #464F5B",
">j c #464F67",
">k c #464F6A",
">l c #465054",
">m c #465056",
">n c #46505A",
">o c #46505E",
">p c #465065",
">q c #465254",
">r c #465259",
">s c #46525E",
">t c #465261",
">u c #465354",
">v c #465359",
">w c #465455",
">x c #46545A",
">y c #46555E",
">z c #465564",
">{ c #46565E",
">| c #46565F",
">} c #465660",
">~ c #465852",
"?! c #465860",
"?# c #465864",
"?$ c #465867",
"?% c #46586E",
"?& c #465A6A",
"?' c #465F72",
"?( c #46625F",
"?) c #466260",
"?* c #473B46",
"?+ c #474147",
"?, c #474250",
"?- c #474344",
"?. c #47434E",
"?/ c #474646",
"?0 c #474747",
"?1 c #474749",
"?2 c #474755",
"?3 c #47484E",
"?4 c #474850",
"?5 c #474852",
"?6 c #474859",
"?7 c #474950",
"?8 c #474953",
"?9 c #474956",
"?: c #474959",
"?; c #474A52",
"?< c #474A59",
"?= c #474A62",
"?> c #474C48",
"?? c #474C5A",
"?@ c #474C5F",
"?A c #474D4C",
"?B c #474D53",
"?C c #474D56",
"?D c #474D58",
"?E c #474D60",
"?F c #474E56",
"?G c #474E5A",
"?H c #474E5B",
"?I c #474E62",
"?J c #474E66",
"?K c #474F52",
"?L c #474F56",
"?M c #475056",
"?N c #475058",
"?O c #47505A",
"?P c #47505C",
"?Q c #47505F",
"?R c #475060",
"?S c #475061",
"?T c #475065",
"?U c #47524C",
"?V c #475254",
"?W c #475259",
"?X c #47525E",
"?Y c #475260",
"?Z c #475261",
"?[ c #475353",
"?] c #475366",
"?^ c #47545F",
"?_ c #475460",
"?` c #475461",
"?a c #475466",
"?b c #47555A",
"?c c #47555E",
"?d c #475565",
"?e c #475661",
"?f c #475665",
"?g c #475666",
"?h c #475866",
"?i c #475960",
"?j c #475A5E",
"?k c #475A70",
"?l c #475A71",
"?m c #475B60",
"?n c #475B61",
"?o c #475B62",
"?p c #475B65",
"?q c #475B66",
"?r c #475B68",
"?s c #475E64",
"?t c #475E70",
"?u c #475F6E",
"?v c #483B36",
"?w c #484047",
"?x c #48404E",
"?y c #484158",
"?z c #484254",
"?{ c #484258",
"?| c #48444F",
"?} c #484450",
"?~ c #484643",
"@! c #48464D",
"@# c #484650",
"@$ c #484748",
"@% c #48474F",
"@& c #484750",
"@' c #484753",
"@( c #484854",
"@) c #48494E",
"@* c #484952",
"@+ c #484958",
"@, c #48495E",
"@- c #484A52",
"@. c #484A5C",
"@/ c #484C54",
"@0 c #484C58",
"@1 c #484C5E",
"@2 c #484C65",
"@3 c #484D55",
"@4 c #484D58",
"@5 c #484D5C",
"@6 c #484D61",
"@7 c #484E4D",
"@8 c #484E53",
"@9 c #484E55",
"@: c #484E5E",
"@; c #484E62",
"@< c #484E65",
"@= c #484F4C",
"@> c #484F54",
"@? c #484F55",
"@@ c #484F5A",
"@A c #484F5E",
"@B c #485055",
"@C c #485058",
"@D c #48505B",
"@E c #485061",
"@F c #485062",
"@G c #485249",
"@H c #48525E",
"@I c #48526A",
"@J c #485356",
"@K c #485359",
"@L c #48535F",
"@M c #485366",
"@N c #485455",
"@O c #485456",
"@P c #48545A",
"@Q c #48545C",
"@R c #485461",
"@S c #485462",
"@T c #485465",
"@U c #48546B",
"@V c #485564",
"@W c #48556B",
"@X c #485662",
"@Y c #485852",
"@Z c #485858",
"@[ c #48585E",
"@] c #485866",
"@^ c #485956",
"@_ c #48595C",
"@` c #48596C",
"@a c #485A5C",
"@b c #485A61",
"@c c #485A62",
"@d c #485A6B",
"@e c #485B67",
"@f c #485C5C",
"@g c #485E6B",
"@h c #48605E",
"@i c #486072",
"@j c #486170",
"@k c #486277",
"@l c #48627C",
"@m c #494258",
"@n c #49444A",
"@o c #49444E",
"@p c #494652",
"@q c #49474E",
"@r c #494750",
"@s c #494848",
"@t c #494852",
"@u c #494855",
"@v c #49495A",
"@w c #494A54",
"@x c #494A56",
"@y c #494A58",
"@z c #494C52",
"@{ c #494C54",
"@| c #494C55",
"@} c #494C58",
"@~ c #494D53",
"A! c #494D5A",
"A# c #494D5B",
"A$ c #494D5F",
"A% c #494D65",
"A& c #494E4D",
"A' c #494E59",
"A( c #494E5F",
"A) c #494F55",
"A* c #494F65",
"A+ c #49504E",
"A, c #495055",
"A- c #49524E",
"A. c #495255",
"A/ c #495258",
"A0 c #49525A",
"A1 c #49525E",
"A2 c #495264",
"A3 c #49535B",
"A4 c #495366",
"A5 c #495368",
"A6 c #495456",
"A7 c #49545E",
"A8 c #495462",
"A9 c #495467",
"A: c #495550",
"A; c #495558",
"A< c #495562",
"A= c #495565",
"A> c #495567",
"A? c #49556C",
"A@ c #495656",
"AA c #49565C",
"AB c #49566A",
"AC c #49585C",
"AD c #49585E",
"AE c #495862",
"AF c #495864",
"AG c #495866",
"AH c #495956",
"AI c #495961",
"AJ c #495964",
"AK c #49596B",
"AL c #495A5C",
"AM c #495A60",
"AN c #495C60",
"AO c #495C66",
"AP c #495E62",
"AQ c #495F62",
"AR c #496068",
"AS c #496078",
"AT c #49666D",
"AU c #49677A",
"AV c #4A4650",
"AW c #4A466D",
"AX c #4A4747",
"AY c #4A4858",
"AZ c #4A4A52",
"A[ c #4A4A60",
"A] c #4A4C4E",
"A^ c #4A4C5E",
"A_ c #4A4D59",
"A` c #4A4D5B",
"Aa c #4A4E55",
"Ab c #4A4F52",
"Ac c #4A4F64",
"Ad c #4A5059",
"Ae c #4A505C",
"Af c #4A5259",
"Ag c #4A525B",
"Ah c #4A525F",
"Ai c #4A5264",
"Aj c #4A5267",
"Ak c #4A5352",
"Al c #4A5360",
"Am c #4A5361",
"An c #4A5366",
"Ao c #4A545B",
"Ap c #4A545F",
"Aq c #4A5461",
"Ar c #4A5467",
"As c #4A5561",
"At c #4A5562",
"Au c #4A556B",
"Av c #4A565C",
"Aw c #4A565E",
"Ax c #4A565F",
"Ay c #4A5664",
"Az c #4A5666",
"A{ c #4A5667",
"A| c #4A5866",
"A} c #4A586C",
"A~ c #4A5964",
"B! c #4A5970",
"B# c #4A5A54",
"B$ c #4A5A5E",
"B% c #4A5C6A",
"B& c #4A5E67",
"B' c #4A5E71",
"B( c #4A5F74",
"B) c #4A6177",
"B* c #4A6B7A",
"B+ c #4C4240",
"B, c #4C424E",
"B- c #4C4253",
"B. c #4C4458",
"B/ c #4C4D49",
"B0 c #4C4F4E",
"B1 c #4C5052",
"B2 c #4C5058",
"B3 c #4C505A",
"B4 c #4C535B",
"B5 c #4C535E",
"B6 c #4C5360",
"B7 c #4C536A",
"B8 c #4C545C",
"B9 c #4C5553",
"B: c #4C555A",
"B; c #4C5566",
"B< c #4C5567",
"B= c #4C5660",
"B> c #4C5666",
"B? c #4C5667",
"B@ c #4C5866",
"BA c #4C5964",
"BB c #4C5966",
"BC c #4C5A6C",
"BD c #4C5A72",
"BE c #4C5A78",
"BF c #4C5B64",
"BG c #4C5B67",
"BH c #4C5B70",
"BI c #4C5C66",
"BJ c #4C5C71",
"BK c #4C5E62",
"BL c #4C5E6B",
"BM c #4C5E72",
"BN c #4C5F65",
"BO c #4C616B",
"BP c #4C616C",
"BQ c #4C616E",
"BR c #4C627D",
"BS c #4C646D",
"BT c #4C6566",
"BU c #4C686D",
"BV c #4C6880",
"BW c #4D4647",
"BX c #4D465A",
"BY c #4D4756",
"BZ c #4D4850",
"B[ c #4D4858",
"B] c #4D4D5B",
"B^ c #4D4E4C",
"B_ c #4D4E54",
"B` c #4D4F49",
"Ba c #4D4F61",
"Bb c #4D5055",
"Bc c #4D5250",
"Bd c #4D5361",
"Be c #4D545C",
"Bf c #4D5461",
"Bg c #4D5552",
"Bh c #4D555F",
"Bi c #4D5561",
"Bj c #4D565C",
"Bk c #4D565F",
"Bl c #4D5860",
"Bm c #4D5862",
"Bn c #4D586E",
"Bo c #4D5967",
"Bp c #4D5A5C",
"Bq c #4D5A62",
"Br c #4D5A65",
"Bs c #4D5A66",
"Bt c #4D5A67",
"Bu c #4D5B66",
"Bv c #4D5C65",
"Bw c #4D5C6C",
"Bx c #4D5C6D",
"By c #4D5C7D",
"Bz c #4D5E6A",
"B{ c #4D5E72",
"B| c #4D5F66",
"B} c #4D5F6B",
"B~ c #4D6065",
"C! c #4D6068",
"C# c #4D6164",
"C$ c #4D6166",
"C% c #4D616C",
"C& c #4D616E",
"C' c #4D6170",
"C( c #4D617D",
"C) c #4D627A",
"C* c #4D6472",
"C+ c #4D6570",
"C, c #4D6580",
"C- c #4D6674",
"C. c #4D6C6E",
"C/ c #4D6E82",
"C0 c #4D727A",
"C1 c #4E4342",
"C2 c #4E4853",
"C3 c #4E4858",
"C4 c #4E4954",
"C5 c #4E5061",
"C6 c #4E525E",
"C7 c #4E535B",
"C8 c #4E535E",
"C9 c #4E5455",
"C: c #4E545E",
"C; c #4E5464",
"C< c #4E5468",
"C= c #4E5560",
"C> c #4E566A",
"C? c #4E5672",
"C@ c #4E5866",
"CA c #4E5876",
"CB c #4E5953",
"CC c #4E5A67",
"CD c #4E5B6A",
"CE c #4E5B74",
"CF c #4E5C6E",
"CG c #4E606E",
"CH c #4E616B",
"CI c #4E616C",
"CJ c #4E6174",
"CK c #4E6278",
"CL c #4E646A",
"CM c #4E6478",
"CN c #4E6676",
"CO c #4E6873",
"CP c #4E6A7A",
"CQ c #4E6A7D",
"CR c #4F4048",
"CS c #4F4456",
"CT c #4F4D52",
"CU c #4F4F65",
"CV c #4F505A",
"CW c #4F545B",
"CX c #4F556A",
"CY c #4F565C",
"CZ c #4F5667",
"C[ c #4F585C",
"C] c #4F5A55",
"C^ c #4F5A60",
"C_ c #4F5A62",
"C` c #4F5C62",
"Ca c #4F5C72",
"Cb c #4F5C73",
"Cc c #4F5E6A",
"Cd c #4F5F6C",
"Ce c #4F5F6E",
"Cf c #4F605F",
"Cg c #4F6168",
"Ch c #4F626E",
"Ci c #4F6471",
"Cj c #4F6674",
"Ck c #4F6A70",
"Cl c #4F6A82",
"Cm c #4F6D77",
"Cn c #4F6E78",
"Co c #504844",
"Cp c #50494F",
"Cq c #504A54",
"Cr c #504C56",
"Cs c #504D47",
"Ct c #505259",
"Cu c #505352",
"Cv c #505461",
"Cw c #50546A",
"Cx c #50555F",
"Cy c #505661",
"Cz c #505864",
"C{ c #505873",
"C| c #505968",
"C} c #505A5A",
"C~ c #505A71",
"D! c #505B5B",
"D# c #505B5E",
"D$ c #505B61",
"D% c #505B68",
"D& c #505B71",
"D' c #505C5F",
"D( c #505C77",
"D) c #505E62",
"D* c #505F70",
"D+ c #505F71",
"D, c #506067",
"D- c #50606C",
"D. c #506171",
"D/ c #506472",
"D0 c #506573",
"D1 c #50657C",
"D2 c #506580",
"D3 c #506768",
"D4 c #50676C",
"D5 c #506B78",
"D6 c #50737A",
"D7 c #524852",
"D8 c #524960",
"D9 c #524A4D",
"D: c #525462",
"D; c #525552",
"D< c #525558",
"D= c #525858",
"D> c #525A6A",
"D? c #525A76",
"D@ c #525B67",
"DA c #525E6E",
"DB c #525E78",
"DC c #525E7D",
"DD c #525F6A",
"DE c #525F72",
"DF c #526072",
"DG c #52617C",
"DH c #52626C",
"DI c #52657F",
"DJ c #526879",
"DK c #526C77",
"DL c #526C79",
"DM c #534F4E",
"DN c #535A6A",
"DO c #535A70",
"DP c #535B70",
"DQ c #535C6D",
"DR c #535E77",
"DS c #535F61",
"DT c #53606A",
"DU c #53606B",
"DV c #53606C",
"DW c #53616E",
"DX c #536171",
"DY c #53617C",
"DZ c #53617D",
"D[ c #536570",
"D] c #53666B",
"D^ c #536779",
"D_ c #536872",
"D` c #536874",
"Da c #53687F",
"Db c #536A7D",
"Dc c #536B7E",
"Dd c #536B85",
"De c #536D7E",
"Df c #537785",
"Dg c #544F5C",
"Dh c #54585F",
"Di c #54595E",
"Dj c #54596A",
"Dk c #545C67",
"Dl c #545E60",
"Dm c #545E6C",
"Dn c #546172",
"Do c #54626C",
"Dp c #546280",
"Dq c #54666E",
"Dr c #546676",
"Ds c #546678",
"Dt c #546679",
"Du c #54667F",
"Dv c #546683",
"Dw c #546777",
"Dx c #546779",
"Dy c #546A76",
"Dz c #546B72",
"D{ c #546D79",
"D| c #55444E",
"D} c #555464",
"D~ c #555862",
"E! c #55586C",
"E# c #55596C",
"E$ c #555A60",
"E% c #555C6C",
"E& c #555C6D",
"E' c #555E70",
"E( c #55606B",
"E) c #556070",
"E* c #55616E",
"E+ c #556171",
"E, c #556262",
"E- c #55646C",
"E. c #556674",
"E/ c #556676",
"E0 c #55686A",
"E1 c #556871",
"E2 c #556D76",
"E3 c #556D77",
"E4 c #557067",
"E5 c #557084",
"E6 c #56524A",
"E7 c #565255",
"E8 c #56525A",
"E9 c #565861",
"E: c #565871",
"E; c #565F6D",
"E< c #56687A",
"E= c #566A77",
"E> c #566C8A",
"E? c #566E79",
"E@ c #566E7F",
"EA c #567180",
"EB c #567292",
"EC c #567F95",
"ED c #584647",
"EE c #585862",
"EF c #585B65",
"EG c #585E5E",
"EH c #585E67",
"EI c #586067",
"EJ c #586068",
"EK c #58626C",
"EL c #58647A",
"EM c #58666E",
"EN c #586673",
"EO c #586C72",
"EP c #586C77",
"EQ c #586C7D",
"ER c #586E72",
"ES c #587274",
"ET c #587484",
"EU c #595049",
"EV c #595B77",
"EW c #595F62",
"EX c #596268",
"EY c #59627D",
"EZ c #59647E",
"E[ c #596B7D",
"E] c #596C78",
"E^ c #596D78",
"E_ c #59727E",
"E` c #597783",
"Ea c #597990",
"Eb c #5A5A70",
"Ec c #5A615E",
"Ed c #5A6482",
"Ee c #5A656C",
"Ef c #5A6A6C",
"Eg c #5A6B84",
"Eh c #5A6E94",
"Ei c #5A737C",
"Ej c #5A778F",
"Ek c #5A7983",
"El c #5A7986",
"Em c #5A7D91",
"En c #5B5670",
"Eo c #5B5E73",
"Ep c #5B6268",
"Eq c #5B658C",
"Er c #5B6C86",
"Es c #5B716B",
"Et c #5B7290",
"Eu c #5B7382",
"Ev c #5B7682",
"Ew c #5C5270",
"Ex c #5C677A",
"Ey c #5C6A83",
"Ez c #5C7088",
"E{ c #5C7188",
"E| c #5C788A",
"E} c #5C7890",
"E~ c #5C7E97",
"F! c #5E6777",
"F# c #5E688B",
"F$ c #5E6C8B",
"F% c #5E7185",
"F& c #5E797E",
"F' c #5E7D90",
"F( c #5F6660",
"F) c #5F6C76",
"F* c #5F7485",
"F+ c #604F4E",
"F, c #60717E",
"F- c #607984",
"F. c #607E8B",
"F/ c #608891",
"F0 c #616478",
"F1 c #616A77",
"F2 c #616B7A",
"F3 c #616B98",
"F4 c #617A91",
"F5 c #617E8A",
"F6 c #626E7A",
"F7 c #627192",
"F8 c #646D83",
"F9 c #64848F",
"F: c #65606C",
"F; c #65769B",
"F< c #657C9A",
"F= c #658088",
"F> c #66777D",
"F? c #667E7E",
"F@ c #667F85",
"FA c #668F99",
"FB c #678691",
"FC c #685B5C",
"FD c #685B65",
"FE c #686474",
"FF c #687170",
"FG c #6882A4",
"FH c #6A6C74",
"FI c #6A7C86",
"FJ c #6A8797",
"FK c #6D7998",
"FL c #708991",
"FM c #717283",
"FN c #7190A3",
"FO c #72829F",
"FP c #73858D",
"FQ c #7C92A1",
"FR c #7DA4B2",
/* pixels */
"5&A3?b+O/u3R,0&|(k!b%j%}A*3W;/7$.x*xB4<R(.,a+k,<A:'>*I,/>X#o+_0+8#=G!|'^'pFJ/`AT2L2O;j+ACm2(5w5G#p0T3t%D$55c54)87Q0a+<*L,S+:%R<k",
"+Y'z1>-S5t5O!x&L!z$#4{;H<:73EbFM849h81184>3T3!?1?):0+C)92B(00%*r#0%o.OB#4l9D0h6.6^9B0|'S1zEJ;$/B#;&h51&q0p@O#!%Z2<'=$~4}'#-w.~9(",
"+Y&j,.4Z8-(@!V*H&''@3v*yEd1T1cE<=y,f$x';$/>F8d9@:;3F/b$,*0%C%k)Y$'${,!2d8l95=>*o<m2}By1,Cl:2%;.B*M&*6J)-#?',%~%T%Y&A*?'62--y0Z50",
",2<434%M)F0M3-&02U!w3x.DDw*u7:BZ%)*(-r4p918|)a3X,m=^<c.S&Y,a%39c2*9*3oA6*i1wCa/g797>8,8A=:*`#P)<7.5=7u4T0A'v+g':(,&-(k'6A^B;7l6Q",
"&N,Q)h)?!e$Y&F*>)s$*)37MEl587c#{&m$!&j&~+Y$q)a:#/7?cAC5m6{2S-+',)01W<$1V3-/r.O.d>G+x6;<Q&u*];R%!,l.#/U!60i%u)A)!!r&s+3#2@:DB5)&{",
")|1r)t.;)0$x#u#b)K%`%,&3%=&J2$5h%z<p*=@W)&(;%$)n,z.1?Y.e,(7U/N)7*:-j*C=k2'1w.h8k?r?@;uFK.W8[$%B9;k:A,m,vD18+/T/C#j/%7F$jAn.z;=;<",
"&r'k'}!~-m/>55/+3^(>&29;53Bp9f+?;.<f>_3%D,+B,K1{3:3HBI12D%+U#(/k3J2-1R2'3?15@HCi422cC}BX6$/t8n8ZC55b5A8x(N'88!'+$/.l!O%^+2$V<<>=",
"<?-f*p#e$+)(#n&-26(=<t+i(#4%8e&+5|(f0VE-=e@/BC6;6''wB?0H4*45%U'N&B!#*t2^60(X(Q5!*d4NCu<6?e3Z<a)oBE:'6]03656##@%^$z%V#n/8&-$c//%;",
"$2#r,]'*!v%X0c'i<n3B3w*P+r3PE6+u$Q/05#+K3r9,C7BK7i%|9o4q*}2v+5.f>U'0;5<z2t:A+J*1.]CcEX@$82%p>Z'X)r?$7G#n+s2>0j-&+j#G!J(4%G*O+P!&",
"3g,P(m$^#6(a5'$`'<+V2_*f3VF>@K>4.A>'D6<a5I>~@81e6C+i2:;8?4$L6)9~%51p+v8fA%,I.60J4N1/C~@z?Q4^,`%&9S8.38'b=_=35(:=$i%S('3_)*'`%0%O",
"$U7J;5/)'-$Z'h($(n'91K#]*52L0x,y./*F--FA-'1t1J289o,K0d7H;v$v$]<}'m2=*j01?v>/9/%15q-o8X86)`3+'j(y'&,x9*=82F08/?+]<r(T-E%M7[&t2A)g",
"#s**9h$=#E1P)G&v,Y+X7y3u2t99@f:~D_-R-^Ek>W'B3D4|0-AJANCd1N!])6EI,j*.1]:^C8.C/XCJ<i2KAmEj*a390%.&3d(^#H-!+Q$>!1!q?&;Y%4BD?O+}9m#D",
"'y)e?`&l)D+X30,5&b+*.R+>3^.-'4%.=w+8<G#z.P(r/[7A101M-{%9#}1h7d>E#8*R*[?{<w;11H?N*u3e,49Q8t<5),0^0n?^)>)=)*$|=i/_!4/2']C,1X8{;N1i",
"2/;>;^3b598~,{(C9)2E6y#F8(+.'l*KAI2k=4!t,i9A;c!i@`*J<d5xE`/:#w*w&=8p<D?*F8B+<h+`:d;y-@C(8%D^6sDu@VD`&q:9=I>x85BN0,-V!c+-)}$y#[1o",
"62'W._7{+,/G:6'nE_Dy@i=L.%<U0l,Q:%/S4/1JEi=VA>0I1+6C5y1d94A1*'0b#Q+V*%8I1g?NAV@{;U,F;dBU25;2BHF*7+:Q'Z)'@7-%)M5f8>)O047l5v'#(w.h",
"*?!05D3a%5;M4sFP=;FL292P$p/K!W*@#J#i1LB1#l.b*l=}'7;JBR7f@bBA:=A2!I779%1::W6<7*F)#K#3!%$DDx@cB*ET=~7!)R)J>I<&;i5J#U%@@R64355{=O&t",
"3S'/+X&($e&jC&Ee:@E,@g?i!g*;3e:F%d3;>-43+aA->)E4D3;m'N*#%3@Z)1,u!.'%$W+S)29.(REh,7/5!;::0;-l7'&w-0,6Ac1@={-$0w.a-88H9R.`=#A(/p(5",
"5E6(2;+$<(2)=TCY0C![.<2Q*S4n/$5'7^ChAa#9!`<[#W#j%a06#f$d+X%K!X!(.F%M(]!>*,#u2G#&.42H33?a$o0AE@BL(12;/N5&94>sBQ)v4?4H9z*204)#-C!k",
",c0K;V2?%6:R;4?D2+=70X(d3H6-8w>}%`*q(L!qDL)C.0(B%I&M+p'5.8(z&!!_3o&H:V4>5y5B.8#*/c$j<g=?D_7QBr;3898T6q;x@_C'>|416i?0164f5Z,L4&)q",
">,$P3J:U/,-L,G;I1w7V=s;A(3&G)J:%*62~>+B~CKAM1''2!/'?0R4I&[5>%w(!:X:S6I+f7)<^1}!o>v,p=o8C:,2v(j>yE?1::}.KE}FNE[=,8M:x(i.M4<%L&g-y",
"$(+W7v=S9i?8?D*l5}D]69FBAR8R0r+;1YDh243E#tF9F+F;0:(7%g6*.a'a/,){<u>f6F8:4o:q%t()&)$7%_!A?#E3,E0P$]9s)v5N<b:$9$4a:E>o22;75-,/-<&}",
"6U#A@L8)-D<C<]1QC!F=8f,*'o*</d!a&Q#)#I2Y):7i<YCR>n?m;=;/.cDl.#9+?t4G)v8g1u>zEA&)5<7.?k>w<l:c8}Ax0-6!-c.n:-?|EHF7EyD}>{-t3?8z1F7X",
")y&1<NAp765?6/=d8PAH0)0v8&(_'.%l:j/'1w0<DDF:EfBG0Y'T/h&]<BC9D.,CCV2%#v1S1^4wB79m7-<'&{3c2r.g&kEG111R-b7S*V1;@4CtE.F#8F6~-3*70(+6",
"@P8h11<34D4x<W.!:LAP/Y*G&a+#%H,$$&9O;;Cg2X<Y=R6,&3?[AD%y,rB{.5#Y!Z'A,},Q0>=nAF9x7=AG4F=v@<+h=mEDA0:T'y<s:?7T6:A~BJ6h:&'!-p<1'N&6",
"=f5}5&A<-M-T784v/?+t*!Be4812'r$?=D'D:o1o3n:D<x7k,tC++/0K%t3q*]*T;Q<v:z?g.X8R;~?5@K14:r;q?C<PBsCs8S1a3M?>DK?M6B4U1y1L+f8g%Q3?=X+Y",
"5C8w2u;M2]9PDH;9?E+b)4FQ?:4V:/#M$9$xAo@aD=DAD~E]98A!AE.c.+>$1O2o#Z5T!D:y6}<0AOAFE|DV?u.?-,-V5SD;DnA8;[3K?9-v,d-H0F-P6H7/:>7bAU;a",
"7W;L4_+;>10g7o:D3<>$:n4d3TDgE&1P6W#X@#<2:5:7FHAg2l-;5p2~B_E+;-#4)%#V,O203(3/;w0z4,5d5e3y3*3l<@E$EY7EAL=jF,CTB6=W>8+m([7)>R:<30C0",
".,Cb@~.H,5+W:`8N5[0'(I8OD[EP4S'r4E%h/MCx4z07C1D9;z'U!k7X7b$w%I;KBo=B<e0@:)8^:PBb(]4[;'<--14h8JAk6w6+@v?UE{7*@0?F<_63?b4t9!$[/(5U",
"CQBMA[??;n7nBd6_CA@y0$6r?+DM6c80/326.&6F2iDUF@<XBq:_*/1s&z.p!B5_-F$.=Z-vEM;(?;1j+H5g)LBx5R.m@SAwE):|CW?~EQCpC;A_8Q7f2B,:0y=M1vC<",
"6<5X@)2<.o%P:M>`-w6+-s2!Di7s*,5%1l<|6L;EEpF1837F2*21-(-z+N7q6O)^+&+q5F0@6N@3B/>*;C4q.=4]8K.v75Cy0&)4CFDT>J5,1Z@s:s+F6P2D$i)$0S1n",
"?S5l2h,1*Y=a7K3$%R>]4c?qDp7A&_/V(A3i9.<Z:i6@FCDo>lC#&p/I)Q3l1R-i<17X()#;/Q7_4J>[.q?_=.B4Bl4C...9A],H+GDt7f:N;DE5<L+44k,N&{5H<o=-",
";Z+@1#&T#c-z>>-E*d'e)d0<>?:k.2!2.f:OAjF!8/2RB`FF:3B|?L=a=T;_7K9FB==J931?*(*|4K8*4P;6Dc<{?P.k$=3)C.(J:S?,C2B5Dk9G$M/n3C@ICEA?EB9W",
"!R<74)-b'j.{8<-G$)'[%{2,B31%17:Y9]<E7PFE3+DQ@NEx8iCH53@?F->m?dAAB8D#2q&<1|,B+c-:!<8>0.D:9b?H8'#1(*#,0{,o>(Dd/W0u)I,gAS0t+G%72M>C",
"/E+I/&/~2C&V4B.6&f#/&>5/4j&oA{BWCr3R7D3{4:%|C$9sEs;7>hBu9~/R?XBk3~CC8_$O7D;o>o%<(966BjD<AB0k13DJ-Y&^E'5LBnF%E#)c$:+b@lEC5K')1D?B",
"#B&9)|3%:Z-J#`?y.J2p(g!s8E:{@@+%4e,84+@J@d6KCfF(F6=z>&7L921s==D'47B27h=+DZE7)HB_:BDPDjF??.>q4ICz<J'F@D;uB>C:CoBB@5>@>jE;6T<)A.(|",
".i+^'H.U<%$a/x:l=&72@w2z6{@x=Y3['Y0O0c(E2g)_5`D!C]&O?V>!70;Q:[,s7(DR$B<A<;@F>rC[=9??FDA/@E1O$k=F*nEKE=D*DX.I9k;sCM3oEVCwDNBYDO2Z",
"5@.s)..|*8*-<!E:B]5M5P>G1Z<,DE(U3O-=!9:wCn7-4Q>TB^@G(s#a@9!Q0H/UB,7@0?>M/l8@2`@;@H7qDr9t)X/L)$$T.Z.N-I/*8W)P8mB@D2A>?IE>>1AiEr/?",
"'~*+'$3U1`3m7CAYE86t6b(w-UC@>aCD)W2w,A4j;g9=AQA}Bb6X/P*~$n-K#e*F/e,8;01(*v1P/qE2=SD)A`3==]C6A|Eo9Q?f>u-]2H/i18=/-26d9VAX>dBz>9?s",
"9z))4.1f2$&.'d(x*Q&P,U)i=q/AEmEuF<F2%r-**{/F/4=(F4,>0B&|*D+X!H!:9C.q0p!,A@6q/~.jBi?=><2f=[44A'*b/x9Z8V8y;e0o/=4O+~1K;p9HDb;cDm>%",
"9>2T57(*){,^)f)V-z(2.}2{1m@|:.=uF'C?6e&E+;!G(&<V?J,V2=36)d7R!^.GCS1t3I<9@A@6;#:p7$6p3=;0(S1.%f>V@p?,15B:<.(e$V$F1=@]@t@%CG=@B2B'",
"8r/?'c-n2x,-'E&&9L*W(P;O6x<*9E@C@U++F39IDfD{>n@kDG?R+<5p'R4i@^&y?2%v1%$0.T4D;*Ay0e*X++#y3.3,-}6z.[8TDYF0(H+./{/m4-=53#>#ArBwBgAz",
"+T+L&?1j6&*-'Q/o2a6|.L/w2j8t>i9`DW;:=t3z/zDFEWE1EU:I<K(n74=r*&#'467{.u(%9|7])j-[+z1$9n1U(F*s'_.h-?'O9U;*9z>^<y@u2`-_/<=%AZ?Z=*7N",
"%c?%9M5i.$&5,#;).s430~$$.pBL=1D/9v>P9TE*BH8L>M-aF5B!7J5w,5B)@j0/0])S,U&c$F*^(`$K7B7#6n*U@o8=3}.T)N@+*mC=>.)Z@!Bm105c@&C%?(C*875z",
"A$?o(Z4U<N(^@&;9>S=N)x4=&c12Dn!L%n-Z8B?<9:Ec6Z>g=b(x#5:J%mC|>kCX!F%?5i5n@B-b#a+{=PCqD7#7=$<O;}A,'L>c;r6a=69J9L5k-0*|Aq6=?z6lD8Ev",
"@*<>-W,b(f4@/j@T%w1f?76G#^(X<,C-4';`0R<j,&D+,M7B*4/a+y,^C>@200,k@.;S2n/f(D+|0f1B=!<~Eq4(7#@n<-=B>:40+Z%i3|-5;|=U4;02>A6)Et>NE/FR",
"3f8f&48q)u/@9[5a49A7-M9l4#0})m>6D@4$5VDSBO5:::%x=i4Y4M7e<H1I3q7O/}$b-m1P!);f!->bB.?wC3>2+{5~%z$f+M-X(6(b0*-H0C%e0,-`8S6v9g=EEZ'M",
"%?%[(!-u)a;b9_.Q)n$N%(.W*z?I3'!rF&4~)T?3CU'k)[-:$G97;G+12W)p/-,e%]&X+)8m-O;B=KCZ>p<#Ew=A(}-6'I*9/y&m.{(M8a4^.y.Y-x&S#~)c%*$I8GD&",
"BS6@2m#x*_/!+97x-7!*#$.$*3,W4`-3Av=|B}Cj@-'$4!-B>Y'f3m$A$`0m,q&@-N)B@m379{7&0%D?,%=';t.a:GBfA)!n9jDI@Q%A7^67'x4=:4'u7Y&x*x0[*&&K",
"BT-90@BV!34G!C+;&$1~=`6A$2)&6z*vE(:(3]AdAu9fD(Da.'7;8v&U#_%W$2%827,_1qAW#O,,7<A+6j2[EE/#?x-/&0+d'i#=09!h(V+(4?5uBaAKA56+;N7p5o1G",
"C/8?&u1<9y&e5s-_'_(p1k3Q/&8m>L!8Ae,(C)2|<F+o0Q?',@EzDC*Z8b%)*B=):v>t6Y9YCI7|@h;W%%>3E9-A0U/6/9-f<+Ea2l7L#k%w*n$Q6-</3h&A336>,?!+",
"C4>;*v##3`!E>`8U'G9^+*&(*3(X=@2{0#Bt7%@MFI-b?}CP0G5QE%6fAt88<=6g7`+8;@@YCe=Q&C:f<`;/9w$['f(O4bF/%4&n#S:K&8=<)l0?#l3k/.,Z5A-d:h;&",
"6mE05l/k;{#N,(>O%F#s%q!Y!p,h!y#L$S9N>56`F$EF<MCk.^1&1!>e1KCO:83L:e$r/]:m7g:C)K2K=X9&0E4R0a?A<qD5!S#-,+9<!d4u$8&2,b)w@,/-*g't)T1j",
"(/'[+D#:'O%-/;%w$t%+#R-F#g/&)l%=9XA=1E;)Cv-.5'$E1x>;8n;X9#):6B6S's;l$BDR7(,s:[;Q?h%2,T=hC&:bD0((=&?!!u#<61322v:H0=#+.t(o3U#>Al-)",
":1?;7`6:0+)R(|7A#d&R96:u(mBv7w!N({051j8E@r5W9q'X-e+[2e.].V:+@45&8j.)7hB247D'==1s927L.^52Dq+e5$%/9g8a+7&7!t7G(O8u%u/D7j(h%:+`;6@[",
"%B+l+&!]#.$0$`$m%>&,'i$i)50W0qBP&r!',3ELFOFG9q:&'q7t?p9d8D;%;!&W2r!a8_CC3~Bk?X/R9~Bu>h>v?KEN0L$CB%&#>P,X*@=R!p%J$<8c)&,),I*0(<4W",
"6[!T-t*J,<'(5*!m)/$|/1*c,a2N,T1p&`*x)'AsB-C{A7ES$L2.%#<I6k4/&$+H1g(~2qD#B8AA?d>mF-@?53CH/z=C?T4m.(-l<W&/2k4U-h5@%?1b(q5y0D/>1-;]",
"D4$l'|'o$3%N!K!U!?&Z*e'V$J!'#L+E=0<8DzDv@qB[F.?]8]A#>B3Y19BF<T9p-g0s93=JB=9F7K;_=T=a?LB|:3Ab1w;?(z5;=c(u1h7z)++=#m-#$}'18s=25A7>",
"8w)$(-1_6?$1*}$-*h'[,R$g//6]9e1|1j9z;/EOE!D|=^>09u8`-4:}D>5y3&8H:tAI()7X<1-i1R3l)Q/I&pC#>lA&(Y9'!!/J@F.rDs+W0_-|%QB((c,[?G-i+W5K",
"1Q9},9&:$_%y&'(8#T!=$41*0!4A77Bh'C*?;,C`EnDk@e(K7?-@+Q#h7v3V2@3j1U6R5F+q>Q6D6O7q+N-z-(212*28)E?W7^,=3s*)7,4X(:+R,~0z@X1x)U0L3M-q",
"$i;T=l*9!*!7%E&;#|!j-k#m2#(r&m*$!5)]%sB<B&,;/s(l1;(J=?$V@'5.6M+!2+.:=ZE^-F5_4y.p&z1s*/:_7Z218$%0$RB$@>Af:F2I,m.7)~.3'{!{$7&D(?%b",
"$/2&?l$6#[%C$s,D45'P=<!P#%/L0A2u#a$u-mA9@},n;+6EB:D-3N/|CL3p,Q1B2N/^7r=BBo;K.w$w7b7X2:7}56:|:g!f;F2J*N8o;P5r1y-|,c7~'/?n+H$@,w23",
"4g?65^(t+02m+'/v6u4D>K4E%<*t(W3G-Q1C8;?-@.A45Y+w>79K<SA;>HBc5j1)9h0V7B@()%6o;-E+B_205p-;2l710`=g=p-~.>7IC^Ah->-{7^0Y;'@1>D:9%'3>",
"=H'''g!M'.3<&d.$-i4r(G(v'K90(k)k&%,';*?/)b!l'JCB2b:*)zC_Eg5]8P.*3A68E~6@/H2o1O>$4o.cAEA!98B0*E7m);$h&ICN2sDe,P0Z%D+n8|9-4W6V(+,l",
"4L#C(%'c'3035+<A.N:!1C'e:$2n!}*k&i3@$XER/$/Z$HD$,J.E$;8Y9r8}:]1A!$,g&l5$7n2y?j2V;h/O,|1[@=7a!@.@#q0N(731#k6%=x!f/1:a)@#<*A.%9?9a"
};
