/* XPM */
static char *stone_tiled_bricks_01[] = {
/* columns rows colors chars-per-pixel */
"64 64 1728 2",
/* colors */
"!! c #1F1716",
"!# c #211817",
"!$ c #211916",
"!% c #221B19",
"!& c #221C19",
"!' c #221C1A",
"!( c #231918",
"!) c #231B19",
"!* c #231B1A",
"!+ c #231C1A",
"!, c #231D1C",
"!- c #231E1D",
"!. c #241C19",
"!/ c #241C1B",
"!0 c #241C1C",
"!1 c #241D1B",
"!2 c #241D1C",
"!3 c #241F1B",
"!4 c #251918",
"!5 c #251919",
"!6 c #251B19",
"!7 c #251B1C",
"!8 c #251D1A",
"!9 c #251D1B",
"!: c #251E1B",
"!; c #251E1C",
"!< c #251E1D",
"!= c #251F1C",
"!> c #251F1D",
"!? c #251F1E",
"!@ c #261B19",
"!A c #261C1B",
"!B c #261D1A",
"!C c #261D1B",
"!D c #261E1B",
"!E c #261E1C",
"!F c #261E1D",
"!G c #261E1E",
"!H c #261E1F",
"!I c #261F1B",
"!J c #261F1C",
"!K c #261F1D",
"!L c #261F1E",
"!M c #261F20",
"!N c #26201C",
"!O c #26201D",
"!P c #26201F",
"!Q c #271B19",
"!R c #271C1C",
"!S c #271D1B",
"!T c #271D1C",
"!U c #271D1D",
"!V c #271E1A",
"!W c #271E1B",
"!X c #271E1C",
"!Y c #271F1C",
"!Z c #271F1D",
"![ c #27201C",
"!] c #27201D",
"!^ c #27201E",
"!_ c #27201F",
"!` c #272021",
"!a c #27211D",
"!b c #281C1B",
"!c c #281D1A",
"!d c #281D1C",
"!e c #281D1D",
"!f c #281E1B",
"!g c #281E1C",
"!h c #281E1E",
"!i c #281F1B",
"!j c #281F1C",
"!k c #281F1D",
"!l c #281F1F",
"!m c #28201B",
"!n c #28201C",
"!o c #28201D",
"!p c #28201E",
"!q c #28201F",
"!r c #282020",
"!s c #28211F",
"!t c #282120",
"!u c #28221E",
"!v c #282220",
"!w c #282222",
"!x c #291D1B",
"!y c #291D1C",
"!z c #291E1C",
"!{ c #291F1C",
"!| c #291F1D",
"!} c #291F1F",
"!~ c #29201C",
"#! c #29201D",
"## c #29201E",
"#$ c #29201F",
"#% c #292020",
"#& c #29211D",
"#' c #29211E",
"#( c #29211F",
"#) c #292120",
"#* c #292121",
"#+ c #29221F",
"#, c #292220",
"#- c #292320",
"#. c #2A1B1A",
"#/ c #2A1E1B",
"#0 c #2A1E1E",
"#1 c #2A1F1D",
"#2 c #2A1F1E",
"#3 c #2A1F1F",
"#4 c #2A201D",
"#5 c #2A201E",
"#6 c #2A201F",
"#7 c #2A2020",
"#8 c #2A211D",
"#9 c #2A211E",
"#: c #2A211F",
"#; c #2A2120",
"#< c #2A2121",
"#= c #2A221F",
"#> c #2A2220",
"#? c #2A2320",
"#@ c #2A2322",
"#A c #2A2420",
"#B c #2A2421",
"#C c #2A2423",
"#D c #2B1C1C",
"#E c #2B1D1E",
"#F c #2B1E1B",
"#G c #2B1E1C",
"#H c #2B1E1D",
"#I c #2B1F1D",
"#J c #2B1F1E",
"#K c #2B1F20",
"#L c #2B201D",
"#M c #2B201E",
"#N c #2B201F",
"#O c #2B2020",
"#P c #2B211D",
"#Q c #2B211E",
"#R c #2B221E",
"#S c #2B221F",
"#T c #2B2220",
"#U c #2B2221",
"#V c #2B231F",
"#W c #2B2320",
"#X c #2B2321",
"#Y c #2B2322",
"#Z c #2B2420",
"#[ c #2B2421",
"#] c #2B2422",
"#^ c #2B2423",
"#_ c #2B2524",
"#` c #2C1E1B",
"#a c #2C1E1C",
"#b c #2C1E1D",
"#c c #2C1F1D",
"#d c #2C201D",
"#e c #2C201E",
"#f c #2C2020",
"#g c #2C211E",
"#h c #2C211F",
"#i c #2C2120",
"#j c #2C2122",
"#k c #2C221D",
"#l c #2C221E",
"#m c #2C221F",
"#n c #2C2220",
"#o c #2C2221",
"#p c #2C231F",
"#q c #2C2320",
"#r c #2C2420",
"#s c #2C2421",
"#t c #2C2422",
"#u c #2C2423",
"#v c #2C2521",
"#w c #2C2523",
"#x c #2C2626",
"#y c #2D1F1C",
"#z c #2D1F1D",
"#{ c #2D1F1E",
"#| c #2D201D",
"#} c #2D201E",
"#~ c #2D201F",
"$! c #2D2020",
"$# c #2D211D",
"$$ c #2D211E",
"$% c #2D211F",
"$& c #2D2120",
"$' c #2D2121",
"$( c #2D221D",
"$) c #2D221F",
"$* c #2D2220",
"$+ c #2D2221",
"$, c #2D2222",
"$- c #2D2223",
"$. c #2D231E",
"$/ c #2D231F",
"$0 c #2D2320",
"$1 c #2D2321",
"$2 c #2D2323",
"$3 c #2D2420",
"$4 c #2D2421",
"$5 c #2D2422",
"$6 c #2D2521",
"$7 c #2D2522",
"$8 c #2D2523",
"$9 c #2D2526",
"$: c #2D2622",
"$; c #2E1F1D",
"$< c #2E201D",
"$= c #2E201E",
"$> c #2E201F",
"$? c #2E2020",
"$@ c #2E211E",
"$A c #2E211F",
"$B c #2E2122",
"$C c #2E221E",
"$D c #2E221F",
"$E c #2E2220",
"$F c #2E2221",
"$G c #2E2222",
"$H c #2E231F",
"$I c #2E2320",
"$J c #2E2321",
"$K c #2E2322",
"$L c #2E2420",
"$M c #2E2421",
"$N c #2E2422",
"$O c #2E2423",
"$P c #2E2521",
"$Q c #2E2522",
"$R c #2E2622",
"$S c #2E2623",
"$T c #2E2624",
"$U c #2E2724",
"$V c #2F1E1E",
"$W c #2F1F1D",
"$X c #2F1F1E",
"$Y c #2F201E",
"$Z c #2F201F",
"$[ c #2F211E",
"$] c #2F211F",
"$^ c #2F2120",
"$_ c #2F221F",
"$` c #2F2220",
"$a c #2F2221",
"$b c #2F231E",
"$c c #2F231F",
"$d c #2F2320",
"$e c #2F2321",
"$f c #2F2322",
"$g c #2F2420",
"$h c #2F2421",
"$i c #2F2422",
"$j c #2F2423",
"$k c #2F2424",
"$l c #2F2520",
"$m c #2F2521",
"$n c #2F2522",
"$o c #2F2523",
"$p c #2F2524",
"$q c #2F2621",
"$r c #2F2622",
"$s c #2F2623",
"$t c #2F2625",
"$u c #2F2722",
"$v c #2F2724",
"$w c #2F2725",
"$x c #301F1D",
"$y c #30201F",
"$z c #30211F",
"${ c #30221F",
"$| c #302220",
"$} c #302221",
"$~ c #30231F",
"%! c #302320",
"%# c #302321",
"%$ c #302322",
"%% c #30241F",
"%& c #302420",
"%' c #302421",
"%( c #302422",
"%) c #302423",
"%* c #30251F",
"%+ c #302520",
"%, c #302521",
"%- c #302522",
"%. c #302523",
"%/ c #302524",
"%0 c #302525",
"%1 c #302621",
"%2 c #302622",
"%3 c #302624",
"%4 c #302722",
"%5 c #302723",
"%6 c #302724",
"%7 c #302823",
"%8 c #302824",
"%9 c #302825",
"%: c #312120",
"%; c #312220",
"%< c #312221",
"%= c #312320",
"%> c #312321",
"%? c #312322",
"%@ c #312323",
"%A c #312420",
"%B c #312421",
"%C c #312422",
"%D c #312424",
"%E c #312425",
"%F c #312520",
"%G c #312521",
"%H c #312522",
"%I c #312523",
"%J c #312524",
"%K c #312620",
"%L c #312621",
"%M c #312622",
"%N c #312623",
"%O c #312624",
"%P c #312722",
"%Q c #312723",
"%R c #312724",
"%S c #312725",
"%T c #312824",
"%U c #312825",
"%V c #312826",
"%W c #32211F",
"%X c #322120",
"%Y c #322121",
"%Z c #322220",
"%[ c #322221",
"%] c #322320",
"%^ c #322321",
"%_ c #322322",
"%` c #322420",
"%a c #322421",
"%b c #322422",
"%c c #322423",
"%d c #322424",
"%e c #322521",
"%f c #322522",
"%g c #322523",
"%h c #322621",
"%i c #322622",
"%j c #322623",
"%k c #322624",
"%l c #322625",
"%m c #322721",
"%n c #322722",
"%o c #322723",
"%p c #322724",
"%q c #322725",
"%r c #322726",
"%s c #322824",
"%t c #322826",
"%u c #322925",
"%v c #322928",
"%w c #322A27",
"%x c #332322",
"%y c #332422",
"%z c #332423",
"%{ c #332522",
"%| c #332523",
"%} c #332524",
"%~ c #332622",
"&! c #332623",
"&# c #332624",
"&$ c #332625",
"&% c #332626",
"&& c #332722",
"&' c #332723",
"&( c #332724",
"&) c #332725",
"&* c #332822",
"&+ c #332823",
"&, c #332824",
"&- c #332825",
"&. c #332826",
"&/ c #332925",
"&0 c #332927",
"&1 c #342323",
"&2 c #342423",
"&3 c #342425",
"&4 c #342523",
"&5 c #342621",
"&6 c #342622",
"&7 c #342623",
"&8 c #342624",
"&9 c #342625",
"&: c #342723",
"&; c #342724",
"&< c #342725",
"&= c #342726",
"&> c #342823",
"&? c #342824",
"&@ c #342825",
"&A c #342826",
"&B c #342923",
"&C c #342924",
"&D c #342925",
"&E c #342926",
"&F c #342A27",
"&G c #342B28",
"&H c #342C29",
"&I c #352322",
"&J c #352423",
"&K c #352523",
"&L c #352524",
"&M c #352623",
"&N c #352624",
"&O c #352625",
"&P c #352723",
"&Q c #352724",
"&R c #352725",
"&S c #352726",
"&T c #352823",
"&U c #352824",
"&V c #352825",
"&W c #352826",
"&X c #352827",
"&Y c #352924",
"&Z c #352925",
"&[ c #352926",
"&] c #352A24",
"&^ c #352A25",
"&_ c #352A26",
"&` c #352A27",
"&a c #352B26",
"&b c #352B27",
"&c c #362424",
"&d c #362522",
"&e c #362523",
"&f c #362524",
"&g c #362525",
"&h c #362623",
"&i c #362624",
"&j c #362625",
"&k c #362723",
"&l c #362724",
"&m c #362725",
"&n c #362726",
"&o c #362824",
"&p c #362825",
"&q c #362826",
"&r c #362827",
"&s c #362828",
"&t c #362924",
"&u c #362925",
"&v c #362926",
"&w c #362A23",
"&x c #362A25",
"&y c #362A26",
"&z c #362A27",
"&{ c #362B25",
"&| c #362B26",
"&} c #362B28",
"&~ c #362C28",
"'! c #362C29",
"'# c #372523",
"'$ c #372524",
"'% c #372624",
"'& c #372625",
"'' c #372626",
"'( c #372724",
"') c #372725",
"'* c #372726",
"'+ c #372824",
"', c #372825",
"'- c #372826",
"'. c #372924",
"'/ c #372925",
"'0 c #372926",
"'1 c #372927",
"'2 c #372A24",
"'3 c #372A26",
"'4 c #372A27",
"'5 c #372A28",
"'6 c #372A29",
"'7 c #372B25",
"'8 c #372B26",
"'9 c #372B27",
"': c #372B28",
"'; c #372B29",
"'< c #372C26",
"'= c #372C28",
"'> c #372C29",
"'? c #382523",
"'@ c #382624",
"'A c #382625",
"'B c #382725",
"'C c #382726",
"'D c #382727",
"'E c #382824",
"'F c #382825",
"'G c #382826",
"'H c #382827",
"'I c #382924",
"'J c #382925",
"'K c #382926",
"'L c #382927",
"'M c #382929",
"'N c #382A25",
"'O c #382A26",
"'P c #382A27",
"'Q c #382A28",
"'R c #382B27",
"'S c #382B28",
"'T c #382B29",
"'U c #382C26",
"'V c #382C27",
"'W c #382C28",
"'X c #382C29",
"'Y c #382C2A",
"'Z c #382D27",
"'[ c #382D28",
"'] c #392724",
"'^ c #392725",
"'_ c #392726",
"'` c #392826",
"'a c #392827",
"'b c #392828",
"'c c #392925",
"'d c #392926",
"'e c #392927",
"'f c #392928",
"'g c #392A26",
"'h c #392A27",
"'i c #392A28",
"'j c #392A29",
"'k c #392B26",
"'l c #392B27",
"'m c #392B28",
"'n c #392B29",
"'o c #392B2B",
"'p c #392C27",
"'q c #392C28",
"'r c #392C29",
"'s c #392D27",
"'t c #392D28",
"'u c #392D2A",
"'v c #392E28",
"'w c #392E29",
"'x c #392F2B",
"'y c #3A2724",
"'z c #3A2725",
"'{ c #3A2825",
"'| c #3A2826",
"'} c #3A2827",
"'~ c #3A2924",
"(! c #3A2925",
"(# c #3A2926",
"($ c #3A2927",
"(% c #3A2929",
"(& c #3A292A",
"(' c #3A2A27",
"(( c #3A2A28",
"() c #3A2A29",
"(* c #3A2B26",
"(+ c #3A2B27",
"(, c #3A2B28",
"(- c #3A2B29",
"(. c #3A2B2A",
"(/ c #3A2C26",
"(0 c #3A2C27",
"(1 c #3A2C28",
"(2 c #3A2C29",
"(3 c #3A2D26",
"(4 c #3A2D27",
"(5 c #3A2D28",
"(6 c #3A2D29",
"(7 c #3A2E29",
"(8 c #3A2E2A",
"(9 c #3A2F29",
"(: c #3A2F2B",
"(; c #3A302B",
"(< c #3B2724",
"(= c #3B2725",
"(> c #3B2727",
"(? c #3B2826",
"(@ c #3B2828",
"(A c #3B2926",
"(B c #3B2927",
"(C c #3B2928",
"(D c #3B2A25",
"(E c #3B2A27",
"(F c #3B2A28",
"(G c #3B2A29",
"(H c #3B2A2A",
"(I c #3B2B25",
"(J c #3B2B26",
"(K c #3B2B27",
"(L c #3B2B28",
"(M c #3B2B29",
"(N c #3B2B2A",
"(O c #3B2C27",
"(P c #3B2C28",
"(Q c #3B2C29",
"(R c #3B2C2A",
"(S c #3B2C2B",
"(T c #3B2D27",
"(U c #3B2D28",
"(V c #3B2D29",
"(W c #3B2D2A",
"(X c #3B2D2B",
"(Y c #3B2E28",
"(Z c #3B2E29",
"([ c #3B2E2A",
"(] c #3B2F29",
"(^ c #3B2F2A",
"(_ c #3B2F2B",
"(` c #3B2F2C",
"(a c #3B302C",
"(b c #3C2824",
"(c c #3C2925",
"(d c #3C2927",
"(e c #3C2928",
"(f c #3C2A26",
"(g c #3C2A28",
"(h c #3C2A29",
"(i c #3C2B27",
"(j c #3C2B28",
"(k c #3C2B29",
"(l c #3C2B2A",
"(m c #3C2B2B",
"(n c #3C2C28",
"(o c #3C2C29",
"(p c #3C2C2A",
"(q c #3C2C2B",
"(r c #3C2D27",
"(s c #3C2D28",
"(t c #3C2D29",
"(u c #3C2D2A",
"(v c #3C2D2B",
"(w c #3C2E28",
"(x c #3C2E29",
"(y c #3C2E2A",
"(z c #3C2E2B",
"({ c #3C2F28",
"(| c #3C2F29",
"(} c #3C2F2B",
"(~ c #3C2F2C",
")! c #3C302B",
")# c #3C302C",
")$ c #3C312B",
")% c #3D2926",
")& c #3D2928",
")' c #3D2A26",
")( c #3D2A27",
")) c #3D2A28",
")* c #3D2B27",
")+ c #3D2B28",
"), c #3D2B29",
")- c #3D2B2B",
"). c #3D2C26",
")/ c #3D2C28",
")0 c #3D2C29",
")1 c #3D2C2A",
")2 c #3D2C2B",
")3 c #3D2C2C",
")4 c #3D2D27",
")5 c #3D2D29",
")6 c #3D2D2A",
")7 c #3D2D2B",
")8 c #3D2D2C",
")9 c #3D2E28",
"): c #3D2E29",
"); c #3D2E2A",
")< c #3D2E2B",
")= c #3D2E2C",
")> c #3D2E2E",
")? c #3D2F28",
")@ c #3D2F29",
")A c #3D2F2A",
")B c #3D2F2B",
")C c #3D2F2C",
")D c #3D302C",
")E c #3D312B",
")F c #3E2A28",
")G c #3E2B27",
")H c #3E2B28",
")I c #3E2B29",
")J c #3E2B2A",
")K c #3E2B2B",
")L c #3E2C28",
")M c #3E2C29",
")N c #3E2C2A",
")O c #3E2C2B",
")P c #3E2D28",
")Q c #3E2D29",
")R c #3E2D2A",
")S c #3E2D2B",
")T c #3E2D2C",
")U c #3E2D2D",
")V c #3E2E29",
")W c #3E2E2A",
")X c #3E2E2B",
")Y c #3E2E2C",
")Z c #3E2E2D",
")[ c #3E2F29",
")] c #3E2F2A",
")^ c #3E2F2B",
")_ c #3E2F2C",
")` c #3E2F2D",
")a c #3E2F2F",
")b c #3E302B",
")c c #3E302C",
")d c #3E302D",
")e c #3E312D",
")f c #3E322D",
")g c #3F2A26",
")h c #3F2A28",
")i c #3F2B26",
")j c #3F2B28",
")k c #3F2B29",
")l c #3F2B2A",
")m c #3F2B2B",
")n c #3F2C27",
")o c #3F2C28",
")p c #3F2C29",
")q c #3F2C2A",
")r c #3F2C2B",
")s c #3F2D27",
")t c #3F2D28",
")u c #3F2D29",
")v c #3F2D2A",
")w c #3F2D2B",
")x c #3F2D2C",
")y c #3F2E27",
")z c #3F2E28",
"){ c #3F2E29",
")| c #3F2E2B",
")} c #3F2E2C",
")~ c #3F2E2E",
"*! c #3F2E2F",
"*# c #3F2F27",
"*$ c #3F2F29",
"*% c #3F2F2A",
"*& c #3F2F2B",
"*' c #3F2F2C",
"*( c #3F2F2D",
"*) c #3F2F2E",
"** c #3F302A",
"*+ c #3F302B",
"*, c #3F302C",
"*- c #3F302D",
"*. c #3F302E",
"*/ c #3F312B",
"*0 c #3F312C",
"*1 c #3F312D",
"*2 c #3F312E",
"*3 c #3F322D",
"*4 c #3F322E",
"*5 c #3F332C",
"*6 c #402928",
"*7 c #402A28",
"*8 c #402B28",
"*9 c #402C29",
"*: c #402C2A",
"*; c #402C2B",
"*< c #402D28",
"*= c #402D2A",
"*> c #402D2B",
"*? c #402D2C",
"*@ c #402E28",
"*A c #402E2A",
"*B c #402E2B",
"*C c #402E2C",
"*D c #402E2D",
"*E c #402E2E",
"*F c #402F29",
"*G c #402F2A",
"*H c #402F2B",
"*I c #402F2C",
"*J c #402F2D",
"*K c #402F2E",
"*L c #40302C",
"*M c #40302D",
"*N c #40302E",
"*O c #40312B",
"*P c #40312C",
"*Q c #40312D",
"*R c #40312F",
"*S c #40322A",
"*T c #40322B",
"*U c #40322C",
"*V c #40322D",
"*W c #40322E",
"*X c #40332E",
"*Y c #40342F",
"*Z c #412B28",
"*[ c #412B2A",
"*] c #412C28",
"*^ c #412C2A",
"*_ c #412C2B",
"*` c #412D27",
"*a c #412D29",
"*b c #412D2A",
"*c c #412D2B",
"*d c #412D2D",
"*e c #412D2E",
"*f c #412E29",
"*g c #412E2A",
"*h c #412E2B",
"*i c #412E2C",
"*j c #412F29",
"*k c #412F2A",
"*l c #412F2B",
"*m c #412F2C",
"*n c #412F2D",
"*o c #412F2E",
"*p c #413029",
"*q c #41302B",
"*r c #41302C",
"*s c #41302D",
"*t c #41302E",
"*u c #41302F",
"*v c #413030",
"*w c #41312B",
"*x c #41312C",
"*y c #41312D",
"*z c #41312E",
"*{ c #413130",
"*| c #41322B",
"*} c #41322C",
"*~ c #41322D",
"+! c #41322E",
"+# c #41322F",
"+$ c #41332C",
"+% c #41332D",
"+& c #41332E",
"+' c #413330",
"+( c #41342D",
"+) c #41342E",
"+* c #413430",
"++ c #413431",
"+, c #422B2B",
"+- c #422C2A",
"+. c #422D29",
"+/ c #422D2A",
"+0 c #422E28",
"+1 c #422E2B",
"+2 c #422E2C",
"+3 c #422F2B",
"+4 c #422F2C",
"+5 c #422F2D",
"+6 c #422F2E",
"+7 c #42302A",
"+8 c #42302B",
"+9 c #42302C",
"+: c #42302D",
"+; c #42302E",
"+< c #42302F",
"+= c #42312A",
"+> c #42312B",
"+? c #42312C",
"+@ c #42312D",
"+A c #42312E",
"+B c #42312F",
"+C c #423130",
"+D c #423131",
"+E c #42322C",
"+F c #42322D",
"+G c #42322E",
"+H c #423230",
"+I c #42332E",
"+J c #42332F",
"+K c #42342E",
"+L c #42342F",
"+M c #42352F",
"+N c #423532",
"+O c #423631",
"+P c #432C2A",
"+Q c #432D29",
"+R c #432D2A",
"+S c #432D2B",
"+T c #432D2D",
"+U c #432D2E",
"+V c #432E28",
"+W c #432E2A",
"+X c #432E2B",
"+Y c #432E2C",
"+Z c #432E2D",
"+[ c #432F29",
"+] c #432F2A",
"+^ c #432F2B",
"+_ c #432F2C",
"+` c #432F2D",
"+a c #432F2F",
"+b c #43302A",
"+c c #43302B",
"+d c #43302C",
"+e c #43302D",
"+f c #43302E",
"+g c #43302F",
"+h c #43312A",
"+i c #43312B",
"+j c #43312C",
"+k c #43312D",
"+l c #43312E",
"+m c #43312F",
"+n c #433130",
"+o c #43322A",
"+p c #43322B",
"+q c #43322D",
"+r c #43322E",
"+s c #43322F",
"+t c #433230",
"+u c #433231",
"+v c #43332E",
"+w c #43332F",
"+x c #433330",
"+y c #43342D",
"+z c #43342E",
"+{ c #43342F",
"+| c #433430",
"+} c #433431",
"+~ c #433432",
",! c #43352E",
",# c #433530",
",$ c #433632",
",% c #442B27",
",& c #442B2A",
",' c #442D29",
",( c #442D2A",
",) c #442D2B",
",* c #442D2C",
",+ c #442E28",
",, c #442E29",
",- c #442E2A",
",. c #442E2B",
",/ c #442E2C",
",0 c #442E2D",
",1 c #442F28",
",2 c #442F2A",
",3 c #442F2B",
",4 c #442F2C",
",5 c #442F2D",
",6 c #44302B",
",7 c #44302C",
",8 c #44302D",
",9 c #44302E",
",: c #44302F",
",; c #44312B",
",< c #44312C",
",= c #44312D",
",> c #44312E",
",? c #44312F",
",@ c #443130",
",A c #44322E",
",B c #44322F",
",C c #443230",
",D c #44332B",
",E c #44332C",
",F c #44332D",
",G c #44332E",
",H c #44332F",
",I c #443330",
",J c #443331",
",K c #44342E",
",L c #44342F",
",M c #443431",
",N c #44352F",
",O c #443531",
",P c #443532",
",Q c #443533",
",R c #443630",
",S c #443631",
",T c #443831",
",U c #452D29",
",V c #452E2A",
",W c #452E2B",
",X c #452F2A",
",Y c #452F2B",
",Z c #452F2C",
",[ c #45302A",
",] c #45302B",
",^ c #45302C",
",_ c #45302D",
",` c #45302E",
",a c #45302F",
",b c #45312B",
",c c #45312C",
",d c #45312D",
",e c #45312E",
",f c #45312F",
",g c #45322D",
",h c #45322E",
",i c #45322F",
",j c #453230",
",k c #453233",
",l c #45332C",
",m c #45332D",
",n c #45332E",
",o c #45332F",
",p c #453330",
",q c #453331",
",r c #45342E",
",s c #45342F",
",t c #453430",
",u c #453431",
",v c #453432",
",w c #45352F",
",x c #453530",
",y c #453531",
",z c #453534",
",{ c #453632",
",| c #462D2B",
",} c #462E2A",
",~ c #462E2B",
"-! c #462E2D",
"-# c #462F2A",
"-$ c #462F2B",
"-% c #462F2C",
"-& c #462F2D",
"-' c #462F2E",
"-( c #46302A",
"-) c #46302B",
"-* c #46302C",
"-+ c #46302D",
"-, c #46302E",
"-- c #46302F",
"-. c #463030",
"-/ c #46312B",
"-0 c #46312C",
"-1 c #46312D",
"-2 c #46312E",
"-3 c #46312F",
"-4 c #463130",
"-5 c #463132",
"-6 c #46322A",
"-7 c #46322C",
"-8 c #46322E",
"-9 c #46322F",
"-: c #46332C",
"-; c #46332E",
"-< c #46332F",
"-= c #463330",
"-> c #463331",
"-? c #463333",
"-@ c #46342F",
"-A c #463430",
"-B c #463431",
"-C c #463432",
"-D c #463433",
"-E c #46352F",
"-F c #463530",
"-G c #463531",
"-H c #463532",
"-I c #463631",
"-J c #463733",
"-K c #463734",
"-L c #472F2C",
"-M c #472F2D",
"-N c #47302A",
"-O c #47302B",
"-P c #47302C",
"-Q c #47302D",
"-R c #47302E",
"-S c #47312B",
"-T c #47312C",
"-U c #47312D",
"-V c #47312E",
"-W c #473130",
"-X c #47322C",
"-Y c #47322E",
"-Z c #47322F",
"-[ c #47332D",
"-] c #47332F",
"-^ c #473330",
"-_ c #473331",
"-` c #47342F",
"-a c #473431",
"-b c #473434",
"-c c #473530",
"-d c #473532",
"-e c #473630",
"-f c #473631",
"-g c #473632",
"-h c #473634",
"-i c #473730",
"-j c #473731",
"-k c #47382F",
"-l c #473832",
"-m c #473835",
"-n c #473931",
"-o c #482D2B",
"-p c #482E2D",
"-q c #48302B",
"-r c #48302C",
"-s c #48302D",
"-t c #48302E",
"-u c #48312C",
"-v c #48312D",
"-w c #48312F",
"-x c #483130",
"-y c #48322B",
"-z c #48322C",
"-{ c #48322D",
"-| c #48322E",
"-} c #48322F",
"-~ c #483230",
".! c #48332C",
".# c #48332D",
".$ c #48332E",
".% c #48332F",
".& c #483330",
".' c #483331",
".( c #48342E",
".) c #483430",
".* c #483431",
".+ c #483434",
"., c #48352F",
".- c #483530",
".. c #483531",
"./ c #483532",
".0 c #48362F",
".1 c #483631",
".2 c #483634",
".3 c #483732",
".4 c #483833",
".5 c #483931",
".6 c #483A33",
".7 c #492E2C",
".8 c #492F2C",
".9 c #492F2D",
".: c #49302C",
".; c #49302D",
".< c #49302E",
".= c #49312C",
".> c #49312D",
".? c #49312E",
".@ c #49312F",
".A c #49322C",
".B c #49322D",
".C c #49322E",
".D c #49322F",
".E c #493230",
".F c #493232",
".G c #49332D",
".H c #49332E",
".I c #49332F",
".J c #493330",
".K c #493331",
".L c #493332",
".M c #49342D",
".N c #49342F",
".O c #493430",
".P c #493431",
".Q c #493432",
".R c #49352F",
".S c #493530",
".T c #493531",
".U c #493532",
".V c #493533",
".W c #49362F",
".X c #493631",
".Y c #493632",
".Z c #493633",
".[ c #493634",
".] c #493730",
".^ c #493731",
"._ c #493732",
".` c #493830",
".a c #493831",
".b c #493832",
".c c #493935",
".d c #4A302D",
".e c #4A302F",
".f c #4A312E",
".g c #4A312F",
".h c #4A3130",
".i c #4A322D",
".j c #4A322E",
".k c #4A322F",
".l c #4A3230",
".m c #4A3231",
".n c #4A332D",
".o c #4A332E",
".p c #4A332F",
".q c #4A3330",
".r c #4A3331",
".s c #4A342F",
".t c #4A3430",
".u c #4A3431",
".v c #4A352E",
".w c #4A3530",
".x c #4A3531",
".y c #4A3532",
".z c #4A3534",
".{ c #4A3535",
".| c #4A3631",
".} c #4A3632",
".~ c #4A372F",
"/! c #4A3732",
"/# c #4A3733",
"/$ c #4A3734",
"/% c #4A3832",
"/& c #4A3834",
"/' c #4A3835",
"/( c #4A3931",
"/) c #4A3935",
"/* c #4A3936",
"/+ c #4B302E",
"/, c #4B312C",
"/- c #4B312E",
"/. c #4B312F",
"// c #4B322E",
"/0 c #4B322F",
"/1 c #4B3230",
"/2 c #4B332E",
"/3 c #4B332F",
"/4 c #4B3330",
"/5 c #4B342D",
"/6 c #4B342E",
"/7 c #4B342F",
"/8 c #4B3430",
"/9 c #4B3431",
"/: c #4B3432",
"/; c #4B352F",
"/< c #4B3530",
"/= c #4B3531",
"/> c #4B3532",
"/? c #4B362F",
"/@ c #4B3631",
"/A c #4B3632",
"/B c #4B3731",
"/C c #4B3732",
"/D c #4B3733",
"/E c #4B3734",
"/F c #4B3831",
"/G c #4B3833",
"/H c #4B3834",
"/I c #4B3A34",
"/J c #4B3A35",
"/K c #4B3E36",
"/L c #4B3F36",
"/M c #4C2F2A",
"/N c #4C312E",
"/O c #4C3130",
"/P c #4C322E",
"/Q c #4C322F",
"/R c #4C3230",
"/S c #4C332E",
"/T c #4C332F",
"/U c #4C3330",
"/V c #4C3331",
"/W c #4C342F",
"/X c #4C3430",
"/Y c #4C3431",
"/Z c #4C3432",
"/[ c #4C3434",
"/] c #4C352F",
"/^ c #4C3530",
"/_ c #4C3531",
"/` c #4C3532",
"/a c #4C3533",
"/b c #4C362F",
"/c c #4C3630",
"/d c #4C3631",
"/e c #4C3632",
"/f c #4C3633",
"/g c #4C3634",
"/h c #4C3635",
"/i c #4C3730",
"/j c #4C3732",
"/k c #4C3733",
"/l c #4C3734",
"/m c #4C3735",
"/n c #4C3834",
"/o c #4C3837",
"/p c #4C3933",
"/q c #4C3934",
"/r c #4C3A32",
"/s c #4C3A34",
"/t c #4C3A35",
"/u c #4C3B36",
"/v c #4D322F",
"/w c #4D3230",
"/x c #4D3330",
"/y c #4D3331",
"/z c #4D3333",
"/{ c #4D342E",
"/| c #4D3430",
"/} c #4D3431",
"/~ c #4D3432",
"0! c #4D3530",
"0# c #4D3531",
"0$ c #4D3532",
"0% c #4D3534",
"0& c #4D362F",
"0' c #4D3631",
"0( c #4D3632",
"0) c #4D3633",
"0* c #4D3730",
"0+ c #4D3731",
"0, c #4D3732",
"0- c #4D3733",
"0. c #4D3830",
"0/ c #4D3833",
"00 c #4D3834",
"01 c #4D3933",
"02 c #4D3A34",
"03 c #4D3A37",
"04 c #4D3B37",
"05 c #4D3C36",
"06 c #4E322F",
"07 c #4E3331",
"08 c #4E342F",
"09 c #4E3430",
"0: c #4E3431",
"0; c #4E3432",
"0< c #4E3530",
"0= c #4E3531",
"0> c #4E3532",
"0? c #4E3533",
"0@ c #4E3630",
"0A c #4E3631",
"0B c #4E3632",
"0C c #4E3633",
"0D c #4E3731",
"0E c #4E3732",
"0F c #4E3733",
"0G c #4E3734",
"0H c #4E3736",
"0I c #4E3831",
"0J c #4E3833",
"0K c #4E3834",
"0L c #4E3836",
"0M c #4E3931",
"0N c #4E3934",
"0O c #4E3935",
"0P c #4E3A36",
"0Q c #4E3A37",
"0R c #4E3E39",
"0S c #4E4037",
"0T c #4F3232",
"0U c #4F3330",
"0V c #4F3331",
"0W c #4F3332",
"0X c #4F3431",
"0Y c #4F3432",
"0Z c #4F3530",
"0[ c #4F3531",
"0] c #4F3532",
"0^ c #4F3533",
"0_ c #4F3535",
"0` c #4F3630",
"0a c #4F3631",
"0b c #4F3632",
"0c c #4F3633",
"0d c #4F3634",
"0e c #4F3732",
"0f c #4F3733",
"0g c #4F3734",
"0h c #4F3832",
"0i c #4F3833",
"0j c #4F3834",
"0k c #4F3933",
"0l c #4F3934",
"0m c #4F3935",
"0n c #4F3936",
"0o c #4F3A33",
"0p c #4F3A34",
"0q c #4F3A35",
"0r c #4F3B35",
"0s c #4F3B37",
"0t c #4F3C35",
"0u c #4F3C36",
"0v c #4F3F39",
"0w c #50342E",
"0x c #503430",
"0y c #503431",
"0z c #503531",
"0{ c #503532",
"0| c #503533",
"0} c #503631",
"0~ c #503633",
"1! c #503634",
"1# c #50372F",
"1$ c #503731",
"1% c #503733",
"1& c #503734",
"1' c #503735",
"1( c #503832",
"1) c #503833",
"1* c #503834",
"1+ c #503933",
"1, c #503934",
"1- c #503936",
"1. c #503A34",
"1/ c #503A35",
"10 c #503A36",
"11 c #503B35",
"12 c #503B36",
"13 c #503B37",
"14 c #503C38",
"15 c #503D3A",
"16 c #513533",
"17 c #513534",
"18 c #513630",
"19 c #513633",
"1: c #513634",
"1; c #513731",
"1< c #513732",
"1= c #513733",
"1> c #513735",
"1? c #513832",
"1@ c #513833",
"1A c #513834",
"1B c #513835",
"1C c #513932",
"1D c #513934",
"1E c #513935",
"1F c #513A34",
"1G c #513A35",
"1H c #513A36",
"1I c #513B35",
"1J c #513B36",
"1K c #513B37",
"1L c #513B38",
"1M c #513C36",
"1N c #513C38",
"1O c #513D39",
"1P c #51403A",
"1Q c #523431",
"1R c #523530",
"1S c #523534",
"1T c #523631",
"1U c #523733",
"1V c #523734",
"1W c #523735",
"1X c #523832",
"1Y c #523833",
"1Z c #523834",
"1[ c #523835",
"1] c #523931",
"1^ c #523934",
"1_ c #523935",
"1` c #523A33",
"1a c #523A35",
"1b c #523A36",
"1c c #523B35",
"1d c #523B36",
"1e c #523B38",
"1f c #523C37",
"1g c #523D35",
"1h c #523D38",
"1i c #523F37",
"1j c #524038",
"1k c #52413C",
"1l c #533635",
"1m c #533732",
"1n c #533733",
"1o c #533734",
"1p c #533737",
"1q c #533833",
"1r c #533834",
"1s c #533835",
"1t c #533934",
"1u c #533935",
"1v c #533937",
"1w c #533A32",
"1x c #533A34",
"1y c #533A35",
"1z c #533A36",
"1{ c #533A37",
"1| c #533B35",
"1} c #533B36",
"1~ c #533B37",
"2! c #533C36",
"2# c #533C37",
"2$ c #533C38",
"2% c #53423A",
"2& c #543632",
"2' c #543732",
"2( c #543734",
"2) c #543935",
"2* c #543936",
"2+ c #543937",
"2, c #543A36",
"2- c #543A37",
"2. c #543A38",
"2/ c #543B34",
"20 c #543B36",
"21 c #543B37",
"22 c #543C36",
"23 c #543C37",
"24 c #543C38",
"25 c #543C39",
"26 c #543D37",
"27 c #543D38",
"28 c #543E38",
"29 c #543E39",
"2: c #54423A",
"2; c #553734",
"2< c #553833",
"2= c #553834",
"2> c #553935",
"2? c #553936",
"2@ c #553A35",
"2A c #553A36",
"2B c #553A37",
"2C c #553B36",
"2D c #553B37",
"2E c #553B38",
"2F c #553C37",
"2G c #553C38",
"2H c #553C39",
"2I c #553D38",
"2J c #553D39",
"2K c #553E39",
"2L c #553F36",
"2M c #553F39",
"2N c #553F3A",
"2O c #55403B",
"2P c #55413D",
"2Q c #55433C",
"2R c #563734",
"2S c #563834",
"2T c #563835",
"2U c #563934",
"2V c #563935",
"2W c #563A34",
"2X c #563A36",
"2Y c #563A37",
"2Z c #563B35",
"2[ c #563B36",
"2] c #563B37",
"2^ c #563B38",
"2_ c #563C37",
"2` c #563C38",
"2a c #563C39",
"2b c #563D38",
"2c c #563D39",
"2d c #563E35",
"2e c #563E39",
"2f c #563F3A",
"2g c #564139",
"2h c #573835",
"2i c #573935",
"2j c #573936",
"2k c #573A34",
"2l c #573A35",
"2m c #573A36",
"2n c #573A37",
"2o c #573A38",
"2p c #573B38",
"2q c #573B3B",
"2r c #573C35",
"2s c #573C36",
"2t c #573C38",
"2u c #573C39",
"2v c #573D38",
"2w c #573D39",
"2x c #573D3A",
"2y c #573D3B",
"2z c #573E39",
"2{ c #573E3A",
"2| c #573F3B",
"2} c #57413A",
"2~ c #57423F",
"3! c #583A34",
"3# c #583B36",
"3$ c #583B37",
"3% c #583B38",
"3& c #583C38",
"3' c #583C3A",
"3( c #583C3B",
"3) c #583D38",
"3* c #583D3A",
"3+ c #583E39",
"3, c #583E3A",
"3- c #583E3B",
"3. c #583F39",
"3/ c #583F3A",
"30 c #58403A",
"31 c #58403C",
"32 c #58413A",
"33 c #593C37",
"34 c #593C38",
"35 c #593C3A",
"36 c #593D3B",
"37 c #593E38",
"38 c #593E39",
"39 c #593E3C",
"3: c #593F39",
"3; c #593F3B",
"3< c #59403B",
"3= c #59413B",
"3> c #59413C",
"3? c #59423C",
"3@ c #59433E",
"3A c #5A3A36",
"3B c #5A3B37",
"3C c #5A3C39",
"3D c #5A3D3A",
"3E c #5A3E39",
"3F c #5A3E3A",
"3G c #5A3E3B",
"3H c #5A3F3B",
"3I c #5A403A",
"3J c #5A403D",
"3K c #5A413A",
"3L c #5A413C",
"3M c #5A423B",
"3N c #5A423E",
"3O c #5A433D",
"3P c #5A4341",
"3Q c #5B3C36",
"3R c #5B3D38",
"3S c #5B3E38",
"3T c #5B3E3A",
"3U c #5B3E3B",
"3V c #5B3F38",
"3W c #5B3F39",
"3X c #5B3F3A",
"3Y c #5B4039",
"3Z c #5B403C",
"3[ c #5B413A",
"3] c #5B413B",
"3^ c #5B423C",
"3_ c #5B433C",
"3` c #5C3C38",
"3a c #5C3E3A",
"3b c #5C3E3B",
"3c c #5C3F38",
"3d c #5C3F39",
"3e c #5C3F3B",
"3f c #5C4038",
"3g c #5C4039",
"3h c #5C403D",
"3i c #5C413B",
"3j c #5C423E",
"3k c #5C433C",
"3l c #5C433F",
"3m c #5C443C",
"3n c #5C443D",
"3o c #5C4540",
"3p c #5D3E38",
"3q c #5D3E39",
"3r c #5D3F38",
"3s c #5D3F39",
"3t c #5D403A",
"3u c #5D413A",
"3v c #5D423F",
"3w c #5D4340",
"3x c #5D443D",
"3y c #5D443E",
"3z c #5D4440",
"3{ c #5D4940",
"3| c #5E3D38",
"3} c #5E403C",
"3~ c #5E433E",
"4! c #5E443F",
"4# c #5E453F",
"4$ c #5E463F",
"4% c #5F3E3A",
"4& c #5F403A",
"4' c #5F413C",
"4( c #5F413D",
"4) c #5F423C",
"4* c #5F433D",
"4+ c #5F433F",
"4, c #5F453E",
"4- c #5F4742",
"4. c #60423B",
"4/ c #60423C",
"40 c #60433C",
"41 c #604340",
"42 c #60443C",
"43 c #60443E",
"44 c #60453D",
"45 c #604640",
"46 c #61423D",
"47 c #61433A",
"48 c #61433D",
"49 c #61433E",
"4: c #61443C",
"4; c #61453E",
"4< c #614640",
"4= c #614842",
"4> c #62453E",
"4? c #63443D",
"4@ c #634740",
"4A c #634741",
"4B c #634742",
"4C c #634943",
"4D c #634B44",
"4E c #64433D",
"4F c #64443E",
"4G c #644441",
"4H c #644740",
"4I c #644842",
"4J c #644A43",
"4K c #654540",
"4L c #654841",
"4M c #654943",
"4N c #654A43",
"4O c #66463E",
"4P c #664842",
"4Q c #664A47",
"4R c #674540",
"4S c #674843",
"4T c #674A43",
"4U c #674B44",
"4V c #674B46",
"4W c #674C44",
"4X c #684840",
"4Y c #684842",
"4Z c #684942",
"4[ c #684C45",
"4] c #684D45",
"4^ c #694A44",
"4_ c #694B43",
"4` c #694C45",
"4a c #6A4942",
"4b c #6A4B43",
"4c c #6B4A43",
"4d c #6B4C43",
"4e c #6B4C45",
"4f c #6B514A",
"4g c #6C4942",
"4h c #6D4D46",
"4i c #6E4B45",
"4j c #714E48",
/* pixels */
"%##<%|%~%b%e#&$H#[%h%B%f'>&m&Q&v'0%f%a%e%'!K#L%g#s'0&@&u(n(y(P$_#H$A&4%f'L'L&p&m&:&q'R*s+9)<)C(t&Q&#&W'T'L'Q'm&_%6$s&(%&#n#R&n$1",
"$^!;![#l%%%%&4&U&,%e$/&Z'n#Q%a%U#(!O%'%i#h#5!2!C#S%H$e%f'/(Q(2&v%g&Q&'%~'0*M(['m'i(p*y(1*s)X+;*B'q'5%S&p&7&($D&#%&&V'0&>#'!Y$8#C",
"!T#>#n%1'U'V,r/p4N3M3m4U3]*S3_2P+_(o'O'0%H#d#T$4%,$T%b&p&4&m%{%{&;&7$M%R(.%H%g3M4]4e4I3,054@4>4*4c1|1)0h&Q&S$f%|#}#h%#%($E$N#o%(",
"#$!2$u2~0t+(,x/*-h2A-f4^4:4)0S3P2g3x4M+}!B$*%n&Z051c/C0p1F/e/7/^/d/j+I%N'f%a,i4f4B4Z433l1j424Y4h4i4R4K4T00$d'10/.N)c,G,C)[(^%q%N",
"!g!L3<-]-1*|)7./*N.@1#494L2_2`152!2/44/E$z#<(^,{/H(}+*)e/!/n/d/^/j1%261M'-'-2}4$3^3V28/&403c4j4X4g4a4I3n2e%;*z2f1}/s.602/F1J)D%j",
"!1%2.[/[0W(m,32p-I'k1)2B1-*8-&2y3S3!4(.)$]$Y(x+W&Z(H*1)](z(7*Q+c-y/W0#,d'L%|-e1A+#1s-A.T3R2m3d332l3R3g3+*0$0'K+;)D'4,e-;0;,Y+L&;",
"!K/u,u/:1B)--+0L3()})Z121:,'(60P2k2l3E/n&K#I*Q)D-q/y0])k(6+P&['L+V,,-z,8(v%I([-`/R*n(51%2=0{2).#/@0++51r1A!Y$P'Z'%,a.z-g0!/3-F%g",
"!,1J.2,z/7/Q.f392T.<1{,j,E)T(L./+c/T.G++!z!x+~+4'u+2*4+X+5,.)K)3.B/3/c.H(N'-'[/Q,d.I0'3e2`1A3&1^/A1S1T0Y.%!#&I*?(d*>)^-<+d-#/?'5",
"!+*y1C*I/3/9/v361l,8+$1z1_/W-F3J3:0D/?*C%Y!z,8)k,U+T.d/x3U1o1!-41s+n1z/g&}&m(M/B/C+w2X3e1b0f2,1a0s,o*t*+)#!b%(-b+;+6*u/3-*(4)B&?",
"!E0h*&/{)|,@.'-A+M)B*&2v1K1Y1f/%2l)t.e+l#b$;)c+2)&,(+<2(-~0~*>,0)Y+W/..k&N']*e*$-).j2<350#+/0!0q1G/2+4*I([%^$D(2+<(m)Z*k*g(w,$%N",
"$F/j(F);25,q,^/J1G+k+P0@2H1B,M22,K-o-#+_$z$!-m+Q-r,41o/V//.r0?*E/a/v.j,_%u%x'=.?0>180Z3b2E1_-]24-+)t&h'B/E#M$J*''R'G*r/d.#)8/k%I",
"!Z*L,=0M1+/T0=-j)])D)b1b2{1G+'1/,g*&,{&F#>#p,P'^)F'C)0%}(?*n/:/:+F,32*.%%l%y%8/W1*1=0c1b0F/Y.u0O1z0D,e.*0Q#6#S-w+_'3&p'-*:0#/k'i",
"#M.b+&4'3X3#3$1z0J2^/@3,2K.N1,3l13/|/n,B$Q&;*i'(%~'C&>$|%,-2*C'W.P'h*c.J&Y!W&N/X1*0e/=2`1~2w1a10/e-0(}-Y&a#$#l&>)U,i)D.C.o-z'm'H",
"#J3X3V3q484.1X2[2a0n2K270/(61,3N.*,e1I,I$J&!(v(R%s*B*x(,'I'r%Q(P)1,3([$m(Q$#&h',+l-Y)v.T.H/=.1.Z.%-Y,>(R&7!_#!!~&')R/<-2.)-1(M&7",
"!H,n1y2s3F0}-U1D0>,8+w/l-Y+d)C+*+J)$1d(,!'$E'm)I&U(;(5)W-1.))M#S&m&4%%%!&:'/&7(P(R'm'R('%!&m(X(8&R%C!D%#$e$1#|#}$<$}$A#M$%%>#|#~",
"!Z%{&61^+`+.,V)i'K&+'X&p&G)`)`*)(6)x'=%b$^$D&!#r&N&y'V&/(0+:(y&7&N%f$~%a'd(F'd&U'0)7'h%>&7'0&S%N&<%B!Y$*#S#S!)!8&7'-${%>%}%=#}!<",
"!Z#8#%&Q!p&L'@$I'_)I'|%,'m'0&b&[&p%x$?%z$&%.%(!W!V!j'-%Q&7'K'3%|&p&V%H%{'i(N'K$|$`$D!E%!$`%B&y%e$|$`!)$e!~${&h&i&M%^%a%A$~$`$@!1",
"$5!F!9#O#i!7!6!/'-%y$=$!%I'S(z'q%f!>!|#n!f$>%[%<!.!d#g$$#F'R&D&?&D%#)6.X4#4J4`4,3W3K4;3L/q-J)=*I*M..-c1G,D/p.|,;)/'E&N'0%%!n$,#'",
")d'T&E#!$%%:%^*9,^(d%[&!&4&M(M&>%A&4&'&y,_0C/e';-2.V+O+G(P&<$o'q&x$d4C3.4P4V4H0D./2#/m/L4D3j'H&h,<4<)c2I4b3I4F3W*])X)+,c+b'K+=,?",
"1J't)W)^._)f)|3p3`3G-E1G.S->'h+_3y4d28463*2%41-E243k4=30313o2N$`#c&m/=.I1z2|1*+,0V2R1<,p*U.t(j&j1d/30$1Z3s2y21-T.O$m&4(p'8't'q*>",
"(Q(s($/b'R1B)@/20:/~(9*a1I2K&p3/4[1g.`0x/a1>-u-t(w/]/<-Y&o27/&&,%~'H0l,y/r3;*X+13!3J-f..+y.B%='i10/Z,>0F1A/2-Y'p+:${$i()(*$g'i)8",
"-_'['q,?1B'p(g'P-Q-U*%-u2e3n'/4!.}.l1v0>*x0|2n.x(J*s)D*))e)C*Y'm'L#'.4040m/s0/+*2C3=0t-Y,i0B$^$s*P1{1>0A1,0=-u(6&;&L&m(M+:'t'6'm",
".O't'm(g-3)5'j,/,d)r&[,X1A.M&m*w*0+:2Y0;060-1V-,)L+H2',>*$0/*y'5&4$y/4.u.71/..*q+j0o-..$(7+q%J%V-f2b-[*W*y*y,Z(!)V(-%c(s&u*&+A*H",
".%)D&^(w(['3-x&|)?.x'J)g/6,,&7+^,w,A2i3B3A1n/-/w)L1R2j+%(|(2,@&j#(!S1s,N/<003D0y/x0$/V(h-I*i!q$&,F,=(F*/,#00*$)s(f$5#S'U(7-T-9)D",
"+^-g*2)@'q-H0j'h',.%&O(M*h'(#k&9.2*c0z3|3a2u/O(+-!2;/U(K'H/N1B$%'$$X-Y+x1}0P2^/v/O+R(H+b/3*h#>$$.x)q*i,*-,/$-v(c)*#P'L*I-@/=(~,I",
"/a+w&<&{,A+;*j'7(U)<)J*Z(C'R#8))1D2m2h/01[,V(k*V)p0U+90$1n+2,(*D$p&f*i-_2I/33'2o/Y*d.@*C+9*D!|#a%5-9,}-R,9*G-8*|'c'G'L.x'S&Q'8+8",
"+6'i*I'-+m0-(3&C.%)A(@(e)I&^#p&v394%3%3C.;.k'm(B/W+A-B,`.8+H+5,5&i%^+t-K,d/U/_0I.=.n.m.L+q-9%~$I'L)).p-2)e,t(1&:#8(G%$&Y&p(2+]/<",
")2&H%S%p%r*B+^)}-Y*L(n&o'{%n%9'43T3&0~0>+W*?*v(h,:,4)q*=(?)3+N,f(d%[%w1')c*1,I1E1A)X'w+m*R&n$Y!u#w$4#^&%$s$/&N$L%0%|&m#&'f#V'h&Q",
"'n%v&U$I%O'S'-$0%j%{%g$&#}&4'*':1.2].:'!*_)N(h)m-M*y)R)%(',81E%c&i%y(R(q,>),&a,i*-(Y$4$h%6%X#I#($k&Q&L!R$+%b#9!_&m$B!J!:$3%y&l$_",
"!s&0&Q$e'i(1'3%H(,)Y',#R$]$7#w#Q-=0B-w,9'8)-)X+i(E)x(h'a(B*J+f&N&p%x&-'i%'###9#R&*%H#E#O%.$E#z$M#W%j!E!O%>&M%y%^$F$G#G#$#)$1%;%M",
"#*!P!<$n$6&[%e%o&u%j#T$^$%&A#-%-#X&`+;1>(R/Z+D([,3)Y)Q(M$[&'%7&N%|$a$:'l'-'-&'!2%j#f!h!E#/#g!D$&$s#]#R%B'L(2&Q&Q$O#?!h#S$E#i!E#W",
"#3$Q%p#w#B%3%{%^&@$7%.&1$3%-$h###:$Y#($|!e%A(u%F&4%'%2$c$?'H'#%Z!;#5%&%`%]&K$@%&&v$k%'%!$S$0!g#+(2(o(('e(Q(n(Q(u%o$.&Q&Q&@#>#@!G",
"!,#7!<%j&3!w#'!F#Z!^$8$d#!#{#W$Y#:!D!p$1!2#Q&:%#$g'-!t!E$`'0&M&2!I#9&:%=$W&K%=%B%|&>!&!a+<4--81O3z453r474O4A3[48/i(N*-.S-l,j!s#$",
"!?#)#I#Y$w#5!]!v$4!:$h!K#4&2%W$z'$&2%9%F!m!j#N&2%]&N&$!d!9$;)h+R'A'R1.+0-S/c)6!D&4+c'[1P3@/E(^3=1}211%2s3}372r0b).)3+g4+1{*Q&^!'",
"!l&##h/I/I,H+@-n.a..)E.y+3+|,j-8*|1f3>1~*}(^*w&X$@%e'P#H$X-J3~3v4Q2P2d3.4W4_1.!('d&V'9)71});,11u0E0(,2/^/^/2-6'l'H(.)K.Q-r(P(V!Y",
"$p#,+)3{/K(^,h,y0B4?4F3a3t0c-].0/b1D3)/F0u-g280h0'&d$3$D&m2Q.o/!2L3f.x)}0n4*03'A#c'f,&.N/'2{211r210D1)2J0q-|+F2{1(+A*#*X0>+d'R#C",
"$i'L3O*3+#+P*i(C/M0w3Q/v*B*q0|-i0.0N1a,6,F1)+F.R11(N#:!y,I,x0z*O342p1A.U1]3Y-A(b$x1q,%-a3w3H/W1x3L38201G230'+7/<+e+5.H0$)!'R00!v",
"$j$40r'i'<'m)2,|'q-p-t*%*T0k+i1//p0s,K+E(])/-Y0~0C.y#l#q(%/}'R.B/^0+.+--0=1t.R(<'y3)1Q0T.]231,2_1*1_0E/^/2,[*|*y.o&r-r&u(U*a)e$%",
"&A)}/t,?+d0P(a/e'i/X(j,C(L1s-8-`-8/D-X'h'++Y/Y*i*>)_%y$t'X.)&F%~(o+^&X*=(q(-/X,W'z2C*w-:0,.s-61%/e,<)9.o'l,=)I+C,3*g'0-{*U-8*L#V",
"%k&&-k+|&{'q*l.F)N+4(M+p*f,=)N)A0e0e0A(*(b-%0d+Y,Z+m$d$1'3)!(>*['F,9(l)U*t+Y/|,.'&+^'8.I/X-(09-N0K)9'g,8-V)k.<*o(R'/&Z*Q,d)@.W&z",
"$d$P,R({&J([)b+q'3&L-3,].o.A*H*i,[-1*~,E,W*C0g-*.f(B$7#'(g0U-r-0(u+Z'K,e*>+-+R'D%@(6)y)n+W,_/71A0**>'R*b/X-s0$/`),-M'0-].v1?1F&U",
"#d$(*5'P&T(H,I)~%a%E(U*@)u'R+Y+U(&(p0?*c&4+^0>0:,.(_&8&@&F.$+>)L)],_+X)F)I,d)e&=#P'i,^(%,3,Y-S,m*f(v.K*M,_/T2a0^(C)I.t)z/50a1I'i",
"$_&4/()3)H(Q(})~#9$3$p',(p/1/-+S(g.B,-.d,~/T/S.&-P-d%4&.%6)f&Y&j(Q'`&>%-'}(B'i&]#h&Y+@)j-1+W.t-)'L+m0B-s,71&1>/0'C)w&U*F2_2s32'0",
"!M$b.^0E-](-)_'i(#*l'R%2'))2+.'3(N.E/0/U-L.E*^&d-~([$P$M&)):&w'q*$&Z(i-;*r(Z0N$q#1'i&Y)p+/.D*>'D(C&'+`')((*K0c+4-,&Q*c/W-10}0i&p",
"#e'l3?+j,;)W+B+k)o-]-B(:''%6+//:)j.j2+.f+_-&(N+;-])3%f#W&,)w,Z(}.y-}%%'3,j-<,s$l!2&N(F({+9(''j,k&N&Q&v-),e,>-Z'f'1&<&s,3/7+['l&p",
"$d&@,u(2(k(E*n,>,6,=*2)3&'%6'&&c)%)O'm)l)k-U*i.g'B'L#s#>%/-9)6,Z*D&Z'm'4,i(N'e#A#W#R%+%t'o&<'j)7&:(P)d&`)q(h)N&N%y#U&~*m(T&Q%8'4",
"&@&?%7'm&'&V(o(n%>#V%}&g&j&g$)#1#J&B%{#W%x'H'L#v%?$!!;#N%:%^$`&L%.%{!Y$d&i%^'B%~#'!S!{#j!j%K)}$-!e#L#L!c!@%a'&!d!A$e#S$3%+%*'-&8",
"#T!N$Q'0%#%a'-&N$%$1!k!g%!#m#0$>!Z%;#`$V#2&4&8&L$Z#D$E&e'|'?%x%.#h#l!~&/-//k0F1G+:1G0(&m!$$A&4#y!0#p#=%>%^&N'L!Z!;$1#W#!$@%a%~&D",
"#S!D$Q%x$|&4(K)6$L'1'L%!$Q%s%'!i%^)o%d%{&{&U$^!E%[$/0f0#2,1%)w#V%A#2'/,S1h2:+K,C143i2N11&2!V%{%G&Q!p%Q&'&:&Z,J&&&^%s%R'0%m&U&A&>",
"0-1I0v3i1Y382-.51k.C'3(c&j$U&U&j/;1G'q'P+C._%b!4.J.{0%2?/]){.K20.H%;,T0R2q-Y-E.}.c1{2W4/3M.U#4'P)W*G2O1D*&,v0e(z,~*O0i1d1_3u3Z2F",
"190}212_1*2@/e/d20(-%a*7(l%9$5%O(,&m&5&&(()G$D!!29/`072(0{(=/72z-/#.*z.T.d(K.~2^*&*p2&1m1w/;!Z!I)(*`-9+1&o-,-U-0)^'1,Y/`/^0~1%/^",
"0[2X1*330b/}.$0-0E-8%k'C'D(R#:&o&m((%Q'.%=%^$z!51_-|171v/9*h+F01)Y!Q*A+z///+0]/7(G*l.>/,1`+o!V#g)G)P(R$g*@*j+v(K&L'K*K(p)+-O/7.A",
"1A1=1A1^/W.)/k2K0~/8&Q*C*{$v&Q%}*i$H%M%s$3#q#t!k+r2x0c/>*y1W(01/-U#'/z+|0!/223(r(%//0^2Y2F1d$=&m.T0(.q*=0(/d)Z'K'a)3-1(K)?'M(0*&",
"0B0!0f0f0-.P.x0j0E0c+.(+*.)=&4%_)w'b%N$R'L$Q#M!x1{0H/Z-U-W,^(u*W&Y#b./0E(l,G._(D/62>1V2c1H2M%y(W/A+'(l.;/y+u'p,0+R+r)s+.(/(t*%,7",
"1E1%0e1z1L2G2$0K/X/}+^'m+I(R%c%Q(G%b$M'0'c&P#N$E,_(h.j/_+|+f(H,Q(K!*)d,n)[+v)3&4+^)82/2t1x1,%b&Q-U/309.h/|,Z&p-$*;-|+..t-v'l0-0G",
"-|0c-|0(242^3b0E.o/e)D-V&|$w%;%Q(%&p%P'N(E'i%~%~,!*0+1)b.3-g1{/G&Y!=*41..s)c)P)0*C*>0+.R/71G%=&;*z-$'x(S-U'j-^(W'm/30+1E-Y,d.x/h",
".p0B0g1B1_3-0!.?0)+{/V)w(_'4#!(%%,&T%s'2'e(K%(%e1a1d-W2D-G.Y/#,O&+!o+*+((o*w-=)J-~0-1y+h/W0J#d#u./,b,5)Y'Y)`)A'-(O/W.>0(+`-S/f-Y",
"1B240f.s240f.N.I1e)c(W-z*m%+$f%5$L%n'l%L(g'W$H!}1i1~160_+j2V+F/G)<$m)A)>'R.,1>)I(n,M-Y(q0A/=!U#_/o2.([*<*h([,3*6)q0F-r-%.%/]0-&C",
"2t3h0C0b1%/|&:-+(l)S(5*M(1(M&R'g'P'3&@'H(R$m$@&L2S4&2U1p-M(^/)+O-9#+'f,I(91D.9)'-8.O,2(f1;.M!X#x-508.j(p+',)+T*N+r0#0!/81b10/X+4",
"1F0f(}.C-*-Y(Q'L)x.[,_&v-U(('Q(X)4*)&>&^(6$9%x)(4S4E0X.k.j09(u,l.!$~'-'V*,'f(M.i0b0#/P-O.G-9$e$20e-P,''B.?-!)U-9.o19+b-].(-<,d-v",
"-C-3-'*g0f(5)L**-?+'(I&u.)'L&<'5+B*''~'s&y&N$Z(A4G-t,+-r/W+4)*1c1A%'$/,i-;+j1*/21)2b2Z/U0&)a!r%|($-8);-|-Q-&0A0(/;0<-S/3*(,e*j(o",
"0!/8,8,7.-,e(L([)~'4'O'v'f&m$K$t&A'2%y$C$D!%!y#~+;,B&t&&+m,d-v1z+1%}#S'r0/270J1$1D240`+>,L*.!P#;&V)I-v+4*R(6/7/]0a1@.i/^0b)z-7+a",
"+9+9(s(Y+w+Y.&(q'5$'%?%T&Y$I!E'K*A&k'0$$$d!n!3#K&p00,2*i(`1E1&1N*=$H$D%)+s1a.w/71E/c1%)6-D%{$3!`'h+?+30D0i.s0i1U0A0~0B*!(E)[+!);",
"'H%U$r$8(-'L#T#$#9!p'P&p$4&&&p(F'0&R&&$h#q!D!-!^&;)1&b,Y.3/d*b'R&4%>%D%|'P/=1.1+.N1D2I,P'U$/$d!L$g%(&p)7)X*A){)N(R'4(L&o%3$M&W&N"
};
