/* XPM */
static char *tiled_metal_texture_01[] = {
/* columns rows colors chars-per-pixel */
"64 64 2968 2",
/* colors */
"!! c #180F0B",
"!# c #18100C",
"!$ c #18110D",
"!% c #19110D",
"!& c #1A110D",
"!' c #1A120C",
"!( c #1A130E",
"!) c #1B130D",
"!* c #1C110B",
"!+ c #1C1410",
"!, c #1C150F",
"!- c #1D120D",
"!. c #1D1410",
"!/ c #1D1510",
"!0 c #1E140E",
"!1 c #1E140F",
"!2 c #1F120D",
"!3 c #1F130D",
"!4 c #1F130E",
"!5 c #1F140D",
"!6 c #1F140F",
"!7 c #1F150F",
"!8 c #1F1510",
"!9 c #20140E",
"!: c #20150F",
"!; c #201510",
"!< c #201610",
"!= c #201611",
"!> c #201711",
"!? c #201911",
"!@ c #201913",
"!A c #21160F",
"!B c #21170F",
"!C c #211710",
"!D c #211711",
"!E c #211811",
"!F c #211812",
"!G c #211912",
"!H c #22140E",
"!I c #221410",
"!J c #221510",
"!K c #221610",
"!L c #221612",
"!M c #221710",
"!N c #221711",
"!O c #221712",
"!P c #221714",
"!Q c #221810",
"!R c #221812",
"!S c #221813",
"!T c #221911",
"!U c #23160F",
"!V c #231710",
"!W c #231711",
"!X c #231712",
"!Y c #231810",
"!Z c #231812",
"![ c #231813",
"!] c #231911",
"!^ c #231912",
"!_ c #231A14",
"!` c #24160F",
"!a c #241610",
"!b c #24170F",
"!c c #241711",
"!d c #241811",
"!e c #241812",
"!f c #241912",
"!g c #241913",
"!h c #241A13",
"!i c #241A14",
"!j c #241B16",
"!k c #241C14",
"!l c #25160F",
"!m c #251710",
"!n c #251810",
"!o c #251811",
"!p c #251813",
"!q c #251911",
"!r c #251912",
"!s c #251913",
"!t c #251A12",
"!u c #251A13",
"!v c #251A14",
"!w c #251A16",
"!x c #251B11",
"!y c #251B13",
"!z c #251B14",
"!{ c #251B15",
"!| c #251C14",
"!} c #26160F",
"!~ c #261611",
"#! c #261910",
"## c #261911",
"#$ c #261912",
"#% c #261913",
"#& c #261A12",
"#' c #261A14",
"#( c #261B12",
"#) c #261B13",
"#* c #261B14",
"#+ c #261B15",
"#, c #261C16",
"#- c #261C17",
"#. c #261D1A",
"#/ c #271711",
"#0 c #271811",
"#1 c #271911",
"#2 c #271912",
"#3 c #271913",
"#4 c #271914",
"#5 c #271A13",
"#6 c #271A14",
"#7 c #271B13",
"#8 c #271B14",
"#9 c #271B15",
"#: c #271C13",
"#; c #271C17",
"#< c #271D14",
"#= c #281710",
"#> c #281810",
"#? c #281811",
"#@ c #281812",
"#A c #281911",
"#B c #281912",
"#C c #281914",
"#D c #281A10",
"#E c #281A11",
"#F c #281A12",
"#G c #281A13",
"#H c #281B11",
"#I c #281B12",
"#J c #281B13",
"#K c #281B14",
"#L c #281B15",
"#M c #281B16",
"#N c #281C12",
"#O c #281C13",
"#P c #281C14",
"#Q c #281C15",
"#R c #281C16",
"#S c #281C17",
"#T c #281D16",
"#U c #281E14",
"#V c #281E15",
"#W c #281E16",
"#X c #281E17",
"#Y c #282016",
"#Z c #29160F",
"#[ c #291811",
"#] c #291813",
"#^ c #291912",
"#_ c #291914",
"#` c #291A12",
"#a c #291A13",
"#b c #291A14",
"#c c #291A15",
"#d c #291B11",
"#e c #291B12",
"#f c #291B14",
"#g c #291B15",
"#h c #291B16",
"#i c #291C13",
"#j c #291C14",
"#k c #291C15",
"#l c #291C16",
"#m c #291D14",
"#n c #291D18",
"#o c #291E16",
"#p c #291E17",
"#q c #291E18",
"#r c #2A1811",
"#s c #2A1912",
"#t c #2A1A12",
"#u c #2A1A14",
"#v c #2A1B11",
"#w c #2A1B12",
"#x c #2A1B13",
"#y c #2A1B14",
"#z c #2A1B15",
"#{ c #2A1B16",
"#| c #2A1C11",
"#} c #2A1C12",
"#~ c #2A1C13",
"$! c #2A1C14",
"$# c #2A1C15",
"$$ c #2A1C16",
"$% c #2A1D14",
"$& c #2A1D15",
"$' c #2A1D16",
"$( c #2A1E14",
"$) c #2A1E15",
"$* c #2A1E17",
"$+ c #2A1E18",
"$, c #2A1F15",
"$- c #2A1F17",
"$. c #2A1F19",
"$/ c #2B1911",
"$0 c #2B1A12",
"$1 c #2B1A13",
"$2 c #2B1B12",
"$3 c #2B1B13",
"$4 c #2B1B14",
"$5 c #2B1B15",
"$6 c #2B1B16",
"$7 c #2B1C12",
"$8 c #2B1C15",
"$9 c #2B1C16",
"$: c #2B1D14",
"$; c #2B1D15",
"$< c #2B1D16",
"$= c #2B1D17",
"$> c #2B1E14",
"$? c #2B1E15",
"$@ c #2B1E16",
"$A c #2B1E17",
"$B c #2B1E18",
"$C c #2B1F14",
"$D c #2B1F15",
"$E c #2B1F16",
"$F c #2B1F17",
"$G c #2B1F19",
"$H c #2B2016",
"$I c #2B2017",
"$J c #2B201A",
"$K c #2C1A11",
"$L c #2C1A12",
"$M c #2C1A13",
"$N c #2C1B13",
"$O c #2C1B14",
"$P c #2C1B17",
"$Q c #2C1C14",
"$R c #2C1C15",
"$S c #2C1C16",
"$T c #2C1D14",
"$U c #2C1D15",
"$V c #2C1D16",
"$W c #2C1D18",
"$X c #2C1E15",
"$Y c #2C1E16",
"$Z c #2C1E17",
"$[ c #2C1E18",
"$] c #2C1F15",
"$^ c #2C1F18",
"$_ c #2C1F19",
"$` c #2C2015",
"$a c #2C2017",
"$b c #2C2018",
"$c c #2C201A",
"$d c #2C211A",
"$e c #2D1912",
"$f c #2D1A11",
"$g c #2D1B12",
"$h c #2D1B14",
"$i c #2D1B15",
"$j c #2D1C14",
"$k c #2D1C16",
"$l c #2D1D13",
"$m c #2D1D14",
"$n c #2D1D15",
"$o c #2D1D16",
"$p c #2D1D17",
"$q c #2D1E15",
"$r c #2D1E16",
"$s c #2D1E17",
"$t c #2D1E18",
"$u c #2D1F15",
"$v c #2D1F16",
"$w c #2D1F17",
"$x c #2D1F18",
"$y c #2D2015",
"$z c #2D2016",
"${ c #2D2017",
"$| c #2D2018",
"$} c #2D2019",
"$~ c #2D2115",
"%! c #2D2117",
"%# c #2D2119",
"%$ c #2D211B",
"%% c #2D2219",
"%& c #2E1B13",
"%' c #2E1B15",
"%( c #2E1C13",
"%) c #2E1C15",
"%* c #2E1C16",
"%+ c #2E1D13",
"%, c #2E1D14",
"%- c #2E1D15",
"%. c #2E1D16",
"%/ c #2E1E14",
"%0 c #2E1E15",
"%1 c #2E1E16",
"%2 c #2E1E17",
"%3 c #2E1F14",
"%4 c #2E1F15",
"%5 c #2E1F17",
"%6 c #2E1F18",
"%7 c #2E2016",
"%8 c #2E2017",
"%9 c #2E201A",
"%: c #2E2117",
"%; c #2E2118",
"%< c #2E211A",
"%= c #2E211C",
"%> c #2E2219",
"%? c #2E221D",
"%@ c #2E231E",
"%A c #2E241C",
"%B c #2E241D",
"%C c #2F1B14",
"%D c #2F1C13",
"%E c #2F1C14",
"%F c #2F1C15",
"%G c #2F1D13",
"%H c #2F1D14",
"%I c #2F1D15",
"%J c #2F1D16",
"%K c #2F1D17",
"%L c #2F1E14",
"%M c #2F1E15",
"%N c #2F1E16",
"%O c #2F1E17",
"%P c #2F1E18",
"%Q c #2F1E19",
"%R c #2F1F15",
"%S c #2F1F16",
"%T c #2F1F17",
"%U c #2F1F19",
"%V c #2F2017",
"%W c #2F2018",
"%X c #2F2019",
"%Y c #2F2115",
"%Z c #2F2116",
"%[ c #2F2117",
"%] c #2F2118",
"%^ c #2F2119",
"%_ c #2F211B",
"%` c #2F2217",
"%a c #2F2218",
"%b c #2F2219",
"%c c #2F2318",
"%d c #2F231C",
"%e c #2F241B",
"%f c #301B12",
"%g c #301C14",
"%h c #301D12",
"%i c #301D14",
"%j c #301D15",
"%k c #301D17",
"%l c #301E13",
"%m c #301E14",
"%n c #301E15",
"%o c #301E16",
"%p c #301E17",
"%q c #301E18",
"%r c #301F17",
"%s c #301F19",
"%t c #302015",
"%u c #302016",
"%v c #302017",
"%w c #302018",
"%x c #302019",
"%y c #302118",
"%z c #302119",
"%{ c #302216",
"%| c #302217",
"%} c #302218",
"%~ c #302219",
"&! c #30221A",
"&# c #30221B",
"&$ c #30221D",
"&% c #302318",
"&& c #302319",
"&' c #30231A",
"&( c #30241A",
"&) c #30241D",
"&* c #311C13",
"&+ c #311C15",
"&, c #311D13",
"&- c #311D14",
"&. c #311D15",
"&/ c #311E14",
"&0 c #311F15",
"&1 c #311F16",
"&2 c #311F17",
"&3 c #311F18",
"&4 c #311F1A",
"&5 c #312014",
"&6 c #312016",
"&7 c #312017",
"&8 c #312018",
"&9 c #312019",
"&: c #312117",
"&; c #312118",
"&< c #312119",
"&= c #31211A",
"&> c #312219",
"&? c #31221A",
"&@ c #312316",
"&A c #312319",
"&B c #31231A",
"&C c #31231B",
"&D c #31231C",
"&E c #312418",
"&F c #31241A",
"&G c #312519",
"&H c #312718",
"&I c #321C13",
"&J c #321D13",
"&K c #321D15",
"&L c #321E15",
"&M c #321E16",
"&N c #321E17",
"&O c #321F15",
"&P c #321F17",
"&Q c #321F18",
"&R c #322116",
"&S c #322117",
"&T c #322119",
"&U c #32211B",
"&V c #322217",
"&W c #322218",
"&X c #322219",
"&Y c #32221A",
"&Z c #32221C",
"&[ c #322316",
"&] c #322318",
"&^ c #322319",
"&_ c #32231A",
"&` c #32231B",
"&a c #32231E",
"&b c #322418",
"&c c #32241A",
"&d c #32241B",
"&e c #32241D",
"&f c #32261E",
"&g c #322620",
"&h c #331E13",
"&i c #331E15",
"&j c #331F16",
"&k c #331F17",
"&l c #332016",
"&m c #332017",
"&n c #332018",
"&o c #332019",
"&p c #33201A",
"&q c #332117",
"&r c #332118",
"&s c #332119",
"&t c #332217",
"&u c #332218",
"&v c #332219",
"&w c #33221A",
"&x c #33221B",
"&y c #332317",
"&z c #332318",
"&{ c #332319",
"&| c #33231A",
"&} c #33231C",
"&~ c #33231D",
"'! c #332418",
"'# c #33241A",
"'$ c #33241C",
"'% c #33251C",
"'& c #33261B",
"'' c #33261E",
"'( c #33271D",
"') c #332820",
"'* c #33291F",
"'+ c #341E15",
"', c #341F17",
"'- c #342015",
"'. c #342016",
"'/ c #342017",
"'0 c #342018",
"'1 c #342117",
"'2 c #342118",
"'3 c #342119",
"'4 c #342217",
"'5 c #342218",
"'6 c #342219",
"'7 c #34221A",
"'8 c #342317",
"'9 c #342318",
"': c #342319",
"'; c #34231A",
"'< c #34231B",
"'= c #342418",
"'> c #34241A",
"'? c #34241B",
"'@ c #34241C",
"'A c #342519",
"'B c #34251B",
"'C c #34251C",
"'D c #34251D",
"'E c #34261B",
"'F c #34261D",
"'G c #34261E",
"'H c #34281E",
"'I c #351E14",
"'J c #351E15",
"'K c #351F15",
"'L c #351F18",
"'M c #352015",
"'N c #352117",
"'O c #352118",
"'P c #352119",
"'Q c #352217",
"'R c #352218",
"'S c #352219",
"'T c #35221A",
"'U c #35221D",
"'V c #352318",
"'W c #352319",
"'X c #35231A",
"'Y c #35231B",
"'Z c #352418",
"'[ c #352419",
"'] c #35241A",
"'^ c #35241B",
"'_ c #35241C",
"'` c #35241D",
"'a c #35241E",
"'b c #35251A",
"'c c #35251E",
"'d c #35261B",
"'e c #35261D",
"'f c #35261E",
"'g c #35261F",
"'h c #35271D",
"'i c #361F13",
"'j c #361F14",
"'k c #361F16",
"'l c #362019",
"'m c #362116",
"'n c #36211A",
"'o c #362215",
"'p c #362217",
"'q c #362218",
"'r c #362219",
"'s c #36221A",
"'t c #36221B",
"'u c #362318",
"'v c #362319",
"'w c #36231A",
"'x c #36231B",
"'y c #36231C",
"'z c #36231E",
"'{ c #362418",
"'| c #362419",
"'} c #36241A",
"'~ c #36241B",
"(! c #36241C",
"(# c #36241D",
"($ c #36251A",
"(% c #36251B",
"(& c #36251C",
"(' c #36251E",
"(( c #36261A",
"() c #36261B",
"(* c #36261D",
"(+ c #362620",
"(, c #36271F",
"(- c #36281E",
"(. c #371E15",
"(/ c #372014",
"(0 c #372015",
"(1 c #372018",
"(2 c #372116",
"(3 c #372218",
"(4 c #372219",
"(5 c #37221A",
"(6 c #372317",
"(7 c #372318",
"(8 c #372319",
"(9 c #37231A",
"(: c #37231B",
"(; c #37231D",
"(< c #372417",
"(= c #372418",
"(> c #372419",
"(? c #37241A",
"(@ c #37241B",
"(A c #37241C",
"(B c #37251A",
"(C c #37251B",
"(D c #37251C",
"(E c #372520",
"(F c #372619",
"(G c #37261B",
"(H c #37261D",
"(I c #37261E",
"(J c #37271A",
"(K c #37271B",
"(L c #37271C",
"(M c #37271D",
"(N c #37271E",
"(O c #37281A",
"(P c #37281C",
"(Q c #37281D",
"(R c #37281E",
"(S c #37291D",
"(T c #37291E",
"(U c #372920",
"(V c #372B22",
"(W c #382016",
"(X c #382017",
"(Y c #382117",
"(Z c #382118",
"([ c #382218",
"(] c #382219",
"(^ c #38221A",
"(_ c #382318",
"(` c #382319",
"(a c #38231A",
"(b c #382418",
"(c c #38241A",
"(d c #38241B",
"(e c #38241C",
"(f c #38241F",
"(g c #382519",
"(h c #38251A",
"(i c #38251B",
"(j c #38251C",
"(k c #38251D",
"(l c #382619",
"(m c #38261A",
"(n c #38261B",
"(o c #38261C",
"(p c #38261D",
"(q c #38261E",
"(r c #38271A",
"(s c #38271B",
"(t c #38271D",
"(u c #38271E",
"(v c #38271F",
"(w c #38281C",
"(x c #38281D",
"(y c #38281E",
"(z c #38281F",
"({ c #382821",
"(| c #38291E",
"(} c #382A1E",
"(~ c #382B1D",
")! c #391F15",
")# c #392216",
")$ c #392217",
")% c #39221A",
")& c #392317",
")' c #392318",
")( c #392319",
")) c #39231A",
")* c #39231B",
")+ c #392418",
"), c #39241A",
")- c #39241B",
"). c #39241C",
")/ c #39241D",
")0 c #392517",
")1 c #392518",
")2 c #392519",
")3 c #39251A",
")4 c #39251B",
")5 c #39251C",
")6 c #39251D",
")7 c #39251E",
")8 c #39261A",
")9 c #39261B",
"): c #39261C",
"); c #39261D",
")< c #39271B",
")= c #39271D",
")> c #39271E",
")? c #39281B",
")@ c #39281C",
")A c #39281D",
")B c #39281E",
")C c #392821",
")D c #39291B",
")E c #39291C",
")F c #39291D",
")G c #39291F",
")H c #392921",
")I c #392A20",
")J c #392B1D",
")K c #392B1E",
")L c #392B20",
")M c #3A2217",
")N c #3A2219",
")O c #3A2318",
")P c #3A2319",
")Q c #3A231A",
")R c #3A2417",
")S c #3A2418",
")T c #3A2419",
")U c #3A241B",
")V c #3A241C",
")W c #3A241D",
")X c #3A2518",
")Y c #3A2519",
")Z c #3A251A",
")[ c #3A251B",
")] c #3A251C",
")^ c #3A251D",
")_ c #3A251E",
")` c #3A2619",
")a c #3A261A",
")b c #3A261B",
")c c #3A261C",
")d c #3A261D",
")e c #3A261E",
")f c #3A271B",
")g c #3A271C",
")h c #3A271D",
")i c #3A271E",
")j c #3A281C",
")k c #3A281D",
")l c #3A281E",
")m c #3A291D",
")n c #3A291E",
")o c #3A291F",
")p c #3A2A1B",
")q c #3A2A1E",
")r c #3A2A21",
")s c #3A2B20",
")t c #3A2C20",
")u c #3A2D22",
")v c #3A2E24",
")w c #3B2115",
")x c #3B2218",
")y c #3B2219",
")z c #3B2319",
"){ c #3B2418",
")| c #3B2419",
")} c #3B241A",
")~ c #3B241B",
"*! c #3B241C",
"*# c #3B2517",
"*$ c #3B251B",
"*% c #3B261A",
"*& c #3B261B",
"*' c #3B261C",
"*( c #3B261E",
"*) c #3B2719",
"** c #3B271B",
"*+ c #3B271C",
"*, c #3B271D",
"*- c #3B271E",
"*. c #3B271F",
"*/ c #3B281A",
"*0 c #3B281D",
"*1 c #3B281F",
"*2 c #3B2822",
"*3 c #3B291B",
"*4 c #3B291C",
"*5 c #3B291E",
"*6 c #3B2A1D",
"*7 c #3B2A1F",
"*8 c #3B2A20",
"*9 c #3B2B1E",
"*: c #3B2B1F",
"*; c #3B2B21",
"*< c #3B2C20",
"*= c #3B2D21",
"*> c #3C2117",
"*? c #3C2218",
"*@ c #3C2318",
"*A c #3C2418",
"*B c #3C2419",
"*C c #3C241A",
"*D c #3C2519",
"*E c #3C251B",
"*F c #3C251C",
"*G c #3C261A",
"*H c #3C261B",
"*I c #3C261C",
"*J c #3C261D",
"*K c #3C261E",
"*L c #3C2719",
"*M c #3C271B",
"*N c #3C271C",
"*O c #3C271D",
"*P c #3C271E",
"*Q c #3C271F",
"*R c #3C281B",
"*S c #3C281C",
"*T c #3C281D",
"*U c #3C281E",
"*V c #3C281F",
"*W c #3C2820",
"*X c #3C291B",
"*Y c #3C291C",
"*Z c #3C291E",
"*[ c #3C291F",
"*] c #3C2920",
"*^ c #3C2921",
"*_ c #3C2922",
"*` c #3C2A1D",
"*a c #3C2A1F",
"*b c #3C2A20",
"*c c #3C2A21",
"*d c #3C2B1C",
"*e c #3C2B1E",
"*f c #3C2B1F",
"*g c #3C2B21",
"*h c #3C2B22",
"*i c #3C2C1E",
"*j c #3C2C1F",
"*k c #3C2C20",
"*l c #3C2C21",
"*m c #3D2217",
"*n c #3D2218",
"*o c #3D231A",
"*p c #3D2418",
"*q c #3D241A",
"*r c #3D241B",
"*s c #3D241C",
"*t c #3D241D",
"*u c #3D2519",
"*v c #3D251A",
"*w c #3D251B",
"*x c #3D261A",
"*y c #3D261B",
"*z c #3D261D",
"*{ c #3D261E",
"*| c #3D271A",
"*} c #3D271B",
"*~ c #3D271C",
"+! c #3D271D",
"+# c #3D271E",
"+$ c #3D271F",
"+% c #3D281A",
"+& c #3D281C",
"+' c #3D281E",
"+( c #3D281F",
"+) c #3D2820",
"+* c #3D2821",
"++ c #3D291E",
"+, c #3D291F",
"+- c #3D2920",
"+. c #3D2921",
"+/ c #3D2A1C",
"+0 c #3D2A1D",
"+1 c #3D2A1F",
"+2 c #3D2A20",
"+3 c #3D2A23",
"+4 c #3D2B1C",
"+5 c #3D2B1F",
"+6 c #3D2B20",
"+7 c #3D2B21",
"+8 c #3D2B22",
"+9 c #3D2C1E",
"+: c #3D2D1F",
"+; c #3D2D21",
"+< c #3D2D23",
"+= c #3D2E1F",
"+> c #3D2E23",
"+? c #3D3024",
"+@ c #3E2418",
"+A c #3E241A",
"+B c #3E2519",
"+C c #3E251B",
"+D c #3E2618",
"+E c #3E261A",
"+F c #3E261B",
"+G c #3E261D",
"+H c #3E261E",
"+I c #3E271B",
"+J c #3E271C",
"+K c #3E271D",
"+L c #3E271E",
"+M c #3E271F",
"+N c #3E281B",
"+O c #3E281C",
"+P c #3E281D",
"+Q c #3E281E",
"+R c #3E281F",
"+S c #3E2820",
"+T c #3E291A",
"+U c #3E291B",
"+V c #3E291C",
"+W c #3E291E",
"+X c #3E291F",
"+Y c #3E2A1B",
"+Z c #3E2A1E",
"+[ c #3E2A1F",
"+] c #3E2A20",
"+^ c #3E2A21",
"+_ c #3E2A22",
"+` c #3E2B1D",
"+a c #3E2B1E",
"+b c #3E2B1F",
"+c c #3E2B20",
"+d c #3E2C1D",
"+e c #3E2C1E",
"+f c #3E2C1F",
"+g c #3E2C22",
"+h c #3E2D1E",
"+i c #3E2D1F",
"+j c #3E2D20",
"+k c #3E2D21",
"+l c #3E2D22",
"+m c #3E2E1E",
"+n c #3E2E22",
"+o c #3E2E24",
"+p c #3E2F23",
"+q c #3E3126",
"+r c #3F2317",
"+s c #3F2416",
"+t c #3F2419",
"+u c #3F2519",
"+v c #3F251A",
"+w c #3F251B",
"+x c #3F251C",
"+y c #3F251E",
"+z c #3F2619",
"+{ c #3F261A",
"+| c #3F261B",
"+} c #3F261D",
"+~ c #3F271A",
",! c #3F271B",
",# c #3F271C",
",$ c #3F271D",
",% c #3F2720",
",& c #3F2819",
",' c #3F281B",
",( c #3F281C",
",) c #3F281D",
",* c #3F281E",
",+ c #3F281F",
",, c #3F2820",
",- c #3F291B",
",. c #3F291C",
",/ c #3F291D",
",0 c #3F291E",
",1 c #3F291F",
",2 c #3F2920",
",3 c #3F2921",
",4 c #3F2A1D",
",5 c #3F2A1E",
",6 c #3F2A1F",
",7 c #3F2A20",
",8 c #3F2A22",
",9 c #3F2B1D",
",: c #3F2B1E",
",; c #3F2B20",
",< c #3F2B21",
",= c #3F2B22",
",> c #3F2C1E",
",? c #3F2C1F",
",@ c #3F2C23",
",A c #3F2D1E",
",B c #3F2D20",
",C c #3F2D21",
",D c #3F2D22",
",E c #3F2E1F",
",F c #3F2E20",
",G c #3F2E22",
",H c #3F2E24",
",I c #3F2F23",
",J c #3F3023",
",K c #402217",
",L c #402419",
",M c #40251A",
",N c #40251B",
",O c #402619",
",P c #40261A",
",Q c #40261D",
",R c #402621",
",S c #402719",
",T c #40271D",
",U c #40281B",
",V c #40281C",
",W c #40281D",
",X c #402820",
",Y c #40291B",
",Z c #40291D",
",[ c #40291E",
",] c #40291F",
",^ c #402A1C",
",_ c #402A1E",
",` c #402A1F",
",a c #402A21",
",b c #402B1D",
",c c #402B1E",
",d c #402B1F",
",e c #402B20",
",f c #402B21",
",g c #402C1E",
",h c #402C1F",
",i c #402C20",
",j c #402C21",
",k c #402C22",
",l c #402C23",
",m c #402C24",
",n c #402D20",
",o c #402D21",
",p c #402D22",
",q c #402D23",
",r c #402E20",
",s c #402E23",
",t c #402E24",
",u c #402F20",
",v c #402F23",
",w c #403022",
",x c #40311F",
",y c #403125",
",z c #412419",
",{ c #412519",
",| c #41251B",
",} c #41261B",
",~ c #41261D",
"-! c #412620",
"-# c #41271B",
"-$ c #41271C",
"-% c #41271D",
"-& c #41271E",
"-' c #41281C",
"-( c #41281D",
"-) c #41281E",
"-* c #412820",
"-+ c #41291B",
"-, c #41291C",
"-- c #41291D",
"-. c #41291E",
"-/ c #41291F",
"-0 c #412920",
"-1 c #412A1D",
"-2 c #412A1F",
"-3 c #412A20",
"-4 c #412A21",
"-5 c #412B1C",
"-6 c #412B1D",
"-7 c #412B1E",
"-8 c #412B1F",
"-9 c #412B20",
"-: c #412B21",
"-; c #412B24",
"-< c #412C1F",
"-= c #412C20",
"-> c #412C21",
"-? c #412D1E",
"-@ c #412D1F",
"-A c #412D20",
"-B c #412D21",
"-C c #412D22",
"-D c #412D23",
"-E c #412D25",
"-F c #412E1E",
"-G c #412E1F",
"-H c #412E21",
"-I c #412E22",
"-J c #412E25",
"-K c #412F20",
"-L c #412F21",
"-M c #412F22",
"-N c #412F25",
"-O c #412F26",
"-P c #413024",
"-Q c #413025",
"-R c #413128",
"-S c #413129",
"-T c #413226",
"-U c #413229",
"-V c #422419",
"-W c #422519",
"-X c #42251A",
"-Y c #42251C",
"-Z c #42261A",
"-[ c #42261C",
"-] c #42271B",
"-^ c #42281A",
"-_ c #42281B",
"-` c #42281C",
"-a c #42281D",
"-b c #422820",
"-c c #422821",
"-d c #42291B",
"-e c #42291D",
"-f c #42291E",
"-g c #42291F",
"-h c #422A1D",
"-i c #422A1E",
"-j c #422A1F",
"-k c #422A20",
"-l c #422A21",
"-m c #422B1D",
"-n c #422B1E",
"-o c #422B1F",
"-p c #422B20",
"-q c #422B21",
"-r c #422B22",
"-s c #422C1B",
"-t c #422C1C",
"-u c #422C1F",
"-v c #422C20",
"-w c #422C21",
"-x c #422C22",
"-y c #422D1F",
"-z c #422D21",
"-{ c #422D24",
"-| c #422E1E",
"-} c #422E1F",
"-~ c #422E22",
".! c #422E23",
".# c #422E24",
".$ c #422E25",
".% c #422F22",
".& c #422F23",
".' c #422F25",
".( c #422F26",
".) c #423022",
".* c #423023",
".+ c #423024",
"., c #423025",
".- c #423026",
".. c #43271D",
"./ c #43281A",
".0 c #43281E",
".1 c #43291C",
".2 c #43291D",
".3 c #432920",
".4 c #432A1D",
".5 c #432A1E",
".6 c #432A1F",
".7 c #432A21",
".8 c #432B1C",
".9 c #432B1D",
".: c #432B1E",
".; c #432B20",
".< c #432C1E",
".= c #432C1F",
".> c #432C20",
".? c #432C21",
".@ c #432C23",
".A c #432D1D",
".B c #432D1F",
".C c #432D20",
".D c #432D21",
".E c #432E1E",
".F c #432E1F",
".G c #432E20",
".H c #432E21",
".I c #432E24",
".J c #432F1F",
".K c #432F22",
".L c #432F23",
".M c #432F24",
".N c #432F26",
".O c #433020",
".P c #433023",
".Q c #433024",
".R c #433025",
".S c #433127",
".T c #433223",
".U c #433326",
".V c #442618",
".W c #44271B",
".X c #44271C",
".Y c #44281B",
".Z c #44281E",
".[ c #44281F",
".] c #44291D",
".^ c #44291E",
"._ c #44291F",
".` c #442A1B",
".a c #442A1C",
".b c #442A1D",
".c c #442A1F",
".d c #442A20",
".e c #442A21",
".f c #442B1D",
".g c #442B1E",
".h c #442B1F",
".i c #442B25",
".j c #442C1D",
".k c #442C1E",
".l c #442C1F",
".m c #442C22",
".n c #442D1D",
".o c #442D1F",
".p c #442D20",
".q c #442D21",
".r c #442D24",
".s c #442D26",
".t c #442E1E",
".u c #442E1F",
".v c #442E21",
".w c #442E22",
".x c #442E23",
".y c #442F21",
".z c #442F23",
".{ c #442F24",
".| c #442F25",
".} c #442F26",
".~ c #443022",
"/! c #443023",
"/# c #443024",
"/$ c #45271D",
"/% c #45281B",
"/& c #45281F",
"/' c #452820",
"/( c #45291C",
"/) c #45291D",
"/* c #452920",
"/+ c #452921",
"/, c #452A1A",
"/- c #452A1D",
"/. c #452A1E",
"// c #452A1F",
"/0 c #452A20",
"/1 c #452A21",
"/2 c #452B1D",
"/3 c #452B1E",
"/4 c #452B1F",
"/5 c #452B20",
"/6 c #452B21",
"/7 c #452B22",
"/8 c #452C1C",
"/9 c #452C1E",
"/: c #452C20",
"/; c #452C21",
"/< c #452D1E",
"/= c #452D1F",
"/> c #452D20",
"/? c #452D21",
"/@ c #452D22",
"/A c #452E1F",
"/B c #452E20",
"/C c #452E22",
"/D c #452E23",
"/E c #452E24",
"/F c #452E25",
"/G c #452F21",
"/H c #452F22",
"/I c #452F23",
"/J c #452F24",
"/K c #453022",
"/L c #453023",
"/M c #453120",
"/N c #453223",
"/O c #453224",
"/P c #453228",
"/Q c #453328",
"/R c #46271B",
"/S c #46281A",
"/T c #46281C",
"/U c #46281D",
"/V c #46291D",
"/W c #46291E",
"/X c #462A1E",
"/Y c #462A21",
"/Z c #462B1E",
"/[ c #462B1F",
"/] c #462B20",
"/^ c #462B24",
"/_ c #462C1E",
"/` c #462C1F",
"/a c #462C20",
"/b c #462C21",
"/c c #462C22",
"/d c #462C23",
"/e c #462D1D",
"/f c #462D20",
"/g c #462D21",
"/h c #462D22",
"/i c #462D23",
"/j c #462E1F",
"/k c #462E20",
"/l c #462E21",
"/m c #462E24",
"/n c #462F20",
"/o c #462F21",
"/p c #462F22",
"/q c #462F23",
"/r c #462F26",
"/s c #463023",
"/t c #463024",
"/u c #463025",
"/v c #463027",
"/w c #463121",
"/x c #463127",
"/y c #463221",
"/z c #463226",
"/{ c #463227",
"/| c #463324",
"/} c #463326",
"/~ c #47261B",
"0! c #47291F",
"0# c #472A1E",
"0$ c #472B1C",
"0% c #472B1E",
"0& c #472B1F",
"0' c #472B22",
"0( c #472B23",
"0) c #472C1C",
"0* c #472C1D",
"0+ c #472C1F",
"0, c #472C20",
"0- c #472C21",
"0. c #472D1F",
"0/ c #472D21",
"00 c #472D22",
"01 c #472D24",
"02 c #472D25",
"03 c #472D26",
"04 c #472E1D",
"05 c #472E20",
"06 c #472E23",
"07 c #472E25",
"08 c #472F20",
"09 c #472F21",
"0: c #472F25",
"0; c #472F26",
"0< c #473021",
"0= c #473023",
"0> c #473024",
"0? c #473025",
"0@ c #473027",
"0A c #473028",
"0B c #473123",
"0C c #473124",
"0D c #473126",
"0E c #473127",
"0F c #47321F",
"0G c #473223",
"0H c #473225",
"0I c #473226",
"0J c #473229",
"0K c #47322A",
"0L c #473322",
"0M c #473326",
"0N c #473422",
"0O c #473424",
"0P c #473427",
"0Q c #473525",
"0R c #482619",
"0S c #48281E",
"0T c #48291D",
"0U c #482A1E",
"0V c #482A1F",
"0W c #482B1C",
"0X c #482B1D",
"0Y c #482B1F",
"0Z c #482B20",
"0[ c #482C1D",
"0] c #482C1F",
"0^ c #482D1E",
"0_ c #482D1F",
"0` c #482D20",
"0a c #482D21",
"0b c #482D22",
"0c c #482D23",
"0d c #482E1E",
"0e c #482E1F",
"0f c #482E20",
"0g c #482E21",
"0h c #482E22",
"0i c #482E24",
"0j c #482E25",
"0k c #482F1F",
"0l c #482F20",
"0m c #482F21",
"0n c #482F23",
"0o c #482F24",
"0p c #482F25",
"0q c #483021",
"0r c #483022",
"0s c #483023",
"0t c #483024",
"0u c #483121",
"0v c #483122",
"0w c #483123",
"0x c #483128",
"0y c #483220",
"0z c #483222",
"0{ c #483225",
"0| c #483226",
"0} c #483324",
"0~ c #483327",
"1! c #483328",
"1# c #483423",
"1$ c #483424",
"1% c #483425",
"1& c #483525",
"1' c #48352A",
"1( c #49281E",
"1) c #492922",
"1* c #492A1D",
"1+ c #492A1F",
"1, c #492B1E",
"1- c #492C1D",
"1. c #492C1E",
"1/ c #492C20",
"10 c #492C22",
"11 c #492D1D",
"12 c #492D1F",
"13 c #492D20",
"14 c #492D22",
"15 c #492E21",
"16 c #492E22",
"17 c #492E25",
"18 c #492F21",
"19 c #492F22",
"1: c #492F23",
"1; c #492F24",
"1< c #493020",
"1= c #493021",
"1> c #493023",
"1? c #493025",
"1@ c #493026",
"1A c #49311F",
"1B c #493123",
"1C c #493124",
"1D c #493126",
"1E c #493220",
"1F c #493221",
"1G c #493222",
"1H c #493223",
"1I c #493224",
"1J c #493227",
"1K c #493228",
"1L c #493321",
"1M c #493323",
"1N c #493325",
"1O c #493326",
"1P c #493327",
"1Q c #493427",
"1R c #49342C",
"1S c #493522",
"1T c #493524",
"1U c #493527",
"1V c #493627",
"1W c #49362A",
"1X c #49382E",
"1Y c #493928",
"1Z c #4A2A1F",
"1[ c #4A2B1C",
"1] c #4A2B1D",
"1^ c #4A2B1E",
"1_ c #4A2B1F",
"1` c #4A2B20",
"1a c #4A2C1F",
"1b c #4A2D1E",
"1c c #4A2D1F",
"1d c #4A2D20",
"1e c #4A2D21",
"1f c #4A2D23",
"1g c #4A2E1F",
"1h c #4A2E20",
"1i c #4A2E21",
"1j c #4A2E22",
"1k c #4A2F1E",
"1l c #4A2F21",
"1m c #4A2F22",
"1n c #4A2F23",
"1o c #4A2F26",
"1p c #4A3020",
"1q c #4A3021",
"1r c #4A3022",
"1s c #4A3023",
"1t c #4A3024",
"1u c #4A3025",
"1v c #4A3122",
"1w c #4A3123",
"1x c #4A3124",
"1y c #4A3125",
"1z c #4A3126",
"1{ c #4A3128",
"1| c #4A3221",
"1} c #4A3223",
"1~ c #4A3224",
"2! c #4A3225",
"2# c #4A3226",
"2$ c #4A3227",
"2% c #4A3228",
"2& c #4A322A",
"2' c #4A3320",
"2( c #4A3322",
"2) c #4A3323",
"2* c #4A3325",
"2+ c #4A3326",
"2, c #4A3327",
"2- c #4A3328",
"2. c #4A3423",
"2/ c #4A3426",
"20 c #4A3526",
"21 c #4A3527",
"22 c #4A3626",
"23 c #4A3723",
"24 c #4A3728",
"25 c #4A3A29",
"26 c #4B281C",
"27 c #4B2D20",
"28 c #4B2D22",
"29 c #4B2E1E",
"2: c #4B2E21",
"2; c #4B2E22",
"2< c #4B2E23",
"2= c #4B2E24",
"2> c #4B2F21",
"2? c #4B2F23",
"2@ c #4B2F26",
"2A c #4B301E",
"2B c #4B3020",
"2C c #4B3021",
"2D c #4B3022",
"2E c #4B3023",
"2F c #4B3122",
"2G c #4B3123",
"2H c #4B3124",
"2I c #4B3127",
"2J c #4B3221",
"2K c #4B3222",
"2L c #4B3223",
"2M c #4B3224",
"2N c #4B3323",
"2O c #4B3325",
"2P c #4B3326",
"2Q c #4B3327",
"2R c #4B3328",
"2S c #4B3420",
"2T c #4B3626",
"2U c #4B3628",
"2V c #4B362B",
"2W c #4B372D",
"2X c #4C2C1F",
"2Y c #4C2D1E",
"2Z c #4C2D1F",
"2[ c #4C2D21",
"2] c #4C2E22",
"2^ c #4C2E23",
"2_ c #4C2F1D",
"2` c #4C2F20",
"2a c #4C2F23",
"2b c #4C2F24",
"2c c #4C3021",
"2d c #4C3023",
"2e c #4C3024",
"2f c #4C3025",
"2g c #4C3026",
"2h c #4C3122",
"2i c #4C3123",
"2j c #4C3125",
"2k c #4C3127",
"2l c #4C3128",
"2m c #4C3220",
"2n c #4C3222",
"2o c #4C3224",
"2p c #4C3228",
"2q c #4C3229",
"2r c #4C3323",
"2s c #4C3324",
"2t c #4C3325",
"2u c #4C3326",
"2v c #4C3328",
"2w c #4C3424",
"2x c #4C3426",
"2y c #4C3427",
"2z c #4C3428",
"2{ c #4C3524",
"2| c #4C3525",
"2} c #4C3528",
"2~ c #4C3529",
"3! c #4C3625",
"3# c #4C3626",
"3$ c #4C3628",
"3% c #4C3629",
"3& c #4C3728",
"3' c #4C382A",
"3( c #4C382B",
"3) c #4C3A2A",
"3* c #4D2B1F",
"3+ c #4D2D1F",
"3, c #4D2D20",
"3- c #4D2D21",
"3. c #4D2D22",
"3/ c #4D2E1E",
"30 c #4D2E25",
"31 c #4D2F1F",
"32 c #4D2F20",
"33 c #4D2F22",
"34 c #4D2F25",
"35 c #4D2F27",
"36 c #4D3021",
"37 c #4D311F",
"38 c #4D3122",
"39 c #4D3123",
"3: c #4D3124",
"3; c #4D3127",
"3< c #4D3222",
"3= c #4D3223",
"3> c #4D3224",
"3? c #4D3225",
"3@ c #4D331E",
"3A c #4D3323",
"3B c #4D3324",
"3C c #4D3326",
"3D c #4D3327",
"3E c #4D3329",
"3F c #4D3426",
"3G c #4D3428",
"3H c #4D342A",
"3I c #4D3521",
"3J c #4D3523",
"3K c #4D3524",
"3L c #4D3525",
"3M c #4D3526",
"3N c #4D3527",
"3O c #4D3529",
"3P c #4D3625",
"3Q c #4D3626",
"3R c #4D3627",
"3S c #4D362B",
"3T c #4D3727",
"3U c #4D3728",
"3V c #4D3729",
"3W c #4D3828",
"3X c #4D3928",
"3Y c #4E2B1E",
"3Z c #4E2C20",
"3[ c #4E2C21",
"3] c #4E2D20",
"3^ c #4E2E1F",
"3_ c #4E3021",
"3` c #4E3022",
"3a c #4E3023",
"3b c #4E3024",
"3c c #4E3025",
"3d c #4E3121",
"3e c #4E3123",
"3f c #4E3124",
"3g c #4E3125",
"3h c #4E3222",
"3i c #4E3223",
"3j c #4E3224",
"3k c #4E3225",
"3l c #4E3226",
"3m c #4E3321",
"3n c #4E3323",
"3o c #4E3324",
"3p c #4E3325",
"3q c #4E3327",
"3r c #4E3328",
"3s c #4E3424",
"3t c #4E3425",
"3u c #4E3426",
"3v c #4E3427",
"3w c #4E3527",
"3x c #4E3529",
"3y c #4E352A",
"3z c #4E3624",
"3{ c #4E3626",
"3| c #4E3629",
"3} c #4E362B",
"3~ c #4E3726",
"4! c #4E3727",
"4# c #4E3728",
"4$ c #4E3729",
"4% c #4E372A",
"4& c #4E3825",
"4' c #4E3828",
"4( c #4E3A27",
"4) c #4E3A2B",
"4* c #4E3C2F",
"4+ c #4F2F22",
"4, c #4F301F",
"4- c #4F3020",
"4. c #4F3023",
"4/ c #4F311F",
"40 c #4F3122",
"41 c #4F3123",
"42 c #4F3128",
"43 c #4F3220",
"44 c #4F3224",
"45 c #4F3225",
"46 c #4F3226",
"47 c #4F322A",
"48 c #4F3321",
"49 c #4F3324",
"4: c #4F3325",
"4; c #4F3326",
"4< c #4F3424",
"4= c #4F3425",
"4> c #4F3426",
"4? c #4F3429",
"4@ c #4F3524",
"4A c #4F3525",
"4B c #4F3527",
"4C c #4F352B",
"4D c #4F3624",
"4E c #4F3626",
"4F c #4F3627",
"4G c #4F3629",
"4H c #4F362A",
"4I c #4F3726",
"4J c #4F3727",
"4K c #4F3728",
"4L c #4F372B",
"4M c #4F3928",
"4N c #4F3929",
"4O c #4F392B",
"4P c #4F3A2F",
"4Q c #502D1E",
"4R c #502D21",
"4S c #502E1F",
"4T c #502E22",
"4U c #502F1E",
"4V c #502F20",
"4W c #502F21",
"4X c #502F23",
"4Y c #502F27",
"4Z c #503022",
"4[ c #503023",
"4] c #503025",
"4^ c #503122",
"4_ c #503123",
"4` c #503125",
"4a c #503221",
"4b c #503223",
"4c c #503225",
"4d c #503226",
"4e c #503227",
"4f c #503320",
"4g c #503323",
"4h c #503324",
"4i c #503325",
"4j c #503421",
"4k c #503525",
"4l c #503526",
"4m c #503527",
"4n c #503528",
"4o c #503624",
"4p c #503625",
"4q c #503626",
"4r c #503628",
"4s c #503629",
"4t c #503724",
"4u c #503726",
"4v c #503727",
"4w c #503825",
"4x c #503826",
"4y c #50382A",
"4z c #50392A",
"4{ c #503A2E",
"4| c #503B29",
"4} c #503C29",
"4~ c #512C1B",
"5! c #512D1F",
"5# c #512D20",
"5$ c #512D22",
"5% c #512E1F",
"5& c #512F1F",
"5' c #512F20",
"5( c #51301F",
"5) c #513021",
"5* c #51311E",
"5+ c #513122",
"5, c #513123",
"5- c #513221",
"5. c #513222",
"5/ c #513223",
"50 c #513224",
"51 c #513228",
"52 c #513326",
"53 c #513328",
"54 c #513420",
"55 c #513423",
"56 c #513424",
"57 c #513425",
"58 c #513426",
"59 c #513428",
"5: c #513524",
"5; c #513526",
"5< c #513528",
"5= c #51352A",
"5> c #513624",
"5? c #513626",
"5@ c #513725",
"5A c #513726",
"5B c #513828",
"5C c #513829",
"5D c #51382A",
"5E c #51392C",
"5F c #513A2D",
"5G c #513B2A",
"5H c #513C28",
"5I c #513D2D",
"5J c #522F1F",
"5K c #522F25",
"5L c #523021",
"5M c #523023",
"5N c #523024",
"5O c #523225",
"5P c #523226",
"5Q c #523326",
"5R c #523328",
"5S c #52332A",
"5T c #523421",
"5U c #523424",
"5V c #523427",
"5W c #523429",
"5X c #523523",
"5Y c #523524",
"5Z c #523526",
"5[ c #523527",
"5] c #523528",
"5^ c #523529",
"5_ c #523624",
"5` c #523625",
"5a c #523627",
"5b c #523628",
"5c c #523629",
"5d c #52362C",
"5e c #523722",
"5f c #523729",
"5g c #52372A",
"5h c #52372B",
"5i c #523823",
"5j c #523826",
"5k c #523827",
"5l c #523828",
"5m c #523829",
"5n c #52382A",
"5o c #523924",
"5p c #52392D",
"5q c #523A28",
"5r c #523A2B",
"5s c #523A2C",
"5t c #523B25",
"5u c #523B29",
"5v c #523B2A",
"5w c #523B2C",
"5x c #523B2E",
"5y c #523C2E",
"5z c #532F20",
"5{ c #53301F",
"5| c #533021",
"5} c #533125",
"5~ c #533222",
"6! c #533224",
"6# c #533225",
"6$ c #533322",
"6% c #533323",
"6& c #533325",
"6' c #533327",
"6( c #533422",
"6) c #533423",
"6* c #533522",
"6+ c #533526",
"6, c #533527",
"6- c #533529",
"6. c #533624",
"6/ c #533626",
"60 c #533628",
"61 c #533629",
"62 c #53362A",
"63 c #533721",
"64 c #533724",
"65 c #533727",
"66 c #533728",
"67 c #533729",
"68 c #53372B",
"69 c #533829",
"6: c #53382C",
"6; c #533924",
"6< c #533926",
"6= c #533929",
"6> c #533934",
"6? c #533A2A",
"6@ c #533A2B",
"6A c #533A2D",
"6B c #533A2E",
"6C c #533B2A",
"6D c #533B2C",
"6E c #533C28",
"6F c #533C29",
"6G c #533C2C",
"6H c #533C2D",
"6I c #533D26",
"6J c #533E2D",
"6K c #533E2F",
"6L c #542E23",
"6M c #543021",
"6N c #543223",
"6O c #543224",
"6P c #543322",
"6Q c #543323",
"6R c #543325",
"6S c #543424",
"6T c #543425",
"6U c #543426",
"6V c #543427",
"6W c #543428",
"6X c #543523",
"6Y c #543525",
"6Z c #543526",
"6[ c #543527",
"6] c #543528",
"6^ c #543626",
"6_ c #543629",
"6` c #54362A",
"6a c #54362C",
"6b c #543725",
"6c c #543727",
"6d c #543728",
"6e c #543823",
"6f c #543826",
"6g c #543827",
"6h c #543829",
"6i c #54382A",
"6j c #54382C",
"6k c #543926",
"6l c #543927",
"6m c #54392A",
"6n c #54392C",
"6o c #543930",
"6p c #543A25",
"6q c #543A2B",
"6r c #543A2C",
"6s c #543A2E",
"6t c #543B2A",
"6u c #543B2D",
"6v c #543B2F",
"6w c #543C2A",
"6x c #543C2C",
"6y c #543E2C",
"6z c #543E30",
"6{ c #55301F",
"6| c #553125",
"6} c #553224",
"6~ c #553225",
"7! c #553226",
"7# c #553323",
"7$ c #553326",
"7% c #553423",
"7& c #553425",
"7' c #553426",
"7( c #553524",
"7) c #553526",
"7* c #553527",
"7+ c #553629",
"7, c #553728",
"7- c #553824",
"7. c #553826",
"7/ c #553828",
"70 c #553829",
"71 c #553927",
"72 c #553928",
"73 c #553929",
"74 c #55392D",
"75 c #553A2B",
"76 c #553A2C",
"77 c #553B29",
"78 c #553C29",
"79 c #553C2C",
"7: c #553D29",
"7; c #553E2E",
"7< c #554027",
"7= c #563120",
"7> c #563122",
"7? c #563323",
"7@ c #563324",
"7A c #563327",
"7B c #563423",
"7C c #563425",
"7D c #563426",
"7E c #563524",
"7F c #563526",
"7G c #563527",
"7H c #563624",
"7I c #563627",
"7J c #563629",
"7K c #56362A",
"7L c #563725",
"7M c #563727",
"7N c #56372A",
"7O c #563824",
"7P c #563826",
"7Q c #563827",
"7R c #563828",
"7S c #56382A",
"7T c #563927",
"7U c #563928",
"7V c #56392A",
"7W c #563A27",
"7X c #563A29",
"7Y c #563A2C",
"7Z c #563A30",
"7[ c #563B29",
"7] c #563B2B",
"7^ c #563B2C",
"7_ c #563B2D",
"7` c #563B2E",
"7a c #563C2F",
"7b c #563D2A",
"7c c #563D2C",
"7d c #563F2D",
"7e c #563F33",
"7f c #564231",
"7g c #573121",
"7h c #573222",
"7i c #573225",
"7j c #573323",
"7k c #573325",
"7l c #573326",
"7m c #573327",
"7n c #573429",
"7o c #573525",
"7p c #573526",
"7q c #573527",
"7r c #573528",
"7s c #573626",
"7t c #573627",
"7u c #57362A",
"7v c #573726",
"7w c #573727",
"7x c #573728",
"7y c #573826",
"7z c #573827",
"7{ c #573927",
"7| c #57392A",
"7} c #57392B",
"7~ c #57392E",
"8! c #573A2A",
"8# c #573A2B",
"8$ c #573A2C",
"8% c #573B27",
"8& c #573B29",
"8' c #573B2A",
"8( c #573C2A",
"8) c #573D28",
"8* c #573D29",
"8+ c #573E29",
"8, c #573E2E",
"8- c #573F29",
"8. c #573F2D",
"8/ c #57412D",
"80 c #57422F",
"81 c #574232",
"82 c #583120",
"83 c #583122",
"84 c #583224",
"85 c #583422",
"86 c #583424",
"87 c #583425",
"88 c #583426",
"89 c #583526",
"8: c #583623",
"8; c #583626",
"8< c #583627",
"8= c #583725",
"8> c #583727",
"8? c #583729",
"8@ c #58372A",
"8A c #583827",
"8B c #583828",
"8C c #583829",
"8D c #58382C",
"8E c #583929",
"8F c #58392C",
"8G c #583A25",
"8H c #583A27",
"8I c #583A29",
"8J c #583A2A",
"8K c #583A2B",
"8L c #583A2D",
"8M c #583B28",
"8N c #583B2A",
"8O c #583B2B",
"8P c #583B2C",
"8Q c #583C2D",
"8R c #583C2F",
"8S c #583C32",
"8T c #583D2B",
"8U c #583D2E",
"8V c #583D31",
"8W c #583F2C",
"8X c #583F30",
"8Y c #593221",
"8Z c #593224",
"8[ c #593523",
"8] c #593528",
"8^ c #593529",
"8_ c #59352A",
"8` c #593624",
"8a c #593628",
"8b c #593726",
"8c c #59372A",
"8d c #593829",
"8e c #59382A",
"8f c #59382B",
"8g c #59382D",
"8h c #59392C",
"8i c #593A2C",
"8j c #593B2A",
"8k c #593B2C",
"8l c #593B2D",
"8m c #593B2E",
"8n c #593C28",
"8o c #593C2D",
"8p c #593C2E",
"8q c #593D28",
"8r c #593D2D",
"8s c #593D30",
"8t c #593E28",
"8u c #593E2E",
"8v c #593E32",
"8w c #593F2B",
"8x c #593F2E",
"8y c #593F30",
"8z c #594130",
"8{ c #594131",
"8| c #59442C",
"8} c #5A3421",
"8~ c #5A3428",
"9! c #5A3626",
"9# c #5A3627",
"9$ c #5A372A",
"9% c #5A3829",
"9& c #5A3928",
"9' c #5A392B",
"9( c #5A3A25",
"9) c #5A3A29",
"9* c #5A3B2D",
"9+ c #5A3B2E",
"9, c #5A3C29",
"9- c #5A3C2C",
"9. c #5A3C2E",
"9/ c #5A3D28",
"90 c #5A3D2C",
"91 c #5A3D2E",
"92 c #5A3D2F",
"93 c #5A3E2F",
"94 c #5A3F2E",
"95 c #5A3F32",
"96 c #5A402F",
"97 c #5B3124",
"98 c #5B3425",
"99 c #5B3624",
"9: c #5B3627",
"9; c #5B3628",
"9< c #5B3629",
"9= c #5B3724",
"9> c #5B3728",
"9? c #5B3729",
"9@ c #5B372A",
"9A c #5B3827",
"9B c #5B3828",
"9C c #5B382B",
"9D c #5B382C",
"9E c #5B3926",
"9F c #5B3928",
"9G c #5B3929",
"9H c #5B392A",
"9I c #5B392B",
"9J c #5B3A25",
"9K c #5B3A29",
"9L c #5B3A2B",
"9M c #5B3A2F",
"9N c #5B3B2F",
"9O c #5B3C2E",
"9P c #5B3C31",
"9Q c #5B3D2B",
"9R c #5B3D2D",
"9S c #5B3E2B",
"9T c #5B3E2C",
"9U c #5B3E2D",
"9V c #5B3E2F",
"9W c #5B3E31",
"9X c #5B3F2D",
"9Y c #5B3F2F",
"9Z c #5B3F30",
"9[ c #5B402C",
"9] c #5B402D",
"9^ c #5B4130",
"9_ c #5B4234",
"9` c #5B4C3C",
"9a c #5C3422",
"9b c #5C3425",
"9c c #5C3624",
"9d c #5C3627",
"9e c #5C3629",
"9f c #5C3729",
"9g c #5C3824",
"9h c #5C3827",
"9i c #5C3828",
"9j c #5C3927",
"9k c #5C3928",
"9l c #5C3A24",
"9m c #5C3A27",
"9n c #5C3A28",
"9o c #5C3B2C",
"9p c #5C3C2A",
"9q c #5C3C2B",
"9r c #5C3C2D",
"9s c #5C3C2F",
"9t c #5C3D29",
"9u c #5C3D2B",
"9v c #5C3E2A",
"9w c #5C3E2B",
"9x c #5C3E2F",
"9y c #5C3E34",
"9z c #5C3F2B",
"9{ c #5C3F2F",
"9| c #5C3F34",
"9} c #5C402F",
"9~ c #5C412C",
":! c #5C4132",
":# c #5C422F",
":$ c #5C4230",
":% c #5C4231",
":& c #5C452C",
":' c #5C4530",
":( c #5D3623",
":) c #5D372A",
":* c #5D3823",
":+ c #5D3827",
":, c #5D382A",
":- c #5D3924",
":. c #5D3928",
":/ c #5D392B",
":0 c #5D392C",
":1 c #5D3A29",
":2 c #5D3A2A",
":3 c #5D3B29",
":4 c #5D3C2C",
":5 c #5D3D2A",
":6 c #5D3D2B",
":7 c #5D3D2D",
":8 c #5D3E2A",
":9 c #5D3E2C",
":: c #5D3E2E",
":; c #5D3E2F",
":< c #5D3E32",
":= c #5D3F2B",
":> c #5D3F2C",
":? c #5D3F33",
":@ c #5D402C",
":A c #5D4032",
":B c #5D4132",
":C c #5D4133",
":D c #5D422F",
":E c #5D4536",
":F c #5D4B2D",
":G c #5E3726",
":H c #5E3728",
":I c #5E3825",
":J c #5E392A",
":K c #5E392B",
":L c #5E3A27",
":M c #5E3A28",
":N c #5E3B28",
":O c #5E3B2B",
":P c #5E3B2C",
":Q c #5E3B2D",
":R c #5E3C29",
":S c #5E3C2C",
":T c #5E3C2E",
":U c #5E3C2F",
":V c #5E3D2B",
":W c #5E3D2C",
":X c #5E3D2D",
":Y c #5E3D2F",
":Z c #5E3E2A",
":[ c #5E3E2C",
":] c #5E3E2E",
":^ c #5E3F29",
":_ c #5E3F2D",
":` c #5E402C",
":a c #5E412D",
":b c #5E4131",
":c c #5E422D",
":d c #5E4231",
":e c #5E4A35",
":f c #5F3224",
":g c #5F3525",
":h c #5F3724",
":i c #5F3727",
":j c #5F3825",
":k c #5F3927",
":l c #5F392C",
":m c #5F3A27",
":n c #5F3A2B",
":o c #5F3C29",
":p c #5F3C2A",
":q c #5F3C2D",
":r c #5F3D2C",
":s c #5F3D31",
":t c #5F3F2A",
":u c #5F3F2E",
":v c #5F3F2F",
":w c #5F3F30",
":x c #5F402B",
":y c #5F402F",
":z c #5F4030",
":{ c #5F4033",
":| c #5F4132",
":} c #5F422F",
":~ c #5F4232",
";! c #5F4434",
";# c #5F4533",
";$ c #5F4831",
";% c #603622",
";& c #603625",
";' c #603725",
";( c #603826",
";) c #603828",
";* c #603928",
";+ c #603A28",
";, c #603A2D",
";- c #603B2A",
";. c #603C29",
";/ c #603C2A",
";0 c #603C2C",
";1 c #603D2B",
";2 c #603D2E",
";3 c #603E2A",
";4 c #603E2F",
";5 c #603F2E",
";6 c #603F2F",
";7 c #60402B",
";8 c #60402F",
";9 c #604031",
";: c #604230",
";; c #604331",
";< c #60442E",
";= c #604434",
";> c #613324",
";? c #613626",
";@ c #613726",
";A c #613A26",
";B c #613B2A",
";C c #613C27",
";D c #613C2F",
";E c #613D2B",
";F c #613D2D",
";G c #613D2E",
";H c #613F2A",
";I c #613F2F",
";J c #613F30",
";K c #61402E",
";L c #61402F",
";M c #61412F",
";N c #614130",
";O c #614131",
";P c #614232",
";Q c #614333",
";R c #614336",
";S c #614435",
";T c #614436",
";U c #623726",
";V c #623B26",
";W c #623B2B",
";X c #623C2B",
";Y c #623E2D",
";Z c #623F2C",
";[ c #623F2E",
";] c #623F2F",
";^ c #62402E",
";_ c #62402F",
";` c #62412C",
";a c #62412E",
";b c #62422E",
";c c #62422F",
";d c #62432F",
";e c #624332",
";f c #624333",
";g c #624530",
";h c #624633",
";i c #624734",
";j c #633828",
";k c #633B27",
";l c #633C29",
";m c #633C2E",
";n c #633D2B",
";o c #633D2C",
";p c #633E2B",
";q c #633E2C",
";r c #63402B",
";s c #63422F",
";t c #634231",
";u c #634332",
";v c #634334",
";w c #63442D",
";x c #63442F",
";y c #634431",
";z c #634433",
";{ c #634535",
";| c #634935",
";} c #634A33",
";~ c #634D3D",
"<! c #643929",
"<# c #643A2A",
"<$ c #643B28",
"<% c #643C28",
"<& c #643C2B",
"<' c #643D30",
"<( c #643E2B",
"<) c #643F2C",
"<* c #643F30",
"<+ c #64402B",
"<, c #64402D",
"<- c #644030",
"<. c #644032",
"</ c #644131",
"<0 c #64422D",
"<1 c #64432F",
"<2 c #644330",
"<3 c #644533",
"<4 c #644536",
"<5 c #644537",
"<6 c #644631",
"<7 c #64483B",
"<8 c #64493B",
"<9 c #644F42",
"<: c #645745",
"<; c #653729",
"<< c #653C29",
"<= c #653C2F",
"<> c #653D29",
"<? c #653D2A",
"<@ c #653D2B",
"<A c #653E2F",
"<B c #653E30",
"<C c #653F2A",
"<D c #653F2B",
"<E c #653F2E",
"<F c #65402D",
"<G c #65412D",
"<H c #65412F",
"<I c #65422F",
"<J c #65432F",
"<K c #654330",
"<L c #65442F",
"<M c #654435",
"<N c #654436",
"<O c #654532",
"<P c #654533",
"<Q c #654632",
"<R c #654637",
"<S c #654D3C",
"<T c #663A28",
"<U c #663D2A",
"<V c #663E2D",
"<W c #663E2E",
"<X c #663F2F",
"<Y c #66402C",
"<Z c #66402E",
"<[ c #66412B",
"<] c #66412D",
"<^ c #664130",
"<_ c #664233",
"<` c #664330",
"<a c #66442C",
"<b c #66442E",
"<c c #664533",
"<d c #66453B",
"<e c #664630",
"<f c #664734",
"<g c #664831",
"<h c #664A36",
"<i c #664A3B",
"<j c #664D45",
"<k c #673A25",
"<l c #673E2F",
"<m c #673F30",
"<n c #67402E",
"<o c #674132",
"<p c #67422F",
"<q c #674230",
"<r c #674535",
"<s c #674538",
"<t c #674633",
"<u c #674736",
"<v c #674833",
"<w c #674935",
"<x c #675742",
"<y c #683928",
"<z c #683929",
"<{ c #683A2A",
"<| c #683C28",
"<} c #683C29",
"<~ c #683E2A",
"=! c #683F2B",
"=# c #683F2D",
"=$ c #68402C",
"=% c #68412B",
"=& c #68412D",
"=' c #68412E",
"=( c #684134",
"=) c #684231",
"=* c #684431",
"=+ c #684432",
"=, c #68452D",
"=- c #68452F",
"=. c #684535",
"=/ c #684537",
"=0 c #684632",
"=1 c #684634",
"=2 c #684734",
"=3 c #684738",
"=4 c #684739",
"=5 c #684F3A",
"=6 c #693F31",
"=7 c #693F38",
"=8 c #69412C",
"=9 c #69422D",
"=: c #694333",
"=; c #694434",
"=< c #69462E",
"== c #694632",
"=> c #694635",
"=? c #694733",
"=@ c #694734",
"=A c #694E44",
"=B c #694F33",
"=C c #6A3925",
"=D c #6A3E2C",
"=E c #6A3E2D",
"=F c #6A3F2E",
"=G c #6A422B",
"=H c #6A4231",
"=I c #6A4232",
"=J c #6A4233",
"=K c #6A432D",
"=L c #6A4430",
"=M c #6A452F",
"=N c #6A4630",
"=O c #6A4631",
"=P c #6A4732",
"=Q c #6A473B",
"=R c #6A4835",
"=S c #6A4931",
"=T c #6A493F",
"=U c #6A4C36",
"=V c #6A4D3E",
"=W c #6B3D2B",
"=X c #6B3F2B",
"=Y c #6B412D",
"=Z c #6B432F",
"=[ c #6B4331",
"=] c #6B4443",
"=^ c #6B472F",
"=_ c #6B4735",
"=` c #6B4831",
"=a c #6B4935",
"=b c #6B4A3A",
"=c c #6B4B42",
"=d c #6B4C3D",
"=e c #6B5340",
"=f c #6B5343",
"=g c #6C3728",
"=h c #6C3D2E",
"=i c #6C412E",
"=j c #6C4233",
"=k c #6C4331",
"=l c #6C442E",
"=m c #6C452E",
"=n c #6C4632",
"=o c #6C4636",
"=p c #6C4638",
"=q c #6C472F",
"=r c #6C4838",
"=s c #6C4934",
"=t c #6C4938",
"=u c #6C4A35",
"=v c #6C4A3B",
"=w c #6C4C35",
"=x c #6C4F43",
"=y c #6C5051",
"=z c #6C554B",
"={ c #6D3F2A",
"=| c #6D402B",
"=} c #6D412E",
"=~ c #6D422D",
">! c #6D422F",
"># c #6D4231",
">$ c #6D4335",
">% c #6D442F",
">& c #6D452E",
">' c #6D4533",
">( c #6D462C",
">) c #6D4730",
">* c #6D4731",
">+ c #6D4737",
">, c #6D4835",
">- c #6D4838",
">. c #6D492E",
">/ c #6D4A35",
">0 c #6D4B39",
">1 c #6D4D32",
">2 c #6D4E3C",
">3 c #6D4E41",
">4 c #6D513F",
">5 c #6D5447",
">6 c #6E402E",
">7 c #6E412E",
">8 c #6E422F",
">9 c #6E442D",
">: c #6E4431",
">; c #6E4438",
">< c #6E4531",
">= c #6E4534",
">> c #6E4831",
">? c #6E4837",
">@ c #6E4934",
">A c #6E4A38",
">B c #6E4B31",
">C c #6E4B36",
">D c #6E4C37",
">E c #6E4D35",
">F c #6E4F37",
">G c #6E513F",
">H c #6E5538",
">I c #6E5550",
">J c #6F4230",
">K c #6F432F",
">L c #6F4330",
">M c #6F4331",
">N c #6F462F",
">O c #6F472F",
">P c #6F4834",
">Q c #6F4938",
">R c #6F4A31",
">S c #6F4A34",
">T c #6F4B3B",
">U c #6F4C3E",
">V c #6F4D39",
">W c #6F523D",
">X c #6F553A",
">Y c #6F573B",
">Z c #6F5742",
">[ c #704630",
">] c #704631",
">^ c #704635",
">_ c #704731",
">` c #70482F",
">a c #704838",
">b c #704933",
">c c #704935",
">d c #704938",
">e c #704A37",
">f c #704A38",
">g c #704A39",
">h c #704B35",
">i c #704C3D",
">j c #704D36",
">k c #704D39",
">l c #704E3F",
">m c #705138",
">n c #70513A",
">o c #70513E",
">p c #705349",
">q c #705745",
">r c #705949",
">s c #71442C",
">t c #71442F",
">u c #714433",
">v c #714632",
">w c #714634",
">x c #714736",
">y c #714A33",
">z c #714B3E",
">{ c #714F37",
">| c #715239",
">} c #71544B",
">~ c #71554C",
"?! c #715640",
"?# c #715948",
"?$ c #72442B",
"?% c #724936",
"?& c #724A2F",
"?' c #724B2C",
"?( c #724B34",
"?) c #724C35",
"?* c #724C36",
"?+ c #724C38",
"?, c #724C3A",
"?- c #724D38",
"?. c #724F39",
"?/ c #725137",
"?0 c #72513D",
"?1 c #72553E",
"?2 c #734432",
"?3 c #73452F",
"?4 c #734835",
"?5 c #734934",
"?6 c #734937",
"?7 c #734A35",
"?8 c #734B34",
"?9 c #734C3A",
"?: c #734D39",
"?; c #73503B",
"?< c #73583B",
"?= c #735947",
"?> c #735950",
"?? c #735A40",
"?@ c #735A41",
"?A c #735A49",
"?B c #743F2F",
"?C c #744635",
"?D c #744730",
"?E c #744834",
"?F c #744935",
"?G c #744A35",
"?H c #74513A",
"?I c #745239",
"?J c #745342",
"?K c #745844",
"?L c #75412C",
"?M c #754933",
"?N c #754C3C",
"?O c #754E38",
"?P c #754E40",
"?Q c #754F37",
"?R c #75503E",
"?S c #755233",
"?T c #755245",
"?U c #755338",
"?V c #75574B",
"?W c #764834",
"?X c #764B35",
"?Y c #765041",
"?Z c #765136",
"?[ c #76513E",
"?] c #765236",
"?^ c #77472F",
"?_ c #77482D",
"?` c #774B33",
"?a c #774D37",
"?b c #774D3C",
"?c c #774E35",
"?d c #775037",
"?e c #77513E",
"?f c #775235",
"?g c #77543F",
"?h c #775440",
"?i c #77553A",
"?j c #775546",
"?k c #77584D",
"?l c #775B3E",
"?m c #784838",
"?n c #784D35",
"?o c #785034",
"?p c #78513B",
"?q c #785640",
"?r c #785646",
"?s c #78573A",
"?t c #785A4C",
"?u c #785C45",
"?v c #79442D",
"?w c #79452E",
"?x c #794A39",
"?y c #794C36",
"?z c #794F3A",
"?{ c #794F3B",
"?| c #79513B",
"?} c #79533F",
"?~ c #796659",
"@! c #7A452F",
"@# c #7A4533",
"@$ c #7A4D3A",
"@% c #7A4F38",
"@& c #7A5138",
"@' c #7A513E",
"@( c #7A5339",
"@) c #7A543F",
"@* c #7A5539",
"@+ c #7A553B",
"@, c #7A584D",
"@- c #7A5B40",
"@. c #7A5B45",
"@/ c #7A5C44",
"@0 c #7A5E4E",
"@1 c #7A6351",
"@2 c #7A6B65",
"@3 c #7B4833",
"@4 c #7B4F3A",
"@5 c #7B4F3D",
"@6 c #7B503B",
"@7 c #7B5144",
"@8 c #7B573C",
"@9 c #7B614F",
"@: c #7C462F",
"@; c #7C4731",
"@< c #7C5138",
"@= c #7C5446",
"@> c #7C5B3A",
"@? c #7C5B48",
"@@ c #7C5E53",
"@A c #7C6054",
"@B c #7C6155",
"@C c #7C6453",
"@D c #7C6657",
"@E c #7D4935",
"@F c #7D5035",
"@G c #7D5137",
"@H c #7D5549",
"@I c #7D563F",
"@J c #7D573D",
"@K c #7D5841",
"@L c #7D5E45",
"@M c #7D614D",
"@N c #7D6450",
"@O c #7E4B3A",
"@P c #7E4D34",
"@Q c #7E4E36",
"@R c #7E5239",
"@S c #7E5337",
"@T c #7E5438",
"@U c #7E5947",
"@V c #7E6261",
"@W c #7E705F",
"@X c #7F553A",
"@Y c #7F563C",
"@Z c #7F5940",
"@[ c #7F5943",
"@] c #7F5A3A",
"@^ c #7F5B46",
"@_ c #7F5C3C",
"@` c #7F6354",
"@a c #80533A",
"@b c #80563B",
"@c c #805642",
"@d c #805745",
"@e c #814D37",
"@f c #81533F",
"@g c #815546",
"@h c #81563F",
"@i c #815A3E",
"@j c #815D4C",
"@k c #815E4A",
"@l c #815F46",
"@m c #816450",
"@n c #816E68",
"@o c #824D32",
"@p c #82523C",
"@q c #82523D",
"@r c #82553D",
"@s c #82573D",
"@t c #825742",
"@u c #83533D",
"@v c #835343",
"@w c #83594E",
"@x c #835A46",
"@y c #835B42",
"@z c #83634C",
"@{ c #836E5E",
"@| c #84513A",
"@} c #84594E",
"@~ c #845E44",
"A! c #84634E",
"A# c #846D57",
"A$ c #855D3F",
"A% c #855E43",
"A& c #864E3B",
"A' c #865237",
"A( c #866543",
"A) c #86664D",
"A* c #866755",
"A+ c #876549",
"A, c #876550",
"A- c #87674D",
"A. c #876A54",
"A/ c #88563B",
"A0 c #885C47",
"A1 c #885D3F",
"A2 c #885E48",
"A3 c #885F49",
"A4 c #885F4E",
"A5 c #886646",
"A6 c #886853",
"A7 c #895637",
"A8 c #895B3E",
"A9 c #896148",
"A: c #896852",
"A; c #896952",
"A< c #8A4B38",
"A= c #8A6355",
"A> c #8A6553",
"A? c #8A664A",
"A@ c #8A6752",
"AA c #8A6E5B",
"AB c #8A7161",
"AC c #8B5E3E",
"AD c #8B5F46",
"AE c #8B6751",
"AF c #8B6851",
"AG c #8B6852",
"AH c #8B6A51",
"AI c #8B7161",
"AJ c #8C6044",
"AK c #8C614A",
"AL c #8C8174",
"AM c #8D6448",
"AN c #8D6657",
"AO c #8D674D",
"AP c #8D684F",
"AQ c #8D6A5D",
"AR c #8D6E5D",
"AS c #8D745D",
"AT c #8D7B67",
"AU c #8E6B50",
"AV c #8E6F55",
"AW c #8E7169",
"AX c #8E7D68",
"AY c #8F5B43",
"AZ c #8F6752",
"A[ c #8F6A52",
"A] c #8F7765",
"A^ c #905E50",
"A_ c #90664C",
"A` c #906E5B",
"Aa c #906F5C",
"Ab c #91807F",
"Ac c #925A3F",
"Ad c #926146",
"Ae c #926A50",
"Af c #927365",
"Ag c #92786C",
"Ah c #927D70",
"Ai c #936C55",
"Aj c #936E52",
"Ak c #937463",
"Al c #937C70",
"Am c #938676",
"An c #945F44",
"Ao c #947563",
"Ap c #947867",
"Aq c #956349",
"Ar c #956B53",
"As c #95756A",
"At c #967258",
"Au c #967763",
"Av c #967764",
"Aw c #96796F",
"Ax c #977969",
"Ay c #987160",
"Az c #98735C",
"A{ c #987A66",
"A| c #98816F",
"A} c #997556",
"A~ c #99816E",
"B! c #9A8977",
"B# c #9B7560",
"B$ c #9C6E50",
"B% c #9C8C7F",
"B& c #9D8879",
"B' c #9E786B",
"B( c #9F7761",
"B) c #9F7F71",
"B* c #A0846D",
"B+ c #A08E7F",
"B, c #A57560",
"B- c #A58372",
"B. c #A6836E",
"B/ c #A69480",
"B0 c #A78675",
"B1 c #A88A7E",
"B2 c #A89281",
"B3 c #A98672",
"B4 c #A99185",
"B5 c #A99383",
"B6 c #A9958D",
"B7 c #A99782",
"B8 c #AB9C92",
"B9 c #AE9388",
/* pixels */
"*d+m5e3lAA@X?G8C-e1^=]:l6V:O0`7I7@0+&r3e(_'[%S%E)N-])(,Q(].Z,1;W9?6k=,7k<L8H=-<V=E,)-v9!@w@O9e-(8P#k)A-w1`#3!A!V&*'i%L)`)00d2F3`",
"+N8)3z<b>k)?;X;y4l7L:R61=R:v9V0U*@87&A&6!o&s'n)~!p)Q:J*V*P,!473E;D=^.E1c7C0h6+AF1'*+2o@E>w<z=[6$,W,E$N,P(q!!'9#>!<(3-1(&,W4i3i6O",
"0k2m9A9v6t1v<X750/(z1B7,93160e1*50.1,b.y&v%o)Z$N!}#a.6)N6]*z4Y/7+-9&0_6O8j56<'=v4C@V=7;+7x;f7.5k*X(=.W':$O%C!2$L!B!f'R9B0Y0,/3/[",
",U7%)S6g.P/f$E+1+f/h9X;z9}*6(P3p/6$h'b.>+#)l,*-B%T&,)c&Q&>5V*t35$9.5&-(b.G>s8mA^;R=AArA!@4=Y:S<v9H*s+t,V*w2Y)-$0&>%G'o4-,*2o1a<$",
":3:8;b4F@6<m1:-x73+/4b>W<c)4552/!>/q(?#75F:7&C#j$@$!(%)T'K){6}-2&1+~.g*9>b<I?c=sAPAU:Y?z0M4B8(4',61Q%<,]7!2=$k!-%w#?&-*&/'+x3>;1",
";30N0F7z<D:c6J<S>j:F*08J6`0]3^/>,<)l$H,;)|'^#8#A(>#J'v*@.4.A4[*q*[(`/8$l7E???{@JA{B98u7V8R;1:/-~+k.v(a,%0&*-/~,K&*$Q*q(^(A0-4h:J",
"%Y1S)p:>+//N.J3M?/A(1$8q7q:<<,2d$@%A!F(H1e/I)>%S/D8<'N'j.1%h)x1x.=0e(75U/-3a=@?R;!@Z>)B.?b9P@$5n(H*1(A4e/$8F,#7!!`+B*C$o,31?>72E",
"(B:Z5-4a?p<fATA`@>-:.v8B?[60.L3e!@+k)<48+D%[+[%V+}3+'O#e#|,.)T%/4=-=.w*%>0)cB!:W:$1K;m=F@v@#=h6|%2/c3a6:*o,Q&N%J$$1H(`)9-Z0h9k0>",
";[@Q0.>P@5A8AH@M8W8l6y@3?2<N7#8:+V(|1g:j+c-y.L%4*m'k,z)$))6Y2>:h4913.5/`>A67>*0CA6>u@)<=2@A&@!0`%k*V8e4.,,-&'O!r$>0X182i2>++.f3u",
"85<)1i5;>L;B=O784!3~67@e@'0i49?]2J)j&:>>6Y*E-+#j(]&L3*&m)(.D+{;l2c5,<A/f<W:p9E=q@G9c-37A<l<;5M73-q%*0(9;-*!~(['Y%O${2B5X:1%3183F",
"3h)a,d;G/-7}:]@F=l1|;$7UA==:.U7y09'r)c,C)1!Q(p#K'I(.%i&R0a)M'4-(7@7h0Y/a9F6N?%A?;C0%3|=J>z/t.-6L1j'3-q*c#G%F't%g%H%r#E,Y,Y&6+B9@",
"(j/?9H=6;t>]?OAYA[9]@_@^:b>69K(8&d*M3s&B$Y'b%Z&&#8%z!D$@(h)Y.y*G6+2n86:g;E9B<]>N=Z>'<@>#@f/s4<0!$R';+g%p&!&8(Z$3#Q'S(7)<&u?a.p+I",
"&v8c5P<r7S>DADAd>t9w@mB*;~0g;P:k5U(%'u'1$z)3%4'%!7)~$f###?33:43a'/)Y0+?&,V/->c8d577'>J9o>q,$7J-u1z7`/]%j!%#[%E.^%;'P1d-]/V*F3p0-",
"/:;8?x88<18(@yB-B$8G8=:y0s'S4b/S4D%W*U/4-#(Z#i#1!8$8&1*N&q,c)b,n,)*A;(=$/;7$@P>@<p</2d&~'D+y>^/T;,/+8V+L$o%p#5(8!O&v4U,L9>0,0T-#",
",V1A7-7Q45<J=aB3A:A#AW:^<o*N4.,V)E+B/Z1d)M'q#t!n'm*|#Z&:-_3-7&.6,)?M5%50;-?W?DB%><6I680t4X/&2b4]9C3Z..>Q&.#=%j';.b&q$A3u6O-i;Z,#",
"-w)l6#>(?'=&9~?!:@?<Am/M2Z367&.9*H.:'p+`-^&h!b!*#=!q!:$p$r$#6c.l584S:+9m5(;&=k?}3V6a@D8L8r6h7+6U*~*5%)+.'1)z+'!X!H!;)e:w0S4%4:8^",
")69I;26eA7?.?Z>X7f<x>E:=<!*y&l(>&S']#~)#$U%G)8%m)]([$1'7(h.2/Z.p3d/_9998=D=!AcAs?PAb=;:s7l,j6~-+0*2s*W+'%P&n#`!N#]&w)^/H6d1w)P8e",
".00j?67b@S?iAi<e=S1Y:#-?+U4Z>[&q#J%,&V#G!V#H-d(/$M&L)}.c+Q;F>%=}9a5&12;k4936<0>?A}@`=3<s6D1/6!'Q.f,./1'y&=%<#@!U)V/r1u2!;K5;2^58",
"'X2[59>C9G7w@&A$A/5j@N5w,g/A;::L!I#^&%#O$I1##O!<$20+.V0_%V1r=#:9,[/</k.E=n;q<I?s@~?8B#2O;I9%4s-A$c1R:T(d&#$_#_%P!U,q-j1y-84>9k,'",
"/p8#@h?|;eA~A;3N9QB4A+9^(K77:[>!(a#y$v'A+j'4*L$-!M.:)w(?+P4A=L8r,i,!2L/w3pAXB/@K?)@=@<>h70;Y1C6/2k+M+H7G$!%o(9![$<(j%1(;0o7~6Z6S",
"2r<q?-?+<8?(?,2U?N>;=B4y1z8`-|%t$(&t$m&1%y#:!|)Z*)&:$y-o*+'{)X&l/9+O2>6//I7]>vAK@dB'AEA@;_@I-R/J!c&.*~/C%T$q!,!'(4+#+(3k/W2P0k.j",
";x@]@R>Y9-918k:u@lAh@?>5:)@Y5|:M-$$m!U/?$'&D#x#K4T+K4B-)'r+a6M+r0l3<;V=<.^/?8E@pAnAL?I<P=)B,7|7j*G%I'}-2&C+,#)#'&Y+$3g%T*$=M9n5_",
"1G;a2|<21m65@W<a>U@@B+7Q)i-`.c/f1v!?$D2w#X#+%R%a2C1[9'-h!n!o,O0)1p.2+E453[<)>H5V>I?AAvA9>}@j9O-p/@*J$V>='h%%$Q$A&u+w)/$r*$1b>92h",
"?7@+8P<Q@k>aB&@B;=B8?T@C.92:(<%y!y*U49-H'#$X)Y%N*^2;,W&L&J'8)R*#8[6,2]+Q2f=+<u,t?qAp@|AZ@s9r.?.!$J(C#m.I7K)>(`${#L$j*08&:>?*1}9,",
">R>M3?<-A3B)@[<_>g=y7,=z;L9u.u1P2}8u(6%0#^$r&:'W(o,0(?##+@1c5'.`8}102e0n:QAQ:|8z>V7a5v?Q;!3T';2P2}+5+P.Q,7$|%v%W)5(j,06l<F6f>O:r",
"-8;o:2;O8_7u?~?H9M>p@A8?-}9[<t-w*.3G)T'R)f&S38,0)h)*&L%D+u1]@a*B*u/0/a1I=(=o?k:d8UAB=R>:4*9Q*l-94G:B+-,Z'S'_0g#Q4d&P->0l1r4o9/2H",
"(S-~70@1-95bA>>i;Q.,<4?t@H9:<H1t'C#?&F.C(U%d,p)[!]$x&0'>$Z.L0-)V#f2?6'1!8m;J8N96Au@{>o>/;{)@(%$l'?$K/f),*<)H!G%!$_'a'T1o0b0n.f1l",
"9V.T/o6s?g?u=2>l>fA0/m?>?Y9f(a21$'#8*Z+1+8*;(y1~:o,?#(!i'r'E)..[(i4i0p7Y0;9W8M3)4K@c::;#,I)f,?%S+~&O#B'h(N$+!/'`%s'z&U'l+--!1q3j",
".H3f1;?r>^7_B(<iA2B1B5695[:0='1n&Q(c'$#W'e5Z+K!V%L%!#j(3)g((2e/g7n9%1f6-0?+)+/-M?K@2<h7b'u+[6i&W%/$g$^'(!q&;!z!w#h'a)71))V0'/s8N",
"(D-->n>+?e8yAG=p/v4#2,2u4J6}@u):#z,W2g00)h1C:P4.#+!f%M5?2n-u)%,;0Z5R<*45-/,6&](s)s5G')1%*`3n&S+z!9%+#K#$(M#,!_%B#.!P-r,R.3-c,_$T",
"$F)o,[;g>4<w=_>F92/x,l3}3934<^,2*I2~:A8K(v$V.7//&n$1#r%n%v/t-i(17p2<8@;01?2y.t4D)h)r,t2}-n0B.B)?#!#v)2*,&<'3#W*S$^*2*()W-b02:V$T",
".o,9'Z'}6w>-:D=`2+@9<j9|A|>e.*)_/b9u6z0I(N$=!L$Y5Q)((5$4,`8;+(0+-g<{9d>K0m-o:y1&2-@L6K0H4H.>(v'H'1&91;2v)6*P%6%})D*4$]*$-,3e+,5m",
".C*f&z1t9zAo?;>{A5=w<d5E;57X*i1t<B-{'F/s6j(I(z)6$p%I(!$!-p+03c-z*&3:>84[<E4c*7=0?d>B2M.M&T,<.@*l('!j#R9s8S.}&g(C#J**&@&2-'5A2G/g",
",A&&*=6[:~>,AO?JAM;t6o?95D:_5?-<%1)=7e'$&_&}+##S#M'7&2',)c5a46/:)k(958*})81r1O4L:E6@9_7N2W,j/P&f(i$d({$.#q'^$S&e&j'p%M2a3b8A,0(H",
"!R-E*[?0AfAaAkAq@}6>>~3O5s2P9+05!6(_8g4](9'x.s-4#R%q*$!u(@(i@:+v'](,/D-P24+29R.#(u4$+;)G0t-{+^*'#c*J*!,X!=!4%x#/'@'Y%y/u.L9q6b%V",
"*b5<8Q:!@x;NA4?V@8=T79>Z9D5h8X2w'<-A1?1{.e*W0@2p.2)d+L#'!{&B/(+E+F.L%#(Q,7-9-v2u2>'5%~,h).'G*W2e-;,~._%Q!a$i'`(+-f+S1:'^4K)K+k,g",
"2-3R6x:;<`0DA.AeB2@n,y81=c90(n(-$w(x&410/c(E&$'s/U&T$9*P'65g.W*D5/+](G,o8K*[,]<F=5<9(T1V5S3p(j&x%U'f$}&Z$=+*'U%_!s'0,`;9*94)/!9{",
"-C&_3U?S=8>*ACAwAN?^B0>~@066;M2e2l#z)y*r(:-0+L*{+!)^)d,V(`8B*G%-'[,a%;2t;c:|5]=t6B/@-O0K7^8i$F(e.(*F'/'!$5$m!<!q(k$s-%51&>0i2+0w",
"%~)m7d2A=90[>&@7Ay?:A*4r,G0f2T;h$G+R)^1;01/*:K59,]*V0c)P+|414a.k,)/E9L4;1U7^.+2s20>31P'_<73C%e.$!v&Q-I,i'$+!'}!7%z'w-T$9*O6W3p6m",
"0n1=7M-5;pA%Aj?y=[>y77==3c<.+(-w(f2$)U,1529-,p*_'S'B'~2X(0:j;)=g;>)b0r0q6c+d4='S0s:C,q1D3v2O&q5N%j6&'+.l8f:,/$$6(c*~,e)h+G=1;s(l",
"2`-62.<Z9u3B9U?49Y1<;H=Q=r7r74&_%606-y.&,d,d%84m,k0|6H)O-X/%1_5$1(36.<66;`>22<.d4?21=95d<M'd0n(Y)O*>+F1e)U-Y1Z*C(h#&,Z*0)52R6+:5",
"1s1k*}384k5n.O>m;^=j=X6--S:t0E,@$^(U+0/H'#.C.)(z%@$%%:#0$m-V1+5O-%7H,-7%5`6=+}6Q:n>V.>9x%]=*.x-B$M+F$f.X'^'L4+'6%##F-a*z+J+Z,&7)",
"1m(g2h48-m=M>r3$7{9Y=%Al7K8]1f1@0E3r8O4I$x4v0O0P%##9&F1,)'5L3.,}+C)94M4x0z(J4>/3AS6z5I8{-<2O.>(W.X*n)9={&w%p'69i%N!.$b(c+Q053/'M",
"+N1M/=6P5.324N/j?`;j4u4f?5+F2#+(5x,H1J8'.D+n6q)=.M#-*a7o7(414X.]'+.9%{0B2(1T8!3e;U.K'*8'-G/L*j)!0#%'(A8Z*I$q&j%*#C!+#T&c3w(G*R(=",
",:1L7T;i<Y:64&?j>d9)9!=GAR8h9.3S5r-I)94t6.%8*S3q)@,v,D<%'-)&8~/R+A5k*Y3!+44x0g2d/6/z;;4z7;94:%0=0Z*?3]27&M$N!3#$!r#)$X'h&!(w9S&]",
".8-t+T?f9t>1A-@/=?<*4cB6<+0R<k/K%|)8:z.:1y625C'Q)|1l)P'}#7+b)]-l&7+!,c0m&u6X*3,F'&+7+9;|6C)?(L(v$*$v8B(2!l!m###t!d%}$,!k$?+=,w)I",
"%::==P=N2mAVAtAz66326]5l7s44?v5;3:,V7R3o=b/o3&2x6R,*/X&M(a%b+M5^/m.4'|0,/H:u0Q:}/Q*`2|2*/}(V&E#P&w):0^*v(`%)#u$;!7!(#V&[$~/|'=)L",
":N4/=m?X?h>.Ax718P6<7b6*.w3P&y:i26*B5!5~=C7*,T7D%w&1'^,|*q&I'I-`<U-n+Y8n6)<?8O706v(D+e.u-N&^)t0A(&%.#u%X)^*K#3)C!E#p$@&%(t22(~6n",
"<<=9@;AI>O?==e;*AJ<[2S2_6k65406T:O0X:G<T117H5+,#(%$w%W-Y,{*C(X%m5J0q5>/B4_7v4m+c3Q+O9j9o((%;2D0J(#%P2j3;&p&;-k(A#I!C!^*b-L5B$`)m",
"5u1a5z9=A,>|;.A]B7>`37.n8%=u0$:I:P7t6^(7'N(l-'.a(%8T,a-[$/'J*p-1%l+Z+%-11h6(-2?#?lA_7i.m+`7[5Y*U2H-f4`(^$s$t,8+]#w)P'/)n(h5f.z+:",
"7:3I0z867g<y@g977m<|7s=i?$827==~3+0W,o3x53,7(%,`'x,a':#L14(i-70v*T(r3t<O3{0<-Q*8+3?o.;7F87-a/d,T1_'2.^*P&##9'_$n)j,D.>):4W0u**'m",
"-K.C4q:f-W4V>G@q;@6[<(=W:*4~;'/f5{1-)i-u3W5q%V#@'$%^%$%5.C?3-.(B,43L/G<,,h-<768,6AAg,^;/5W:H309$'.9h/J4B,Z#~$&'x(o+>)B4^,(=m-h'V",
"=K3J/y@t<n3,19:q4R1l<G9K9J:(7%#d0r(Y/?&')v'O&|&3*Z#*!8!Z3e1w8a1541&X3A4(7c-~)u1X5p=d,F5:2q0t2f&n9#$o.q&>.{%6)F&!)q%c.D6%:12K&b3m",
"<#@%9c9g;%<~<>7B=|63:'<C@o3X6p)),$+1(H&x&)#J*1%0%($j$5!K&;5};??L.c0})<4q5kA'6hA<=H95@U4n1>0g+W&C%w*U+q+6,f*&1O(m#7%:()+J/l%[8I7P",
"3_@z89>_;A?_@b318b3@045T;r@r409H+w2V(d$w)i#y'3%I#x'/&i!c)U:.8384+E5@+Z(F8>8*=I729M-U8Q3D8$@,*4.N*,.S)o(@)k**%[#o#<#:%[+&($&V3B*e",
"3`./;n<}7O4w;w/8401F-s2'3#@i9T&34;/@+79y(A#C'f$B':)~%C#2&<>x%&&i5):x?O@T2N;d?E>8>S,t*h;T0:<R4z*13H&:-=4O(j&{$a!t-<!T(($7(9,9)J%>",
"*I9l?w:m640y--@.;a8+1E7-5i;70G-p/s/i'e+o5=&?#l%K4Q$h/5#6/F'2'v3Y0+,d3K0l7W8w=I<3425y2&,m-23%+?3y-q&`2M,o,](>!1!$#N!Q$C!A)c(r%`$)",
"'N8b4,2r?U7H*/549m6;+h=f<K3''(+p'X.h0~4P!s3D(%%W,N&o%o(9&k+X&/9b0V/n,/9(?@<g;mA):X8./#5c*Z2I/J.|17)669,p#j%:'[%['##$#}#E&5.H%[.+",
")+,S29*k;<;}.F-F9p?B5)/5@(,u-F/{7s.g3?+])h28(^-g&6#g--(n%u&t,B'=*:9*8s*T8o=.;]9H/:-3)-/^.'+<*g)i-f33,=''$A#8!O/L$X)c#A%0#7!x#j'9",
"5*/e/,,>6G+h-|5Z0{/)5K>T:e/M(O(*3=-i2>&j#y-0!J&+&K#b#s!)#U((#Y.%,s;u;v2*,e:?:l8D*8,+07=x8x+^0I+l'R6_(R'c%5,0!s'}'w'n!N$X$?(r)E+2",
":-4j43:a3j2)7<9n4E1.<#8Y-@3P2{))7>3L*g)*1n);'r$t!>%U!o!Y#)$E&(,o6?6u,J/O+_<58p9K9N<c:U9<,D6r7R!g,M,q&a#n03/3$u!h#4#{!&!1(o$:&b+b",
",x&H5t230L6y6F4|5o9q2z4{;(/2+s,r+i1N08--$&.f*N#~!e'}'>!A'd.v-f;0<&;64B1z=>:{?18v0r-o-D-J2>'R.Y$}/Y+-*]%=%?#u)5(*!>$W!S#5-i*@4@4p",
"8t8-@*A1<6@-<::`=V;S?C7Z5#6{7M7/&G(L(g&V#D'.(=%f!N$X$!!;&]65-u/[57>->$=4=/3O9`9Z'e.!0x*Q/:7t'!2%8>$[.R'D%9#u)d$!!5#5!0%M'R,_(}>j",
"6E8|:&25=U808/4}5H2Q1W?m4g9K7?,<3=->*x0./.$e$3)2#%!r!W!d'W!t)9-$2;.r;4?F2%5p.~3(/x'g(;1{7*?n7**J2j$B-20:.i$P#;!#$i$1#3%7*`,5,G+k"
};
