/* XPM */
static char *tiled_metal_texture_09[] = {
/* columns rows colors chars-per-pixel */
"64 64 3172 2",
/* colors */
"!! c #000000",
"!# c #010000",
"!$ c #020000",
"!% c #020100",
"!& c #030000",
"!' c #030100",
"!( c #030200",
"!) c #040000",
"!* c #040100",
"!+ c #040200",
"!, c #050000",
"!- c #050100",
"!. c #050101",
"!/ c #050200",
"!0 c #050500",
"!1 c #060000",
"!2 c #060001",
"!3 c #060100",
"!4 c #060200",
"!5 c #060400",
"!6 c #070000",
"!7 c #070100",
"!8 c #070200",
"!9 c #070300",
"!: c #070400",
"!; c #080000",
"!< c #080100",
"!= c #080200",
"!> c #080300",
"!? c #080400",
"!@ c #090002",
"!A c #090100",
"!B c #090200",
"!C c #090300",
"!D c #090400",
"!E c #090501",
"!F c #090600",
"!G c #0A0000",
"!H c #0A0100",
"!I c #0A0200",
"!J c #0A0201",
"!K c #0A0300",
"!L c #0A0400",
"!M c #0A0500",
"!N c #0B0001",
"!O c #0B0100",
"!P c #0B0200",
"!Q c #0B0300",
"!R c #0B0400",
"!S c #0B0500",
"!T c #0C0100",
"!U c #0C0200",
"!V c #0C0300",
"!W c #0C0400",
"!X c #0C0500",
"!Y c #0C0600",
"!Z c #0C0601",
"![ c #0C0602",
"!] c #0C0800",
"!^ c #0C0902",
"!_ c #0D0100",
"!` c #0D0200",
"!a c #0D0300",
"!b c #0D0400",
"!c c #0D0500",
"!d c #0D0501",
"!e c #0D0502",
"!f c #0D0600",
"!g c #0D0800",
"!h c #0D0901",
"!i c #0E0100",
"!j c #0E0200",
"!k c #0E0300",
"!l c #0E0400",
"!m c #0E0500",
"!n c #0E0600",
"!o c #0E0601",
"!p c #0E0602",
"!q c #0E0702",
"!r c #0F0300",
"!s c #0F0303",
"!t c #0F0400",
"!u c #0F0500",
"!v c #0F0600",
"!w c #0F0602",
"!x c #0F0700",
"!y c #0F0803",
"!z c #0F0901",
"!{ c #100100",
"!| c #100200",
"!} c #100300",
"!~ c #100400",
"#! c #100500",
"## c #100600",
"#$ c #100601",
"#% c #100602",
"#& c #100701",
"#' c #100703",
"#( c #100707",
"#) c #100A02",
"#* c #100D06",
"#+ c #110100",
"#, c #110200",
"#- c #110300",
"#. c #110400",
"#/ c #110402",
"#0 c #110500",
"#1 c #110501",
"#2 c #110502",
"#3 c #110503",
"#4 c #110600",
"#5 c #110601",
"#6 c #110602",
"#7 c #110700",
"#8 c #110703",
"#9 c #110800",
"#: c #110A02",
"#; c #110A05",
"#< c #110B07",
"#= c #120200",
"#> c #120300",
"#? c #120400",
"#@ c #120401",
"#A c #120500",
"#B c #120600",
"#C c #120601",
"#D c #120602",
"#E c #120702",
"#F c #120800",
"#G c #120807",
"#H c #120901",
"#I c #120907",
"#J c #120A00",
"#K c #120A06",
"#L c #120B00",
"#M c #120C00",
"#N c #120D05",
"#O c #120D08",
"#P c #130300",
"#Q c #130303",
"#R c #130400",
"#S c #130500",
"#T c #130600",
"#U c #130601",
"#V c #130605",
"#W c #130606",
"#X c #130700",
"#Y c #130706",
"#Z c #130800",
"#[ c #130803",
"#] c #130804",
"#^ c #130806",
"#_ c #130900",
"#` c #130901",
"#a c #130A00",
"#b c #130A02",
"#c c #130A03",
"#d c #130A06",
"#e c #130D06",
"#f c #130D08",
"#g c #140200",
"#h c #140300",
"#i c #140400",
"#j c #140500",
"#k c #140600",
"#l c #140602",
"#m c #140700",
"#n c #140701",
"#o c #140703",
"#p c #140802",
"#q c #140803",
"#r c #140806",
"#s c #140807",
"#t c #140903",
"#u c #140904",
"#v c #140906",
"#w c #140A02",
"#x c #140A03",
"#y c #140A05",
"#z c #140A06",
"#{ c #140A07",
"#| c #140B00",
"#} c #140B03",
"#~ c #140B06",
"$! c #140C09",
"$# c #140D02",
"$$ c #140D07",
"$% c #150200",
"$& c #150400",
"$' c #150500",
"$( c #150501",
"$) c #150600",
"$* c #150601",
"$+ c #150602",
"$, c #150700",
"$- c #150707",
"$. c #150800",
"$/ c #150803",
"$0 c #150900",
"$1 c #150901",
"$2 c #150903",
"$3 c #150A00",
"$4 c #150A03",
"$5 c #150A04",
"$6 c #150A05",
"$7 c #150B01",
"$8 c #150B06",
"$9 c #15100C",
"$: c #160200",
"$; c #160401",
"$< c #160500",
"$= c #160502",
"$> c #160600",
"$? c #160601",
"$@ c #160603",
"$A c #160606",
"$B c #160700",
"$C c #160701",
"$D c #160802",
"$E c #160900",
"$F c #160902",
"$G c #160905",
"$H c #160908",
"$I c #160A00",
"$J c #160A05",
"$K c #160A07",
"$L c #160B01",
"$M c #160B03",
"$N c #160B05",
"$O c #160B06",
"$P c #160B0A",
"$Q c #160C07",
"$R c #160D00",
"$S c #160D03",
"$T c #160D08",
"$U c #160E06",
"$V c #160E07",
"$W c #160E0B",
"$X c #160F0C",
"$Y c #161008",
"$Z c #16100B",
"$[ c #161209",
"$] c #170300",
"$^ c #170400",
"$_ c #170500",
"$` c #170501",
"$a c #170503",
"$b c #170600",
"$c c #170701",
"$d c #170800",
"$e c #170802",
"$f c #170900",
"$g c #170902",
"$h c #170905",
"$i c #170906",
"$j c #170A02",
"$k c #170A05",
"$l c #170A06",
"$m c #170A0B",
"$n c #170B02",
"$o c #170B06",
"$p c #170B07",
"$q c #170C08",
"$r c #170D01",
"$s c #170D06",
"$t c #170E08",
"$u c #170E0A",
"$v c #170E0B",
"$w c #170F07",
"$x c #171207",
"$y c #17130C",
"$z c #180200",
"${ c #180400",
"$| c #180500",
"$} c #180600",
"$~ c #180602",
"%! c #180702",
"%# c #180705",
"%$ c #180803",
"%% c #180903",
"%& c #180A00",
"%' c #180A04",
"%( c #180B04",
"%) c #180B08",
"%* c #180B0A",
"%+ c #180C02",
"%, c #180D04",
"%- c #180E05",
"%. c #180E0A",
"%/ c #181007",
"%0 c #181008",
"%1 c #18100B",
"%2 c #18110B",
"%3 c #18120B",
"%4 c #190300",
"%5 c #190401",
"%6 c #190500",
"%7 c #190600",
"%8 c #190601",
"%9 c #190602",
"%: c #190603",
"%; c #190700",
"%< c #190701",
"%= c #190802",
"%> c #190903",
"%? c #190906",
"%@ c #190A00",
"%A c #190A02",
"%B c #190A04",
"%C c #190A05",
"%D c #190A06",
"%E c #190B03",
"%F c #190B07",
"%G c #190C01",
"%H c #190C04",
"%I c #190C08",
"%J c #190D06",
"%K c #190D08",
"%L c #190E03",
"%M c #190E06",
"%N c #190E0B",
"%O c #190F06",
"%P c #190F07",
"%Q c #191006",
"%R c #19100B",
"%S c #19100D",
"%T c #191103",
"%U c #191106",
"%V c #191108",
"%W c #19130B",
"%X c #1A0104",
"%Y c #1A0500",
"%Z c #1A0501",
"%[ c #1A0600",
"%] c #1A0602",
"%^ c #1A0700",
"%_ c #1A0701",
"%` c #1A0800",
"%a c #1A0801",
"%b c #1A0802",
"%c c #1A0902",
"%d c #1A0903",
"%e c #1A0906",
"%f c #1A0A04",
"%g c #1A0A05",
"%h c #1A0A06",
"%i c #1A0C05",
"%j c #1A0C08",
"%k c #1A0E03",
"%l c #1A0E05",
"%m c #1A0E08",
"%n c #1A0F08",
"%o c #1A1009",
"%p c #1A120A",
"%q c #1A130B",
"%r c #1B0200",
"%s c #1B0400",
"%t c #1B0600",
"%u c #1B0601",
"%v c #1B0602",
"%w c #1B0700",
"%x c #1B0702",
"%y c #1B0804",
"%z c #1B0900",
"%{ c #1B0903",
"%| c #1B0A03",
"%} c #1B0A06",
"%~ c #1B0B03",
"&! c #1B0B06",
"&# c #1B0B08",
"&$ c #1B0C05",
"&% c #1B0C06",
"&& c #1B0C07",
"&' c #1B0C08",
"&( c #1B0C0B",
"&) c #1B0D05",
"&* c #1B0D0C",
"&+ c #1B0E05",
"&, c #1B0E08",
"&- c #1B0E0B",
"&. c #1B0F00",
"&/ c #1B0F09",
"&0 c #1B0F0A",
"&1 c #1B0F0E",
"&2 c #1B1003",
"&3 c #1B1008",
"&4 c #1B100B",
"&5 c #1B100D",
"&6 c #1B110B",
"&7 c #1B120B",
"&8 c #1B120D",
"&9 c #1B130C",
"&: c #1B130E",
"&; c #1B150E",
"&< c #1C0300",
"&= c #1C0400",
"&> c #1C0500",
"&? c #1C0600",
"&@ c #1C0700",
"&A c #1C0800",
"&B c #1C0801",
"&C c #1C0803",
"&D c #1C0902",
"&E c #1C0903",
"&F c #1C0A01",
"&G c #1C0A02",
"&H c #1C0A03",
"&I c #1C0A04",
"&J c #1C0A05",
"&K c #1C0B02",
"&L c #1C0B03",
"&M c #1C0B05",
"&N c #1C0B06",
"&O c #1C0B09",
"&P c #1C0C02",
"&Q c #1C0C03",
"&R c #1C0C05",
"&S c #1C0C06",
"&T c #1C0C08",
"&U c #1C0D01",
"&V c #1C0D03",
"&W c #1C0D06",
"&X c #1C0D0A",
"&Y c #1C0E02",
"&Z c #1C0E08",
"&[ c #1C0F06",
"&] c #1C0F07",
"&^ c #1C1007",
"&_ c #1C1107",
"&` c #1C120A",
"&a c #1C120D",
"&b c #1C1210",
"&c c #1C130B",
"&d c #1C130E",
"&e c #1C1310",
"&f c #1C1410",
"&g c #1C160D",
"&h c #1D0600",
"&i c #1D0603",
"&j c #1D0700",
"&k c #1D0703",
"&l c #1D0800",
"&m c #1D0902",
"&n c #1D0A00",
"&o c #1D0A01",
"&p c #1D0A02",
"&q c #1D0A03",
"&r c #1D0A05",
"&s c #1D0B00",
"&t c #1D0B01",
"&u c #1D0B05",
"&v c #1D0B08",
"&w c #1D0C00",
"&x c #1D0C01",
"&y c #1D0C04",
"&z c #1D0C06",
"&{ c #1D0C0B",
"&| c #1D0D05",
"&} c #1D0D06",
"&~ c #1D0D07",
"'! c #1D0D0A",
"'# c #1D0E06",
"'$ c #1D0E08",
"'% c #1D0E09",
"'& c #1D0F01",
"'' c #1D0F03",
"'( c #1D0F07",
"') c #1D0F08",
"'* c #1D0F09",
"'+ c #1D0F0A",
"', c #1D1007",
"'- c #1D100B",
"'. c #1D110B",
"'/ c #1D110C",
"'0 c #1D110D",
"'1 c #1D1206",
"'2 c #1D1210",
"'3 c #1D130B",
"'4 c #1D130E",
"'5 c #1D140C",
"'6 c #1D140F",
"'7 c #1D150E",
"'8 c #1D150F",
"'9 c #1D1511",
"': c #1D170E",
"'; c #1E0500",
"'< c #1E0600",
"'= c #1E0601",
"'> c #1E0700",
"'? c #1E0701",
"'@ c #1E0702",
"'A c #1E0900",
"'B c #1E0A02",
"'C c #1E0A03",
"'D c #1E0A05",
"'E c #1E0A06",
"'F c #1E0A07",
"'G c #1E0B00",
"'H c #1E0B04",
"'I c #1E0B05",
"'J c #1E0B06",
"'K c #1E0C02",
"'L c #1E0C03",
"'M c #1E0C06",
"'N c #1E0D07",
"'O c #1E0D08",
"'P c #1E0E05",
"'Q c #1E0E07",
"'R c #1E0E0A",
"'S c #1E0E0B",
"'T c #1E1005",
"'U c #1E1007",
"'V c #1E1008",
"'W c #1E1009",
"'X c #1E100A",
"'Y c #1E100B",
"'Z c #1E100C",
"'[ c #1E1107",
"'] c #1E130C",
"'^ c #1E140A",
"'_ c #1E140B",
"'` c #1E140F",
"'a c #1E150B",
"'b c #1E1512",
"'c c #1E160D",
"'d c #1E1610",
"'e c #1F0500",
"'f c #1F0501",
"'g c #1F0600",
"'h c #1F0601",
"'i c #1F0700",
"'j c #1F0800",
"'k c #1F0906",
"'l c #1F0A02",
"'m c #1F0A03",
"'n c #1F0A05",
"'o c #1F0B03",
"'p c #1F0C04",
"'q c #1F0C05",
"'r c #1F0D02",
"'s c #1F0D03",
"'t c #1F0D06",
"'u c #1F0D07",
"'v c #1F0D08",
"'w c #1F0D0A",
"'x c #1F0E06",
"'y c #1F0E07",
"'z c #1F0E0B",
"'{ c #1F0E0C",
"'| c #1F0F07",
"'} c #1F1008",
"'~ c #1F1009",
"(! c #1F110A",
"(# c #1F110C",
"($ c #1F110D",
"(% c #1F1110",
"(& c #1F120C",
"(' c #1F120F",
"(( c #1F130A",
"() c #1F130D",
"(* c #1F140F",
"(+ c #1F150F",
"(, c #1F1511",
"(- c #1F160E",
"(. c #1F1912",
"(/ c #200701",
"(0 c #200702",
"(1 c #200802",
"(2 c #200A01",
"(3 c #200B00",
"(4 c #200B03",
"(5 c #200B05",
"(6 c #200B07",
"(7 c #200C05",
"(8 c #200C08",
"(9 c #200D06",
"(: c #200E05",
"(; c #200E06",
"(< c #200E07",
"(= c #200E08",
"(> c #200E09",
"(? c #200F09",
"(@ c #200F0C",
"(A c #200F0E",
"(B c #201002",
"(C c #201009",
"(D c #20100B",
"(E c #201107",
"(F c #201109",
"(G c #20110A",
"(H c #20110B",
"(I c #20110D",
"(J c #20120A",
"(K c #20130A",
"(L c #20130D",
"(M c #20130E",
"(N c #20130F",
"(O c #20140D",
"(P c #20140E",
"(Q c #20140F",
"(R c #201411",
"(S c #201613",
"(T c #201712",
"(U c #201714",
"(V c #20180F",
"(W c #201B12",
"(X c #201C15",
"(Y c #210500",
"(Z c #210700",
"([ c #210800",
"(] c #210901",
"(^ c #210B01",
"(_ c #210B02",
"(` c #210B03",
"(a c #210B05",
"(b c #210B06",
"(c c #210E02",
"(d c #210E08",
"(e c #210F06",
"(f c #210F07",
"(g c #210F08",
"(h c #211009",
"(i c #21100E",
"(j c #211107",
"(k c #21110A",
"(l c #21110B",
"(m c #211209",
"(n c #21120A",
"(o c #21120D",
"(p c #21140C",
"(q c #21150D",
"(r c #21150F",
"(s c #21160F",
"(t c #211610",
"(u c #211710",
"(v c #21180F",
"(w c #211810",
"(x c #211813",
"(y c #211B12",
"(z c #211B13",
"({ c #220700",
"(| c #220902",
"(} c #220A01",
"(~ c #220A05",
")! c #220B01",
")# c #220C01",
")$ c #220D03",
")% c #220D08",
")& c #220E06",
")' c #220E07",
")( c #220E0A",
")) c #220F05",
")* c #220F0A",
")+ c #220F0C",
"), c #220F0D",
")- c #221009",
"). c #221107",
")/ c #221108",
")0 c #221109",
")1 c #22110B",
")2 c #22130B",
")3 c #22140B",
")4 c #22140C",
")5 c #22140E",
")6 c #22150C",
")7 c #22150E",
")8 c #22160D",
")9 c #221715",
"): c #221913",
"); c #221A11",
")< c #230804",
")= c #230B03",
")> c #230C03",
")? c #230C06",
")@ c #230D00",
")A c #230D05",
")B c #230D0B",
")C c #230E04",
")D c #230E05",
")E c #230E06",
")F c #230F03",
")G c #230F05",
")H c #230F0A",
")I c #230F0B",
")J c #230F0D",
")K c #231007",
")L c #231008",
")M c #23100C",
")N c #23110A",
")O c #23120A",
")P c #23120C",
")Q c #23120F",
")R c #231210",
")S c #23130B",
")T c #23140A",
")U c #231411",
")V c #231414",
")W c #23150D",
")X c #231511",
")Y c #231608",
")Z c #23160F",
")[ c #23170F",
")] c #231712",
")^ c #231B13",
")_ c #240702",
")` c #240705",
")a c #240A01",
")b c #240A08",
")c c #240B01",
")d c #240B03",
")e c #240B06",
")f c #240C05",
")g c #240D04",
")h c #240E06",
")i c #240E07",
")j c #240F0B",
")k c #241006",
")l c #241009",
")m c #24100C",
")n c #24110A",
")o c #24110B",
")p c #24110D",
")q c #24120A",
")r c #24120D",
")s c #241309",
")t c #241408",
")u c #24140C",
")v c #24140E",
")w c #24170E",
")x c #241710",
")y c #241711",
")z c #241712",
"){ c #24180F",
")| c #241813",
")} c #241914",
")~ c #241A11",
"*! c #241B14",
"*# c #241B16",
"*$ c #241B18",
"*% c #250A03",
"*& c #250E02",
"*' c #250E05",
"*( c #250E06",
"*) c #250F05",
"** c #250F06",
"*+ c #250F08",
"*, c #251005",
"*- c #251008",
"*. c #25100D",
"*/ c #25110B",
"*0 c #251208",
"*1 c #25120A",
"*2 c #25120C",
"*3 c #251309",
"*4 c #25130B",
"*5 c #25130C",
"*6 c #25140A",
"*7 c #25140C",
"*8 c #25140E",
"*9 c #25140F",
"*: c #25150B",
"*; c #25150C",
"*< c #25150D",
"*= c #25160E",
"*> c #25160F",
"*? c #251613",
"*@ c #25170D",
"*A c #25170E",
"*B c #251711",
"*C c #251712",
"*D c #251A11",
"*E c #251A13",
"*F c #251F13",
"*G c #260B01",
"*H c #260D07",
"*I c #260E05",
"*J c #260E07",
"*K c #260F08",
"*L c #261008",
"*M c #26100A",
"*N c #26120D",
"*O c #26120E",
"*P c #261309",
"*Q c #26130C",
"*R c #26130F",
"*S c #261310",
"*T c #261409",
"*U c #26140B",
"*V c #26140D",
"*W c #26140E",
"*X c #261507",
"*Y c #26150D",
"*Z c #261510",
"*[ c #26160F",
"*] c #261610",
"*^ c #261611",
"*_ c #261612",
"*` c #26170F",
"*a c #261710",
"*b c #261811",
"*c c #261812",
"*d c #261815",
"*e c #261912",
"*f c #261A11",
"*g c #261A12",
"*h c #261B16",
"*i c #261C18",
"*j c #261E15",
"*k c #261E17",
"*l c #270600",
"*m c #270C01",
"*n c #270D09",
"*o c #270E05",
"*p c #270E06",
"*q c #270F11",
"*r c #27100A",
"*s c #27100B",
"*t c #27100E",
"*u c #271107",
"*v c #271209",
"*w c #27120E",
"*x c #27130B",
"*y c #27130C",
"*z c #27130D",
"*{ c #271310",
"*| c #27140C",
"*} c #27140D",
"*~ c #27140F",
"+! c #271410",
"+# c #27150E",
"+$ c #27150F",
"+% c #271510",
"+& c #27160D",
"+' c #27160E",
"+( c #27160F",
"+) c #27170E",
"+* c #271711",
"++ c #271718",
"+, c #27180D",
"+- c #271811",
"+. c #271912",
"+/ c #271A12",
"+0 c #271A13",
"+1 c #271A14",
"+2 c #271A15",
"+3 c #271B14",
"+4 c #271B15",
"+5 c #271B16",
"+6 c #271C15",
"+7 c #271E13",
"+8 c #280C03",
"+9 c #280F06",
"+: c #280F0B",
"+; c #281006",
"+< c #281007",
"+= c #281106",
"+> c #281107",
"+? c #281108",
"+@ c #28110A",
"+A c #281208",
"+B c #28120A",
"+C c #28130B",
"+D c #28130C",
"+E c #281406",
"+F c #28140B",
"+G c #28140E",
"+H c #28150C",
"+I c #28150D",
"+J c #281510",
"+K c #28160C",
"+L c #28160D",
"+M c #28160F",
"+N c #281610",
"+O c #281811",
"+P c #281913",
"+Q c #281A0F",
"+R c #281A13",
"+S c #281B0C",
"+T c #281B13",
"+U c #281B18",
"+V c #281C11",
"+W c #281C15",
"+X c #281C17",
"+Y c #281C1A",
"+Z c #281D17",
"+[ c #281D18",
"+] c #281E15",
"+^ c #281E16",
"+_ c #28201B",
"+` c #290E05",
"+a c #290E07",
"+b c #290F0A",
"+c c #291008",
"+d c #291009",
"+e c #29100C",
"+f c #291107",
"+g c #291108",
"+h c #29110A",
"+i c #291209",
"+j c #29120B",
"+k c #29120D",
"+l c #291306",
"+m c #29130B",
"+n c #29130F",
"+o c #291310",
"+p c #29140A",
"+q c #29140D",
"+r c #29140E",
"+s c #29150E",
"+t c #291510",
"+u c #291511",
"+v c #29160E",
"+w c #29160F",
"+x c #291610",
"+y c #291612",
"+z c #291715",
"+{ c #29180E",
"+| c #291811",
"+} c #291812",
"+~ c #291913",
",! c #291A0B",
",# c #291A12",
",$ c #291A14",
",% c #291A15",
",& c #291B11",
",' c #291B17",
",( c #291C14",
",) c #291C15",
",* c #291D14",
",+ c #291D17",
",, c #291E17",
",- c #292117",
",. c #292119",
",/ c #2A1006",
",0 c #2A1009",
",1 c #2A100A",
",2 c #2A110D",
",3 c #2A1208",
",4 c #2A1305",
",5 c #2A130A",
",6 c #2A130D",
",7 c #2A130E",
",8 c #2A1410",
",9 c #2A150D",
",: c #2A1510",
",; c #2A160C",
",< c #2A160D",
",= c #2A1612",
",> c #2A1714",
",? c #2A180C",
",@ c #2A180D",
",A c #2A1810",
",B c #2A1812",
",C c #2A1813",
",D c #2A1910",
",E c #2A1914",
",F c #2A1915",
",G c #2A1A15",
",H c #2A1B0D",
",I c #2A1B10",
",J c #2A1B14",
",K c #2A1B15",
",L c #2A1B17",
",M c #2A1C13",
",N c #2A1C14",
",O c #2A1D14",
",P c #2A1D15",
",Q c #2A1D16",
",R c #2A1D17",
",S c #2A1D18",
",T c #2A2016",
",U c #2A2219",
",V c #2A231B",
",W c #2B1006",
",X c #2B1207",
",Y c #2B130C",
",Z c #2B1312",
",[ c #2B1408",
",] c #2B140B",
",^ c #2B150B",
",_ c #2B150F",
",` c #2B1510",
",a c #2B1512",
",b c #2B160E",
",c c #2B1611",
",d c #2B1612",
",e c #2B180E",
",f c #2B1812",
",g c #2B1912",
",h c #2B1914",
",i c #2B1A0C",
",j c #2B1A12",
",k c #2B1A14",
",l c #2B1A17",
",m c #2B1B15",
",n c #2B1B17",
",o c #2B1C16",
",p c #2B1C17",
",q c #2B1D0D",
",r c #2B1D17",
",s c #2B1E19",
",t c #2B200F",
",u c #2B2218",
",v c #2B2318",
",w c #2B231C",
",x c #2C0B03",
",y c #2C110A",
",z c #2C110C",
",{ c #2C1208",
",| c #2C120A",
",} c #2C120D",
",~ c #2C130E",
"-! c #2C130F",
"-# c #2C140A",
"-$ c #2C140B",
"-% c #2C140C",
"-& c #2C140D",
"-' c #2C150A",
"-( c #2C150C",
"-) c #2C150D",
"-* c #2C150E",
"-+ c #2C1608",
"-, c #2C160A",
"-- c #2C170E",
"-. c #2C180D",
"-/ c #2C180F",
"-0 c #2C1813",
"-1 c #2C1912",
"-2 c #2C1913",
"-3 c #2C1A13",
"-4 c #2C1A14",
"-5 c #2C1B0F",
"-6 c #2C1B11",
"-7 c #2C1B12",
"-8 c #2C1B14",
"-9 c #2C1B15",
"-: c #2C1B1A",
"-; c #2C1C15",
"-< c #2C1D11",
"-= c #2C1D16",
"-> c #2C1D18",
"-? c #2C1E12",
"-@ c #2C1E15",
"-A c #2C1E16",
"-B c #2C1E17",
"-C c #2C1E1B",
"-D c #2C1F16",
"-E c #2C1F17",
"-F c #2C201A",
"-G c #2C2117",
"-H c #2C2315",
"-I c #2C241F",
"-J c #2D0D06",
"-K c #2D1208",
"-L c #2D120E",
"-M c #2D130A",
"-N c #2D140C",
"-O c #2D1506",
"-P c #2D150B",
"-Q c #2D160F",
"-R c #2D1810",
"-S c #2D1811",
"-T c #2D1914",
"-U c #2D1A12",
"-V c #2D1A16",
"-W c #2D1B13",
"-X c #2D1B15",
"-Y c #2D1C16",
"-Z c #2D1D17",
"-[ c #2D1D18",
"-] c #2D1E19",
"-^ c #2D1F13",
"-_ c #2D1F15",
"-` c #2D1F16",
"-a c #2D1F17",
"-b c #2D201A",
"-c c #2D201B",
"-d c #2D2119",
"-e c #2D211A",
"-f c #2D211C",
"-g c #2D211D",
"-h c #2D211E",
"-i c #2D2214",
"-j c #2D2219",
"-k c #2D231B",
"-l c #2D2417",
"-m c #2D241F",
"-n c #2E0C03",
"-o c #2E1208",
"-p c #2E120B",
"-q c #2E130A",
"-r c #2E140C",
"-s c #2E140D",
"-t c #2E140F",
"-u c #2E150F",
"-v c #2E160D",
"-w c #2E1610",
"-x c #2E170F",
"-y c #2E1713",
"-z c #2E180F",
"-{ c #2E1810",
"-| c #2E190C",
"-} c #2E1912",
"-~ c #2E1915",
".! c #2E1A13",
".# c #2E1A16",
".$ c #2E1B12",
".% c #2E1B13",
".& c #2E1C14",
".' c #2E1C15",
".( c #2E1D17",
".) c #2E1D18",
".* c #2E1E15",
".+ c #2E1E18",
"., c #2E1F17",
".- c #2E1F1A",
".. c #2E211E",
"./ c #2E2219",
".0 c #2E231A",
".1 c #2E2419",
".2 c #2E241B",
".3 c #2E251F",
".4 c #2F0C03",
".5 c #2F0E02",
".6 c #2F140F",
".7 c #2F150A",
".8 c #2F150B",
".9 c #2F1608",
".: c #2F170D",
".; c #2F170F",
".< c #2F180F",
".= c #2F1811",
".> c #2F1813",
".? c #2F1910",
".@ c #2F1915",
".A c #2F1916",
".B c #2F1A12",
".C c #2F1A18",
".D c #2F1B0E",
".E c #2F1B12",
".F c #2F1B15",
".G c #2F1B16",
".H c #2F1C13",
".I c #2F1C15",
".J c #2F1C16",
".K c #2F1D17",
".L c #2F1E14",
".M c #2F1E15",
".N c #2F1E16",
".O c #2F1E18",
".P c #2F1E1A",
".Q c #2F1F13",
".R c #2F1F15",
".S c #2F1F17",
".T c #2F1F18",
".U c #2F1F1D",
".V c #2F2018",
".W c #2F211A",
".X c #2F2218",
".Y c #2F221B",
".Z c #2F221C",
".[ c #2F221D",
".] c #2F231B",
".^ c #2F231C",
"._ c #2F231E",
".` c #2F241A",
".a c #2F241B",
".b c #2F251B",
".c c #2F251F",
".d c #2F2520",
".e c #301109",
".f c #301508",
".g c #301509",
".h c #30160B",
".i c #30160D",
".j c #301611",
".k c #30180F",
".l c #301A0C",
".m c #301A11",
".n c #301B12",
".o c #301B13",
".p c #301B14",
".q c #301B16",
".r c #301C11",
".s c #301C12",
".t c #301C14",
".u c #301C16",
".v c #301D11",
".w c #301D13",
".x c #301D16",
".y c #301D19",
".z c #301D1B",
".{ c #301E18",
".| c #301F15",
".} c #302015",
".~ c #302017",
"/! c #30201A",
"/# c #302118",
"/$ c #30211A",
"/% c #30211B",
"/& c #30211D",
"/' c #30231B",
"/( c #30231C",
"/) c #302419",
"/* c #30241B",
"/+ c #30241F",
"/, c #30251B",
"/- c #30251C",
"/. c #30261E",
"// c #302720",
"/0 c #310D02",
"/1 c #31140D",
"/2 c #311410",
"/3 c #311613",
"/4 c #31180D",
"/5 c #31190F",
"/6 c #311913",
"/7 c #311A0F",
"/8 c #311A10",
"/9 c #311A12",
"/: c #311C11",
"/; c #311C12",
"/< c #311C14",
"/= c #311C17",
"/> c #311D15",
"/? c #311D16",
"/@ c #311D17",
"/A c #311E17",
"/B c #311E1B",
"/C c #311E1F",
"/D c #311F15",
"/E c #311F16",
"/F c #311F1A",
"/G c #312014",
"/H c #312018",
"/I c #312019",
"/J c #31201B",
"/K c #312115",
"/L c #312119",
"/M c #31211B",
"/N c #31211C",
"/O c #312120",
"/P c #312213",
"/Q c #31221A",
"/R c #31221C",
"/S c #31231A",
"/T c #31231B",
"/U c #31231E",
"/V c #31241F",
"/W c #31251A",
"/X c #31251D",
"/Y c #31261D",
"/Z c #31271E",
"/[ c #31281B",
"/] c #32120B",
"/^ c #32130B",
"/_ c #321710",
"/` c #321712",
"/a c #32180E",
"/b c #321910",
"/c c #321A16",
"/d c #321B0E",
"/e c #321B12",
"/f c #321B18",
"/g c #321C14",
"/h c #321D0C",
"/i c #321D12",
"/j c #321D17",
"/k c #321D18",
"/l c #321D19",
"/m c #321E11",
"/n c #321E14",
"/o c #321F17",
"/p c #321F19",
"/q c #321F1A",
"/r c #322016",
"/s c #32201A",
"/t c #32201C",
"/u c #32201D",
"/v c #322112",
"/w c #322119",
"/x c #32211B",
"/y c #32221D",
"/z c #32221E",
"/{ c #322319",
"/| c #32231B",
"/} c #32231C",
"/~ c #322519",
"0! c #32251C",
"0# c #32251E",
"0$ c #32251F",
"0% c #322520",
"0& c #322521",
"0' c #32261B",
"0( c #32261E",
"0) c #32281D",
"0* c #322820",
"0+ c #322921",
"0, c #33130E",
"0- c #33150E",
"0. c #331810",
"0/ c #331812",
"00 c #331C0E",
"01 c #331C13",
"02 c #331D11",
"03 c #331D13",
"04 c #331F14",
"05 c #331F17",
"06 c #331F19",
"07 c #331F1B",
"08 c #33201D",
"09 c #332118",
"0: c #332119",
"0; c #33211A",
"0< c #332218",
"0= c #33221A",
"0> c #33221B",
"0? c #332319",
"0@ c #33231A",
"0A c #33231B",
"0B c #33231C",
"0C c #33231E",
"0D c #33251D",
"0E c #33251F",
"0F c #33261D",
"0G c #332620",
"0H c #33271F",
"0I c #332721",
"0J c #332724",
"0K c #332A20",
"0L c #332C22",
"0M c #332D21",
"0N c #34160C",
"0O c #34170E",
"0P c #341811",
"0Q c #341913",
"0R c #341A11",
"0S c #341C14",
"0T c #341C17",
"0U c #341D11",
"0V c #341D12",
"0W c #341D16",
"0X c #341E15",
"0Y c #341F16",
"0Z c #341F17",
"0[ c #341F1B",
"0] c #341F1C",
"0^ c #34201A",
"0_ c #342119",
"0` c #34211B",
"0a c #34211C",
"0b c #34221A",
"0c c #34221F",
"0d c #34231A",
"0e c #34231B",
"0f c #342418",
"0g c #34241C",
"0h c #342517",
"0i c #34251D",
"0j c #34251F",
"0k c #342522",
"0l c #342620",
"0m c #342720",
"0n c #342820",
"0o c #34291E",
"0p c #342921",
"0q c #35170C",
"0r c #351A12",
"0s c #351A15",
"0t c #351B11",
"0u c #351B14",
"0v c #351C11",
"0w c #351C13",
"0x c #351D18",
"0y c #351E15",
"0z c #351F16",
"0{ c #351F17",
"0| c #351F18",
"0} c #351F1B",
"0~ c #352019",
"1! c #35201B",
"1# c #352117",
"1$ c #352118",
"1% c #35211B",
"1& c #35221B",
"1' c #35221C",
"1( c #35221E",
"1) c #35221F",
"1* c #352318",
"1+ c #352319",
"1, c #35231F",
"1- c #35241B",
"1. c #35241C",
"1/ c #35241E",
"10 c #35241F",
"11 c #35251C",
"12 c #35251E",
"13 c #352621",
"14 c #35271A",
"15 c #352821",
"16 c #35291E",
"17 c #352A22",
"18 c #352C21",
"19 c #36150A",
"1: c #36180E",
"1; c #361C14",
"1< c #361E16",
"1= c #361F15",
"1> c #361F17",
"1? c #361F19",
"1@ c #362014",
"1A c #362016",
"1B c #362019",
"1C c #36201B",
"1D c #36201C",
"1E c #362114",
"1F c #362116",
"1G c #362117",
"1H c #36211B",
"1I c #36221D",
"1J c #362318",
"1K c #36231C",
"1L c #36231D",
"1M c #36231E",
"1N c #36241B",
"1O c #36241C",
"1P c #36241F",
"1Q c #362421",
"1R c #362422",
"1S c #36251F",
"1T c #36261F",
"1U c #362623",
"1V c #362719",
"1W c #36271C",
"1X c #36271F",
"1Y c #362720",
"1Z c #36281E",
"1[ c #362920",
"1] c #362A21",
"1^ c #371408",
"1_ c #37150B",
"1` c #371911",
"1a c #371D0F",
"1b c #371E16",
"1c c #371F14",
"1d c #371F18",
"1e c #372014",
"1f c #372018",
"1g c #372115",
"1h c #372118",
"1i c #372119",
"1j c #372217",
"1k c #37221A",
"1l c #37221E",
"1m c #37231A",
"1n c #37231E",
"1o c #37231F",
"1p c #37241D",
"1q c #372423",
"1r c #37251C",
"1s c #37251D",
"1t c #37251E",
"1u c #37251F",
"1v c #37261C",
"1w c #37261D",
"1x c #372620",
"1y c #37271F",
"1z c #372720",
"1{ c #372820",
"1| c #372821",
"1} c #372824",
"1~ c #372922",
"2! c #372A22",
"2# c #372A23",
"2$ c #372C24",
"2% c #372D25",
"2& c #381306",
"2' c #38190F",
"2( c #381B10",
"2) c #381C09",
"2* c #381C14",
"2+ c #381E19",
"2, c #381F1A",
"2- c #381F1C",
"2. c #382014",
"2/ c #382015",
"20 c #382019",
"21 c #38201A",
"22 c #38201B",
"23 c #38201C",
"24 c #382020",
"25 c #382117",
"26 c #382118",
"27 c #382119",
"28 c #38211A",
"29 c #382121",
"2: c #382214",
"2; c #382218",
"2< c #38221B",
"2= c #38221C",
"2> c #38221D",
"2? c #38221F",
"2@ c #38231A",
"2A c #38231C",
"2B c #38231D",
"2C c #38231E",
"2D c #38241D",
"2E c #38241F",
"2F c #38251D",
"2G c #38251E",
"2H c #38251F",
"2I c #38261F",
"2J c #382622",
"2K c #38271C",
"2L c #38271D",
"2M c #382723",
"2N c #38281B",
"2O c #38281F",
"2P c #382820",
"2Q c #382821",
"2R c #382822",
"2S c #382825",
"2T c #38291D",
"2U c #382921",
"2V c #382A1C",
"2W c #382A1D",
"2X c #382A20",
"2Y c #382A21",
"2Z c #382C22",
"2[ c #382E24",
"2] c #382F22",
"2^ c #382F24",
"2_ c #391508",
"2` c #391C12",
"2a c #391C14",
"2b c #391C17",
"2c c #391D0E",
"2d c #391E16",
"2e c #391E19",
"2f c #391F14",
"2g c #391F19",
"2h c #392015",
"2i c #392019",
"2j c #39201C",
"2k c #392112",
"2l c #392114",
"2m c #392117",
"2n c #392118",
"2o c #39211A",
"2p c #39221A",
"2q c #39221C",
"2r c #39231A",
"2s c #39231D",
"2t c #39231E",
"2u c #39241C",
"2v c #39241D",
"2w c #392517",
"2x c #39251D",
"2y c #39251E",
"2z c #392520",
"2{ c #39261F",
"2| c #392621",
"2} c #39271B",
"2~ c #39271C",
"3! c #39271E",
"3# c #39281F",
"3$ c #392823",
"3% c #392824",
"3& c #392920",
"3' c #392A22",
"3( c #392B22",
"3) c #3A1F14",
"3* c #3A2017",
"3+ c #3A201B",
"3, c #3A2118",
"3- c #3A2119",
"3. c #3A211E",
"3/ c #3A221A",
"30 c #3A2318",
"31 c #3A231A",
"32 c #3A241A",
"33 c #3A241B",
"34 c #3A241C",
"35 c #3A2420",
"36 c #3A251C",
"37 c #3A2520",
"38 c #3A261D",
"39 c #3A2722",
"3: c #3A2723",
"3; c #3A281E",
"3< c #3A281F",
"3= c #3A2821",
"3> c #3A2824",
"3? c #3A291B",
"3@ c #3A291F",
"3A c #3A2921",
"3B c #3A2924",
"3C c #3A2A21",
"3D c #3A2A23",
"3E c #3A2B20",
"3F c #3A2B23",
"3G c #3A2C22",
"3H c #3A2C26",
"3I c #3A2D24",
"3J c #3A2D25",
"3K c #3B190F",
"3L c #3B1B11",
"3M c #3B1C14",
"3N c #3B1D14",
"3O c #3B2014",
"3P c #3B2016",
"3Q c #3B2018",
"3R c #3B2114",
"3S c #3B2215",
"3T c #3B2315",
"3U c #3B2318",
"3V c #3B2319",
"3W c #3B231C",
"3X c #3B241A",
"3Y c #3B241D",
"3Z c #3B2421",
"3[ c #3B251C",
"3] c #3B251F",
"3^ c #3B261B",
"3_ c #3B261E",
"3` c #3B261F",
"3a c #3B2620",
"3b c #3B271A",
"3c c #3B271C",
"3d c #3B271D",
"3e c #3B2720",
"3f c #3B2722",
"3g c #3B281A",
"3h c #3B2823",
"3i c #3B291F",
"3j c #3B2922",
"3k c #3B2A21",
"3l c #3B2B21",
"3m c #3B2B22",
"3n c #3B2C24",
"3o c #3B2D20",
"3p c #3B2D25",
"3q c #3B2E22",
"3r c #3B2E24",
"3s c #3B3025",
"3t c #3B3225",
"3u c #3C150C",
"3v c #3C1F12",
"3w c #3C2113",
"3x c #3C2115",
"3y c #3C2117",
"3z c #3C211C",
"3{ c #3C231C",
"3| c #3C2418",
"3} c #3C2419",
"3~ c #3C241B",
"4! c #3C241C",
"4# c #3C241D",
"4$ c #3C251C",
"4% c #3C251D",
"4& c #3C2520",
"4' c #3C261C",
"4( c #3C261D",
"4) c #3C261E",
"4* c #3C2620",
"4+ c #3C2627",
"4, c #3C2720",
"4- c #3C2722",
"4. c #3C281E",
"4/ c #3C281F",
"40 c #3C2820",
"41 c #3C2821",
"42 c #3C2823",
"43 c #3C2920",
"44 c #3C2921",
"45 c #3C2A21",
"46 c #3C2A25",
"47 c #3C2B20",
"48 c #3C2B21",
"49 c #3C2B25",
"4: c #3C2D25",
"4; c #3C2D26",
"4< c #3C2D27",
"4= c #3C2E24",
"4> c #3C2F26",
"4? c #3C3025",
"4@ c #3C3424",
"4A c #3D2013",
"4B c #3D201B",
"4C c #3D2118",
"4D c #3D2119",
"4E c #3D221A",
"4F c #3D221C",
"4G c #3D231B",
"4H c #3D251B",
"4I c #3D261A",
"4J c #3D261B",
"4K c #3D261C",
"4L c #3D2621",
"4M c #3D271F",
"4N c #3D2822",
"4O c #3D291D",
"4P c #3D2921",
"4Q c #3D2923",
"4R c #3D2924",
"4S c #3D2A21",
"4T c #3D2A23",
"4U c #3D2A24",
"4V c #3D2B1C",
"4W c #3D2B1E",
"4X c #3D2B21",
"4Y c #3D2B23",
"4Z c #3D2B25",
"4[ c #3D2B27",
"4] c #3D2C24",
"4^ c #3D2D2A",
"4_ c #3D2D2B",
"4` c #3D2E23",
"4a c #3D2E24",
"4b c #3D2E27",
"4c c #3D2F25",
"4d c #3D2F2A",
"4e c #3D3124",
"4f c #3D3125",
"4g c #3D3126",
"4h c #3D3128",
"4i c #3D3225",
"4j c #3D3327",
"4k c #3D342A",
"4l c #3E1E14",
"4m c #3E201A",
"4n c #3E2117",
"4o c #3E2118",
"4p c #3E211A",
"4q c #3E211B",
"4r c #3E2215",
"4s c #3E221D",
"4t c #3E231D",
"4u c #3E241A",
"4v c #3E241C",
"4w c #3E241E",
"4x c #3E2423",
"4y c #3E2516",
"4z c #3E251E",
"4{ c #3E261F",
"4| c #3E2620",
"4} c #3E2718",
"4~ c #3E271F",
"5! c #3E2720",
"5# c #3E281D",
"5$ c #3E2820",
"5% c #3E2822",
"5& c #3E2922",
"5' c #3E2923",
"5( c #3E2924",
"5) c #3E2926",
"5* c #3E2A21",
"5+ c #3E2A23",
"5, c #3E2B26",
"5- c #3E2C24",
"5. c #3E2D29",
"5/ c #3E2E25",
"50 c #3E2E26",
"51 c #3E3028",
"52 c #3E3124",
"53 c #3E3325",
"54 c #3E352A",
"55 c #3F2013",
"56 c #3F201A",
"57 c #3F2216",
"58 c #3F2217",
"59 c #3F231B",
"5: c #3F241A",
"5; c #3F241C",
"5< c #3F241D",
"5= c #3F251B",
"5> c #3F2520",
"5? c #3F2522",
"5@ c #3F261E",
"5A c #3F261F",
"5B c #3F2622",
"5C c #3F271C",
"5D c #3F271E",
"5E c #3F271F",
"5F c #3F2818",
"5G c #3F281E",
"5H c #3F281F",
"5I c #3F2820",
"5J c #3F2825",
"5K c #3F291F",
"5L c #3F2923",
"5M c #3F2925",
"5N c #3F2A27",
"5O c #3F2B23",
"5P c #3F2C1F",
"5Q c #3F2C27",
"5R c #3F2D24",
"5S c #3F2D25",
"5T c #3F2E24",
"5U c #3F2E25",
"5V c #3F2E26",
"5W c #3F2E27",
"5X c #3F2E28",
"5Y c #3F2F27",
"5Z c #3F2F29",
"5[ c #3F3028",
"5] c #3F3128",
"5^ c #3F312B",
"5_ c #3F3424",
"5` c #3F3528",
"5a c #401A13",
"5b c #402114",
"5c c #402119",
"5d c #40231A",
"5e c #40251F",
"5f c #402618",
"5g c #40271C",
"5h c #40271D",
"5i c #40281D",
"5j c #402824",
"5k c #402825",
"5l c #40291E",
"5m c #402A1F",
"5n c #402A22",
"5o c #402A23",
"5p c #402A25",
"5q c #402A2A",
"5r c #402B20",
"5s c #402B24",
"5t c #402B27",
"5u c #402C20",
"5v c #402C23",
"5w c #402C28",
"5x c #402D25",
"5y c #402D26",
"5z c #402E26",
"5{ c #402E27",
"5| c #402F25",
"5} c #403025",
"5~ c #403029",
"6! c #403125",
"6# c #403129",
"6$ c #403225",
"6% c #403228",
"6& c #41221C",
"6' c #412318",
"6( c #412319",
"6) c #412417",
"6* c #412418",
"6+ c #41241B",
"6, c #41251C",
"6- c #41271B",
"6. c #41281C",
"6/ c #41281F",
"60 c #412921",
"61 c #412924",
"62 c #412B1F",
"63 c #412B29",
"64 c #412C24",
"65 c #412C25",
"66 c #412C26",
"67 c #412C2A",
"68 c #412D24",
"69 c #412D27",
"6: c #412E23",
"6; c #412E24",
"6< c #412E26",
"6= c #412E27",
"6> c #412E28",
"6? c #412E29",
"6@ c #412F24",
"6A c #412F25",
"6B c #412F26",
"6C c #412F27",
"6D c #413026",
"6E c #413027",
"6F c #413127",
"6G c #413128",
"6H c #413226",
"6I c #413227",
"6J c #41342A",
"6K c #421E14",
"6L c #422014",
"6M c #422215",
"6N c #422414",
"6O c #42251C",
"6P c #42251D",
"6Q c #42261E",
"6R c #422719",
"6S c #42271D",
"6T c #42281C",
"6U c #42291F",
"6V c #422922",
"6W c #422924",
"6X c #422A1F",
"6Y c #422C1F",
"6Z c #422C23",
"6[ c #422C28",
"6] c #422D24",
"6^ c #422E25",
"6_ c #422E27",
"6` c #422F20",
"6a c #422F23",
"6b c #422F24",
"6c c #422F25",
"6d c #422F27",
"6e c #422F2C",
"6f c #423026",
"6g c #423029",
"6h c #42302A",
"6i c #423126",
"6j c #423129",
"6k c #423225",
"6l c #423325",
"6m c #423328",
"6n c #42332A",
"6o c #42342B",
"6p c #423527",
"6q c #423529",
"6r c #42352A",
"6s c #423532",
"6t c #423730",
"6u c #432316",
"6v c #432512",
"6w c #432518",
"6x c #432722",
"6y c #43281A",
"6z c #43281E",
"6{ c #432823",
"6| c #432824",
"6} c #43291C",
"6~ c #432A24",
"7! c #432B20",
"7# c #432B24",
"7$ c #432B26",
"7% c #432B27",
"7& c #432C20",
"7' c #432C22",
"7( c #432C23",
"7) c #432C24",
"7* c #432D23",
"7+ c #432D25",
"7, c #432D26",
"7- c #432D27",
"7. c #432D2A",
"7/ c #432E24",
"70 c #432E26",
"71 c #432F25",
"72 c #432F28",
"73 c #433027",
"74 c #433028",
"75 c #433029",
"76 c #433125",
"77 c #433129",
"78 c #43312A",
"79 c #433425",
"7: c #433429",
"7; c #43342E",
"7< c #433526",
"7= c #43352A",
"7> c #43352B",
"7? c #43362B",
"7@ c #433828",
"7A c #442317",
"7B c #44241D",
"7C c #442619",
"7D c #44281A",
"7E c #44281F",
"7F c #442921",
"7G c #442923",
"7H c #442926",
"7I c #442A21",
"7J c #442B1D",
"7K c #442B23",
"7L c #442C22",
"7M c #442C24",
"7N c #442C25",
"7O c #442C26",
"7P c #442D1E",
"7Q c #442D24",
"7R c #442D26",
"7S c #442D27",
"7T c #442D29",
"7U c #442E23",
"7V c #442E25",
"7W c #442E28",
"7X c #442F26",
"7Y c #442F27",
"7Z c #442F28",
"7[ c #443024",
"7] c #443025",
"7^ c #443026",
"7_ c #44302B",
"7` c #443128",
"7a c #44322A",
"7b c #44322C",
"7c c #443328",
"7d c #443426",
"7e c #44342D",
"7f c #44342F",
"7g c #443629",
"7h c #443826",
"7i c #45261F",
"7j c #45291F",
"7k c #452920",
"7l c #452923",
"7m c #452A24",
"7n c #452A2A",
"7o c #452B1F",
"7p c #452B25",
"7q c #452C21",
"7r c #452C23",
"7s c #452E23",
"7t c #452E24",
"7u c #452E26",
"7v c #452E27",
"7w c #452E2A",
"7x c #452F23",
"7y c #452F24",
"7z c #452F25",
"7{ c #452F26",
"7| c #453029",
"7} c #45302A",
"7~ c #453129",
"8! c #453228",
"8# c #453229",
"8$ c #45322A",
"8% c #453322",
"8& c #453325",
"8' c #453327",
"8( c #453328",
"8) c #45332B",
"8* c #453529",
"8+ c #453628",
"8, c #45362F",
"8- c #45382A",
"8. c #46251A",
"8/ c #46251D",
"80 c #46281A",
"81 c #462823",
"82 c #46291F",
"83 c #462A1E",
"84 c #462C22",
"85 c #462C23",
"86 c #462C24",
"87 c #462C27",
"88 c #462D25",
"89 c #462D26",
"8: c #462E20",
"8; c #462E24",
"8< c #462E27",
"8= c #462F23",
"8> c #462F26",
"8? c #462F2B",
"8@ c #463025",
"8A c #463027",
"8B c #463028",
"8C c #463029",
"8D c #463126",
"8E c #463127",
"8F c #463128",
"8G c #46312B",
"8H c #463228",
"8I c #463229",
"8J c #463329",
"8K c #463428",
"8L c #46342A",
"8M c #463529",
"8N c #46352C",
"8O c #463628",
"8P c #463729",
"8Q c #463830",
"8R c #463A2C",
"8S c #463A2E",
"8T c #472718",
"8U c #47271D",
"8V c #472A1C",
"8W c #472A1F",
"8X c #472C21",
"8Y c #472C22",
"8Z c #472C24",
"8[ c #472D28",
"8] c #472E23",
"8^ c #472E27",
"8_ c #472F1F",
"8` c #472F24",
"8a c #472F28",
"8b c #473026",
"8c c #473027",
"8d c #473028",
"8e c #47302B",
"8f c #47302C",
"8g c #473128",
"8h c #473129",
"8i c #47312A",
"8j c #473133",
"8k c #473225",
"8l c #473229",
"8m c #473328",
"8n c #47332B",
"8o c #47342B",
"8p c #473528",
"8q c #47362A",
"8r c #47372E",
"8s c #473731",
"8t c #473828",
"8u c #482518",
"8v c #482B26",
"8w c #482D22",
"8x c #482D27",
"8y c #482E23",
"8z c #482E25",
"8{ c #482F21",
"8| c #482F2F",
"8} c #483029",
"8~ c #483127",
"9! c #483129",
"9# c #483229",
"9$ c #48322A",
"9% c #48322C",
"9& c #483324",
"9' c #483329",
"9( c #48332B",
"9) c #483331",
"9* c #483427",
"9+ c #48342A",
"9, c #48342B",
"9- c #48362A",
"9. c #48362D",
"9/ c #483729",
"90 c #48372C",
"91 c #48372E",
"92 c #483731",
"93 c #48392D",
"94 c #483932",
"95 c #483A27",
"96 c #49281E",
"97 c #492C1D",
"98 c #492C26",
"99 c #492E22",
"9: c #492E25",
"9; c #492E27",
"9< c #493025",
"9= c #49312A",
"9> c #49312C",
"9? c #49312F",
"9@ c #493227",
"9A c #49322C",
"9B c #49332D",
"9C c #493429",
"9D c #493524",
"9E c #493529",
"9F c #49352B",
"9G c #49352D",
"9H c #49362A",
"9I c #493728",
"9J c #49372E",
"9K c #493731",
"9L c #49382C",
"9M c #49392C",
"9N c #4A281F",
"9O c #4A2922",
"9P c #4A2B22",
"9Q c #4A2C22",
"9R c #4A2C24",
"9S c #4A2D23",
"9T c #4A2E28",
"9U c #4A3126",
"9V c #4A3127",
"9W c #4A312B",
"9X c #4A3226",
"9Y c #4A3227",
"9Z c #4A322A",
"9[ c #4A3231",
"9] c #4A332A",
"9^ c #4A332B",
"9_ c #4A3428",
"9` c #4A342B",
"9a c #4A342C",
"9b c #4A352F",
"9c c #4A3627",
"9d c #4A362F",
"9e c #4A372C",
"9f c #4A372E",
"9g c #4A382B",
"9h c #4A3830",
"9i c #4A3A30",
"9j c #4B2C24",
"9k c #4B2D21",
"9l c #4B2D23",
"9m c #4B2E27",
"9n c #4B2E28",
"9o c #4B3126",
"9p c #4B3228",
"9q c #4B322C",
"9r c #4B322D",
"9s c #4B3324",
"9t c #4B3327",
"9u c #4B332C",
"9v c #4B332D",
"9w c #4B332E",
"9x c #4B342F",
"9y c #4B352B",
"9z c #4B352F",
"9{ c #4B3628",
"9| c #4B362D",
"9} c #4B362F",
"9~ c #4B3630",
":! c #4B372D",
":# c #4B372E",
":$ c #4B3828",
":% c #4B382B",
":& c #4B382D",
":' c #4B392C",
":( c #4B392E",
":) c #4B3A29",
":* c #4B3A2B",
":+ c #4B3C30",
":, c #4B3D2D",
":- c #4B3E2E",
":. c #4C2A20",
":/ c #4C2E24",
":0 c #4C2E29",
":1 c #4C2E2A",
":2 c #4C2F26",
":3 c #4C3126",
":4 c #4C3127",
":5 c #4C3129",
":6 c #4C312B",
":7 c #4C3228",
":8 c #4C342C",
":9 c #4C352A",
":: c #4C352C",
":; c #4C3628",
":< c #4C362E",
":= c #4C3729",
":> c #4C382B",
":? c #4C392B",
":@ c #4C392C",
":A c #4C392D",
":B c #4C392F",
":C c #4C3930",
":D c #4C3B2D",
":E c #4C3C2F",
":F c #4D2719",
":G c #4D2F22",
":H c #4D301F",
":I c #4D3023",
":J c #4D3026",
":K c #4D3027",
":L c #4D3028",
":M c #4D3128",
":N c #4D312D",
":O c #4D3226",
":P c #4D3328",
":Q c #4D3330",
":R c #4D3428",
":S c #4D3429",
":T c #4D342A",
":U c #4D3525",
":V c #4D3529",
":W c #4D352B",
":X c #4D352D",
":Y c #4D3629",
":Z c #4D362B",
":[ c #4D372F",
":] c #4D382B",
":^ c #4D382C",
":_ c #4D382D",
":` c #4D382E",
":a c #4D3931",
":b c #4D3A2D",
":c c #4D3D2E",
":d c #4D3D32",
":e c #4D3E2C",
":f c #4D3E36",
":g c #4E2E28",
":h c #4E3027",
":i c #4E302E",
":j c #4E322E",
":k c #4E352C",
":l c #4E352F",
":m c #4E362D",
":n c #4E3630",
":o c #4E372C",
":p c #4E3730",
":q c #4E3829",
":r c #4E382A",
":s c #4E382C",
":t c #4E382D",
":u c #4E392C",
":v c #4E3935",
":w c #4E3B2C",
":x c #4E3B31",
":y c #4E3C2F",
":z c #4E3C32",
":{ c #4E3C36",
":| c #4E3D30",
":} c #4E402F",
":~ c #4E4332",
";! c #4F2F30",
";# c #4F3126",
";$ c #4F3128",
";% c #4F3228",
";& c #4F332A",
";' c #4F342B",
";( c #4F342F",
";) c #4F352B",
";* c #4F352D",
";+ c #4F362F",
";, c #4F372D",
";- c #4F382D",
";. c #4F3831",
";/ c #4F3929",
";0 c #4F392E",
";1 c #4F392F",
";2 c #4F3930",
";3 c #4F3A2E",
";4 c #4F3A30",
";5 c #4F3A34",
";6 c #4F3B31",
";7 c #4F3C2E",
";8 c #4F3C2F",
";9 c #4F3C30",
";: c #4F3C33",
";; c #4F3D33",
";< c #4F3F38",
";= c #502A24",
";> c #502D21",
";? c #503226",
";@ c #503329",
";A c #503429",
";B c #50342F",
";C c #50352F",
";D c #50362A",
";E c #50362C",
";F c #50372D",
";G c #503731",
";H c #50382D",
";I c #503830",
";J c #50392E",
";K c #50392F",
";L c #503930",
";M c #503B31",
";N c #503B34",
";O c #503C2F",
";P c #503C35",
";Q c #503D37",
";R c #503E36",
";S c #503F32",
";T c #504039",
";U c #504338",
";V c #512E26",
";W c #51302B",
";X c #513228",
";Y c #51322F",
";Z c #51332A",
";[ c #51342A",
";] c #51342B",
";^ c #51352E",
";_ c #51352F",
";` c #513533",
";a c #51362A",
";b c #51362B",
";c c #51362C",
";d c #51362E",
";e c #513632",
";f c #51372B",
";g c #51372E",
";h c #513734",
";i c #51382B",
";j c #513830",
";k c #513831",
";l c #51392C",
";m c #51392F",
";n c #513931",
";o c #513933",
";p c #513934",
";q c #513936",
";r c #513A2E",
";s c #513A2F",
";t c #513A30",
";u c #513A31",
";v c #513B2F",
";w c #513B33",
";x c #513C2B",
";y c #513D2E",
";z c #513D33",
";{ c #513E2E",
";| c #513E36",
";} c #513F33",
";~ c #51402F",
"<! c #514032",
"<# c #514130",
"<$ c #514136",
"<% c #522B22",
"<& c #522E26",
"<' c #523224",
"<( c #523233",
"<) c #52332C",
"<* c #52342C",
"<+ c #523529",
"<, c #52352A",
"<- c #52352D",
"<. c #523632",
"</ c #52372A",
"<0 c #52372D",
"<1 c #52382E",
"<2 c #523831",
"<3 c #523A2F",
"<4 c #523B2D",
"<5 c #523C2E",
"<6 c #523C32",
"<7 c #523D2C",
"<8 c #523D35",
"<9 c #523E2E",
"<: c #524738",
"<; c #533429",
"<< c #53352C",
"<= c #533833",
"<> c #53392C",
"<? c #53392E",
"<@ c #53392F",
"<A c #533930",
"<B c #533A2C",
"<C c #533B2B",
"<D c #533B2E",
"<E c #533B31",
"<F c #533B33",
"<G c #533C2E",
"<H c #533C32",
"<I c #533C33",
"<J c #533D2C",
"<K c #533D34",
"<L c #533D38",
"<M c #533E2D",
"<N c #533E33",
"<O c #533F31",
"<P c #534038",
"<Q c #534235",
"<R c #534236",
"<S c #534339",
"<T c #54352F",
"<U c #54362B",
"<V c #54372C",
"<W c #54392B",
"<X c #543A2E",
"<Y c #543B2A",
"<Z c #543B2E",
"<[ c #543B30",
"<] c #543C2E",
"<^ c #543C2F",
"<_ c #543C30",
"<` c #543C33",
"<a c #543D32",
"<b c #543D35",
"<c c #543E30",
"<d c #543E3C",
"<e c #543F32",
"<f c #543F35",
"<g c #544131",
"<h c #544137",
"<i c #544331",
"<j c #544333",
"<k c #55322E",
"<l c #55362D",
"<m c #55362F",
"<n c #55372B",
"<o c #55372D",
"<p c #55382F",
"<q c #553831",
"<r c #553930",
"<s c #553933",
"<t c #553A2D",
"<u c #553A32",
"<v c #553B2F",
"<w c #553B30",
"<x c #553C2F",
"<y c #553C3A",
"<z c #553D31",
"<{ c #553D32",
"<| c #553D33",
"<} c #553E36",
"<~ c #553F31",
"=! c #553F35",
"=# c #554238",
"=$ c #554336",
"=% c #563737",
"=& c #563832",
"=' c #563834",
"=( c #563B2E",
"=) c #563B2F",
"=* c #563B31",
"=+ c #563C31",
"=, c #563C32",
"=- c #563C34",
"=. c #563D31",
"=/ c #563D33",
"=0 c #563D36",
"=1 c #563E2C",
"=2 c #563E30",
"=3 c #563E31",
"=4 c #564036",
"=5 c #56422F",
"=6 c #564238",
"=7 c #56473E",
"=8 c #573627",
"=9 c #57372C",
"=: c #573732",
"=; c #57382A",
"=< c #57382B",
"== c #57382F",
"=> c #573832",
"=? c #57392B",
"=@ c #573931",
"=A c #573A31",
"=B c #573B2C",
"=C c #573B2F",
"=D c #573B32",
"=E c #573C2C",
"=F c #573C2F",
"=G c #573C32",
"=H c #573D35",
"=I c #573E30",
"=J c #573E32",
"=K c #573E33",
"=L c #573F33",
"=M c #573F36",
"=N c #574031",
"=O c #574033",
"=P c #574134",
"=Q c #57423A",
"=R c #574436",
"=S c #57463A",
"=T c #58372A",
"=U c #58372D",
"=V c #58392B",
"=W c #583930",
"=X c #583A30",
"=Y c #583A31",
"=Z c #583A36",
"=[ c #583B2F",
"=] c #583B33",
"=^ c #583C32",
"=_ c #583D38",
"=` c #583F32",
"=a c #583F33",
"=b c #583F3A",
"=c c #584034",
"=d c #584037",
"=e c #584132",
"=f c #58413B",
"=g c #584234",
"=h c #584435",
"=i c #58443D",
"=j c #584533",
"=k c #584738",
"=l c #59382A",
"=m c #593931",
"=n c #593C2E",
"=o c #593C31",
"=p c #593D35",
"=q c #593D37",
"=r c #593E32",
"=s c #593E33",
"=t c #593E36",
"=u c #593F2F",
"=v c #593F32",
"=w c #593F38",
"=x c #594031",
"=y c #594134",
"=z c #594333",
"={ c #594336",
"=| c #594434",
"=} c #59463B",
"=~ c #5A352E",
">! c #5A3731",
"># c #5A3831",
">$ c #5A392B",
">% c #5A392D",
">& c #5A3C31",
">' c #5A3C36",
">( c #5A3C37",
">) c #5A3D2D",
">* c #5A3D33",
">+ c #5A3E2E",
">, c #5A3E32",
">- c #5A3F34",
">. c #5A3F39",
">/ c #5A4033",
">0 c #5A4036",
">1 c #5A4134",
">2 c #5A4136",
">3 c #5A4139",
">4 c #5A4231",
">5 c #5A4238",
">6 c #5A4239",
">7 c #5A4438",
">8 c #5A4639",
">9 c #5A4640",
">: c #5A4734",
">; c #5B392E",
">< c #5B3930",
">= c #5B3A2C",
">> c #5B3B32",
">? c #5B3B35",
">@ c #5B3C32",
">A c #5B3C37",
">B c #5B3D2D",
">C c #5B3D2F",
">D c #5B3D30",
">E c #5B3D34",
">F c #5B3E33",
">G c #5B4031",
">H c #5B4032",
">I c #5B4035",
">J c #5B4036",
">K c #5B4134",
">L c #5B4231",
">M c #5B4234",
">N c #5B4333",
">O c #5B4337",
">P c #5B4339",
">Q c #5B4342",
">R c #5B4434",
">S c #5B4435",
">T c #5B4436",
">U c #5B4735",
">V c #5B473D",
">W c #5B4A36",
">X c #5C3B2E",
">Y c #5C3C2F",
">Z c #5C3D33",
">[ c #5C3E31",
">] c #5C3E33",
">^ c #5C3E35",
">_ c #5C3E39",
">` c #5C3E3A",
">a c #5C3F38",
">b c #5C4030",
">c c #5C4033",
">d c #5C4036",
">e c #5C4037",
">f c #5C4133",
">g c #5C4233",
">h c #5C4339",
">i c #5C4433",
">j c #5C4638",
">k c #5C4837",
">l c #5C483F",
">m c #5D3831",
">n c #5D3932",
">o c #5D3A2B",
">p c #5D3A30",
">q c #5D3B2E",
">r c #5D3B34",
">s c #5D3D30",
">t c #5D3D31",
">u c #5D3D36",
">v c #5D3E34",
">w c #5D3F31",
">x c #5D3F32",
">y c #5D4034",
">z c #5D4037",
">{ c #5D4135",
">| c #5D4332",
">} c #5D4335",
">~ c #5D4338",
"?! c #5D4339",
"?# c #5D4436",
"?$ c #5D473D",
"?% c #5D483A",
"?& c #5D493B",
"?' c #5D493C",
"?( c #5D4A36",
"?) c #5D4A3A",
"?* c #5D4C3A",
"?+ c #5E3C2E",
"?, c #5E3C32",
"?- c #5E3C33",
"?. c #5E3D36",
"?/ c #5E3E32",
"?0 c #5E3E35",
"?1 c #5E3F31",
"?2 c #5E3F36",
"?3 c #5E4035",
"?4 c #5E4036",
"?5 c #5E4038",
"?6 c #5E403A",
"?7 c #5E4130",
"?8 c #5E4136",
"?9 c #5E4139",
"?: c #5E4238",
"?; c #5E4432",
"?< c #5E4438",
"?= c #5E4538",
"?> c #5E4539",
"?? c #5E4636",
"?@ c #5E4639",
"?A c #5E463D",
"?B c #5E473A",
"?C c #5E473B",
"?D c #5E4939",
"?E c #5F3B29",
"?F c #5F3B33",
"?G c #5F3B34",
"?H c #5F3E32",
"?I c #5F3E34",
"?J c #5F3F33",
"?K c #5F4031",
"?L c #5F412F",
"?M c #5F4133",
"?N c #5F4134",
"?O c #5F413B",
"?P c #5F4237",
"?Q c #5F4238",
"?R c #5F4333",
"?S c #5F4337",
"?T c #5F4638",
"?U c #5F483A",
"?V c #5F4936",
"?W c #5F4B37",
"?X c #603A28",
"?Y c #603A35",
"?Z c #603B2E",
"?[ c #603C36",
"?] c #604137",
"?^ c #604138",
"?_ c #604336",
"?` c #604338",
"?a c #604435",
"?b c #604437",
"?c c #604439",
"?d c #60443A",
"?e c #60463A",
"?f c #604938",
"?g c #604B3B",
"?h c #613D38",
"?i c #613E33",
"?j c #613F36",
"?k c #614034",
"?l c #614134",
"?m c #614136",
"?n c #61413B",
"?o c #614231",
"?p c #614234",
"?q c #614435",
"?r c #614436",
"?s c #614439",
"?t c #61453A",
"?u c #623B35",
"?v c #624032",
"?w c #624033",
"?x c #624038",
"?y c #624130",
"?z c #624133",
"?{ c #624136",
"?| c #624235",
"?} c #624237",
"?~ c #624238",
"@! c #624335",
"@# c #624339",
"@$ c #62433A",
"@% c #62453E",
"@& c #624639",
"@' c #624737",
"@( c #624836",
"@) c #62483C",
"@* c #624934",
"@+ c #624938",
"@, c #624A3F",
"@- c #624C36",
"@. c #624C3D",
"@/ c #624C3E",
"@0 c #624D41",
"@1 c #633D36",
"@2 c #633E35",
"@3 c #633E3A",
"@4 c #634236",
"@5 c #63423D",
"@6 c #634334",
"@7 c #634533",
"@8 c #634636",
"@9 c #634836",
"@: c #634838",
"@; c #634937",
"@< c #634A3B",
"@= c #634B3C",
"@> c #643E31",
"@? c #643F32",
"@@ c #644033",
"@A c #644139",
"@B c #644235",
"@C c #644236",
"@D c #644336",
"@E c #644431",
"@F c #644433",
"@G c #64443A",
"@H c #644537",
"@I c #644538",
"@J c #644635",
"@K c #644636",
"@L c #64463C",
"@M c #644938",
"@N c #644A39",
"@O c #654238",
"@P c #654336",
"@Q c #654338",
"@R c #654532",
"@S c #654539",
"@T c #654639",
"@U c #654736",
"@V c #654836",
"@W c #654939",
"@X c #65493A",
"@Y c #65493F",
"@Z c #654A39",
"@[ c #654B3A",
"@] c #654C40",
"@^ c #663F36",
"@_ c #664133",
"@` c #664337",
"@a c #664436",
"@b c #664438",
"@c c #664537",
"@d c #664538",
"@e c #664539",
"@f c #66453A",
"@g c #66453D",
"@h c #664635",
"@i c #66473A",
"@j c #66483E",
"@k c #66493C",
"@l c #66493F",
"@m c #664A38",
"@n c #664B3F",
"@o c #664E40",
"@p c #665039",
"@q c #673D31",
"@r c #674236",
"@s c #674336",
"@t c #674339",
"@u c #674432",
"@v c #674436",
"@w c #674437",
"@x c #67443B",
"@y c #67453C",
"@z c #674637",
"@{ c #674639",
"@| c #67463A",
"@} c #67473C",
"@~ c #674837",
"A! c #674838",
"A# c #674B35",
"A$ c #674B36",
"A% c #674E38",
"A& c #674F3B",
"A' c #67523F",
"A( c #684239",
"A) c #684338",
"A* c #68433B",
"A+ c #68443A",
"A, c #68443C",
"A- c #684536",
"A. c #684537",
"A/ c #684539",
"A0 c #684637",
"A1 c #684739",
"A2 c #68473B",
"A3 c #68473D",
"A4 c #684837",
"A5 c #684A39",
"A6 c #684B3B",
"A7 c #684B3C",
"A8 c #684E3F",
"A9 c #685340",
"A: c #694335",
"A; c #694339",
"A< c #694437",
"A= c #69443C",
"A> c #694537",
"A? c #69473A",
"A@ c #69473E",
"AA c #694836",
"AB c #694838",
"AC c #694839",
"AD c #694938",
"AE c #69493E",
"AF c #694D42",
"AG c #69513E",
"AH c #6A4334",
"AI c #6A4436",
"AJ c #6A4633",
"AK c #6A4639",
"AL c #6A473A",
"AM c #6A483A",
"AN c #6A483F",
"AO c #6A493C",
"AP c #6A4B3C",
"AQ c #6A4F44",
"AR c #6A503F",
"AS c #6A533D",
"AT c #6B423D",
"AU c #6B4538",
"AV c #6B463B",
"AW c #6B463C",
"AX c #6B473C",
"AY c #6B4836",
"AZ c #6B483E",
"A[ c #6B4937",
"A] c #6B493E",
"A^ c #6B4A38",
"A_ c #6B4B3B",
"A` c #6B4E3B",
"Aa c #6B523F",
"Ab c #6B533E",
"Ac c #6C433A",
"Ad c #6C4437",
"Ae c #6C443C",
"Af c #6C4538",
"Ag c #6C4539",
"Ah c #6C473A",
"Ai c #6C483A",
"Aj c #6C4938",
"Ak c #6C493D",
"Al c #6C493E",
"Am c #6C4B39",
"An c #6C4B3C",
"Ao c #6C4D3C",
"Ap c #6C4E37",
"Aq c #6C4F3B",
"Ar c #6C4F3C",
"As c #6C5041",
"At c #6D4436",
"Au c #6D453A",
"Av c #6D463C",
"Aw c #6D473D",
"Ax c #6D4837",
"Ay c #6D483A",
"Az c #6D493A",
"A{ c #6D493B",
"A| c #6D493C",
"A} c #6D4A3C",
"A~ c #6D4A3E",
"B! c #6D4B3D",
"B# c #6D4B3E",
"B$ c #6D4C3B",
"B% c #6D4C41",
"B& c #6D4D3D",
"B' c #6D4F3F",
"B( c #6D503A",
"B) c #6D503C",
"B* c #6D503E",
"B+ c #6D5141",
"B, c #6D523C",
"B- c #6D523F",
"B. c #6E443B",
"B/ c #6E4538",
"B0 c #6E463C",
"B1 c #6E4738",
"B2 c #6E4739",
"B3 c #6E473E",
"B4 c #6E4839",
"B5 c #6E483D",
"B6 c #6E4A37",
"B7 c #6E4C3A",
"B8 c #6E4C3E",
"B9 c #6E4C40",
"B: c #6E4C41",
"B; c #6E4E3C",
"B< c #6E4E40",
"B= c #6E503D",
"B> c #6E5041",
"B? c #6E513B",
"B@ c #6E533C",
"BA c #6E5640",
"BB c #6F463E",
"BC c #6F4837",
"BD c #6F483E",
"BE c #6F493C",
"BF c #6F4A41",
"BG c #6F4B3C",
"BH c #6F4B3D",
"BI c #6F4B3F",
"BJ c #6F4D3C",
"BK c #6F4F3E",
"BL c #6F5241",
"BM c #6F533F",
"BN c #70443C",
"BO c #70443E",
"BP c #704739",
"BQ c #704938",
"BR c #704A39",
"BS c #704B3F",
"BT c #704C3E",
"BU c #704D3D",
"BV c #704E39",
"BW c #704E3F",
"BX c #704F3C",
"BY c #70503B",
"BZ c #70503D",
"B[ c #70513E",
"B] c #70523A",
"B^ c #705244",
"B_ c #70543D",
"B` c #714637",
"Ba c #714738",
"Bb c #714A3B",
"Bc c #714A3C",
"Bd c #714B39",
"Be c #714B3B",
"Bf c #714B3C",
"Bg c #714B41",
"Bh c #714C3D",
"Bi c #714D3C",
"Bj c #714D3F",
"Bk c #714D40",
"Bl c #714E39",
"Bm c #714E3B",
"Bn c #714E3D",
"Bo c #714E41",
"Bp c #715143",
"Bq c #71523B",
"Br c #715242",
"Bs c #715344",
"Bt c #715443",
"Bu c #724A3E",
"Bv c #724B3F",
"Bw c #724C3B",
"Bx c #724D3B",
"By c #724E3C",
"Bz c #724E41",
"B{ c #725241",
"B| c #725341",
"B} c #725343",
"B~ c #734639",
"C! c #73493B",
"C# c #734940",
"C$ c #734B3E",
"C% c #734C3B",
"C& c #734C3D",
"C' c #734C40",
"C( c #734C41",
"C) c #734C42",
"C* c #734D40",
"C+ c #73503F",
"C, c #73513C",
"C- c #735544",
"C. c #744A3D",
"C/ c #744A42",
"C0 c #744B3C",
"C1 c #744C41",
"C2 c #744F41",
"C3 c #74503B",
"C4 c #745143",
"C5 c #745244",
"C6 c #745643",
"C7 c #754B3E",
"C8 c #754C3E",
"C9 c #754F40",
"C: c #754F41",
"C; c #75503D",
"C< c #755042",
"C= c #75533D",
"C> c #75543D",
"C? c #764C3D",
"C@ c #764D3E",
"CA c #764F38",
"CB c #765041",
"CC c #765043",
"CD c #76513B",
"CE c #765142",
"CF c #765240",
"CG c #765341",
"CH c #76583E",
"CI c #774839",
"CJ c #774B42",
"CK c #774D3C",
"CL c #774D3E",
"CM c #774E41",
"CN c #774F3F",
"CO c #774F42",
"CP c #77543F",
"CQ c #775444",
"CR c #775747",
"CS c #784C3E",
"CT c #784D40",
"CU c #784F3C",
"CV c #785344",
"CW c #78553F",
"CX c #79463F",
"CY c #794840",
"CZ c #795041",
"C[ c #79523D",
"C] c #795247",
"C^ c #795343",
"C_ c #7A4E42",
"C` c #7A5044",
"Ca c #7A5144",
"Cb c #7A5844",
"Cc c #7A5940",
"Cd c #7A5A48",
"Ce c #7B4E3D",
"Cf c #7B5343",
"Cg c #7B5540",
"Ch c #7B5549",
"Ci c #7B5641",
"Cj c #7B5846",
"Ck c #7C5345",
"Cl c #7C534B",
"Cm c #7C583B",
"Cn c #7C5948",
"Co c #7D4E42",
"Cp c #7D5041",
"Cq c #7D5048",
"Cr c #7D5149",
"Cs c #7D5640",
"Ct c #7D5945",
"Cu c #7E5140",
"Cv c #7E5344",
"Cw c #7E5541",
"Cx c #7E5546",
"Cy c #7E5843",
"Cz c #7E5B49",
"C{ c #7F4F3B",
"C| c #7F5042",
"C} c #7F5240",
"C~ c #7F5346",
"D! c #7F5540",
"D# c #7F564D",
"D$ c #7F5746",
"D% c #804F41",
"D& c #805144",
"D' c #805147",
"D( c #815246",
"D) c #815347",
"D* c #825043",
"D+ c #825246",
"D, c #825346",
"D- c #82563F",
"D. c #825845",
"D/ c #835041",
"D0 c #835840",
"D1 c #835843",
"D2 c #83584A",
"D3 c #835F54",
"D4 c #845342",
"D5 c #845740",
"D6 c #845842",
"D7 c #855444",
"D8 c #85584E",
"D9 c #865344",
"D: c #865A46",
"D; c #8A5445",
"D< c #8A5740",
"D= c #8A5746",
"D> c #8B5A4B",
"D? c #8B5B40",
"D@ c #8B6247",
"DA c #8C5C4D",
"DB c #8D5748",
"DC c #8D5E47",
"DD c #8E5946",
"DE c #90604F",
"DF c #906052",
"DG c #915843",
"DH c #935A4B",
"DI c #935F4B",
"DJ c #936151",
"DK c #97624D",
"DL c #97684A",
"DM c #9A644F",
/* pixels */
"2s5o<D<x?70B5/A@@g@{5h1w>.:6=_110i6bA<@D1j6_?y>C@F1O<V:V>$9t097u7p6|9?631n3:.U39/J7;7:1W9&7d:$=D<v1o5N>_;p<K922L/R;h67:l7w35>eD(",
"2W!e!7,G:Y9C<o6k'[.,1[!X4M-}&_4X#A(e!=$C7a$z(<*3/n4/+}$j#B(O7);?:k=^86;Z-c)]%*1Q!,#(#%'6412{.(!d#m3k!-!j#2&1#v3a->&v$-!<5q!N)z0~",
"!!?%*8.{3@*>9K1[,,,<!%8-&g!]'^&Y@I.B+]!x-~=M+F+>!7)G/;#j$2$5/l?#;j>2?.*S=Z!p/+-f7b!J*##z+/3#3p*g0b$t=,!7!2#W!G!r:t#-3;6@,F;B/y,p",
"%D6o#.+$(p*[>V']*E.t!b53!!!F$S&U?R9<'5!/'F42)K!&,X!#36!W!I!7)m>K?5>y@1$%=&#8.[%S6h#I(T.Z/#=I)}!C&%!L=L!#!@$H$-%%;-$e)38K$i<s0C%F",
"#@<_6A7675!I=!0m0E.(!#8t$w#b!'##>L4='Q!=-y7(*64I1@0R+&!u*]-9*b:W7Z5Q:R&/=d%.(U!e;P49#{-B&b>91)1Y.`(Q<I!l#G$v($!*>+8;$?5I$X941M1P",
"693pA$=51J4k4d=S<$??7i4jArB*BM*F/L=k9i?B;I0h@:?aBf.|1G:w9|<b8A2B8^;D/!7y+X?#=w4Q,L::;L:b/'5}:(2Z<O+2137}>d:u>M2C1C<{<97v3e/}9]9!",
"2N5v-<!S%z6%!82$%2&90J?U8`=.?>0p'q#a'T/K:d#_2w,i,H2K!7-`-F6^7{!8!7#0#37H$@$l#56e6e!l//-;3q93?o8p:X.d,,0#!q!C!<0I&e,'#s+U/U1|;A2E",
"!U>l$F#n!r(W<:!S!L+;%YD==PAa<P!*<#&2!)-Z/Y6!*u!#%T#Z>1'3#`,O(M,)'.*^&-*d-g!O%D*C>3.]*[)x*yAM:}>):o#!>O-b+1#V-m!;=b083D/z&59b5y7~",
"!B5^!W!Q$2(y;U3q%-;#!HD7<eAG=i!*;~$r#q'Y&`A9#S!g!+!XAq#w!*-D!)3(&0!~#2,'7-&#'v1/>68M;D3G*Q@_2]:q9,#!=4#y#[2S-I!!<=-C1x6>%N;565,s",
"!<<~#k!B!l(z=79J6G9i+i@/>5=0=}$R?*&0!##6-d;7!M!W-A!!>u)U#0/%$4;r#D(M+4(*87!H!3/k?]4?8q9d#$<a3J7f6D!v;1#u$W$p!r!.6s3n4^6t!*<Q8!4Y",
"2@45AgAc?t1h3t>X>q7e0M0*?(-GAk4D4p<8B-A&6K<%Bs@]?'0k=+;z<Z<w/~7=5x5|;s:u5%=G8K:M4L91:!.u74744><(8j3`3I:x8Q94:{-k/*9=649%9q3$?,;(",
"2@&]/O(%%_7@);!?&74<3]2,#n&,(Y7j!#-l-i-H6H)A!`9y>T4c(K)0!&)X5X$q!P4R'O<<$~!I!P9_!U!t(N#/3s!:%1,T0A6=!;!s0(!;/B/X0F0$.^=);0!V1L1q",
"'I;4#+)Q6g$'@2#z!&)y!*9[.6)e$C!IDH;V/,'a!MCN#p&^>i*1D,<59h;|$T('%m%!-W/A9@!*&D',=E#x!&#U.R:?(t*|-j$&:a#8!c,R(H$!8s6#>U?J!$7.++'S",
"'m?$#,!#;w%$?-)|#d$60O<y!6220B%;@t0-4f.1!'BU3=/{=1%`BP3J9f<N(x3>!k*2#S2F@6!<27*:0<+6(A0m*@@m()36.0!!=Q#]!=.^&!'b;<7e2[A2$a8f)V'z",
"(9;;#C$J;'&`?A+'*55~#0?D#7!!!8&8D)&?:E6r+QAL4:1Z?f!7!B5I178+(*(&#a!'/=1!AQ)[(L,K6f!)%5)/5YCR8$/(7>!Q?U#w&*!V$9#Y;q?/=$<L#'(,.K#j",
"4]3B?!;o4+72<W@<?f>(3A4i@RBQCU/[2%=c8N=`='0H:@=3>87//-B19I:|>%/):c@E8m7^/Z>N@a;W0c@c@`=B0:7];t5`=R105-8)@w=/;R0%-g9L1](R5w7%BOAu",
"/C#S-55P-:9##m#|!54O1V?d!8$L!*6}+,'Z!!!A<.3o-O%0$U4:6i7h!#$V:%*!%Q$<'t9')8,d!I;d!j$I!+*c3E3&*9'3#o1}!P770?!X!Q/X3r7T&48?8F!7%&!k",
")S>j!3(3%#,KD6-.))<^7G@05t),*B!$=g0g3)!P!7=8!]:2>]$[?Z<Y/<33#48S!A!*#c+^9V#1)U%O:)+V%L)]#t=.!['-!7!&8L'x2;/V/.'9:f/u.)@z#05K!*!{",
"!P9|#Q$A!6!PCb5%.q46!tB#*J+d3P*$>Q(O555b,tAS5Z.7=;0LAD52%q#N+x(S(-!t!l%w..-h#.$'=V!8&}+T._:z!X-e'N%'69,C*<%?9A!Z<S8G08?r,B7R!P%Z",
"!<?~$A&{.A/4Ct.q9v9G%KB9-r&>(}!J<d!L6M5b#MBA0j9kAC!^B;8O.2(V(=*i(u!-*---'2)91S5$>Y!m!*!*+[6j!o&4-;'$Bg%}*4!11l#;;}5t;Y8H%d:[,|,~",
"483fCoCL9R9X;lAlAW<35r98A{C8B52F2!?_;y@*?X1m@q>kB_892>7V9/<i54.3?G>r5]4b2I;T?e:91z?T=z=*/z5(;N8N=M0G6?;C>7>z@f2s21?Y;!2H8<7#CYBD",
"368v0u2*!=1B,0&?.k!m2O@v8e!#68%l!81w9M8*>pBW5F:D?W&~!*8d!B&f<Z!z!15+(!0=#K!#/|1k8d1{!*%H4`!v%P,w#^&(1X(!0[4x4U1R'{4*&~0v2-5k(|$&",
"!$DI'e3u2&.5;m%[*G'g!3?91p6d0^!P<n0n8P4c3?C~@rCBBR,X7g1~#e6q&3%W(X!7+y'w>;(+!v+ABC2p!3$F.M@X$8!V##!SCn&L!)0U4z!<&C66*W25.s@J!r/]",
"#P?E.4,x!-4l>=!P.8&Q$)@B)5'X:9!3/Q5=0'0'82C,<J<MB]'jC%2^)?-t/8(v!M&$,-'c0G+Z#A+]79$Y-8+q1y;3$o$K,P%E?)#}&r'D:4!A+u-x5A!_1*?q)b2n",
"$]A^-J!U!*8.DC4n-q!*#ACv4;#U:7!*8(!A/W165dBV9D6`CH(]@40K4t2g+A6p!*#S5_)^5W2#0Y.b9g*k!8'y0bB<!l#v2P!R@.'3!`4{;,$;1D+g2o?j+KD./3!~",
"598TA_CgBy3v8{C3D0Au6V3_AI9F?n3e2K:'A5@~0f6l?LAJCA0o:A?l:,8R.36$4@7<:~:-4g@!3F950)<g=y<B;J>D:^;.<A1U6B?b>AB7A!2|1(CNA4?8?;5uBN@h",
"7r$z/a-K'A2/3N!_0x?z7n)$#A%^>!&X.n#B!P)N;x!b+l.^15$Z!u.0585:<-!0#i!/'5.a&D1i51/T)Z!n!R47:>-a:]!I%c'!==*R0@;2>v86!H!v2v,C06'u01!=",
"&E=~,}0,!--oC?!*!7!&)tBx'r$d*M'~Cf7E4Z,o'd/g!L!h18#f<p#y34?+%/+_%3#K#*$y0l,*'7.Y<f#!$g(j2~B|9.+w!7!4B=.|#9.#Ai%%.I2h&n!-)o?v-=*E",
"%z?K*m-#3T4mAv'<!&!A!=:/%b!&#A#0B&8y.S%i!w&4&;!E0+#~0&&'#<):!U&:%R!+(N'/+52M/X,U#)2U#}*K05C25[+h!j!&?w7z5U'h>I#r5.8a+e'I*V>[#B#.",
"!3B`/4%^-+7G=t,1+a,{$.;X+G.p$F'(Cz4J,##T'`.-,.#O4h!4;Q!H.36n*+&f$u!+.-6C$Q!_#&2[*j(s)~+j-UC<6J0W4v%aAM(g)W+b8}%*9w&J/`!~1i+v&)+*",
"8X6TD-D<>B=T?HDGC{Cu7I<&BcBGA|1v3l<]4e<!;/0!<K=|?g88.c9.;1<H:<4#8,;S8r4]0*>l@[<_2x@,?=?|/|6F=3:8@S2t7N9=@s?3A*2G0`A3A*?27^5S=6?0",
"7L&?$^%]2a6(2c4A8V!t6~AH9@5m<7'P)>,^%M){6m!y'8&r,_&Z&6&c(.!'=@!&$M(w5T0d!B%n#^24296;/x/@9+!l!`!#&G(bAf+q7M@@?k3j#S8I)4!#1H=U<0:g",
"6/@3%X*q!<1;D;6P8/<;.gCq?p7XAY'_=s,6$s,(#S?^%I/S((!B#A)7-z,5#Z(#*`.o#w.X0D!80`)WB>!m-@-?%g1K'$+m5<!|DDA0@uAU@?5v9{!=!R+N&a=#:1>>",
".m1>+m0y!&5cD:*%';*p.fB29QAx</!&>G,N!p*h#4@=#0+(.&!4'3,M./*D$f,D,e)[+R-e:5%o12(G<>)&,A%+$n:*)p,j3+!&Ap9s>^<tB65,9^*A#B*_'4:C<U5K",
"!6@>'p(4%v&>D?${!&3M!AAnAB=xAm.$@8!#/M#0,SA:':*D2X/A!'*0/Y%p,V%U!v'($k#q;:0l2Y$P:v*5(o%~/>Bn+!)--1-SCV;)<);%03!*-X!#+O!O!*<h=W4&",
"6160A>BC>*;[:HD9D/CI7E8g;J>4@V.$.~>f;F?S9u3-:e;{<R-[,u@7<j?&7?,v:y>|;f6B,+;M=v4[+YA??Q@K1$6c@x9$@T-}3V3,A+;]Aj2y0`?I=r:l4a0$;$<m",
"5)!3!`.=${9m6N-')!!I6X(D2<)H#!4K(n.+6<#!:Q$#$x!3#j/-#F1.$t$Q<4:q-E0l7^7^&|.O3W8|$m/#9H5s8m-6%{,j0{4G!*!b+B+p7243-7:i=>9)508n9-9n",
"(BB[#X(c)1,;DK)D#05H!AC6*N%9$G%=D4#0.D/m!(#H'1#;$$#7*;*x$13m!8A6:r$O6A&Z@^/?4S'V3<+|#k4p0ZBT/=2Q.'!=C|!`!P!*'|!PAF:0=q@'$'B!8J<k",
"8:>x)*!T!j2lCm.900*,*T@d!,,z*('0>`/78V!l!f&[$/*e$O%,2:&B(q1-#Z=2<C;g<T+oAT-!'W,Q;l%A/G7k)dDA4G4%=J#nD80T+L%<6=,:C]7S<,?c#i<X6E:#",
"&VCS#./b0t+BD5''###A!9@9$E&s#S!j=F-|)Y'&.Q!`%l').T$2*a,r).7&)o@):_7_<F!UAE*w'H)B?u&m.v=[7ZD3=h5%4!$(C&/e32$&<`&=CJ2z<r?@%4B08';6",
"7[8ZCeBa8W:P=?B)C>C;2V6aB,B@D!4G3^A#8%@p;O1&@;AKCE2R0e>hBlC[=*0b8o;_/y5V2I?F@C=:5?BHBYCw1%8B?V5L@P37849p@U@QAk4s2e=m9`+09T6W:&90",
"7s>/BwBd>g;E6+9l)f#43C6u%k$7,I4W%@+E!*6Y=N!#+W:=4a7$&W$*/N(Q=%!I%e!T!3=<44>,38<|:pC!CMA{:J#j!&8A;`4_,]$)!&'C.j40.x5z7W3H;a%[)M&d",
"!ICFC'C7C}%7As;*7K(;!PCr,s/U1v!*7D!!!%%G-^>~9(1t<3#!)2-u0~#R+t:w*x#R'k/lA3A/>&)#@WB8Bb=A'i)=5l#!3Y+FB(:;!)#B9N%YCO5o7Y>t%a=2$b%:",
"(~D>D*D%Ad!*D+:<2A4E,!DL,q+S+@!&:U!`/0!#!#BS4X7VB4-(4N&k+y%y!c>b**$|*}-{ClA(A/!PBm@M?{B/#B!R1b.r:G'KB+8z+C!85i0}Ae+#1I?[!-Bi2v,`",
"4q2`=v;-1a;@<2BpBrAP0V3w>:>WB?4C3gA8@!Cy6]3*:B>cAh6x0a?NA-C@8h3R;uAA=(7+5B;+A[>o57@H>':K4r99DBBEC-31975f@L@~BJ,n/&B.>{9a8~7tA.=n",
"9j!-#00X$d9:-w-v85265C#0!9&.4y6'##!P!3!7;M!-+(!<'I3.*Z!P-}=D=3!c1P).2D7+.C=->H<+%w:I2+2d:O6*-p.e*U3~!*$)3h1=!B3%2J0s'M#?8~3[4)6:",
"&>A,#.!#)L/nAZ*L#S:Z1gA'!C'P!}#06!,y#9*f%V!K.>(l$C%Z;n!76.6R#E&H1N-0+G2B@|2r><)aDM7C=9:T$@=f!&!H&p&iC9!H(/#.+-.%AO5r&,#h.tC0+M!)",
"#?@Z0P0P&o$_@A9F+{$3!%Ab!8!D1v+8;u/2/$+.%B'(%A/p)v%)?m(b!#3c#!$}7#*t*O%v@4-}.i!PC.#h6S5p%xB5)C!b)i({C4$&!&!_6Q#?@i+I!C+s!r9#%u$D",
"!=3N*&*,!8.HD24M+I.:!'D@2)6v1^!?/h&l%w6U3O7K-P/<!I%%=^#S's62#T$)-,)P-30;=G2q!=-Y?}/_*v.!'n200.!U/^+?A]!-)n7F'l!7@$*{*s2u'#<c$f+J",
"!=>w(_&@!#+D:.-R-/'G!=7A.l2k0N!*6-2'2(0q3Q6c!U-*3/!I+~.(!&1F$0.w4$&N/@/@>S!U5E*?@%(64P!V+t-25J5G=A+=DF!<%t+(-9!}7+#V!i!)(g4,.$&M",
"3U5#BeCKAy2f;>D1BXAo2T3XCP3bAR4y6L=OCiC=1c5{?`?s?C1T=Y?M?}@O1A9U?N=o>d;c3!?19L;^1,A)>E:m9x<sAXD$Ch4(7oA`@YC)D'4'1#A?=C={>s41A~A1",
"6}!**I7!/92f8U<'80/42T#A,?&x&Q)@8u023S8=;?!b&S*B;K%m,B1r8i-49V*P7+.N&&/s+)8E.W/t(@&I%C1<9r5j1?+<'@&y5g$>%s)(4|4.'L1k8#$N0_6Z*}(?",
"&@?4!<)'+?6)Cc<?:S7'!*<10g-A+d*)Bj0/,@(E#BBB>?6z9o!!!#-N4T&!#>28#0(k!>.}6c,f+31u?`+}/H-/+r%Y&F,32i-sCC%Y!k$%83!L3|(f*y71+%@S!7!)",
")ECD&A+f+`-QCG=a7(9Y!#Bv!k2x&K!YCa7$7,/@/PBq8&#.9S(a&+1'(F(J3}+P!r!a(r(P9e!!,f.@9B)x%D8>/:7x2m4o9O)a@o04!-%Y9P!*=^)F#!#-)5<E,g%8",
"#?=l1e2.-*0|Cs;e/f<G#BAM'B$''?'=C~&z9}-Y-M3i4V/v*X!!&q+i,b!V/D)O,m'}!-,J071B/j20CT!)#!)q)T:(!H6O!H,/Cj'>!#,4&t#?BI${)g!P-1Bk(7!H",
"4H5>BoC^CZ/H8]AVC$@b5D3YC(<2C:3{4F:hA%=j/$70@-@&B#1u>FAw?d>P/!6I<[<6?P>@3n?<?i;G2?AzA}7m9b<F;kC5B^4B7JBtBhBLB'303xCx@+C/>a81CpA=",
"'o8x$'2D1B/H!#9W,:!!(`=H!$!O'B(5!&-%9g7c/$*5#J1f#h&T%w-L78,$/!!4&l#j!<0`%(0>5!07-V-)#S!|/q9~5!)-$|)<6y!a%[(2-v(^!&>02;%r56'f(Z)+",
"'<C+/5:3?6'UAC$+!H!<!TC`,23z)j!A5@.<8_7P14>R&w&u3_!&8l!)%|!$+7@k$b!*.G*~<z&]*72=B:.?+k/3/6@j3Z5e:N!OCd$,!##=.j!!6w/d!r!<1:+9$]!#",
"!#C_([.i?h!$1d+L#0!$!#Bu(0&<$:!!4-/E1i4%.*)%!u!#*_###L'~.E!m)u5&!H&a!G(i<})P7`3dB{*H2b,9)cBZ4};b/1!7D##g.h,a!;!#!P!#$'#A*r0Q!V'>",
"*/@e4u3y.V!};i,723(1!|At/c2j*.*p9l0{8k2}1+.{,&1E#m*=#:/(/i)k.,:s'%'*,k!#<r#l!7.J>J'F$b2x)r@}5|;95m&O>Z)P5;/r.P#=,h$<!7'?!U*Q!#.L",
"6]7lC#@y7k:L8YDEDJD&4~9P@#@GC*2_3LCW?xAN:`0]?OB$CQ.w1dA0>}A7<6.W:+=]5(6[,%A;B38C.F?j@t@40z7Q@N6/@n-T20?:B}B%C11s/wBF@5<u8[4wCkB!",
"5n<q6{*n#P<l-$-n*l<*4~&h0r-r19:F!P,W,=(>;v!i,l.$)s7U!7*Y73;8=K!#%J.y9>9z(I#h!)<@!<+n$<)n8c!#!!.;+H7O)?0S&R'J%65*&M(8)J!}:n'E=X8b",
")lCX;&8w;H-&1`1_!$!_,Z>m!<3K96,[>,8D(h5O$`9Z$c8@(:!B9f3'7|;P!<9E!1=F5M)R>-/H/F,>>#$=%h!<3^9*+(7B!7%>@l$h(d&S)I$h=p$B+c)w-_(m9c/I",
")`B~7*7+6,*o6&;=5a)_&lBV%7*'!#,YBz5'&S$*,c/o!&)h&j!8BK7q=e=u&P3i,E+:0w+?@(9;,8*z<l'+'R.J/k>n%f#A%7!I:j+z.z!#&l&m2p(C!<!<-]%j5R)6"
};
