/* XPM */
static char *tree_bark_09[] = {
/* columns rows colors chars-per-pixel */
"64 64 2482 2",
/* colors */
"!! c #2D1C0E",
"!# c #2E1B0C",
"!$ c #2E2013",
"!% c #2F1806",
"!& c #2F1C0E",
"!' c #301D0F",
"!( c #301F09",
"!) c #302217",
"!* c #311C07",
"!+ c #311C0C",
"!, c #311D0E",
"!- c #311E0E",
"!. c #311E0F",
"!/ c #311F0D",
"!0 c #312116",
"!1 c #321B04",
"!2 c #321C0A",
"!3 c #321F10",
"!4 c #322012",
"!5 c #322316",
"!6 c #331D09",
"!7 c #331E0B",
"!8 c #331E0D",
"!9 c #331F11",
"!: c #332011",
"!; c #332213",
"!< c #341E0B",
"!= c #341F0B",
"!> c #34200F",
"!? c #34210B",
"!@ c #342112",
"!A c #34220E",
"!B c #342213",
"!C c #342415",
"!D c #342416",
"!E c #342418",
"!F c #351C0B",
"!G c #35200A",
"!H c #35200F",
"!I c #352011",
"!J c #352212",
"!K c #352411",
"!L c #352414",
"!M c #352419",
"!N c #352516",
"!O c #352617",
"!P c #352A1E",
"!Q c #361F0E",
"!R c #36200E",
"!S c #362010",
"!T c #36220E",
"!U c #362311",
"!V c #362313",
"!W c #362314",
"!X c #362417",
"!Y c #362516",
"!Z c #362919",
"![ c #362A1E",
"!] c #371F0A",
"!^ c #37200D",
"!_ c #372211",
"!` c #372213",
"!a c #37230E",
"!b c #372310",
"!c c #372410",
"!d c #372411",
"!e c #372412",
"!f c #372415",
"!g c #372417",
"!h c #372418",
"!i c #372511",
"!j c #372512",
"!k c #372514",
"!l c #372515",
"!m c #372516",
"!n c #372518",
"!o c #372618",
"!p c #37281C",
"!q c #372A1F",
"!r c #381F0F",
"!s c #38210E",
"!t c #38210F",
"!u c #38220F",
"!v c #382211",
"!w c #382312",
"!x c #382412",
"!y c #382414",
"!z c #382514",
"!{ c #382615",
"!| c #382616",
"!} c #38281C",
"!~ c #39200C",
"#! c #392213",
"## c #392311",
"#$ c #392410",
"#% c #392511",
"#& c #392513",
"#' c #392611",
"#( c #392614",
"#) c #392615",
"#* c #392619",
"#+ c #392710",
"#, c #392718",
"#- c #392817",
"#. c #39281A",
"#/ c #39291A",
"#0 c #39291E",
"#1 c #3A2310",
"#2 c #3A2311",
"#3 c #3A240D",
"#4 c #3A2411",
"#5 c #3A2512",
"#6 c #3A2513",
"#7 c #3A2515",
"#8 c #3A2612",
"#9 c #3A2615",
"#: c #3A2618",
"#; c #3A2715",
"#< c #3A2716",
"#= c #3A2717",
"#> c #3A2718",
"#? c #3A2815",
"#@ c #3A2818",
"#A c #3A291D",
"#B c #3A2A1B",
"#C c #3A2A1D",
"#D c #3B2310",
"#E c #3B250F",
"#F c #3B2512",
"#G c #3B2616",
"#H c #3B2712",
"#I c #3B2715",
"#J c #3B2718",
"#K c #3B2818",
"#L c #3B2819",
"#M c #3B2912",
"#N c #3B2915",
"#O c #3B2918",
"#P c #3B291A",
"#Q c #3B291B",
"#R c #3B291C",
"#S c #3B291D",
"#T c #3B2A17",
"#U c #3B2A1A",
"#V c #3B2A1B",
"#W c #3B2A1C",
"#X c #3B2C1F",
"#Y c #3C2411",
"#Z c #3C2512",
"#[ c #3C2614",
"#] c #3C2714",
"#^ c #3C2717",
"#_ c #3C271A",
"#` c #3C2813",
"#a c #3C2817",
"#b c #3C2818",
"#c c #3C2819",
"#d c #3C2914",
"#e c #3C2917",
"#f c #3C2918",
"#g c #3C2919",
"#h c #3C291B",
"#i c #3C2A1A",
"#j c #3C2A1C",
"#k c #3C2B19",
"#l c #3C2B1A",
"#m c #3C2B1B",
"#n c #3C2B1C",
"#o c #3C2B1E",
"#p c #3C2B1F",
"#q c #3C2C1D",
"#r c #3C2D21",
"#s c #3C2E22",
"#t c #3D2414",
"#u c #3D2514",
"#v c #3D2610",
"#w c #3D2615",
"#x c #3D2710",
"#y c #3D2713",
"#z c #3D2714",
"#{ c #3D2715",
"#| c #3D2718",
"#} c #3D2815",
"#~ c #3D2816",
"$! c #3D2818",
"$# c #3D2914",
"$$ c #3D2915",
"$% c #3D2918",
"$& c #3D291B",
"$' c #3D2A18",
"$( c #3D2B1A",
"$) c #3D2B1B",
"$* c #3D2B1D",
"$+ c #3D2C1C",
"$, c #3D2C1D",
"$- c #3D2C1E",
"$. c #3D2C21",
"$/ c #3D2C22",
"$0 c #3D2D18",
"$1 c #3D2D1B",
"$2 c #3D2D1E",
"$3 c #3D2D20",
"$4 c #3D2D22",
"$5 c #3D2E1E",
"$6 c #3D2E1F",
"$7 c #3D2F22",
"$8 c #3E2715",
"$9 c #3E2716",
"$: c #3E2717",
"$; c #3E2718",
"$< c #3E2812",
"$= c #3E2815",
"$> c #3E2912",
"$? c #3E2913",
"$@ c #3E2915",
"$A c #3E2916",
"$B c #3E2918",
"$C c #3E2919",
"$D c #3E2A17",
"$E c #3E2A18",
"$F c #3E2A19",
"$G c #3E2A1B",
"$H c #3E2B18",
"$I c #3E2B19",
"$J c #3E2B1B",
"$K c #3E2B1C",
"$L c #3E2C19",
"$M c #3E2C1B",
"$N c #3E2C1E",
"$O c #3E2C1F",
"$P c #3E2D1D",
"$Q c #3E2D1F",
"$R c #3E2D21",
"$S c #3E2E1F",
"$T c #3E2E22",
"$U c #3E2F1E",
"$V c #3F2611",
"$W c #3F2613",
"$X c #3F2716",
"$Y c #3F2717",
"$Z c #3F2812",
"$[ c #3F2813",
"$] c #3F2816",
"$^ c #3F2913",
"$_ c #3F2917",
"$` c #3F2918",
"$a c #3F2A13",
"$b c #3F2A17",
"$c c #3F2A19",
"$d c #3F2A1A",
"$e c #3F2B17",
"$f c #3F2B19",
"$g c #3F2B1B",
"$h c #3F2B1D",
"$i c #3F2C16",
"$j c #3F2C17",
"$k c #3F2C1A",
"$l c #3F2C1B",
"$m c #3F2C1D",
"$n c #3F2C1F",
"$o c #3F2D19",
"$p c #3F2D1A",
"$q c #3F2D1B",
"$r c #3F2D1D",
"$s c #3F2D20",
"$t c #3F2E1B",
"$u c #3F2E1E",
"$v c #3F2E20",
"$w c #3F2E21",
"$x c #3F2F20",
"$y c #3F2F22",
"$z c #3F2F23",
"${ c #3F3022",
"$| c #402615",
"$} c #402914",
"$~ c #402916",
"%! c #402A12",
"%# c #402A18",
"%$ c #402A1B",
"%% c #402B14",
"%& c #402B15",
"%' c #402B1A",
"%( c #402B1B",
"%) c #402C16",
"%* c #402C17",
"%+ c #402C19",
"%, c #402C1A",
"%- c #402C1B",
"%. c #402C1E",
"%/ c #402C20",
"%0 c #402D1C",
"%1 c #402D1D",
"%2 c #402D1E",
"%3 c #402D20",
"%4 c #402E1A",
"%5 c #402E1B",
"%6 c #402E1D",
"%7 c #402E1F",
"%8 c #402F1E",
"%9 c #402F1F",
"%: c #402F20",
"%; c #402F21",
"%< c #402F24",
"%= c #403020",
"%> c #403021",
"%? c #403022",
"%@ c #403121",
"%A c #403328",
"%B c #412715",
"%C c #412915",
"%D c #412916",
"%E c #412A17",
"%F c #412A18",
"%G c #412A19",
"%H c #412B17",
"%I c #412B18",
"%J c #412B19",
"%K c #412B1A",
"%L c #412C16",
"%M c #412C19",
"%N c #412C1B",
"%O c #412C1C",
"%P c #412C1D",
"%Q c #412C1E",
"%R c #412D19",
"%S c #412D1C",
"%T c #412D1D",
"%U c #412D1E",
"%V c #412D1F",
"%W c #412D20",
"%X c #412E1D",
"%Y c #412E1E",
"%Z c #412E1F",
"%[ c #412F1A",
"%] c #412F1E",
"%^ c #412F21",
"%_ c #41301F",
"%` c #413023",
"%a c #41311F",
"%b c #413121",
"%c c #413122",
"%d c #413123",
"%e c #413221",
"%f c #413224",
"%g c #413225",
"%h c #413428",
"%i c #422713",
"%j c #422815",
"%k c #422918",
"%l c #422A15",
"%m c #422A16",
"%n c #422B16",
"%o c #422B19",
"%p c #422B1B",
"%q c #422B1C",
"%r c #422C17",
"%s c #422C18",
"%t c #422C19",
"%u c #422C1A",
"%v c #422C1B",
"%w c #422C1C",
"%x c #422C1D",
"%y c #422C1E",
"%z c #422D14",
"%{ c #422D19",
"%| c #422D1A",
"%} c #422D1B",
"%~ c #422D1C",
"&! c #422D1D",
"&# c #422D1E",
"&$ c #422D1F",
"&% c #422E19",
"&& c #422E1A",
"&' c #422E1C",
"&( c #422E1D",
"&) c #422E1E",
"&* c #422E1F",
"&+ c #422F18",
"&, c #422F1D",
"&- c #422F1E",
"&. c #422F1F",
"&/ c #422F20",
"&0 c #422F22",
"&1 c #422F23",
"&2 c #42301C",
"&3 c #42301D",
"&4 c #42301F",
"&5 c #423020",
"&6 c #423022",
"&7 c #423023",
"&8 c #42311D",
"&9 c #42311F",
"&: c #423120",
"&; c #423121",
"&< c #423122",
"&= c #423123",
"&> c #423124",
"&? c #423126",
"&@ c #423220",
"&A c #423223",
"&B c #423325",
"&C c #423427",
"&D c #423428",
"&E c #432912",
"&F c #432A1A",
"&G c #432B15",
"&H c #432B18",
"&I c #432C17",
"&J c #432C18",
"&K c #432C1C",
"&L c #432C1E",
"&M c #432D19",
"&N c #432D1B",
"&O c #432D1C",
"&P c #432E1A",
"&Q c #432E1B",
"&R c #432E1D",
"&S c #432E22",
"&T c #432F1A",
"&U c #432F1B",
"&V c #432F1D",
"&W c #432F1E",
"&X c #432F1F",
"&Y c #432F21",
"&Z c #43301B",
"&[ c #43301C",
"&] c #43301E",
"&^ c #43301F",
"&_ c #433020",
"&` c #433021",
"&a c #43311E",
"&b c #43311F",
"&c c #433120",
"&d c #433121",
"&e c #433122",
"&f c #433123",
"&g c #433124",
"&h c #433223",
"&i c #433325",
"&j c #433327",
"&k c #442A19",
"&l c #442B16",
"&m c #442C19",
"&n c #442C1B",
"&o c #442C1C",
"&p c #442D16",
"&q c #442D18",
"&r c #442D1A",
"&s c #442D1B",
"&t c #442D1D",
"&u c #442D1E",
"&v c #442E17",
"&w c #442E1B",
"&x c #442E1C",
"&y c #442E1D",
"&z c #442E21",
"&{ c #442F17",
"&| c #442F1A",
"&} c #442F1B",
"&~ c #442F1C",
"'! c #442F1E",
"'# c #442F1F",
"'$ c #442F20",
"'% c #442F21",
"'& c #44301B",
"'' c #44301D",
"'( c #44301E",
"') c #44301F",
"'* c #443020",
"'+ c #443022",
"', c #44311C",
"'- c #44311F",
"'. c #443120",
"'/ c #443121",
"'0 c #443122",
"'1 c #443123",
"'2 c #443221",
"'3 c #443222",
"'4 c #443224",
"'5 c #443225",
"'6 c #443321",
"'7 c #443322",
"'8 c #443323",
"'9 c #443324",
"': c #443325",
"'; c #443327",
"'< c #44341F",
"'= c #443422",
"'> c #443425",
"'? c #443427",
"'@ c #443428",
"'A c #443526",
"'B c #443527",
"'C c #443529",
"'D c #443623",
"'E c #452B19",
"'F c #452B1B",
"'G c #452D1A",
"'H c #452E19",
"'I c #452E1C",
"'J c #452E1D",
"'K c #452F17",
"'L c #452F1A",
"'M c #452F1B",
"'N c #452F1C",
"'O c #452F1D",
"'P c #452F1E",
"'Q c #452F1F",
"'R c #45301C",
"'S c #45301D",
"'T c #45301F",
"'U c #453020",
"'V c #45311B",
"'W c #45311C",
"'X c #45311F",
"'Y c #453120",
"'Z c #453121",
"'[ c #453122",
"'] c #453123",
"'^ c #453125",
"'_ c #45321E",
"'` c #453222",
"'a c #453223",
"'b c #453224",
"'c c #453226",
"'d c #45331F",
"'e c #453322",
"'f c #453323",
"'g c #453324",
"'h c #453325",
"'i c #45341F",
"'j c #453421",
"'k c #453422",
"'l c #453425",
"'m c #453426",
"'n c #453427",
"'o c #453526",
"'p c #453527",
"'q c #453528",
"'r c #453627",
"'s c #453628",
"'t c #453629",
"'u c #45362B",
"'v c #45362C",
"'w c #453B30",
"'x c #462D16",
"'y c #462D19",
"'z c #462D1C",
"'{ c #462E1B",
"'| c #462F19",
"'} c #462F1C",
"'~ c #462F1D",
"(! c #462F1F",
"(# c #462F20",
"($ c #462F21",
"(% c #463019",
"(& c #46301B",
"(' c #46301D",
"(( c #46301E",
"() c #46301F",
"(* c #463023",
"(+ c #46311B",
"(, c #46311C",
"(- c #46311D",
"(. c #46311E",
"(/ c #46311F",
"(0 c #463120",
"(1 c #463121",
"(2 c #463122",
"(3 c #463123",
"(4 c #46321D",
"(5 c #463220",
"(6 c #463221",
"(7 c #463222",
"(8 c #463223",
"(9 c #463224",
"(: c #463227",
"(; c #46331E",
"(< c #463321",
"(= c #463322",
"(> c #463323",
"(? c #463324",
"(@ c #463326",
"(A c #463421",
"(B c #463423",
"(C c #463424",
"(D c #463425",
"(E c #463426",
"(F c #463427",
"(G c #463524",
"(H c #463525",
"(I c #463526",
"(J c #463527",
"(K c #463529",
"(L c #463627",
"(M c #463628",
"(N c #463727",
"(O c #46372B",
"(P c #472D1A",
"(Q c #472E17",
"(R c #472F17",
"(S c #472F1B",
"(T c #47301E",
"(U c #47301F",
"(V c #473021",
"(W c #47311A",
"(X c #47311D",
"(Y c #47311E",
"(Z c #47311F",
"([ c #473120",
"(] c #473121",
"(^ c #473122",
"(_ c #47321C",
"(` c #47321E",
"(a c #47321F",
"(b c #473220",
"(c c #473221",
"(d c #473222",
"(e c #473226",
"(f c #47331D",
"(g c #473320",
"(h c #473321",
"(i c #473322",
"(j c #473323",
"(k c #473324",
"(l c #473325",
"(m c #473327",
"(n c #473418",
"(o c #47341F",
"(p c #473422",
"(q c #473424",
"(r c #473425",
"(s c #473426",
"(t c #47351F",
"(u c #473524",
"(v c #473525",
"(w c #473528",
"(x c #473626",
"(y c #473627",
"(z c #473628",
"({ c #473629",
"(| c #47362B",
"(} c #473722",
"(~ c #473727",
")! c #473728",
")# c #473729",
")$ c #47372A",
")% c #47372B",
")& c #473824",
")' c #47382A",
")( c #47382C",
")) c #47382D",
")* c #473A2C",
")+ c #482F1A",
"), c #482F1B",
")- c #482F1D",
"). c #48301F",
")/ c #48311B",
")0 c #48311E",
")1 c #48311F",
")2 c #483120",
")3 c #483123",
")4 c #48321D",
")5 c #48321F",
")6 c #483220",
")7 c #483221",
")8 c #483222",
")9 c #483223",
"): c #48331F",
"); c #483320",
")< c #483322",
")= c #483323",
")> c #483325",
")? c #48341D",
")@ c #48341E",
")A c #483420",
")B c #483421",
")C c #483422",
")D c #483423",
")E c #483425",
")F c #483426",
")G c #483427",
")H c #483521",
")I c #483522",
")J c #483523",
")K c #483524",
")L c #483526",
")M c #483527",
")N c #483529",
")O c #483629",
")P c #483728",
")Q c #483729",
")R c #48372A",
")S c #483827",
")T c #483828",
")U c #48382B",
")V c #483926",
")W c #483929",
")X c #48392B",
")Y c #483A2C",
")Z c #49301B",
")[ c #49301C",
")] c #49301E",
")^ c #493021",
")_ c #49311D",
")` c #49311E",
")a c #49311F",
")b c #49321D",
")c c #49321F",
")d c #493220",
")e c #493221",
")f c #493222",
")g c #493223",
")h c #493224",
")i c #49331F",
")j c #493320",
")k c #493322",
")l c #493325",
")m c #49341E",
")n c #493420",
")o c #493421",
")p c #493422",
")q c #493423",
")r c #493424",
")s c #493425",
")t c #49351F",
")u c #493520",
")v c #493522",
")w c #493523",
")x c #493524",
")y c #493526",
")z c #493621",
"){ c #493622",
")| c #493623",
")} c #493624",
")~ c #493625",
"*! c #493627",
"*# c #493628",
"*$ c #493629",
"*% c #49362A",
"*& c #493723",
"*' c #493724",
"*( c #493726",
"*) c #493727",
"** c #493728",
"*+ c #493729",
"*, c #49372A",
"*- c #493822",
"*. c #493826",
"*/ c #493828",
"*0 c #493829",
"*1 c #49382A",
"*2 c #49382B",
"*3 c #49382C",
"*4 c #493929",
"*5 c #49392A",
"*6 c #493A27",
"*7 c #493A2D",
"*8 c #493A2E",
"*9 c #493C31",
"*: c #4A311C",
"*; c #4A311D",
"*< c #4A311E",
"*= c #4A3121",
"*> c #4A321D",
"*? c #4A321E",
"*@ c #4A321F",
"*A c #4A3221",
"*B c #4A331D",
"*C c #4A331E",
"*D c #4A331F",
"*E c #4A3320",
"*F c #4A3321",
"*G c #4A3322",
"*H c #4A3325",
"*I c #4A341B",
"*J c #4A341D",
"*K c #4A341E",
"*L c #4A3421",
"*M c #4A3422",
"*N c #4A3423",
"*O c #4A3425",
"*P c #4A351F",
"*Q c #4A3521",
"*R c #4A3522",
"*S c #4A3524",
"*T c #4A3525",
"*U c #4A3526",
"*V c #4A3527",
"*W c #4A3623",
"*X c #4A3624",
"*Y c #4A3625",
"*Z c #4A3626",
"*[ c #4A3627",
"*] c #4A3628",
"*^ c #4A3629",
"*_ c #4A3722",
"*` c #4A3724",
"*a c #4A3725",
"*b c #4A3726",
"*c c #4A3728",
"*d c #4A3729",
"*e c #4A3828",
"*f c #4A382A",
"*g c #4A382B",
"*h c #4A3927",
"*i c #4A3928",
"*j c #4A3929",
"*k c #4A392A",
"*l c #4A392B",
"*m c #4A392C",
"*n c #4A3A28",
"*o c #4A3A2A",
"*p c #4A3A2C",
"*q c #4A3B2B",
"*r c #4A3B2D",
"*s c #4B3121",
"*t c #4B3220",
"*u c #4B3222",
"*v c #4B331D",
"*w c #4B331E",
"*x c #4B331F",
"*y c #4B3323",
"*z c #4B341D",
"*{ c #4B3421",
"*| c #4B3422",
"*} c #4B351F",
"*~ c #4B3520",
"+! c #4B3521",
"+# c #4B3523",
"+$ c #4B3524",
"+% c #4B3526",
"+& c #4B3527",
"+' c #4B3620",
"+( c #4B3621",
"+) c #4B3622",
"+* c #4B3623",
"++ c #4B3624",
"+, c #4B3625",
"+- c #4B3626",
"+. c #4B3627",
"+/ c #4B3629",
"+0 c #4B3722",
"+1 c #4B3724",
"+2 c #4B3725",
"+3 c #4B3727",
"+4 c #4B3728",
"+5 c #4B3826",
"+6 c #4B3827",
"+7 c #4B3828",
"+8 c #4B3829",
"+9 c #4B382A",
"+: c #4B3928",
"+; c #4B3929",
"+< c #4B392A",
"+= c #4B392C",
"+> c #4B392D",
"+? c #4B3A26",
"+@ c #4B3A28",
"+A c #4B3A29",
"+B c #4B3A2A",
"+C c #4B3A2C",
"+D c #4B3A2D",
"+E c #4B3B2D",
"+F c #4B3C2E",
"+G c #4C2F1D",
"+H c #4C3323",
"+I c #4C3324",
"+J c #4C3424",
"+K c #4C351D",
"+L c #4C351F",
"+M c #4C3520",
"+N c #4C3523",
"+O c #4C3525",
"+P c #4C3526",
"+Q c #4C3527",
"+R c #4C3622",
"+S c #4C3623",
"+T c #4C3624",
"+U c #4C3625",
"+V c #4C3626",
"+W c #4C3629",
"+X c #4C371E",
"+Y c #4C3720",
"+Z c #4C3722",
"+[ c #4C3723",
"+] c #4C3724",
"+^ c #4C3725",
"+_ c #4C3726",
"+` c #4C3727",
"+a c #4C3823",
"+b c #4C3825",
"+c c #4C3826",
"+d c #4C3828",
"+e c #4C3829",
"+f c #4C382A",
"+g c #4C3924",
"+h c #4C3926",
"+i c #4C3927",
"+j c #4C3928",
"+k c #4C3929",
"+l c #4C392A",
"+m c #4C392B",
"+n c #4C3A28",
"+o c #4C3A29",
"+p c #4C3A2A",
"+q c #4C3A2C",
"+r c #4C3A2D",
"+s c #4C3B29",
"+t c #4C3B2A",
"+u c #4C3B2B",
"+v c #4C3B2D",
"+w c #4C3B2E",
"+x c #4C3C2C",
"+y c #4C3C2D",
"+z c #4C3C2E",
"+{ c #4C3C31",
"+| c #4C3D30",
"+} c #4C3D31",
"+~ c #4C3E31",
",! c #4D3322",
",# c #4D3420",
",$ c #4D3520",
",% c #4D3521",
",& c #4D3522",
",' c #4D3526",
",( c #4D361D",
",) c #4D3620",
",* c #4D3621",
",+ c #4D3622",
",, c #4D3623",
",- c #4D3624",
",. c #4D3625",
",/ c #4D3720",
",0 c #4D3721",
",1 c #4D3722",
",2 c #4D3723",
",3 c #4D3724",
",4 c #4D3725",
",5 c #4D3726",
",6 c #4D3727",
",7 c #4D3728",
",8 c #4D3821",
",9 c #4D3822",
",: c #4D3823",
",; c #4D3824",
",< c #4D3825",
",= c #4D3826",
",> c #4D3827",
",? c #4D3828",
",@ c #4D3829",
",A c #4D382A",
",B c #4D382B",
",C c #4D3921",
",D c #4D3924",
",E c #4D3925",
",F c #4D3926",
",G c #4D3927",
",H c #4D3928",
",I c #4D3929",
",J c #4D392A",
",K c #4D392B",
",L c #4D3A25",
",M c #4D3A26",
",N c #4D3A27",
",O c #4D3A28",
",P c #4D3A29",
",Q c #4D3A2B",
",R c #4D3A2C",
",S c #4D3B27",
",T c #4D3B28",
",U c #4D3B29",
",V c #4D3B2B",
",W c #4D3B2C",
",X c #4D3B2E",
",Y c #4D3C2A",
",Z c #4D3C2B",
",[ c #4D3C2E",
",] c #4D3C30",
",^ c #4D3D2B",
",_ c #4D3D2E",
",` c #4D3D2F",
",a c #4D3D32",
",b c #4D3E2E",
",c c #4D4133",
",d c #4E3521",
",e c #4E3522",
",f c #4E3622",
",g c #4E3623",
",h c #4E3624",
",i c #4E3625",
",j c #4E3627",
",k c #4E3721",
",l c #4E3725",
",m c #4E3727",
",n c #4E3728",
",o c #4E3821",
",p c #4E3823",
",q c #4E3824",
",r c #4E3825",
",s c #4E3826",
",t c #4E3828",
",u c #4E3922",
",v c #4E3925",
",w c #4E3926",
",x c #4E3927",
",y c #4E3928",
",z c #4E3929",
",{ c #4E392B",
",| c #4E392C",
",} c #4E3A23",
",~ c #4E3A25",
"-! c #4E3A26",
"-# c #4E3A27",
"-$ c #4E3A28",
"-% c #4E3A29",
"-& c #4E3A2A",
"-' c #4E3A2B",
"-( c #4E3A2C",
"-) c #4E3A2D",
"-* c #4E3B23",
"-+ c #4E3B24",
"-, c #4E3B29",
"-- c #4E3B2A",
"-. c #4E3B2B",
"-/ c #4E3B2C",
"-0 c #4E3B2D",
"-1 c #4E3B2F",
"-2 c #4E3C28",
"-3 c #4E3C29",
"-4 c #4E3C2B",
"-5 c #4E3C2C",
"-6 c #4E3C2D",
"-7 c #4E3C2E",
"-8 c #4E3C2F",
"-9 c #4E3D2B",
"-: c #4E3D2F",
"-; c #4E3E2F",
"-< c #4E3F31",
"-= c #4E3F32",
"-> c #4E4033",
"-? c #4F3622",
"-@ c #4F3625",
"-A c #4F3720",
"-B c #4F3723",
"-C c #4F3724",
"-D c #4F3727",
"-E c #4F3823",
"-F c #4F3824",
"-G c #4F3825",
"-H c #4F3826",
"-I c #4F3922",
"-J c #4F3925",
"-K c #4F3926",
"-L c #4F3927",
"-M c #4F3928",
"-N c #4F3929",
"-O c #4F392A",
"-P c #4F3A24",
"-Q c #4F3A25",
"-R c #4F3A26",
"-S c #4F3A27",
"-T c #4F3A28",
"-U c #4F3A29",
"-V c #4F3A2A",
"-W c #4F3A2B",
"-X c #4F3A2C",
"-Y c #4F3A2D",
"-Z c #4F3B26",
"-[ c #4F3B28",
"-] c #4F3B29",
"-^ c #4F3B2A",
"-_ c #4F3B2B",
"-` c #4F3B2C",
"-a c #4F3B2D",
"-b c #4F3B2F",
"-c c #4F3C27",
"-d c #4F3C28",
"-e c #4F3C2A",
"-f c #4F3C2B",
"-g c #4F3C2C",
"-h c #4F3C2D",
"-i c #4F3C2E",
"-j c #4F3C2F",
"-k c #4F3D2A",
"-l c #4F3D2C",
"-m c #4F3D2D",
"-n c #4F3D2F",
"-o c #4F3D30",
"-p c #4F3E2D",
"-q c #4F3E2E",
"-r c #4F3E2F",
"-s c #4F3E31",
"-t c #4F3E32",
"-u c #4F3F2D",
"-v c #4F3F2E",
"-w c #4F3F2F",
"-x c #4F3F30",
"-y c #4F4032",
"-z c #4F4134",
"-{ c #503523",
"-| c #503720",
"-} c #503723",
"-~ c #503822",
".! c #503823",
".# c #503824",
".$ c #503825",
".% c #503826",
".& c #503828",
".' c #503923",
".( c #503924",
".) c #503925",
".* c #503926",
".+ c #503A24",
"., c #503A25",
".- c #503A26",
".. c #503A27",
"./ c #503A28",
".0 c #503A2A",
".1 c #503A2B",
".2 c #503B27",
".3 c #503B28",
".4 c #503B29",
".5 c #503B2A",
".6 c #503B2B",
".7 c #503B2D",
".8 c #503C27",
".9 c #503C28",
".: c #503C29",
".; c #503C2A",
".< c #503C2B",
".= c #503C2C",
".> c #503C2D",
".? c #503C2E",
".@ c #503C2F",
".A c #503C31",
".B c #503D26",
".C c #503D28",
".D c #503D2B",
".E c #503D2C",
".F c #503D2D",
".G c #503D2E",
".H c #503D31",
".I c #503E28",
".J c #503E2B",
".K c #503E2D",
".L c #503E2E",
".M c #503E2F",
".N c #503E30",
".O c #503F2D",
".P c #503F2E",
".Q c #503F2F",
".R c #503F30",
".S c #503F32",
".T c #503F33",
".U c #504031",
".V c #504032",
".W c #504035",
".X c #504133",
".Y c #504134",
".Z c #504137",
".[ c #513724",
".] c #513822",
".^ c #513824",
"._ c #513826",
".` c #513828",
".a c #513829",
".b c #513924",
".c c #513925",
".d c #513926",
".e c #513929",
".f c #513A24",
".g c #513A25",
".h c #513A28",
".i c #513A2B",
".j c #513A2D",
".k c #513B22",
".l c #513B24",
".m c #513B27",
".n c #513B28",
".o c #513B29",
".p c #513B2A",
".q c #513B2B",
".r c #513B2C",
".s c #513B2E",
".t c #513C28",
".u c #513C29",
".v c #513C2A",
".w c #513C2B",
".x c #513C2C",
".y c #513C2D",
".z c #513C2E",
".{ c #513D28",
".| c #513D29",
".} c #513D2A",
".~ c #513D2B",
"/! c #513D2C",
"/# c #513D2D",
"/$ c #513D2E",
"/% c #513D2F",
"/& c #513D31",
"/' c #513E27",
"/( c #513E2A",
"/) c #513E2B",
"/* c #513E2C",
"/+ c #513E2F",
"/, c #513F2A",
"/- c #513F2C",
"/. c #513F2D",
"// c #513F2E",
"/0 c #513F2F",
"/1 c #513F30",
"/2 c #513F32",
"/3 c #513F33",
"/4 c #51402E",
"/5 c #514030",
"/6 c #514031",
"/7 c #514032",
"/8 c #51412F",
"/9 c #514132",
"/: c #514135",
"/; c #514231",
"/< c #514235",
"/= c #514332",
"/> c #523827",
"/? c #523923",
"/@ c #523925",
"/A c #523929",
"/B c #523A24",
"/C c #523A26",
"/D c #523A27",
"/E c #523A2B",
"/F c #523B23",
"/G c #523B26",
"/H c #523B28",
"/I c #523B29",
"/J c #523B2A",
"/K c #523B2C",
"/L c #523C27",
"/M c #523C29",
"/N c #523C2A",
"/O c #523C2B",
"/P c #523C2C",
"/Q c #523C2D",
"/R c #523D29",
"/S c #523D2A",
"/T c #523D2C",
"/U c #523D2D",
"/V c #523D2F",
"/W c #523D30",
"/X c #523D31",
"/Y c #523E29",
"/Z c #523E2A",
"/[ c #523E2B",
"/] c #523E2C",
"/^ c #523E2D",
"/_ c #523E2E",
"/` c #523E2F",
"/a c #523F2A",
"/b c #523F2B",
"/c c #523F2C",
"/d c #523F2D",
"/e c #523F2E",
"/f c #523F2F",
"/g c #523F33",
"/h c #524030",
"/i c #524031",
"/j c #524033",
"/k c #524034",
"/l c #52412C",
"/m c #52412E",
"/n c #52412F",
"/o c #524130",
"/p c #524131",
"/q c #524132",
"/r c #524133",
"/s c #524134",
"/t c #524232",
"/u c #524233",
"/v c #524237",
"/w c #524238",
"/x c #524336",
"/y c #533A24",
"/z c #533A26",
"/{ c #533A28",
"/| c #533A2A",
"/} c #533B25",
"/~ c #533B26",
"0! c #533B29",
"0# c #533B2B",
"0$ c #533C29",
"0% c #533C2A",
"0& c #533C2C",
"0' c #533C2D",
"0( c #533D29",
"0) c #533D2A",
"0* c #533D2B",
"0+ c #533D2C",
"0, c #533D2D",
"0- c #533D2E",
"0. c #533D2F",
"0/ c #533E28",
"00 c #533E2A",
"01 c #533E2B",
"02 c #533E2D",
"03 c #533E2E",
"04 c #533F24",
"05 c #533F27",
"06 c #533F28",
"07 c #533F29",
"08 c #533F2A",
"09 c #533F2B",
"0: c #533F2C",
"0; c #533F2D",
"0< c #533F2E",
"0= c #533F2F",
"0> c #533F30",
"0? c #533F31",
"0@ c #53402A",
"0A c #53402B",
"0B c #53402D",
"0C c #53402E",
"0D c #53402F",
"0E c #534030",
"0F c #534031",
"0G c #534032",
"0H c #534034",
"0I c #53412D",
"0J c #534130",
"0K c #534131",
"0L c #534132",
"0M c #534133",
"0N c #534134",
"0O c #53422E",
"0P c #534230",
"0Q c #534231",
"0R c #534233",
"0S c #534234",
"0T c #534235",
"0U c #534236",
"0V c #534331",
"0W c #534332",
"0X c #534334",
"0Y c #534335",
"0Z c #534338",
"0[ c #534435",
"0] c #543A24",
"0^ c #543B26",
"0_ c #543B28",
"0` c #543B2B",
"0a c #543C28",
"0b c #543C2A",
"0c c #543C2B",
"0d c #543D25",
"0e c #543D27",
"0f c #543D28",
"0g c #543D29",
"0h c #543D2A",
"0i c #543D2B",
"0j c #543D2C",
"0k c #543E27",
"0l c #543E28",
"0m c #543E29",
"0n c #543E2A",
"0o c #543E2B",
"0p c #543E2C",
"0q c #543E2D",
"0r c #543E2E",
"0s c #543E2F",
"0t c #543F27",
"0u c #543F28",
"0v c #543F2B",
"0w c #543F2C",
"0x c #543F2D",
"0y c #543F2E",
"0z c #543F2F",
"0{ c #543F30",
"0| c #543F31",
"0} c #54402B",
"0~ c #54402C",
"1! c #54402D",
"1# c #54402E",
"1$ c #54402F",
"1% c #544030",
"1& c #544031",
"1' c #544032",
"1( c #544034",
"1) c #54412C",
"1* c #54412D",
"1+ c #54412E",
"1, c #54412F",
"1- c #544130",
"1. c #544131",
"1/ c #544132",
"10 c #544133",
"11 c #544231",
"12 c #544232",
"13 c #544233",
"14 c #544234",
"15 c #544236",
"16 c #54432D",
"17 c #54432E",
"18 c #544334",
"19 c #544335",
"1: c #544336",
"1; c #544433",
"1< c #544436",
"1= c #544438",
"1> c #544538",
"1? c #544539",
"1@ c #544638",
"1A c #54463A",
"1B c #553B26",
"1C c #553C2A",
"1D c #553D25",
"1E c #553D27",
"1F c #553D29",
"1G c #553D2A",
"1H c #553D2C",
"1I c #553E28",
"1J c #553E29",
"1K c #553E2A",
"1L c #553E2B",
"1M c #553E2C",
"1N c #553E2D",
"1O c #553F2A",
"1P c #553F2B",
"1Q c #553F2E",
"1R c #553F2F",
"1S c #553F30",
"1T c #55402C",
"1U c #55402D",
"1V c #55402E",
"1W c #55402F",
"1X c #554030",
"1Y c #55412C",
"1Z c #55412D",
"1[ c #55412E",
"1] c #55412F",
"1^ c #554131",
"1_ c #554132",
"1` c #554133",
"1a c #55422C",
"1b c #55422F",
"1c c #554230",
"1d c #554231",
"1e c #554233",
"1f c #554234",
"1g c #55432F",
"1h c #554332",
"1i c #554333",
"1j c #554335",
"1k c #554336",
"1l c #554431",
"1m c #554433",
"1n c #554434",
"1o c #554435",
"1p c #554437",
"1q c #554438",
"1r c #554533",
"1s c #554536",
"1t c #554538",
"1u c #554637",
"1v c #554738",
"1w c #563B2B",
"1x c #563C2B",
"1y c #563D26",
"1z c #563D29",
"1{ c #563D2A",
"1| c #563D2F",
"1} c #563E29",
"1~ c #563E2A",
"2! c #563E2B",
"2# c #563E2C",
"2$ c #563E2E",
"2% c #563F26",
"2& c #563F28",
"2' c #563F29",
"2( c #563F2A",
"2) c #563F2B",
"2* c #563F2C",
"2+ c #563F2D",
"2, c #563F2E",
"2- c #56402B",
"2. c #56402D",
"2/ c #56402E",
"20 c #56402F",
"21 c #564030",
"22 c #564031",
"23 c #564032",
"24 c #564033",
"25 c #56412D",
"26 c #56412E",
"27 c #56412F",
"28 c #564130",
"29 c #564131",
"2: c #564133",
"2; c #56422C",
"2< c #56422D",
"2= c #56422E",
"2> c #56422F",
"2? c #564230",
"2@ c #564232",
"2A c #564233",
"2B c #564234",
"2C c #56432E",
"2D c #56432F",
"2E c #564331",
"2F c #564333",
"2G c #564334",
"2H c #564335",
"2I c #56442D",
"2J c #564431",
"2K c #564432",
"2L c #564434",
"2M c #564435",
"2N c #564437",
"2O c #564535",
"2P c #564536",
"2Q c #564537",
"2R c #564538",
"2S c #56453A",
"2T c #564635",
"2U c #564739",
"2V c #56473A",
"2W c #56473C",
"2X c #56483E",
"2Y c #56493D",
"2Z c #564A3D",
"2[ c #573C2A",
"2] c #573F29",
"2^ c #573F2B",
"2_ c #573F30",
"2` c #573F32",
"2a c #57402B",
"2b c #57402C",
"2c c #57402D",
"2d c #57402E",
"2e c #57402F",
"2f c #574030",
"2g c #574032",
"2h c #57412B",
"2i c #57412D",
"2j c #57412E",
"2k c #57412F",
"2l c #574130",
"2m c #574131",
"2n c #574133",
"2o c #574228",
"2p c #57422C",
"2q c #57422E",
"2r c #57422F",
"2s c #574231",
"2t c #574232",
"2u c #574234",
"2v c #574235",
"2w c #574326",
"2x c #574330",
"2y c #574331",
"2z c #574332",
"2{ c #574333",
"2| c #574334",
"2} c #574335",
"2~ c #574337",
"3! c #57442F",
"3# c #574432",
"3$ c #574433",
"3% c #574434",
"3& c #574435",
"3' c #574436",
"3( c #574530",
"3) c #574531",
"3* c #574532",
"3+ c #574534",
"3, c #574536",
"3- c #574537",
"3. c #574634",
"3/ c #574635",
"30 c #574636",
"31 c #574637",
"32 c #57463B",
"33 c #574736",
"34 c #574738",
"35 c #57473B",
"36 c #574939",
"37 c #583F2A",
"38 c #583F2D",
"39 c #583F2F",
"3: c #58402A",
"3; c #58402B",
"3< c #58402C",
"3= c #58402D",
"3> c #584030",
"3? c #58412B",
"3@ c #58412E",
"3A c #58412F",
"3B c #584130",
"3C c #584132",
"3D c #584133",
"3E c #58422B",
"3F c #58422D",
"3G c #58422E",
"3H c #58422F",
"3I c #584230",
"3J c #584231",
"3K c #584232",
"3L c #584235",
"3M c #58432C",
"3N c #58432F",
"3O c #584330",
"3P c #584331",
"3Q c #584332",
"3R c #584333",
"3S c #584334",
"3T c #584335",
"3U c #584339",
"3V c #58442E",
"3W c #584432",
"3X c #584433",
"3Y c #584434",
"3Z c #584435",
"3[ c #58452F",
"3] c #584530",
"3^ c #584531",
"3_ c #584532",
"3` c #584533",
"3a c #584534",
"3b c #584535",
"3c c #584536",
"3d c #584537",
"3e c #584630",
"3f c #584634",
"3g c #584635",
"3h c #584636",
"3i c #584639",
"3j c #58463B",
"3k c #584736",
"3l c #584738",
"3m c #584739",
"3n c #584839",
"3o c #584A3C",
"3p c #593F2D",
"3q c #594030",
"3r c #59412C",
"3s c #594131",
"3t c #59422B",
"3u c #59422D",
"3v c #594230",
"3w c #594231",
"3x c #594234",
"3y c #594235",
"3z c #59432B",
"3{ c #59432E",
"3| c #59432F",
"3} c #594330",
"3~ c #594331",
"4! c #594332",
"4# c #594333",
"4$ c #594430",
"4% c #594431",
"4& c #594432",
"4' c #594433",
"4( c #594434",
"4) c #594435",
"4* c #594531",
"4+ c #594532",
"4, c #594533",
"4- c #594534",
"4. c #594536",
"4/ c #594630",
"40 c #594632",
"41 c #594634",
"42 c #594635",
"43 c #594636",
"44 c #594637",
"45 c #594638",
"46 c #594734",
"47 c #594735",
"48 c #594736",
"49 c #594738",
"4: c #59473A",
"4; c #59473B",
"4< c #594833",
"4= c #594835",
"4> c #594836",
"4? c #594838",
"4@ c #594839",
"4A c #59483A",
"4B c #59483C",
"4C c #594938",
"4D c #59493A",
"4E c #59493B",
"4F c #59493D",
"4G c #594A3A",
"4H c #594A3C",
"4I c #594A3D",
"4J c #594A3E",
"4K c #594C40",
"4L c #5A412D",
"4M c #5A422D",
"4N c #5A422F",
"4O c #5A4232",
"4P c #5A432E",
"4Q c #5A432F",
"4R c #5A4334",
"4S c #5A4335",
"4T c #5A442D",
"4U c #5A442E",
"4V c #5A4431",
"4W c #5A4432",
"4X c #5A4434",
"4Y c #5A4435",
"4Z c #5A452B",
"4[ c #5A452F",
"4] c #5A4531",
"4^ c #5A4532",
"4_ c #5A4533",
"4` c #5A4535",
"4a c #5A4537",
"4b c #5A4631",
"4c c #5A4632",
"4d c #5A4633",
"4e c #5A4634",
"4f c #5A4635",
"4g c #5A4636",
"4h c #5A4637",
"4i c #5A4638",
"4j c #5A4731",
"4k c #5A4732",
"4l c #5A4733",
"4m c #5A4735",
"4n c #5A4736",
"4o c #5A4737",
"4p c #5A4738",
"4q c #5A4739",
"4r c #5A473B",
"4s c #5A4834",
"4t c #5A4837",
"4u c #5A4838",
"4v c #5A4839",
"4w c #5A483B",
"4x c #5A4A3B",
"4y c #5A4B3B",
"4z c #5A4B3F",
"4{ c #5A4C3E",
"4| c #5A4D3E",
"4} c #5B412E",
"4~ c #5B422D",
"5! c #5B422F",
"5# c #5B4232",
"5$ c #5B432D",
"5% c #5B432E",
"5& c #5B432F",
"5' c #5B442E",
"5( c #5B442F",
"5) c #5B4431",
"5* c #5B4432",
"5+ c #5B4433",
"5, c #5B4436",
"5- c #5B452F",
"5. c #5B4531",
"5/ c #5B4533",
"50 c #5B4534",
"51 c #5B462F",
"52 c #5B4630",
"53 c #5B4631",
"54 c #5B4632",
"55 c #5B4633",
"56 c #5B4634",
"57 c #5B4635",
"58 c #5B4636",
"59 c #5B4731",
"5: c #5B4732",
"5; c #5B4734",
"5< c #5B4735",
"5= c #5B4736",
"5> c #5B4738",
"5? c #5B4739",
"5@ c #5B4835",
"5A c #5B4836",
"5B c #5B4837",
"5C c #5B4838",
"5D c #5B4839",
"5E c #5B483A",
"5F c #5B483C",
"5G c #5B4938",
"5H c #5B4939",
"5I c #5B493B",
"5J c #5B4A37",
"5K c #5B4A3C",
"5L c #5B4A3E",
"5M c #5B4A40",
"5N c #5B4B3C",
"5O c #5B4B3D",
"5P c #5B4C40",
"5Q c #5C422F",
"5R c #5C4230",
"5S c #5C4333",
"5T c #5C4430",
"5U c #5C4432",
"5V c #5C452F",
"5W c #5C4530",
"5X c #5C4533",
"5Y c #5C4535",
"5Z c #5C462F",
"5[ c #5C4630",
"5] c #5C4632",
"5^ c #5C4633",
"5_ c #5C4634",
"5` c #5C4635",
"5a c #5C4636",
"5b c #5C4637",
"5c c #5C4737",
"5d c #5C4738",
"5e c #5C4836",
"5f c #5C4837",
"5g c #5C4838",
"5h c #5C4839",
"5i c #5C4935",
"5j c #5C4937",
"5k c #5C4939",
"5l c #5C493A",
"5m c #5C493E",
"5n c #5C4A36",
"5o c #5C4A37",
"5p c #5C4A39",
"5q c #5C4A3A",
"5r c #5C4A3C",
"5s c #5C4B3B",
"5t c #5C4B3C",
"5u c #5C4B42",
"5v c #5C4C3E",
"5w c #5C4C40",
"5x c #5C4D3D",
"5y c #5C4D41",
"5z c #5C4E44",
"5{ c #5D412D",
"5| c #5D432E",
"5} c #5D4331",
"5~ c #5D4430",
"6! c #5D4437",
"6# c #5D4530",
"6$ c #5D4531",
"6% c #5D4534",
"6& c #5D4630",
"6' c #5D4633",
"6( c #5D4637",
"6) c #5D4731",
"6* c #5D4733",
"6+ c #5D4734",
"6, c #5D4736",
"6- c #5D4737",
"6. c #5D4738",
"6/ c #5D4739",
"60 c #5D4831",
"61 c #5D4834",
"62 c #5D4835",
"63 c #5D4837",
"64 c #5D4838",
"65 c #5D4934",
"66 c #5D4937",
"67 c #5D4938",
"68 c #5D4939",
"69 c #5D493A",
"6: c #5D493B",
"6; c #5D4A35",
"6< c #5D4A37",
"6= c #5D4A38",
"6> c #5D4A39",
"6? c #5D4A3A",
"6@ c #5D4A3B",
"6A c #5D4A3E",
"6B c #5D4B36",
"6C c #5D4B38",
"6D c #5D4B3A",
"6E c #5D4B3B",
"6F c #5D4B3C",
"6G c #5D4B3D",
"6H c #5D4B3E",
"6I c #5D4C3E",
"6J c #5D4D3B",
"6K c #5D4D3F",
"6L c #5D4D40",
"6M c #5D4E41",
"6N c #5E4432",
"6O c #5E4636",
"6P c #5E4732",
"6Q c #5E4736",
"6R c #5E4739",
"6S c #5E4833",
"6T c #5E4834",
"6U c #5E4835",
"6V c #5E4836",
"6W c #5E4838",
"6X c #5E4935",
"6Y c #5E4936",
"6Z c #5E4937",
"6[ c #5E4938",
"6] c #5E4939",
"6^ c #5E4A37",
"6_ c #5E4A38",
"6` c #5E4A3A",
"6a c #5E4A3B",
"6b c #5E4B36",
"6c c #5E4B38",
"6d c #5E4B39",
"6e c #5E4B3A",
"6f c #5E4B3B",
"6g c #5E4B3C",
"6h c #5E4C38",
"6i c #5E4C39",
"6j c #5E4C3B",
"6k c #5E4C3C",
"6l c #5E4C3E",
"6m c #5E4C3F",
"6n c #5E4D3A",
"6o c #5E4D3C",
"6p c #5E4D3D",
"6q c #5E4D41",
"6r c #5E4E41",
"6s c #5E4E42",
"6t c #5E4E43",
"6u c #5F4632",
"6v c #5F4633",
"6w c #5F4635",
"6x c #5F4636",
"6y c #5F4732",
"6z c #5F4734",
"6{ c #5F4736",
"6| c #5F4832",
"6} c #5F4834",
"6~ c #5F4835",
"7! c #5F4836",
"7# c #5F4837",
"7$ c #5F4931",
"7% c #5F4934",
"7& c #5F4935",
"7' c #5F4936",
"7( c #5F4938",
"7) c #5F4A34",
"7* c #5F4A38",
"7+ c #5F4A39",
"7, c #5F4A3A",
"7- c #5F4A3B",
"7. c #5F4A3C",
"7/ c #5F4B37",
"70 c #5F4B38",
"71 c #5F4B39",
"72 c #5F4B3A",
"73 c #5F4B3C",
"74 c #5F4B3D",
"75 c #5F4B3F",
"76 c #5F4C37",
"77 c #5F4C3B",
"78 c #5F4C3C",
"79 c #5F4C3D",
"7: c #5F4C3E",
"7; c #5F4D39",
"7< c #5F4D3A",
"7= c #5F4D3D",
"7> c #5F4D40",
"7? c #5F4E3E",
"7@ c #5F4E3F",
"7A c #5F4E40",
"7B c #5F4F3E",
"7C c #604533",
"7D c #604835",
"7E c #604837",
"7F c #604933",
"7G c #604934",
"7H c #60493B",
"7I c #604A34",
"7J c #604A36",
"7K c #604A38",
"7L c #604A39",
"7M c #604A3C",
"7N c #604B37",
"7O c #604B38",
"7P c #604B39",
"7Q c #604B3A",
"7R c #604B3B",
"7S c #604B3C",
"7T c #604C37",
"7U c #604C38",
"7V c #604C3A",
"7W c #604C3B",
"7X c #604C3C",
"7Y c #604C3D",
"7Z c #604D38",
"7[ c #604D39",
"7] c #604D3B",
"7^ c #604D3C",
"7_ c #604D3D",
"7` c #604D3F",
"7a c #604E3A",
"7b c #604E3D",
"7c c #604E3E",
"7d c #604E3F",
"7e c #604E40",
"7f c #604E41",
"7g c #604F41",
"7h c #60503E",
"7i c #605041",
"7j c #614734",
"7k c #614738",
"7l c #614834",
"7m c #614835",
"7n c #614930",
"7o c #614932",
"7p c #614933",
"7q c #614935",
"7r c #61493A",
"7s c #614A35",
"7t c #614A37",
"7u c #614A38",
"7v c #614A3B",
"7w c #614B36",
"7x c #614B37",
"7y c #614B38",
"7z c #614B3A",
"7{ c #614B3D",
"7| c #614B3E",
"7} c #614C38",
"7~ c #614C3C",
"8! c #614D38",
"8# c #614D39",
"8$ c #614D3A",
"8% c #614D3B",
"8& c #614D3E",
"8' c #614D40",
"8( c #614E3B",
"8) c #614E3C",
"8* c #614E3D",
"8+ c #614E3F",
"8, c #614F3E",
"8- c #614F3F",
"8. c #614F41",
"8/ c #614F42",
"80 c #615040",
"81 c #615041",
"82 c #615042",
"83 c #61513F",
"84 c #615244",
"85 c #624836",
"86 c #624932",
"87 c #624936",
"88 c #624939",
"89 c #624A33",
"8: c #624A34",
"8; c #624A36",
"8< c #624A3A",
"8= c #624B39",
"8> c #624B3A",
"8? c #624B3D",
"8@ c #624C36",
"8A c #624C38",
"8B c #624C3A",
"8C c #624C3B",
"8D c #624D38",
"8E c #624D39",
"8F c #624D3A",
"8G c #624D3B",
"8H c #624D3C",
"8I c #624D3D",
"8J c #624D3F",
"8K c #624D40",
"8L c #624D41",
"8M c #624E3B",
"8N c #624E3C",
"8O c #624E3E",
"8P c #624E3F",
"8Q c #624F3D",
"8R c #624F3E",
"8S c #624F40",
"8T c #62503C",
"8U c #62503F",
"8V c #625040",
"8W c #625042",
"8X c #625043",
"8Y c #625141",
"8Z c #625142",
"8[ c #625346",
"8] c #625549",
"8^ c #634933",
"8_ c #634937",
"8` c #634A34",
"8a c #634B35",
"8b c #634B37",
"8c c #634B38",
"8d c #634B3A",
"8e c #634B3B",
"8f c #634C36",
"8g c #634C37",
"8h c #634C3A",
"8i c #634D37",
"8j c #634D39",
"8k c #634D3A",
"8l c #634D3B",
"8m c #634D3D",
"8n c #634E3A",
"8o c #634E3B",
"8p c #634E3C",
"8q c #634E3D",
"8r c #634E3E",
"8s c #634E40",
"8t c #634F3A",
"8u c #634F3C",
"8v c #634F3D",
"8w c #634F3E",
"8x c #634F40",
"8y c #635038",
"8z c #63503E",
"8{ c #635040",
"8| c #635041",
"8} c #635043",
"8~ c #63513C",
"9! c #635141",
"9# c #635144",
"9$ c #63523F",
"9% c #635242",
"9& c #635344",
"9' c #635348",
"9( c #635447",
"9) c #644B3B",
"9* c #644C36",
"9+ c #644C38",
"9, c #644C3C",
"9- c #644D3B",
"9. c #644D3F",
"9/ c #644D41",
"90 c #644E38",
"91 c #644E3A",
"92 c #644E3C",
"93 c #644E3E",
"94 c #644E41",
"95 c #644E42",
"96 c #644F3A",
"97 c #644F3C",
"98 c #644F3E",
"99 c #644F3F",
"9: c #644F40",
"9; c #64503B",
"9< c #64503E",
"9= c #645042",
"9> c #64513C",
"9? c #64513F",
"9@ c #645141",
"9A c #645142",
"9B c #645143",
"9C c #645145",
"9D c #64523B",
"9E c #64523F",
"9F c #645240",
"9G c #645243",
"9H c #645245",
"9I c #645342",
"9J c #645345",
"9K c #645347",
"9L c #645348",
"9M c #645444",
"9N c #654B38",
"9O c #654C35",
"9P c #654C39",
"9Q c #654C3B",
"9R c #654D39",
"9S c #654D3A",
"9T c #654E39",
"9U c #654E3C",
"9V c #654E3D",
"9W c #654F3A",
"9X c #654F3B",
"9Y c #654F3C",
"9Z c #654F3D",
"9[ c #654F3E",
"9] c #655039",
"9^ c #65503C",
"9_ c #65503D",
"9` c #65503F",
"9a c #655040",
"9b c #655041",
"9c c #655042",
"9d c #655043",
"9e c #65513C",
"9f c #65513F",
"9g c #655140",
"9h c #655141",
"9i c #655142",
"9j c #65523D",
"9k c #655240",
"9l c #655243",
"9m c #655342",
"9n c #655343",
"9o c #655346",
"9p c #655446",
"9q c #65574A",
"9r c #664D3D",
"9s c #664E39",
"9t c #664E3B",
"9u c #664E3D",
"9v c #664E3E",
"9w c #664E3F",
"9x c #664F3A",
"9y c #664F3D",
"9z c #664F3E",
"9{ c #66503B",
"9| c #66503C",
"9} c #66503D",
"9~ c #66503E",
":! c #66503F",
":# c #665043",
":$ c #66513B",
":% c #66513C",
":& c #66513E",
":' c #665140",
":( c #66523D",
":) c #665240",
":* c #665241",
":+ c #665242",
":, c #665247",
":- c #66533D",
":. c #66533E",
":/ c #66533F",
":0 c #665340",
":1 c #665341",
":2 c #665344",
":3 c #665347",
":4 c #665443",
":5 c #665447",
":6 c #665541",
":7 c #665544",
":8 c #665548",
":9 c #665645",
":: c #66574B",
":; c #66584B",
":< c #674F3C",
":= c #674F40",
":> c #67503E",
":? c #67513F",
":@ c #675140",
":A c #675141",
":B c #67523E",
":C c #67523F",
":D c #675241",
":E c #675242",
":F c #67533B",
":G c #675340",
":H c #675341",
":I c #675442",
":J c #675443",
":K c #675444",
":L c #675445",
":M c #675447",
":N c #67553E",
":O c #675543",
":P c #675545",
":Q c #675548",
":R c #675645",
":S c #675646",
":T c #675749",
":U c #67574B",
":V c #67584B",
":W c #67594C",
":X c #68503C",
":Y c #68513B",
":Z c #68513F",
":[ c #685140",
":] c #68523B",
":^ c #68523F",
":_ c #685240",
":` c #685241",
":a c #68533F",
":b c #685342",
":c c #685343",
":d c #68543C",
":e c #685442",
":f c #685443",
":g c #685444",
":h c #685445",
":i c #685543",
":j c #685544",
":k c #68563E",
":l c #685643",
":m c #685645",
":n c #685B4F",
":o c #694E3B",
":p c #69513F",
":q c #695141",
":r c #695240",
":s c #695241",
":t c #69533F",
":u c #695340",
":v c #695342",
":w c #695343",
":x c #695345",
":y c #695441",
":z c #695442",
":{ c #695443",
":| c #695547",
":} c #695644",
":~ c #695646",
";! c #695746",
";# c #695747",
";$ c #695749",
";% c #69574B",
";& c #69574C",
";' c #695847",
";( c #69584B",
";) c #69594E",
";* c #6A503B",
";+ c #6A523B",
";, c #6A523D",
";- c #6A533E",
";. c #6A5340",
";/ c #6A5341",
";0 c #6A5342",
";1 c #6A5344",
";2 c #6A5440",
";3 c #6A5442",
";4 c #6A5445",
";5 c #6A5541",
";6 c #6A563D",
";7 c #6A5641",
";8 c #6A5645",
";9 c #6A5648",
";: c #6A5743",
";; c #6A5744",
";< c #6A5747",
";= c #6A5748",
";> c #6A5849",
";? c #6A584B",
";@ c #6A5946",
";A c #6A5947",
";B c #6A5949",
";C c #6A594B",
";D c #6A5A4C",
";E c #6B5242",
";F c #6B543F",
";G c #6B5442",
";H c #6B5541",
";I c #6B5543",
";J c #6B5545",
";K c #6B5546",
";L c #6B5547",
";M c #6B5641",
";N c #6B5642",
";O c #6B5644",
";P c #6B5646",
";Q c #6B5742",
";R c #6B5745",
";S c #6B5747",
";T c #6B5748",
";U c #6B5843",
";V c #6B5848",
";W c #6B5942",
";X c #6B5947",
";Y c #6B5C4E",
";Z c #6C513F",
";[ c #6C533F",
";] c #6C5441",
";^ c #6C5444",
";_ c #6C5542",
";` c #6C5543",
";a c #6C5640",
";b c #6C5644",
";c c #6C5741",
";d c #6C5744",
";e c #6C5746",
";f c #6C5748",
";g c #6C5844",
";h c #6C5845",
";i c #6C5846",
";j c #6C5847",
";k c #6C5849",
";l c #6C594A",
";m c #6C594D",
";n c #6C5A4A",
";o c #6C5B4B",
";p c #6C5B4D",
";q c #6D5540",
";r c #6D5844",
";s c #6D584A",
";t c #6D5944",
";u c #6D5946",
";v c #6D5947",
";w c #6D5A48",
";x c #6D5A4B",
";y c #6D5C4E",
";z c #6E5542",
";{ c #6E563F",
";| c #6E5642",
";} c #6E5643",
";~ c #6E5742",
"<! c #6E5744",
"<# c #6E5745",
"<$ c #6E5748",
"<% c #6E5948",
"<& c #6E594A",
"<' c #6E5A49",
"<( c #6E5A4A",
"<) c #6F5648",
"<* c #6F5743",
"<+ c #6F5744",
"<, c #6F5944",
"<- c #6F5945",
"<. c #6F5A43",
"</ c #6F5A49",
"<0 c #6F5A4A",
"<1 c #6F5B46",
"<2 c #6F5B47",
"<3 c #6F5B4B",
"<4 c #6F5C4A",
"<5 c #6F5C4C",
"<6 c #6F5D50",
"<7 c #6F5F50",
"<8 c #705743",
"<9 c #705946",
"<: c #705B47",
"<; c #705B4B",
"<< c #705C48",
"<= c #705C4D",
"<> c #705E4D",
"<? c #706050",
"<@ c #715846",
"<A c #715848",
"<B c #715A44",
"<C c #715A48",
"<D c #715C47",
"<E c #715C4C",
"<F c #715C4E",
"<G c #715D47",
"<H c #715D4E",
"<I c #715E51",
"<J c #715F52",
"<K c #716052",
"<L c #725846",
"<M c #725949",
"<N c #725A46",
"<O c #725A49",
"<P c #725A4A",
"<Q c #725B46",
"<R c #725C4C",
"<S c #725F51",
"<T c #72604D",
"<U c #735946",
"<V c #735A4A",
"<W c #735C49",
"<X c #735C4C",
"<Y c #735D4A",
"<Z c #735D4B",
"<[ c #735E47",
"<] c #736151",
"<^ c #73624E",
"<_ c #745F48",
"<` c #745F4D",
"<a c #745F50",
"<b c #755C46",
"<c c #755D4C",
"<d c #755E50",
"<e c #75614C",
"<f c #756352",
"<g c #765D4C",
"<h c #765E4A",
"<i c #765F51",
"<j c #766350",
"<k c #775D4C",
"<l c #775F4A",
"<m c #77614D",
"<n c #786453",
"<o c #796450",
"<p c #796453",
"<q c #796559",
"<r c #7A6452",
"<s c #7A6453",
"<t c #7A6856",
"<u c #7B6252",
"<v c #7B644E",
"<w c #7B6455",
"<x c #7C6353",
"<y c #7D6752",
"<z c #817063",
"<{ c #826D5C",
"<| c #887163",
/* pixels */
"/7$Q1%0]#e(|*T086*!9!70O',8M:j021_.6)6#]$A(X'G*@&&4-9`+/'Q*A%3%y0K+}3)8]2E,l7!&d)[5S:!,)3e&P%t6n3O)71)0K#+$#(v3@8T*'+300*:#n(~-C",
"9[&1+y/y$s327.+i7&!d!m6=52<B;83W0c5=(k)_*L+0,2+1'+6.:74?,`&g%Z*d3.*2.j4r/h1~7103,i794D*M1*&s$]9?0T$y0z-v&a)o)|8(<l0w+E,y)4$s,O4'",
"0I(j(@.5'72H1(+#8j)~*c0~4b<#9i)s+p9B)N(0&5)C&()r(z3*8)0~./*/*('A2b)d-p/$,W6^:F4]+)1X1%*M-V/U)L;d.E'p1h+*(;0z-E4<<G/P'g2`+G#L3<27",
"-F-,)#)<&O+10F'T64!u##'Y2q;[5X'',N72-;(<'M5_-P(B$3/`8_5#4#.3-,$7,P-G+e0[1Q:?9^2-&L/`1P-?/z0<0J<:2I/T6X'U(g.D$r0A4]55+t7809)93p,K",
"+7,<,G)=)D/I1e)S8L$g!'&<)q7,:j4_,,<f/u*d*@8w0}-x#k3I7(9$3&+*+%!E#@.*0w6`2G1|:}11(D6>0y3<1C.`,y9%-e,,6&(h#H29&5(+655j3n.Q(u%_.L+O",
"-a+{3o*$%G)y+v&M5h!X!;$G%+7D<Q9|0+<S2W&7+20F*i*b(w.},b5i8).<//%.+3'&.68o*+.n982{.?8q1-4!2^,d11:5+|1!85!f%|8H*9(08n61/p.n'X'..F+T",
"-n(K0S3$!|2M'u%{3_!U!D%2$f1[99*`.m</0;*_+[-D#m1f2t7v0;,v11.L/50S82'k&23b+l-i;`5.8+880f-_5R#v*D79*4/+8F&`+I8e.S*c-l30:Q42,F%Z+a+j",
"-J*r1:6V+-)Y';'X5[&_&>*Y!y0>7}%I)z8C*T,-1O/0&].E%Y8r)W1l1;7}*f/<5k#j#~34(w3J<!+m8>:A-|2k8;&G.^<x3Z1R<h0v,L5^(k)}34316p.5)8#r)J1+",
"0v-r.Z7].<'t,7,s7z'?#B)n#R0l9f.o(<3/*2/;;56L/$/o!h2M3c*q3_3+1j3Z/2#s$C6a/V.u0f'%5`7d-E8q<X.]8=<|5H/$<$*N(.-*.B2b1h2M3+&'*I)#(J,O",
"8E3Y4I6l2_%;%`*[6R+E!g&Z(I-2:(7V.f5o7!;;<p;U5e.O!K1u2{*F5o8u+|2V4:(e!Y5p1>)o/@%M0>;m%O4,<s,87w<i10%97.%I)d-R'~/H1%78*p'j(p(C(N5<",
"2D+44v1,1M(?*.'`7#0,!f)6'r/I627@&c:)7(/+9c697E-/$)*#4h111l3I/f5P1o$u!M7X6q+r1z-}:c:2#5-I<U&}1y9)*c%U99*H):3C*C0b4e;^011#,>%T&-3v",
"2+(K4-8g2/+e/^'8/I,F#_%{'c*F,?,v(02E3D&~9#7k,>0&&`8}:#1g3T6Y5H4(/f(w!};O6E'g9~4s8r;s*Q16<m*<&v:=%i(0<c5''P9k0#,E*|3?0!&=$x$,%@,1",
".O)k+p8&4R.y-q'k2z00!o#R&d(U-o)D-K832P'/:I;',#5_$I-g2F65<(:A;>/<.L-/#*7K8<'-;F+g*(7:)a)?<V*E#Y.x&%,l<;4}&`7+/`)D(d(1)L)'&0$g$!'U",
"/,+;+m1`3v5</r*..v.5$s**)1(>/7+&)16X/s%2;N:V%m5{(r-x3U,~5;988U,c,J-`!02s9=.2;./N/I74#w(n<u$`!@/{&H2x<0-L&N4,'3,q1n'*,G)q*S#G%$)c",
"0(/M6X:g:A4t13*(8R*m'a/M)l(x41.t*};,4:*k9~9q'Z5~2#4F4&)6/T;L9h$n$/)>![)*;Q/-:s.u6];p((*;<N%N%H/A+T1T<b-}$~4''h56<&2]2:)&%k&-%P,d",
")5*A4p47:h4y/$&(7<)P$p.m,42t8V3{1)<'7b)o;c:T&V2w0^484:'P/t;B:~'8's(v!p3Y8P'<054V6U8~$[%&<e+?'K4~-H+8;w+T#t7+2,8)<33B5m-h#{'((v*|",
"(Z%N7N26*c4E(?$g9a8w$#1Y)04#7c3Q+S8o5?*!;|9d+P9N$k337H-^36;&8S)$+r+##c19:R'd0)6c(</T!F#9<-/C'{8:,&%]:i,w#59V7p3[:.5e4b-U(##^*a)e",
"+'$D3J2(/!3S+c#I6j4)$,.K-V449(5d6u:$0z(Z<*73+;9^/F5W./)m8P:99Q%f+y&P#O-w/U$M065N(78x&>(=;T.F#]2r,p)d<9/e$$4>7!8@:N6?4511(v(<*B2r",
"-##(.W561_803&+o6V/s$T-g.K;<9o5D.J;72d7'<t4|$/9I4T$}&`%|0U<]9+(h&?&x$O+;-.')4%3R2);}'-%R9w2M$S;b+M*_7M4$($9k:^9v:'0<.1/T-,#P)i-R",
",k!:148$.x:;5t3R9U3-+D3]:a;x6H*h)p7x6%+M8{8..T;X3#(W/Q.e9'<K3q!n$w+4)M.U0Q#J;f7w/N9f!_#I:M:J&R:<'/*|.U)X(R5!1+5q:(+s(8(C5/(.*P/H",
"(_%L1j/0'T1,(H$G9M5C+_3H;G<58}-d*J;F9y2a6Y5p1k5z,o1I2?-C12:20i!P#X*c(>0F-;)M<T7T./;v(y#[5s1r,Y/Z!N*Y3K-:%j4-&f$C;j0%*36-75+A2x2<",
"/D$K2f63*^.w*]&N9K*p$v/c;J;?4K'a*Q6O8U+V0n7/*!4z.m*w2|&p(A3..d)q(70M(N+(1N'=<%.63v7s$`!G6j1n4k2^#E'5/i/4#}6+&)*O<H-m%f0;1/(e1_(1",
"(s!C+//%&65L*c&~9L*8(w0x3~:L6I-S(,3;-Z-@.,<R0|2S2T61+{(03N1[+v0p(|+='%)E)}.g<`/]4$8I#C!12/351Q95.).G-10u$W5>&7+5<>/X&^&@!y&#1/+8",
"*j!-0=->)r.X,G%]49,]$s+#7s9_9<0`.+531#-R47;k3c08-z3R)T#$,M,J+]*&%h.M*o0I)I.u<^:?2z:4$-$L9;7W708%432U7>4Q%'5J'X%x9A-s'q(x!`(v1s+f",
")K!#1k0X(^1=*0-X12+r'C,'0!156H1K.G:-2*)@4(6@0=8Q,V(8-t+_-%/f*W.,%g-/$2*(-[$%<j9,(g<?&?!{9y9_8b6O761L1}+K).6h*Y(X;R/j&B1X&*+B4@)q",
"$|!4582R&.(v+w+=*5%U.E/).o298&&m*L6B/J(Q7u7B6G9!-e+6/68v0B+>,?*X#p1i(y,^$0$E<G26*R9(&D!x3[/Y&'+$6E7L,V0k(S6x);&[;`8)&;)|$c(s+;'S",
"$q$S7{34*[/g,z&C-N+r1_1P+4:J<+-L)u;I(9%s9U:K:6;n1M.$2q4U12-`-g%d#V-/']3d&3/(<y:H)z5='.$m7/,x%44M3g-k2$3V..;g5)$l5`9t&`*Q4N/H1_*g",
"(0$z803g(E5w3%(M*l(d4X5%+!:?6}&J&r6d4`.!<k982K:O-Q$H*?0:<13g6G&@#W(j%O2m([,w<[<D.84o(a.29{1,$>0a9+'B*U1T/);{7%&`8&0i#6047n110t6!",
"'O!5+q)y%;9'-=)}3v)G5_9r3A9Z+1&o(':Z:D+Y<w9^2r5/7I-{'}-]<2.L00(u-02>%X-x'n*a<o1c*-0q'W(45X&.',1E<*+e+`25&B9P5+$18H94!j-~7m+j,r,%",
"+t(?2~1h+p4I)%)25q.z6_7C1H66)v(!2l:v76((62/N2z/S9^4P'|0d9g2v1W'3'5:)0E3h(N+t<C0+%{1{%~&&,4-V+06$8t/0/~&|(k5802,<;:7`!>/I;]/4)V*y",
"+z%?6e5*029H'w/^/+.R)(1J2+9F/I,:3G8n5g(b5n6,0'4]6=3:'X,(;[+c0K%/+p+c6~-3'Q%>;z0;.i2-$I#'8G/]*R8c<.*%0.(`6f:|4n3|<N6f!&/?:G4:(<('",
"(m#<+z%8(C;;0?+Q3I1v1A2.4'4H(k$[*t<O.~&O675X(1+i4**{$J-d:@2P,6&/0Y.K5@5A%@$N:/4^.{.8!S!(,0)C#11L:(1k*/+*5a7r/i.t<M6J!.%E5c4i'J'E",
"*(!k0R-u+o4{/u%O/U/51/.61W6A+C(a-E8#0i&F.D6[$Y(.3)'z$K+49m7,3/'21<421o:@$P'9<@3F/C'-!b!*3}*[$r9-;a/O2u0z4l5I-7+*8n9&!r#5-V0S-]*G",
"#z!,+~,Z2;5G0Z*)*s)F*1*N0y7=0X&x'V8n2t().6-L&k)|1c.c(}.:4e1!3#)w.N4m/`9x!T$k<8-B3!,Q!c!=0w/$''7Z;63#8K7q2p8'0J.w:?:n#A(a2b1c2Q(O",
"$=!!'s+o'L1b3m'>#a.L*70y7%2,/w%X.$;.5<)p(k1Z'I&V3G,e,L0x;16<65$&,Q/d+p6M!A&%:r6U:*:j'N!%/@)v%v8F:C0j5,'x/B.%*T)r9X:,!)0J6N+8*H/p",
"%C!t.P,H(t5j3Y)l!Z&u%}+n<_9G6m(p2i<E2M.h+#7j,4#z0+-{(U2+:x6`4n*M0[7a.=5l#<(f:d2C<v;e%z!~0f3R$<7y9].k6a)d2'5&(U)f6Q7>!O6j6y%e)O4%",
"+H$?4D+#034>:J+x$5)3$;2r<g9a4w+h.f:e4q,s.|6',.$f.o.3'Z033X4e-,%c;(8Z/V7Y#g#`400*3i5K%^!6.*+_#3:{;E._03+J5'5?*x.>3S)C!$6H2k#Q'v62",
"*1!W*a-c$@2P3/0*)K-O#;0/;H4C/:(?,-8p8G3#453W3w0C2+(&&}./28-5'f#.4G8Q3l4I&A%Q564W7i2}%^!]'~&R!?7;<'9*:_:'5%*8$.2k:w.w#h;O5q#|'h9a",
"*X!J0U-)#T2L/3-N&P5j%p5$;_205b2v1W7S3~3#2>7:3Z+b,9&++L,f7^3m-U&X,`/R0D5N0W'35k7[;>;o5h*?,%&w!_:P<r;l9~:X:>6@*!1R;94A#^;i;p&,&i7l",
"-l$5194:)C/=.Z48545D*!4j<N9R71'a-`,3-S4e2A4F+F(~0#.-+10m5c;D6?3}+_)d+.1n-<0N2O'-1h<q&e!e00)C#?:S:y7h0E4W4O4v1?-g;4/9#=7t7A$h%7;l",
"&'#U.Y/0/0:3;C;Y8|-h#i-+;04A3j5_82/&4a5X6W9h'0'b.63H&P/I&x0>*!$U.;,}+i7U6i)E0G!l,S<6&:$`2D(a#d6V<Z6i5]3?,,6M2X(D6k0G#B7Q1j%(';8W",
"(]#b31*y-47-1p9J5p/v%W4+:^3O3d90:8<)<F1d+Z6g$4(c2/5>/J2t*=1&(l-`1,7c.#:04c+e8f&'-x9@-B&I2&'G$^8N<P6[7:4f#85D2Z%A8$$K#K8X8O'!+u6p",
"&!#b6s-6)x6t/x3,/0,a(60@:U/k4:4T:f9-8J/i*X<{->$S7O671810*!/W'38,3X2A,{7Q6'&*;23(8[;%0i%[1U&j)52n845u5q2z%n9i7g0Y;_&*)+6r2F#4$+8N",
",w$9/7'm(q5M3X.n30/:+36X5O571e<d;b;V2t+,)B<73b586z8q1..>1%2L+e(A,z07+j--4^&9;r3E5x:W,|,G07'D)z60,q5D:'41$b5,635r;u&)&N:l/q!w#x8N",
"0o&l7+.u1s6H1e-Z4d3x+N)-.55D8Y;@;W9/%c/1.@8/5K-$2A*(/++5.h5y,t$R.G1L6F5B4$*n:?2*&*3i./2P1~-A%D4L)E13:E3A)05,:'5f<$&s%.;S/E#u&(4%",
"1X.m3n-$.V0N'h*Y25/|(]$h)`.p6:8!:t3k(L0K3Y;)7?1W3m'f4u.s0{8-.7(2)M395F230)1,:u,C'65_2g7303*?+`6)292N9.,w$r28-087;=,l-f<=/^#!'!4S",
",F/>+q%q1X4J-8.t3^3A'U$o'!0a9u8;9T65*V-$1[;$:i8h4;2q:D/c/.;A3~58)q+Y+:,$)H.827'S*e9e4.0i3s2C+R2h0%5K:?0h&/./0r2|:`/+-59^)w!<(G2j",
"+e&S/+$'0L9p-8.<4b6v&K,@7_7|<I5:;t8m0$/K4!<z9#7+1S,+9j-p-:811X2N)F+#1/+=11$k'U%B++;M:_0h/S:o*v3z/a6Y97&~$e6P2k:b:z)~&$4f,G#2(*3q",
"//,_6($}*[6K2u-h2(.[!R'H647R;!7F8`7P2@+c2q;y77/L,B&n2%+43,9C3y#g'e.R.x,[/h+9*>)Z%*:e:~.9,3;F-U7Q8l0;/S&T!s:p3c1Z<A-V&z6.6[#F%x38",
".t+j1q'F)};#93193>+>!I$(0y5}:+9:<L9y4892;Z<J6[.'+P.A:Y374w791&!n&'*('2%|1m&;&Y%l#M8l5_)i){:{6#855X5.01,h&q;;3l)69~*((o2/4d$V#).a",
"0)2?0Z&t$c.H6k.H3?24%y-b1W4!6:7e<M8s3X9h:[6@961P556/9s.g5>2Y)Q#e%b&c,m)502':'4#>%%9P:q5Q)h2k.'5!1w0G1U1D'$::4g*u5T/d)]5Y3a%T#N7|",
"-d,;1$!z%O/`9-4Y+k)g$B$s%!2y,{178?673'0y9D/8685-<<3h/#,w,M6H)$'l-`,[*W5*,-,U2|&4$l;+;e1x&428125|,!/`5+)q%O8x*(&,<47]$p,?1]-L%K3v",
"0m'03h(z'5.49O1G)!(V$:(T*a)e+:0q:?4(-/+L4[0N.G,*4=3h+k'`0C0C':)68$8*6=9}5c2J5h'U#f7G<,;/+!(`4L3M+X5U;*+2&{:a2c.I:m22%&'i.C$a#l,%",
"09%0&_&y'[0-8^6u4W+#%F3P4h.s.r(01a7!.D,54P/_,X,v1h1#,Q))1#4e-j$*/`55283u912+2l*|(k8B9~8H0-)/4%6w)^2!8D')&Z<n8r-(9&-W%#*z,n&X+:0_",
"1F#/%U!^#y/n7,000e%J$86P2/21.=)r,#6S5;/00w0z6j1#+A+!0v-o.x:a69${&g4B+h-T/R4,3A&W$d9E;~:_-M(%3~8y3?8B<D!2$j<a3c'f8z-/%V*~.6#m)C3<",
"6+$x*,&E$B-/4n*F1V$X#D<#1%434`0s5/6{5.)C,43`3J.8)R/008-'$(4]0H#n116b263Z+`)t/U+6#74W9>,D*a*Q4,:k/b0i5Z!v&U;K&/%|592=&/+M3r$Q$F'z",
"1T*S1t*S%o2663+f5A!H$Z;q,q0g6D2|2b6S;P.&,R293}.l&h.20w5H%a9Y2@'(2G3'1V1'+U27/G.v(i6X9S/*1B,11V9t*'(51U%#$G5h(d(b8I3A(F)b-M%,#-$8",
"6P031&%-$]/O5>'*;h#q!w;q/].b5j-;.D6T58+6+;46:1/T'Y.h0y4h+<4(8d)1.N48(v0q-!0;3~0;+86j8B:B6|(6*D5j(0/^9],u'-132s-989*Z,I-L0*+-(5(3",
"5V&5+d(r#Z2L1+(/9`!q!3:?6Z62<W5N%78Q736Q7c4x9n(^%Z(B9W7f0P/l4Z&8.^)J+;)~+02D6S7*)j9b26:]+^!B'#923t7$86.,#-+:'=-n51*M-5*K.`,7(p-[",
"5(*T4`-`%22y3O%r6Y&V#|8i5]5T<Y8I+k8k2B.w0S,A9`)w)#&5-#5E)U.D5/3F4q'S+e.z-'09/'4,$G63)I59/]$i%16]5_(7,y43!J(B%-&A6o.;+2,g,T$]%)+U",
"0z-&1,,~!,,y/d'_4P'O#%;37*)<8=7J.(9z6q-,(u-f8P52+p.F-^'^%<&g,j,s2[%N+2+4(:4e9`6;%c505/6|7K)C+[3f3R$t)A/D!8-}&b'o7)1s+@/m0y#,#&2e",
"(h(Y+W+4!+3Q.5)02*#`!Q8A8D*[9l:^1F7R3L-y)Q4x<(3<+_6V;h-(%('6+`)O1d(]%S.u-]7Q;54(+J)6-E6P3C'8%w6+7=*0-e'R!/,=0X-&3v+j(K.b-L$O(63J",
"--#K(C1f#:/2-S&s4d(-%u;-:{,l5v1@'H2(,=(w*60V34)u'`8w:%-Y'13Q({+_7~.0-X.w+k/]8o+g%6/}4/8a.+(p$c2C98+l+T,u!L/V)}'_6C-]'@*Y(4#01^5/",
"*T#o)D0n!V(d(>'a:&&_$_54.9/[2E/I,t00+/%5(i+_+J(P!i,?3v4,-q46%:$6,T&Q.K2:/f0z6~),'y3I7o2o7p3=/J8I71(100.q!a%{%=,/9W.<*,.8(;#S'g)C"
};
