/* XPM */
static char *tree_bark_01[] = {
/* columns rows colors chars-per-pixel */
"64 64 909 2",
/* colors */
"!! c #24211B",
"!# c #261D17",
"!$ c #261E15",
"!% c #261F17",
"!& c #26231C",
"!' c #271F19",
"!( c #27201B",
"!) c #27241E",
"!* c #281F17",
"!+ c #281F18",
"!, c #291F1A",
"!- c #29201A",
"!. c #29201B",
"!/ c #29231C",
"!0 c #292320",
"!1 c #2A1D18",
"!2 c #2A1F1A",
"!3 c #2A2018",
"!4 c #2A201A",
"!5 c #2A211A",
"!6 c #2A231A",
"!7 c #2B1F18",
"!8 c #2B1F1A",
"!9 c #2B2017",
"!: c #2B2018",
"!; c #2B201A",
"!< c #2B2118",
"!= c #2B211A",
"!> c #2B221C",
"!? c #2B231C",
"!@ c #2B231E",
"!A c #2B241C",
"!B c #2C231C",
"!C c #2C241C",
"!D c #2C241E",
"!E c #2C2420",
"!F c #2C251C",
"!G c #2C2620",
"!H c #2D1E18",
"!I c #2D1F18",
"!J c #2D2018",
"!K c #2D201A",
"!L c #2D221A",
"!M c #2D221C",
"!N c #2D2318",
"!O c #2D231A",
"!P c #2D231C",
"!Q c #2D241C",
"!R c #2D241D",
"!S c #2D261D",
"!T c #2E2019",
"!U c #2E201A",
"!V c #2E2219",
"!W c #2E221A",
"!X c #2E221D",
"!Y c #2E2319",
"!Z c #2E231A",
"![ c #2E241A",
"!] c #2E241D",
"!^ c #2E241F",
"!_ c #2E251F",
"!` c #2E2520",
"!a c #2E261D",
"!b c #2E261F",
"!c c #2E2621",
"!d c #2E2820",
"!e c #2F2019",
"!f c #2F211C",
"!g c #2F2219",
"!h c #2F221C",
"!i c #2F231F",
"!j c #2F241C",
"!k c #2F241F",
"!l c #2F2420",
"!m c #2F251F",
"!n c #2F2520",
"!o c #2F261F",
"!p c #2F2620",
"!q c #2F2820",
"!r c #2F2920",
"!s c #30201B",
"!t c #30211B",
"!u c #30211C",
"!v c #30211D",
"!w c #30211F",
"!x c #30221B",
"!y c #30221C",
"!z c #30221D",
"!{ c #30231F",
"!| c #30241B",
"!} c #30241C",
"!~ c #30241D",
"#! c #30241F",
"## c #30251C",
"#$ c #30251D",
"#% c #30251F",
"#& c #302521",
"#' c #30261B",
"#( c #30261C",
"#) c #30261D",
"#* c #30261F",
"#+ c #302721",
"#, c #30281F",
"#- c #302821",
"#. c #30291F",
"#/ c #31201B",
"#0 c #31211B",
"#1 c #312219",
"#2 c #31221B",
"#3 c #312419",
"#4 c #31241B",
"#5 c #31251B",
"#6 c #312522",
"#7 c #312725",
"#8 c #312922",
"#9 c #312923",
"#: c #312A25",
"#; c #32211B",
"#< c #32211D",
"#= c #322219",
"#> c #32221B",
"#? c #32231D",
"#@ c #32231F",
"#A c #322419",
"#B c #32241B",
"#C c #32241D",
"#D c #32241F",
"#E c #32251D",
"#F c #32251F",
"#G c #322521",
"#H c #32261D",
"#I c #32271F",
"#J c #322721",
"#K c #322722",
"#L c #32281D",
"#M c #32281F",
"#N c #322821",
"#O c #32291D",
"#P c #322922",
"#Q c #33231E",
"#R c #33231F",
"#S c #33241E",
"#T c #33251E",
"#U c #33251F",
"#V c #332521",
"#W c #33271E",
"#X c #33271F",
"#Y c #332721",
"#Z c #332722",
"#[ c #332724",
"#] c #33281E",
"#^ c #33281F",
"#_ c #33291F",
"#` c #332921",
"#a c #332922",
"#b c #332924",
"#c c #332B24",
"#d c #332D24",
"#e c #34211D",
"#f c #34231B",
"#g c #34231D",
"#h c #34231E",
"#i c #34241B",
"#j c #34241D",
"#k c #34251D",
"#l c #34251E",
"#m c #34271D",
"#n c #34271E",
"#o c #34281E",
"#p c #352320",
"#q c #35241A",
"#r c #352520",
"#s c #352521",
"#t c #352620",
"#u c #352621",
"#v c #352720",
"#w c #352721",
"#x c #352824",
"#y c #352920",
"#z c #352921",
"#{ c #352922",
"#| c #352924",
"#} c #352A21",
"#~ c #352A22",
"$! c #352A24",
"$# c #352A26",
"$$ c #352A27",
"$% c #352B22",
"$& c #352B24",
"$' c #352D22",
"$( c #352D24",
"$) c #352D27",
"$* c #36231B",
"$+ c #36241B",
"$, c #362420",
"$- c #36251B",
"$. c #36251D",
"$/ c #36251E",
"$0 c #362520",
"$1 c #36261E",
"$2 c #362620",
"$3 c #36271D",
"$4 c #36271E",
"$5 c #362720",
"$6 c #36281D",
"$7 c #36291E",
"$8 c #362920",
"$9 c #362A20",
"$: c #37251D",
"$; c #37251E",
"$< c #372520",
"$= c #372522",
"$> c #37261D",
"$? c #37261E",
"$@ c #372620",
"$A c #372622",
"$B c #37271D",
"$C c #37271E",
"$D c #372720",
"$E c #37281C",
"$F c #372822",
"$G c #37291D",
"$H c #37291E",
"$I c #372920",
"$J c #372922",
"$K c #372924",
"$L c #372A20",
"$M c #372A22",
"$N c #372A24",
"$O c #372B20",
"$P c #372B22",
"$Q c #372C24",
"$R c #372C26",
"$S c #372D20",
"$T c #372D22",
"$U c #372D24",
"$V c #372D26",
"$W c #382423",
"$X c #382823",
"$Y c #382923",
"$Z c #382924",
"$[ c #382A23",
"$] c #382A24",
"$^ c #382A26",
"$_ c #382B26",
"$` c #382C23",
"$a c #382C24",
"$b c #382C26",
"$c c #382D23",
"$d c #382D24",
"$e c #382E26",
"$f c #382E27",
"$g c #39251E",
"$h c #392520",
"$i c #39261E",
"$j c #392620",
"$k c #392622",
"$l c #392623",
"$m c #39271E",
"$n c #392723",
"$o c #392820",
"$p c #392822",
"$q c #392823",
"$r c #39291E",
"$s c #392920",
"$t c #392922",
"$u c #392A1E",
"$v c #392A20",
"$w c #392A22",
"$x c #392A23",
"$y c #392B20",
"$z c #392C22",
"${ c #392C23",
"$| c #392D22",
"$} c #392D23",
"$~ c #3A251F",
"%! c #3A261E",
"%# c #3A261F",
"%$ c #3A281E",
"%% c #3A281F",
"%& c #3A291E",
"%' c #3A291F",
"%( c #3A2A1F",
"%) c #3A2A25",
"%* c #3A2B25",
"%+ c #3A2B26",
"%, c #3A2C25",
"%- c #3A2C26",
"%. c #3A2E25",
"%/ c #3A2E26",
"%0 c #3A2E27",
"%1 c #3A2F26",
"%2 c #3A2F27",
"%3 c #3A3026",
"%4 c #3A312B",
"%5 c #3B261F",
"%6 c #3B2620",
"%7 c #3B2722",
"%8 c #3B2723",
"%9 c #3B281F",
"%: c #3B2820",
"%; c #3B2822",
"%< c #3B2823",
"%= c #3B291F",
"%> c #3B2920",
"%? c #3B2A1E",
"%@ c #3B2A1F",
"%A c #3B2A20",
"%B c #3B2A22",
"%C c #3B2A23",
"%D c #3B2B23",
"%E c #3B2B25",
"%F c #3B2C20",
"%G c #3B2C22",
"%H c #3B2C23",
"%I c #3B2C25",
"%J c #3B2D22",
"%K c #3B2E23",
"%L c #3B2E25",
"%M c #3B3025",
"%N c #3C2721",
"%O c #3C2722",
"%P c #3C2821",
"%Q c #3C2822",
"%R c #3C2823",
"%S c #3C2921",
"%T c #3C2A21",
"%U c #3C2A22",
"%V c #3C2A23",
"%W c #3C2A25",
"%X c #3C2B22",
"%Y c #3C2B23",
"%Z c #3C2B25",
"%[ c #3C2B27",
"%] c #3C2C21",
"%^ c #3C2C22",
"%_ c #3C2C23",
"%` c #3C2C25",
"%a c #3C2D27",
"%b c #3C2E22",
"%c c #3C2E23",
"%d c #3C2E25",
"%e c #3C2E27",
"%f c #3C2F25",
"%g c #3C2F27",
"%h c #3C3027",
"%i c #3D2821",
"%j c #3D2923",
"%k c #3D2A1F",
"%l c #3D2A21",
"%m c #3D2A23",
"%n c #3D2B21",
"%o c #3D2B23",
"%p c #3D2C1F",
"%q c #3D2C21",
"%r c #3D2C23",
"%s c #3D2D28",
"%t c #3D2E21",
"%u c #3D2E23",
"%v c #3D2E28",
"%w c #3D2F28",
"%x c #3D322B",
"%y c #3E2923",
"%z c #3E2A23",
"%{ c #3E2B23",
"%| c #3E2B25",
"%} c #3E2C23",
"%~ c #3E2D25",
"&! c #3E2D27",
"&# c #3E2E23",
"&$ c #3E2E25",
"&% c #3E2E27",
"&& c #3E2F23",
"&' c #3E2F25",
"&( c #3E2F27",
"&) c #3E2F28",
"&* c #3E3023",
"&+ c #3E3025",
"&, c #3E3127",
"&- c #3E3128",
"&. c #3E3228",
"&/ c #3E3328",
"&0 c #3F281E",
"&1 c #3F281F",
"&2 c #3F2924",
"&3 c #3F2A1F",
"&4 c #3F2A21",
"&5 c #3F2A23",
"&6 c #3F2A24",
"&7 c #3F2B1F",
"&8 c #3F2B21",
"&9 c #3F2B23",
"&: c #3F2B24",
"&; c #3F2C1F",
"&< c #3F2C21",
"&= c #3F2D23",
"&> c #3F2D24",
"&? c #3F2E21",
"&@ c #3F2E23",
"&A c #3F2E24",
"&B c #3F2F23",
"&C c #3F2F24",
"&D c #3F342B",
"&E c #402921",
"&F c #402924",
"&G c #402A21",
"&H c #402A23",
"&I c #402B1F",
"&J c #402B21",
"&K c #402B23",
"&L c #402B24",
"&M c #402B25",
"&N c #402C21",
"&O c #402C27",
"&P c #402C28",
"&Q c #402D23",
"&R c #402D24",
"&S c #402D25",
"&T c #402D27",
"&U c #402E21",
"&V c #402E23",
"&W c #402E24",
"&X c #402E25",
"&Y c #402F21",
"&Z c #402F23",
"&[ c #402F24",
"&] c #402F25",
"&^ c #402F27",
"&_ c #402F28",
"&` c #402F2A",
"&a c #403028",
"&b c #403124",
"&c c #403125",
"&d c #403127",
"&e c #403128",
"&f c #40312A",
"&g c #403225",
"&h c #403228",
"&i c #403325",
"&j c #403328",
"&k c #412B26",
"&l c #412C20",
"&m c #412C26",
"&n c #412C27",
"&o c #412D26",
"&p c #412D27",
"&q c #412F26",
"&r c #412F27",
"&s c #412F28",
"&t c #412F2A",
"&u c #413027",
"&v c #413028",
"&w c #41302A",
"&x c #413126",
"&y c #413127",
"&z c #413128",
"&{ c #41312A",
"&| c #413226",
"&} c #413227",
"&~ c #413228",
"'! c #41322C",
"'# c #422A21",
"'$ c #422B21",
"'% c #422B23",
"'& c #422B24",
"'' c #422B26",
"'( c #422C24",
"') c #422C26",
"'* c #422D21",
"'+ c #422D23",
"', c #422D24",
"'- c #422D26",
"'. c #422E21",
"'/ c #422E23",
"'0 c #422F23",
"'1 c #422F24",
"'2 c #422F26",
"'3 c #423026",
"'4 c #423124",
"'5 c #423126",
"'6 c #423226",
"'7 c #42342D",
"'8 c #432A20",
"'9 c #432A28",
"': c #432B22",
"'; c #432C28",
"'< c #432D22",
"'= c #432E22",
"'> c #432E28",
"'? c #432F22",
"'@ c #432F28",
"'A c #433028",
"'B c #43302A",
"'C c #433128",
"'D c #433228",
"'E c #43322C",
"'F c #43322D",
"'G c #43332A",
"'H c #43332C",
"'I c #43332D",
"'J c #433428",
"'K c #442B23",
"'L c #442C22",
"'M c #442C23",
"'N c #442C24",
"'O c #442C26",
"'P c #442C28",
"'Q c #442D20",
"'R c #442D22",
"'S c #442D23",
"'T c #442D24",
"'U c #442E26",
"'V c #442E28",
"'W c #442F22",
"'X c #442F23",
"'Y c #442F24",
"'Z c #442F26",
"'[ c #442F28",
"'] c #443024",
"'^ c #443026",
"'_ c #443028",
"'` c #443029",
"'a c #443124",
"'b c #443126",
"'c c #443128",
"'d c #443224",
"'e c #443226",
"'f c #443228",
"'g c #443229",
"'h c #443426",
"'i c #443429",
"'j c #452B24",
"'k c #452C24",
"'l c #452C26",
"'m c #452D24",
"'n c #452E26",
"'o c #452E28",
"'p c #452F24",
"'q c #452F26",
"'r c #452F28",
"'s c #453024",
"'t c #453026",
"'u c #453028",
"'v c #453029",
"'w c #453124",
"'x c #453126",
"'y c #453226",
"'z c #453228",
"'{ c #453229",
"'| c #45322A",
"'} c #453329",
"'~ c #45332A",
"(! c #453426",
"(# c #453428",
"($ c #453429",
"(% c #45342A",
"(& c #45342C",
"(' c #453629",
"(( c #45362D",
"() c #462C25",
"(* c #462E24",
"(+ c #462E25",
"(, c #462F24",
"(- c #462F25",
"(. c #463024",
"(/ c #463025",
"(0 c #463124",
"(1 c #463125",
"(2 c #463225",
"(3 c #46322B",
"(4 c #46332B",
"(5 c #46342B",
"(6 c #46362B",
"(7 c #472E26",
"(8 c #472F26",
"(9 c #473026",
"(: c #473028",
"(; c #473129",
"(< c #47312B",
"(= c #473226",
"(> c #473228",
"(? c #473229",
"(@ c #47322B",
"(A c #473328",
"(B c #473329",
"(C c #47332B",
"(D c #473426",
"(E c #473428",
"(F c #473429",
"(G c #47352B",
"(H c #473628",
"(I c #473629",
"(J c #482E24",
"(K c #482E25",
"(L c #482E27",
"(M c #482F22",
"(N c #482F24",
"(O c #482F25",
"(P c #483022",
"(Q c #483024",
"(R c #483025",
"(S c #483027",
"(T c #483224",
"(U c #483225",
"(V c #483227",
"(W c #483327",
"(X c #48332D",
"(Y c #483427",
"(Z c #48352D",
"([ c #48362D",
"(] c #48372D",
"(^ c #492E24",
"(_ c #492E28",
"(` c #492F24",
"(a c #492F29",
"(b c #493024",
"(c c #493025",
"(d c #493027",
"(e c #493028",
"(f c #493127",
"(g c #493128",
"(h c #493129",
"(i c #49312B",
"(j c #493225",
"(k c #493227",
"(l c #493228",
"(m c #493229",
"(n c #493325",
"(o c #493327",
"(p c #493328",
"(q c #493329",
"(r c #49332B",
"(s c #493427",
"(t c #493428",
"(u c #49342B",
"(v c #49342D",
"(w c #493529",
"(x c #49352B",
"(y c #49352D",
"(z c #493629",
"({ c #49362B",
"(| c #49372D",
"(} c #49372E",
"(~ c #49392E",
")! c #4A3029",
")# c #4A3129",
")$ c #4A3229",
")% c #4A3329",
")& c #4A332B",
")' c #4A3429",
")( c #4A3529",
")) c #4A352B",
")* c #4A352D",
")+ c #4A352E",
"), c #4A3629",
")- c #4A362B",
"). c #4A3729",
")/ c #4A372B",
")0 c #4A372D",
")1 c #4A372E",
")2 c #4A3731",
")3 c #4B3029",
")4 c #4B3125",
")5 c #4B3127",
")6 c #4B3129",
")7 c #4B3224",
")8 c #4B3225",
")9 c #4B3227",
"): c #4B3325",
"); c #4B3327",
")< c #4B3329",
")= c #4B332A",
")> c #4B3429",
")? c #4B3529",
")@ c #4B352A",
")A c #4B3627",
")B c #4B362A",
")C c #4B372A",
")D c #4B3931",
")E c #4C3027",
")F c #4C3125",
")G c #4C3129",
")H c #4C312A",
")I c #4C3225",
")J c #4C3227",
")K c #4C3325",
")L c #4C3327",
")M c #4C3329",
")N c #4C332A",
")O c #4C3425",
")P c #4C342A",
")Q c #4C342B",
")R c #4C3527",
")S c #4C3529",
")T c #4C352A",
")U c #4C352B",
")V c #4C352D",
")W c #4C3629",
")X c #4C372A",
")Y c #4C372B",
")Z c #4C372D",
")[ c #4C382D",
")] c #4C382E",
")^ c #4C3830",
")_ c #4C392B",
")` c #4C392D",
")a c #4C392E",
")b c #4D322C",
")c c #4D332C",
")d c #4D3426",
")e c #4D342C",
")f c #4D3526",
")g c #4D352C",
")h c #4D352E",
")i c #4D362D",
")j c #4D362E",
")k c #4D372C",
")l c #4D372D",
")m c #4D372E",
")n c #4D382C",
")o c #4D382D",
")p c #4D392C",
")q c #4D392E",
")r c #4D3B2C",
")s c #4D3C30",
")t c #4E3127",
")u c #4E3327",
")v c #4E3329",
")w c #4E332A",
")x c #4E332C",
")y c #4E3429",
")z c #4E342A",
"){ c #4E3527",
")| c #4E3529",
")} c #4E352A",
")~ c #4E352C",
"*! c #4E362C",
"*# c #4E3729",
"*$ c #4E372A",
"*% c #4E372C",
"*& c #4E382C",
"*' c #4F3326",
"*( c #4F3328",
"*) c #4F3428",
"** c #4F3528",
"*+ c #4F352D",
"*, c #4F3728",
"*- c #4F372D",
"*. c #4F372E",
"*/ c #4F382D",
"*0 c #4F382E",
"*1 c #4F3830",
"*2 c #4F392D",
"*3 c #4F3A2E",
"*4 c #4F3C32",
"*5 c #4F3E32",
"*6 c #503229",
"*7 c #503326",
"*8 c #503329",
"*9 c #503428",
"*: c #503429",
"*; c #503529",
"*< c #50352A",
"*= c #50352C",
"*> c #50352E",
"*? c #50362A",
"*@ c #50362C",
"*A c #50362E",
"*B c #503726",
"*C c #503729",
"*D c #50372A",
"*E c #50372C",
"*F c #503828",
"*G c #50382C",
"*H c #50382E",
"*I c #50382F",
"*J c #50392A",
"*K c #503A2C",
"*L c #503A2E",
"*M c #503A2F",
"*N c #503B2E",
"*O c #503B2F",
"*P c #51332A",
"*Q c #51342C",
"*R c #51342F",
"*S c #51352A",
"*T c #51352E",
"*U c #51362A",
"*V c #51362C",
"*W c #51372A",
"*X c #51372C",
"*Y c #51382A",
"*Z c #51382C",
"*[ c #51382E",
"*] c #51382F",
"*^ c #51392F",
"*_ c #513A2C",
"*` c #513A2E",
"*a c #513A30",
"*b c #513A32",
"*c c #513B2E",
"*d c #513C2F",
"*e c #513C30",
"*f c #52342A",
"*g c #52342B",
"*h c #523528",
"*i c #52362A",
"*j c #52362B",
"*k c #52372A",
"*l c #52372B",
"*m c #52382B",
"*n c #523C31",
"*o c #53362C",
"*p c #53372F",
"*q c #53382C",
"*r c #53382E",
"*s c #53392E",
"*t c #533A2E",
"*u c #533B31",
"*v c #533C2F",
"*w c #533D31",
"*x c #54362B",
"*y c #54362D",
"*z c #54382A",
"*{ c #54382B",
"*| c #54382D",
"*} c #54392D",
"*~ c #543C33",
"+! c #543D33",
"+# c #553628",
"+$ c #55362A",
"+% c #55372F",
"+& c #55382A",
"+' c #55382B",
"+( c #55382D",
"+) c #55382E",
"+* c #55382F",
"++ c #55392B",
"+, c #55392D",
"+- c #55392E",
"+. c #55392F",
"+/ c #553A2B",
"+0 c #553A2E",
"+1 c #553B2F",
"+2 c #553B31",
"+3 c #553C2E",
"+4 c #553C31",
"+5 c #56382F",
"+6 c #56392F",
"+7 c #563B2F",
"+8 c #563B33",
"+9 c #563C2F",
"+: c #563D2F",
"+; c #563D33",
"+< c #57372B",
"+= c #57382D",
"+> c #57392B",
"+? c #57392F",
"+@ c #573A2B",
"+A c #573B2F",
"+B c #573C2A",
"+C c #573C2D",
"+D c #573F2F",
"+E c #583D31",
"+F c #583F34",
"+G c #584133",
"+H c #59372D",
"+I c #59382C",
"+J c #59392C",
"+K c #59392D",
"+L c #59392F",
"+M c #593B2C",
"+N c #593B2D",
"+O c #593B2F",
"+P c #593D2F",
"+Q c #593D30",
"+R c #593D32",
"+S c #5A3B2D",
"+T c #5A3C2D",
"+U c #5A3D2D",
"+V c #5A3D2F",
"+W c #5A3D32",
"+X c #5A3E32",
"+Y c #5A3F2D",
"+Z c #5A3F33",
"+[ c #5A4133",
"+] c #5C3D2F",
"+^ c #5C3E30",
"+_ c #5D3E2E",
"+` c #5D3E30",
"+a c #5D3F2E",
"+b c #5E3E30",
"+c c #5E3E34",
"+d c #5E3F31",
"+e c #5E4030",
"+f c #5E4032",
"+g c #5E4131",
"+h c #5F4032",
"+i c #603B33",
"+j c #603E2E",
"+k c #603E31",
"+l c #614334",
"+m c #623E31",
"+n c #634235",
"+o c #634333",
"+p c #654536",
"+q c #674436",
"+r c #694434",
"+s c #6E4539",
/* pixels */
"#H'[(2&A&R'/'+#9);#E))%C$l$s'S!I$o$M+=(o$<&L*_&C$|$d(W$2#E#W&'!^$m'C'a'&#F&#*G!>)d$d'C%V$M$C%d&K$?!](D'[$8%()t*X'w$Q(D$<$J(>(w!8",
"%^&,$G&K$?*j$v#*'$%G)=%a$t)S(f&L%*&`*t(f$A':#1'7(=%/*d'`!J*1'}$`%~%Y$i(+#<)u'/!o&Y$P(|(v'}&$%x'{%#$x(f%'&r&[%}'z']#H(H%L$C+;%_#N",
")M*4*z)u&8*D#L%g(7)?#U#u)P%o#M&y#l*4)`'3(k%}!%!G#O'C*H!U$I(|%/#n)5(p+M'n$A++&K#`#i&)#a)M't!}!7'^$.&:$H(>+D&=$P$U#C#D$v$w(e%u!n!-",
")='z(R&=#U*&#0$w)(&Q!M$n*=(>$C'q$7(?)u'=$?$v$C)}#v#I%A$v&%&z%z)J+5&q+>*j#G*Y%%$t%p&S%^*b(7$e!Q*H$m$[%g(4$p&''b's$Y#t#E+6$M$p%K$M",
")S$P$H%&%:&q#R#b*@'C!v%D*-&#'y$7&R+Q(2%r%o$J$J%e$G#U%Y%y',&>&4)*'r!-*_*##i(W!;#o'x%B&A*X*n#T'b&b#;'1'p$D#W%j%S!n&@!($''V$s*L)[$M",
"(j&r$s%T*-'p'A!1#j)N#z&%#)#N'_%K'^*I's$x$o%>%u$o&Q'z&>&L!]%B'X)='(%;*{&[%B&K#i!V#a'}%B'[$s!W*:))!W(>&V%T$5'w%A%J(0#U'6&q!a+4'i#5",
"(p%C%u$M%>&[)p$N&y(B%I!A!'*&${#n'T%f)(&q#F&;*a%.$C%e&*'u'u$t)$'Y',#{(o#{#U'S(1#H'%&j%f$t#I%r(9's%9%e)M'u#%(B&o%w%}$F&x&v*D&<(#%&",
")>$J&I%c#v!e%`'D%%&{(F#{&(+G'z!C!2%C*v$M&A#v&($J&W$Q$H+V(B#N)T**'l!>'1$3#-%S$s&L%@#a%c(V(F*c'w!|!]!]+Q(t#l!j&q&o'+%{$M'T*O%M&#%,",
"'5$5$H'_#t(-(l%Z'$*A(6!n$v&<'b$I!Z&p)>!=%n'z$x%{%f'b%A*;#C#n'1&V$~#S%n%m!7(/$v%B(I#l$z&q'c${%r'c$s!B+:%}#l$J&X(C#3$F$J({#l'A'c#n",
"$M$M&[%=#o)@)$#s))(>(w$j$,%B#t!L$J)$&q$[&[%;#2%>&}$5'z'p$4$s',(W$<$F'X%U!})B&N#v)_#H%g+L%H#_!P%d'*!M+-(:#E$t$5&W#n!z)}&v#l(z(o)(",
"$M%G*()=%X*{$;!w)z(=(:$5%Q)$%u#l%X(m(r%B'_$r%#&u&9#U)('g!](>)$!j%P(<*D)g#l+_$g!:'{!X&7*:%a$o$J&o']!^*D(/#%$m%N&M#W!+(9%>#`+f(t##",
"(S#W':$5#!(o'2#t*U'z!]!,'}*2)*!=$?'!'_$s%`$B%0'-)7)>#C'M$2)##?$]+?')'t&>$X+P(.#X*@!W#W$r%z$m'+$r)U$F(u(V#C$C%o$t'1&>!h$Y!x+6#v%c",
"$D#N'+$J!N*{)%%V*9*E$`#$):&@'}$t#C(?+,'Z'R#1%^);(K%m#v'T%D(A$m$&$8&P%X(k!8)$'z'z+@$5'D(6'-'%&9#E%a#E*E)Z%n#4)='C'Y%}#*$1&a*r)Q&A",
"$5&#'p$2(>+9#t!C(R%]%B%D(B(W'c&C#E%B+T%k'U&G$i!:'1#U)X+)%s&>!g%P*U)i%m&K&H(l%D&A'=!5%A&9%U'z%U%k'p#v*Y't%}&=&]!B'p&m&W%B(m%^'U&=",
"%:%X)z)#$@(Y#Y&a*})n!o%W(B&>'z#U#?%B*h$>$v%}&3#|'%%B*q#l!y(?#J)Q)e(:*g+]$*%c&>*e&N&A'A&2'_%D$B%B(l%Y)%&Q&=%H'/$#)5(C'G#j%S%1$J'M",
"#?$8+K(e#=(#%>#`+a'^$M$F(R$L$B$G$D'z(T$j$C(V%|&z'Y$w)=#@$x&)$?*H&u$x+@(y#U%}(l%,(,'A%a%m)P$t$2'@%E#z%=%N!X)Y)8'g'3(%$%!U$9%d)Y(F",
"&4&.)$#T${+e$~#S*d&]&9%B%V'^#K$h&K(g*|)$'Z%`(c&X%~$M&>&o$A&m&5)$(:&q&K#}#T's's&^'2%n%~&X#j$0#5%_&6!,*{)H!~'s+m%`$}&^#E%L%{'+&u'D",
"$%'H&W$J'C'_%B%r+F([#~!j$A%~(U$/#e(?*''p$j'p&T%a'g$))%$_#T(['t%H%](B%X$P&[(=&=&$*}$R$J#C!l!M$6&K!J$F+s(a%_*q',#U(V&q%,$4*.)@)%%A",
"#?#}&J&$%b*x#j#u+J*!#:&!(|(?(l$k$A%D'T&H#F*o&R&y%b%G(p'v#-'i%e&S$F&{(q$E#t'i$D$w'_%W&)*]'x&r(R*U!K!_'z(S%B+X'-%V%:%e##%;&n&6)!(9",
"!M#X*S'z%A(?#z%H*q%-#+&r#W&9&5$M&u(>*f(-'()$%m'1',$I'1*u$d#.#`)[%Q%D&?&=${(g$J)U%Y%)'@*;$j#j&o*W$1#X)%(9'1)''Y)')v%B#t)g$p!##C(V",
"$o%4+^$w'm+H#^!Z*z']#P#7'2%u'%!K#v)1*{(:$o'n#/%Y'/${(~${#`!)!R(p'D$M(o%F'Z(c$/$v(/'2'u'Z$;#n*V%o!:'-(-)|$p'Z$X$j)y(g%g$^&`!v#j)6",
"%B#J%n%H$D%T%L!6(M)P$!#C&6!E'+#C&R)Z+W(9%C(8'(&L$z#D'!)l!.&q$2'=&(!0&['b$w$M$/#?)?'`(:'C%V!n*r$C%P'q'$)>'q)'*!%o'Y$0&T)<!U';$m'^",
"!]!M&W(r$r*<':#s(9*J&q$0$F$s%}&q#V%_*<)=%l)E%R#w(D&e)X)z#*(F(!$C$1#{'x%S$5$z#r'F'B'3*s'_(q$1%9(-%:#C'p+i%;)P'N$J)y%B'3(f%D&u%S%]",
"#?!i%t'3%:&N&I$s)K'2%{#S&9)Z&x!p#%&f*m$]&M!H#x'~)K!}*w'v&B$8%H$4%S#r#?#&$D$s&5#|(@#w%^'A)(%e$R&:&X#G*C'T%V#2'Z'[(c$M't%6&)#J&^'^",
"%>&:&N'z$5(Q$C%o&l&(%X%z&:+)'c!S&z%/)G$t$/'X%*'v#'%L*N%>$x%T'-&S(l$I%5'X#^'1%>$x(A$2%{)N&Q$u&^$t%Y!j'S%Y!f'1%m$]%6%~%|#t%r'@*?&N",
"'p%e%Y't&9+V',$D(o'b'x#<&:(S%r&>#V'u(R#)$.%G'2#v%_)))1%B#E$J'b)@)~$@'p'A$1*j%B$M&z&z)'$1)g'g&'*#$3%,&9#S#T&q%k!`%X$s%|%O&F%>+E'@",
"(>&W#C$u'G(c'j#y%^*1%Y$J'T*[#}'h#?'['/#N#)$H$/&W&u%G(4)m$s$s%`%d)z%{$M(1%E)>&M!~%X'A#E'E*?'u!2'0&X#E(c%l$w%J%C+2%X!K#E)~)b%;&Q(=",
"!l(r+o#$%>'g$j%+$-'z'Z%j)g'C*5#I!s&L(k%>%K$H&>)M'**!)(%B#Y$x&'#I$1*p+U%T#T);)#$p'q%D%e+8*~!1#4&R$x#G'z's']%L(k(t%g&'&^'c's$A't$I",
"!8*-)$%@%E&r#l!}*?&o$F$A&L*R'p#,$M&9'<&4!P$b(9&>'X#v*/&:%X(5%''g%Q'`&q'W!7*N'2#E*U#I$M&)&q!2&6)B$@$q'p*^$M'b)v&S'3#C$])a*t&r+c)~",
"$1%~*,#l'g$3#H%Z(1%U'U)g#<)$&V%I#T#S%X']${&Q%J%)'z$M+0#<%|&h#?%H(?$&&&$3$y%_#~'g)L!~%~(u#U$p)@)M!2#C(=)C&@(8%##W)>#$$c$&)o%{%Q%=",
"&L(r's!|%%(u'A#j(Q&z)=%R'N%,$H#k)-%D't*M#k'w)k$J'q$1&X%Q$t'1%U)=)[%D&N$z(=&I'3$m'1$Y&R%>'3!@%>&Q#~&r*|(l%n%$&0#H)8$`#~%v%^&X&L(9",
"'T'`)z%>+6*G$.!j)4%,#p$A$=)-%}&A*S%E+`(5%^'s%U',$m$A)h'9)Q)i#?)=)z'5(p(V+4%=(-&X'S#P#S$i#P&C%n&V'2%B*x'n%n'C%_))%%#P&i$2*a*C%}(4",
"*y&:(s$v'@*}$Y#I(o'!!|&k)G)D&s&o'['3+6'1*D(/$i(=(R%.&^%z#C&a&:(S)=&)&U(R'V%l()'@%7%B&~&$)9(x%_)]&M&w+O(.*G'3%I%`'%$5#E#[%I)i$J$r",
"(g%Y'*%`#z&L&L#N*}&a#y&p%j(W)@#H(_'_'4%=(S$>&Z%B'X&#))'2%X!D%X+7)H&q(-(s$j%!+<!|*Q%C#v%m!~$f'X'1$2$J'd&9*Y$5&u$`&W&^'r#Y*0%B!+$a",
"$5#&&:%L(1*?&R%G++%L&v!I'o%_#l#S')$4(W)B&o!T$B(B)8#r%U'z!f%Z(m(f$@$2${(@%['(&G$4){#K)''b'p$M%b&W'p$o'?'e'z#?&:($'p#C#k&'$5'_%^)0",
"&W%Z(j'C%:(A*[&z(/$I($%Z'c&q&R&9#Y)=',*E#X%X&@$s(c%}$v%e'&$!%c$x&8&q&,'D%B(F)B$?)9!l'A*V)#'J&|&[&G%>%=+[#l&:&U$t)J$M#y#z%c'>'u&'",
"!L#v)F&z'S(q$b&$'p)n%c$5#E$V&C!&!x*M+#%d#y%&(t%B!y#v']+')1#C$J#y#f#E&K'1%u%U&J(>'k(;&q'S'g#T!K#z$D%_*;(2#$'N)u$($o%}&g*~'}$X)x%1",
"!W$8*7&>$D(=$`)>'*$9&#&>#P&]'}#1%{)<$>'S%c'C(x#t$w&y%{(:$D%:#g'v#C&q(Y$4$5&<#o&u&R%I&L)&(r#+%R&q(f$r$r(s#((V+h!q#k'w$7(|&e'r$D&u",
"!7%~'w$?#W'1)$%H'm&q%]$@!d%b*K#E$h&v+$&K%S*W$t#w)}&.*w%{#z%>*[(S!7(3(V!4#I&q*D#-%^(%&c%m$1$.'A&N)'!j)J*X#k+A'(!r's'r%G&S&($s%}&^",
"#C#l+R$P#}(P'C!|$M&y$L$2#Q%h+!#E$x(X*W)P#C%P%2&D'a%.'f(=#}&C)W$m%C'{&]!P!K)?'_#}%A&,$x#X%g%L&}%b'+#+(s*U!j(/%r#k(P#Q![)j'2$'&'%a",
"%B%~+9%B&o#I(G#4+M&'&'#0%B%>)Y#C#W%c%^%G$5)M']#J'y&W'6%X&C%n&=$5%G(G(>$5$s%H'2#c+0$Q&'%[(S$}%a&J&>!B#B*?&9(Q'Z#W+B%I#k%a(q$w$[$1",
"#n&:'/)'$Y*[&$!U+d(s%c#{%S),'b$5!O&&)X%}#h)u'n&y(D),)s&R&N#y$L*H&8$I&A&>#o+n$s!W*F&e(}*>(S)g&W)$$5!m(o)>$z*{$m#T'R&-(B%,'+$D$M(>",
"%l&:'Q(#'i)n'u$9(U'1!=#C$F'b%L&~$x%~&q%S&m%{#<#?'3'2%q$?&a$1%d&>*Y&))(%T(B+@(S'_*P$o&#$?#6&n#l'z#o!J(W(w$}$H&8$M'w%g&a$t%{#C(Z&(",
"#a%>'W(I'D'X$3#z)P+Z!b!?)M#U#^%G!x)$)v$J'r'^$h$J'%%o&##m',&9&=#m%~%Z'_(9)>*;!}%U)F'_$t#C'v#@$0'/#n$F+r(=&d'.'m&=&W(&'i#l(:%o([%.",
"%G$x)u(5%F'b)v#z(*(A!c(S&@!N#l&##I)$*;&<%:%c#j*[%G#v$N(]%U'+%n);&v!;'3)*(V(U$Y&&'1%_$w)~%o$I%H(o$Y&%)I(s$o%''l(k!t%.%c%P'[%T%g&|",
"!j!]'Y(j#**c(?$1&#&|$8)g$t&>(S&N$C*!(O$A#B(+#2$I%}$v$4)>&W&x)P+/$m!]$m)<$5&:#z)S%&$w$}(g$C'Z'5&[#m&();'z$s%n&q%_&Z(t!j&r)n%^+C).",
"$I&O+,)-&{'i%]!F&}&(&$%Q'O'q)}%Y#m*+)$%V$I$m()'A'M#l'z%7!~##'s)%%r$Y+P'/&:'C%=&E#A#E'3$o*E*y)9$4%S)=)R(z%X$m'z$`('%~$x$K$J#n(O&V",
"%j#k)O)~&q#])V'I&>%Y$L%B'((:)L#k%m(:)y%:%:%`)3&!(S$](G'q&9'Z$D%|'g&$*k'm&:%.+'$[!T%G$v'-%B)z)M(W(-%G'a$8$J%X*q&)(=%u&u&Q%~)>'1$i",
"#?$2$t%B$W'P&o%>'S&(&+!4%P(m)}%S$j%|+q+b$A!}(`'}&R%S(?*s(f$F%('b$F%B$s%Q$p)u(d#t(p%`$t%Y$w't)N(l%;$4*B)'%a$1'[#z))&$&A'n)}$J&@&Q",
"$;%<*E%m$j'x'f!;)u(['c$J!I',$I%%%d*q+>)y#r#<%D(p&c)(&W(4&Q!W'<&K'g%1)A$m#z'*%P#S+I&:',&L$K)U$<)$',)&+^+)#P%o$4&v(U'A'C%C'z$Y'n#E",
"'2!~+l(S%X(:&9!;+S%e&~',%m&r'1!Y$[(8%t&8%%%}'/#T'w#<#w%r&K'_)%*E'Z#a*`&/'-)E&4!~'8!](p*U((&y'[*E'p'q(>&X%r'^$m&q(,!j&]$t%e&h&=)(",
"#j&_+]%B%B%i%j%B);&d!;&k$I'{%o$J#2$2']+P#Q(k+Q$o)$'z(>'U'n&H&L&;%;&9+3'g&>$s*X&Q%P#Z%_*;)N'Z&X'2$.$o&X&u#4(N+%(>%k#`&$#v(C(C(-%B",
"&o)/)-$;$](.%m$D'p&X!+%Q%Q*%!z$5)e%:)v%r#+*?',$w*W%7'@$j%V&a(>&W(-(_'<${!k(9+(%B$:&R%Z(3'@'c#C'-(-%P)T$o$F'}%r%}%k#*#W#%%G'~*@#t",
"*$))%>%,(-%n%T&S&K!}!y$/%;+0',!^$F'u+k)l#a'A#k%V(=#w)V%<$1)#&J%u&W%l(,%A%1',(V'U&L#z&z$j#{)0)$#l$](u+N'x%o(o$5&6%u$a)T'{%B*3%G!9",
"(m)<*)(k&L%n%}%,(f&:#t%%#l'P&o',$h%}(/%{$[(8*S%}$I#a*d',%W$A#%!h%~'2(n%B)U(q$s&R)u$x)$&L&:*-%^)M#y$M'p%o&^'A)5$s&%$$)^'v!_$P$T!*",
"#?&S+j%c%{(A*2#w&R+6#z'v#y&S$J#j'u&m%l%}${'+(J$i$@($'y&Q'r!U'|)}%;&()S!m'Z)c&:&)$D(G&p)#(r&Q!p$@&q$w%B(g%n(j'm')'i%-&}%E%}$L&]#=",
"!7$[+Y&A!O#W*Z!R)`'c!]'1'Z'_)=(l(f$Z'K&1$5#v'#$m%{%c&^+.&m$I'1%B!]#l+1(G(/$C*6'Z'q'g$x*T+c%^#z'C*0$K&R)$%Z$@'j')%Y#a$H%~'x)M(S!6",
"(h&q's%r$5*Y)8!/&[&q#n%I)$&>(p&W'p&w(9#H#C(q*|!4)f(=#m%o!u&>&9*m'_&{'p'^$a)T)?$p'3&o'c+*+6%B%}&q)M#y&M%8&:(>(^#V(9%`!a$o!x(2$7'1",
"*^%K#($@(-)-%q$T(Y's)[%B!u)6)(%c'`&S(9%>$H%S(f#z#y)V$H)i%~#H&R(/&U*I(9!~$5)8(L&$&3#o)@%}!<&z%.'p(B#x'w%r)k$-''!_%o(i#d(A%n#H$y'a",
"&m$x%=$]'+(M$o!?&4%H%I%Z&_)=(V#8%X!?(x's#C%@#u't'p&v(3)Z%|$z%J#2%j)2)@!W#Q)M'^#W$+!$%.'+$i%n's&J'T!{*2*q#)$w$0$o'q%B#o%z%z$P)r%3",
"!L$1(R*<#m(s#>$F&N%K!z'r%~'C%_#I(S'v+g)}#E'?$F)(&=%X),'z#?$s(l(b%>$F']$s!>*#'O&c$>$c$4)w&H$F'}'e(q#v(9*8!=(=$g&q'y#l$S(p#m%I(z(E",
"!3&L'L(S(|*/!h!C&=(g&q#C&u&d###?)5(q*l(b$t(g#q%(#B$O'c*o&M#U%H'D!]&A'T&1%:'X!x!u&<%n'1'k)+#N#g$Q'0#S+>+&#m++#i%>%F$F&S*y&X#E&u%K",
"$[$o+,'^$1'X$4#b(U%})q$J$A+R%q&9$+$9%'(w#-%X'%%D#I#H)0(d&L(>*Y'p#U$[+p)$$?%S%z&m%g$7'z)&$F(o't%S%X#%'T)S$3(='U&s%c!M'b*I!Q&d+k$z",
"$1#v)u'A$/%?(w$L)8%T&X!v'T(g&<!A#z'C*i(F%e#z)$!|'D#-'4&t#T$x(1%9&K%_*Z'O!h%%+5'k%_$c(A%U$5%p%d#F!j$t*j&<%e%X)z&X*'!>)-'{!!&>*2#4"
};
