/* XPM */
static char *unique_pattern_material_01[] = {
/* columns rows colors chars-per-pixel */
"64 64 3897 2",
/* colors */
"!! c #37423F",
"!# c #384041",
"!$ c #384642",
"!% c #3A4045",
"!& c #3A464E",
"!' c #3A4948",
"!( c #3B4548",
"!) c #3B4946",
"!* c #3C3D42",
"!+ c #3C4646",
"!, c #3C4E53",
"!- c #3D4341",
"!. c #3D4741",
"!/ c #3D4C47",
"!0 c #3E4446",
"!1 c #3E4A46",
"!2 c #3E4E4D",
"!3 c #3E4F4F",
"!4 c #3E524A",
"!5 c #3F4B4B",
"!6 c #3F4C4A",
"!7 c #3F5462",
"!8 c #404147",
"!9 c #404847",
"!: c #404C53",
"!; c #404E4B",
"!< c #404E4C",
"!= c #405051",
"!> c #40514F",
"!? c #405151",
"!@ c #41424D",
"!A c #41474A",
"!B c #414848",
"!C c #414D4A",
"!D c #414F4F",
"!E c #41504B",
"!F c #415256",
"!G c #415354",
"!H c #415850",
"!I c #424443",
"!J c #424B4E",
"!K c #424F4C",
"!L c #425355",
"!M c #425356",
"!N c #425559",
"!O c #425957",
"!P c #425D57",
"!Q c #425F5F",
"!R c #43454A",
"!S c #43474D",
"!T c #434949",
"!U c #434D4E",
"!V c #434F47",
"!W c #434F4A",
"!X c #435247",
"!Y c #435854",
"!Z c #435953",
"![ c #43595E",
"!] c #444647",
"!^ c #444A42",
"!_ c #444A4E",
"!` c #444B4A",
"!a c #444C50",
"!b c #444C51",
"!c c #444D4E",
"!d c #444E4A",
"!e c #444E51",
"!f c #444F4C",
"!g c #444F4D",
"!h c #444F54",
"!i c #44504C",
"!j c #445055",
"!k c #44514B",
"!l c #44514F",
"!m c #445154",
"!n c #445252",
"!o c #44544E",
"!p c #44554B",
"!q c #44585C",
"!r c #445C5F",
"!s c #446463",
"!t c #454847",
"!u c #45484A",
"!v c #454946",
"!w c #454A4E",
"!x c #454C59",
"!y c #454E4E",
"!z c #454F4F",
"!{ c #454F54",
"!| c #454F56",
"!} c #45504D",
"!~ c #455156",
"#! c #455157",
"## c #45524F",
"#$ c #455256",
"#% c #455355",
"#& c #455552",
"#' c #45584B",
"#( c #45585B",
"#) c #455A66",
"#* c #455B54",
"#+ c #46454B",
"#, c #464648",
"#- c #464747",
"#. c #464B4F",
"#/ c #465155",
"#0 c #46524E",
"#1 c #465251",
"#2 c #465252",
"#3 c #465253",
"#4 c #46525D",
"#5 c #465352",
"#6 c #465455",
"#7 c #465650",
"#8 c #465857",
"#9 c #46585D",
"#: c #465A58",
"#; c #465A5B",
"#< c #465E5B",
"#= c #465E5C",
"#> c #46635B",
"#? c #466363",
"#@ c #46666C",
"#A c #474C53",
"#B c #474D53",
"#C c #474E50",
"#D c #474E51",
"#E c #474F53",
"#F c #475258",
"#G c #475455",
"#H c #475551",
"#I c #475555",
"#J c #47565A",
"#K c #47575B",
"#L c #47585A",
"#M c #475A53",
"#N c #475A5A",
"#O c #475A61",
"#P c #475B51",
"#Q c #475C56",
"#R c #475D58",
"#S c #475E62",
"#T c #47605C",
"#U c #47605E",
"#V c #47615B",
"#W c #476260",
"#X c #476662",
"#Y c #476866",
"#Z c #484554",
"#[ c #484A4E",
"#] c #484D4C",
"#^ c #484D4F",
"#_ c #485155",
"#` c #485256",
"#a c #48534D",
"#b c #485354",
"#c c #48544E",
"#d c #485558",
"#e c #485654",
"#f c #485657",
"#g c #485850",
"#h c #485857",
"#i c #48595A",
"#j c #48595B",
"#k c #485B51",
"#l c #485B5D",
"#m c #485C5F",
"#n c #485D5F",
"#o c #485D61",
"#p c #485E57",
"#q c #486968",
"#r c #486B68",
"#s c #494A50",
"#t c #494A54",
"#u c #494D4B",
"#v c #49504C",
"#w c #495154",
"#x c #495155",
"#y c #495156",
"#z c #495158",
"#{ c #49524D",
"#| c #495254",
"#} c #49525A",
"#~ c #49535B",
"$! c #495452",
"$# c #495458",
"$$ c #495550",
"$% c #495556",
"$& c #49555D",
"$' c #495653",
"$( c #495854",
"$) c #495859",
"$* c #49585B",
"$+ c #495954",
"$, c #495956",
"$- c #495959",
"$. c #495B5D",
"$/ c #495C5A",
"$0 c #495C5B",
"$1 c #495C5E",
"$2 c #495D56",
"$3 c #495E58",
"$4 c #495F57",
"$5 c #495F5B",
"$6 c #496160",
"$7 c #496468",
"$8 c #496566",
"$9 c #4A4C59",
"$: c #4A5254",
"$; c #4A5256",
"$< c #4A5353",
"$= c #4A5557",
"$> c #4A555D",
"$? c #4A564F",
"$@ c #4A5654",
"$A c #4A5759",
"$B c #4A575A",
"$C c #4A575E",
"$D c #4A5854",
"$E c #4A5855",
"$F c #4A5856",
"$G c #4A5859",
"$H c #4A585E",
"$I c #4A5954",
"$J c #4A5956",
"$K c #4A5A4F",
"$L c #4A5A56",
"$M c #4A5A66",
"$N c #4A5B55",
"$O c #4A5B59",
"$P c #4A5B5E",
"$Q c #4A5C52",
"$R c #4A5C5C",
"$S c #4A5C5D",
"$T c #4A5D5E",
"$U c #4A5E58",
"$V c #4A5E5B",
"$W c #4A5E5C",
"$X c #4A5E5D",
"$Y c #4A5F60",
"$Z c #4A605A",
"$[ c #4A6260",
"$] c #4A6B74",
"$^ c #4B4851",
"$_ c #4B4A4E",
"$` c #4B4B4F",
"$a c #4B5355",
"$b c #4B5358",
"$c c #4B5454",
"$d c #4B5456",
"$e c #4B5554",
"$f c #4B5556",
"$g c #4B5558",
"$h c #4B5559",
"$i c #4B555C",
"$j c #4B564D",
"$k c #4B5753",
"$l c #4B5755",
"$m c #4B5759",
"$n c #4B585D",
"$o c #4B5951",
"$p c #4B5954",
"$q c #4B5957",
"$r c #4B5959",
"$s c #4B595D",
"$t c #4B5A5C",
"$u c #4B5B52",
"$v c #4B5B64",
"$w c #4B5C54",
"$x c #4B5C5D",
"$y c #4B5D56",
"$z c #4B5D58",
"${ c #4B5D5A",
"$| c #4B5E58",
"$} c #4B5E59",
"$~ c #4B5E5A",
"%! c #4B6055",
"%# c #4B605E",
"%$ c #4B656C",
"%% c #4B6A60",
"%& c #4C4E56",
"%' c #4C4F52",
"%( c #4C5151",
"%) c #4C5455",
"%* c #4C5459",
"%+ c #4C5551",
"%, c #4C5558",
"%- c #4C5659",
"%. c #4C5755",
"%/ c #4C5858",
"%0 c #4C585A",
"%1 c #4C5958",
"%2 c #4C595C",
"%3 c #4C5A56",
"%4 c #4C5A5B",
"%5 c #4C5B5B",
"%6 c #4C5C56",
"%7 c #4C5C58",
"%8 c #4C5C59",
"%9 c #4C5C60",
"%: c #4C5D57",
"%; c #4C5D59",
"%< c #4C5E5B",
"%= c #4C5E62",
"%> c #4C6061",
"%? c #4C6064",
"%@ c #4C6156",
"%A c #4C625E",
"%B c #4C635F",
"%C c #4C6363",
"%D c #4C6365",
"%E c #4C6463",
"%F c #4C6566",
"%G c #4C666F",
"%H c #4C6B6B",
"%I c #4D4854",
"%J c #4D4D59",
"%K c #4D4E54",
"%L c #4D5154",
"%M c #4D5253",
"%N c #4D5258",
"%O c #4D5456",
"%P c #4D5654",
"%Q c #4D5656",
"%R c #4D575E",
"%S c #4D5853",
"%T c #4D5857",
"%U c #4D5858",
"%V c #4D594F",
"%W c #4D595E",
"%X c #4D5A59",
"%Y c #4D5B58",
"%Z c #4D5B59",
"%[ c #4D5C57",
"%] c #4D5C60",
"%^ c #4D5D59",
"%_ c #4D5D5B",
"%` c #4D5D5E",
"%a c #4D5D62",
"%b c #4D5F69",
"%c c #4D6059",
"%d c #4D605C",
"%e c #4D6066",
"%f c #4D6158",
"%g c #4D6261",
"%h c #4D6568",
"%i c #4D6862",
"%j c #4D6868",
"%k c #4D6969",
"%l c #4D6B69",
"%m c #4D6D74",
"%n c #4E4E4E",
"%o c #4E5159",
"%p c #4E524E",
"%q c #4E5256",
"%r c #4E5353",
"%s c #4E5559",
"%t c #4E5651",
"%u c #4E5659",
"%v c #4E565A",
"%w c #4E565D",
"%x c #4E565F",
"%y c #4E5755",
"%z c #4E575A",
"%{ c #4E5854",
"%| c #4E5855",
"%} c #4E5859",
"%~ c #4E585B",
"&! c #4E5958",
"&# c #4E5959",
"&$ c #4E5A4E",
"&% c #4E5A58",
"&& c #4E5A60",
"&' c #4E5B56",
"&( c #4E5D58",
"&) c #4E5E55",
"&* c #4E5E58",
"&+ c #4E5E5C",
"&, c #4E5E5E",
"&- c #4E5F55",
"&. c #4E6155",
"&/ c #4E6160",
"&0 c #4E6161",
"&1 c #4E6162",
"&2 c #4E6255",
"&3 c #4E6258",
"&4 c #4E6265",
"&5 c #4E635F",
"&6 c #4E655D",
"&7 c #4E6763",
"&8 c #4E6764",
"&9 c #4E676A",
"&: c #4E6D70",
"&; c #4E7067",
"&< c #4F4F4E",
"&= c #4F4F59",
"&> c #4F5050",
"&? c #4F515C",
"&@ c #4F5257",
"&A c #4F5551",
"&B c #4F5552",
"&C c #4F5554",
"&D c #4F5562",
"&E c #4F5653",
"&F c #4F565A",
"&G c #4F565B",
"&H c #4F575E",
"&I c #4F5861",
"&J c #4F5954",
"&K c #4F5958",
"&L c #4F595C",
"&M c #4F595D",
"&N c #4F5A56",
"&O c #4F5A5A",
"&P c #4F5B59",
"&Q c #4F5C54",
"&R c #4F5C56",
"&S c #4F5C5A",
"&T c #4F5C5E",
"&U c #4F5C61",
"&V c #4F5E5A",
"&W c #4F5E5D",
"&X c #4F5E61",
"&Y c #4F5E63",
"&Z c #4F5F5B",
"&[ c #4F5F63",
"&] c #4F605C",
"&^ c #4F6062",
"&_ c #4F6158",
"&` c #4F615B",
"&a c #4F615E",
"&b c #4F6261",
"&c c #4F635D",
"&d c #4F6361",
"&e c #4F6363",
"&f c #4F645F",
"&g c #4F6565",
"&h c #4F6665",
"&i c #4F675B",
"&j c #4F675D",
"&k c #4F675F",
"&l c #4F6764",
"&m c #4F6C6B",
"&n c #4F6C6C",
"&o c #4F6C75",
"&p c #504A51",
"&q c #505250",
"&r c #505451",
"&s c #505656",
"&t c #50565C",
"&u c #50575A",
"&v c #50575B",
"&w c #50585A",
"&x c #505B5A",
"&y c #505B5B",
"&z c #505B5F",
"&{ c #505C55",
"&| c #505C56",
"&} c #505E61",
"&~ c #505E64",
"'! c #505F58",
"'# c #505F5E",
"'$ c #506055",
"'% c #50605B",
"'& c #506062",
"'' c #506064",
"'( c #50615F",
"') c #50625B",
"'* c #50626A",
"'+ c #506356",
"', c #506359",
"'- c #50635D",
"'. c #506361",
"'/ c #506961",
"'0 c #506965",
"'1 c #50696D",
"'2 c #506A5D",
"'3 c #506A69",
"'4 c #506B6D",
"'5 c #506E6D",
"'6 c #514C4F",
"'7 c #514D53",
"'8 c #514D54",
"'9 c #51515E",
"': c #515356",
"'; c #51535A",
"'< c #515458",
"'= c #515865",
"'> c #51595A",
"'? c #51595E",
"'@ c #51595F",
"'A c #515A53",
"'B c #515B58",
"'C c #515C63",
"'D c #515D50",
"'E c #515D5D",
"'F c #515D61",
"'G c #515E5F",
"'H c #515E62",
"'I c #515F58",
"'J c #515F59",
"'K c #515F5F",
"'L c #515F60",
"'M c #516054",
"'N c #516056",
"'O c #51605F",
"'P c #51615A",
"'Q c #51625A",
"'R c #51625F",
"'S c #516264",
"'T c #51635F",
"'U c #516366",
"'V c #51636F",
"'W c #51645D",
"'X c #51645F",
"'Y c #516461",
"'Z c #516462",
"'[ c #516463",
"'] c #516466",
"'^ c #516467",
"'_ c #51646A",
"'` c #516557",
"'a c #516563",
"'b c #516763",
"'c c #516768",
"'d c #51676C",
"'e c #51676D",
"'f c #516864",
"'g c #51696C",
"'h c #516A66",
"'i c #516A68",
"'j c #516A6A",
"'k c #517275",
"'l c #517377",
"'m c #51746D",
"'n c #517571",
"'o c #525253",
"'p c #525656",
"'q c #525756",
"'r c #52575B",
"'s c #525858",
"'t c #525859",
"'u c #52585D",
"'v c #525958",
"'w c #52595D",
"'x c #525965",
"'y c #525B54",
"'z c #525B57",
"'{ c #525B5D",
"'| c #525C63",
"'} c #525C64",
"'~ c #525D5C",
"(! c #525E5B",
"(# c #525E5C",
"($ c #525F61",
"(% c #525F63",
"(& c #525F65",
"(' c #52605A",
"(( c #526069",
"() c #526158",
"(* c #52615B",
"(+ c #526163",
"(, c #526254",
"(- c #526256",
"(. c #526263",
"(/ c #526265",
"(0 c #52626B",
"(1 c #526362",
"(2 c #526366",
"(3 c #526368",
"(4 c #52645A",
"(5 c #52645F",
"(6 c #526462",
"(7 c #52655E",
"(8 c #526560",
"(9 c #526563",
"(: c #526568",
"(; c #52665F",
"(< c #526664",
"(= c #52675A",
"(> c #526761",
"(? c #526860",
"(@ c #52696D",
"(A c #526970",
"(B c #526A74",
"(C c #526B64",
"(D c #526B67",
"(E c #526D6A",
"(F c #526D6B",
"(G c #526D71",
"(H c #534D52",
"(I c #535057",
"(J c #535560",
"(K c #535757",
"(L c #53575F",
"(M c #535851",
"(N c #535859",
"(O c #535951",
"(P c #535956",
"(Q c #535958",
"(R c #535959",
"(S c #53595F",
"(T c #535960",
"(U c #535964",
"(V c #535A53",
"(W c #535A57",
"(X c #535A5C",
"(Y c #535B5A",
"(Z c #535B61",
"([ c #535B62",
"(] c #535B64",
"(^ c #535C57",
"(_ c #535C58",
"(` c #535C5B",
"(a c #535D5D",
"(b c #535E5E",
"(c c #536060",
"(d c #536065",
"(e c #536067",
"(f c #536161",
"(g c #53625D",
"(h c #53625F",
"(i c #536261",
"(j c #536263",
"(k c #536267",
"(l c #53635D",
"(m c #536365",
"(n c #536457",
"(o c #53645E",
"(p c #536461",
"(q c #536559",
"(r c #53655D",
"(s c #536661",
"(t c #536763",
"(u c #536767",
"(v c #53685D",
"(w c #536863",
"(x c #536868",
"(y c #536962",
"(z c #536A64",
"({ c #536A66",
"(| c #536A68",
"(} c #536A6E",
"(~ c #536E63",
")! c #536E71",
")# c #537072",
")$ c #537176",
")% c #537370",
")& c #537877",
")' c #544957",
")( c #545457",
")) c #545858",
")* c #54595E",
")+ c #545A5E",
"), c #545B5D",
")- c #545B62",
"). c #545C58",
")/ c #545C59",
")0 c #545C62",
")1 c #545D57",
")2 c #545D5E",
")3 c #545E5B",
")4 c #545E67",
")5 c #545F5D",
")6 c #546055",
")7 c #546156",
")8 c #54615E",
")9 c #546169",
"): c #54625E",
"); c #546261",
")< c #546264",
")= c #546357",
")> c #54635C",
")? c #546362",
")@ c #546369",
")A c #54636C",
")B c #54645A",
")C c #546462",
")D c #546464",
")E c #546465",
")F c #54655B",
")G c #546561",
")H c #546564",
")I c #54656C",
")J c #54665D",
")K c #54665E",
")L c #546660",
")M c #546664",
")N c #546668",
")O c #546769",
")P c #546962",
")Q c #54696A",
")R c #54696B",
")S c #54696C",
")T c #546A5E",
")U c #546B6D",
")V c #546D66",
")W c #546D67",
")X c #546D70",
")Y c #54706E",
")Z c #547472",
")[ c #54747D",
")] c #555858",
")^ c #555959",
")_ c #55595C",
")` c #555B58",
")a c #555B5E",
")b c #555C67",
")c c #555F65",
")d c #55605E",
")e c #556157",
")f c #55615A",
")g c #55615C",
")h c #556256",
")i c #55625A",
")j c #55625F",
")k c #556262",
")l c #556266",
")m c #55635F",
")n c #556463",
")o c #556561",
")p c #55656A",
")q c #55665D",
")r c #556668",
")s c #556764",
")t c #556862",
")u c #556863",
")v c #55686C",
")w c #556870",
")x c #556960",
")y c #556963",
")z c #556965",
"){ c #556967",
")| c #55696A",
")} c #55696B",
")~ c #55696E",
"*! c #55696F",
"*# c #556A60",
"*$ c #556B5D",
"*% c #556B6B",
"*& c #556B6D",
"*' c #556C5A",
"*( c #556C62",
"*) c #556C67",
"** c #556D6E",
"*+ c #556E60",
"*, c #556E72",
"*- c #557067",
"*. c #557068",
"*/ c #55716A",
"*0 c #55716C",
"*1 c #557174",
"*2 c #557268",
"*3 c #55746C",
"*4 c #557572",
"*5 c #56565B",
"*6 c #565C63",
"*7 c #565D5D",
"*8 c #565D62",
"*9 c #565F5B",
"*: c #565F5D",
"*; c #565F61",
"*< c #56605F",
"*= c #56615D",
"*> c #566258",
"*? c #56625C",
"*@ c #566260",
"*A c #566261",
"*B c #566262",
"*C c #56635E",
"*D c #56645C",
"*E c #56645D",
"*F c #56645E",
"*G c #56645F",
"*H c #566460",
"*I c #566462",
"*J c #566463",
"*K c #566464",
"*L c #566466",
"*M c #566468",
"*N c #566469",
"*O c #566566",
"*P c #56665D",
"*Q c #566663",
"*R c #566669",
"*S c #566766",
"*T c #56676D",
"*U c #56685C",
"*V c #566860",
"*W c #566865",
"*X c #56686D",
"*Y c #56695D",
"*Z c #566963",
"*[ c #566A6B",
"*] c #566A6D",
"*^ c #566A6E",
"*_ c #566C64",
"*` c #566C67",
"*a c #566C68",
"*b c #566C69",
"*c c #566C6A",
"*d c #566C6C",
"*e c #566C73",
"*f c #566D5D",
"*g c #566E71",
"*h c #566F6C",
"*i c #567167",
"*j c #567266",
"*k c #56726A",
"*l c #567276",
"*m c #567464",
"*n c #56746A",
"*o c #567669",
"*p c #57575A",
"*q c #575B59",
"*r c #575D5B",
"*s c #575D5D",
"*t c #575E61",
"*u c #575F5E",
"*v c #57615F",
"*w c #576259",
"*x c #57625B",
"*y c #576262",
"*z c #576265",
"*{ c #576366",
"*| c #57645D",
"*} c #576460",
"*~ c #576463",
"+! c #576465",
"+# c #576560",
"+$ c #576563",
"+% c #57665E",
"+& c #576664",
"+' c #576668",
"+( c #576758",
"+) c #57675D",
"+* c #576761",
"++ c #576762",
"+, c #576766",
"+- c #576862",
"+. c #576863",
"+/ c #576864",
"+0 c #576869",
"+1 c #57686A",
"+2 c #576871",
"+3 c #576959",
"+4 c #576964",
"+5 c #576969",
"+6 c #57696A",
"+7 c #576A64",
"+8 c #576A68",
"+9 c #576A6A",
"+: c #576B60",
"+; c #576B64",
"+< c #576B65",
"+= c #576B66",
"+> c #576B6A",
"+? c #576B6F",
"+@ c #576C61",
"+A c #576C67",
"+B c #576C68",
"+C c #576D62",
"+D c #576E63",
"+E c #576E67",
"+F c #576E6A",
"+G c #576E6E",
"+H c #576F65",
"+I c #576F72",
"+J c #577276",
"+K c #577278",
"+L c #577379",
"+M c #577475",
"+N c #577872",
"+O c #577A74",
"+P c #577E7A",
"+Q c #585350",
"+R c #585963",
"+S c #585A5D",
"+T c #585C59",
"+U c #585E5A",
"+V c #585E5C",
"+W c #585E5D",
"+X c #585F61",
"+Y c #58605E",
"+Z c #586061",
"+[ c #586158",
"+] c #58615D",
"+^ c #586164",
"+_ c #58625D",
"+` c #58625F",
"+a c #586262",
"+b c #58635C",
"+c c #58635F",
"+d c #586364",
"+e c #58645A",
"+f c #58645E",
"+g c #58645F",
"+h c #586461",
"+i c #586463",
"+j c #586469",
"+k c #58646A",
"+l c #58655A",
"+m c #58655F",
"+n c #586560",
"+o c #586561",
"+p c #586569",
"+q c #58656A",
"+r c #586664",
"+s c #586669",
"+t c #586761",
"+u c #586763",
"+v c #586764",
"+w c #586766",
"+x c #58685F",
"+y c #586866",
"+z c #586960",
"+{ c #586965",
"+| c #586966",
"+} c #586A66",
"+~ c #586B63",
",! c #586B65",
",# c #586B6C",
",$ c #586C5F",
",% c #586C66",
",& c #586C67",
",' c #586D65",
",( c #586D69",
",) c #586D6A",
",* c #586D6C",
",+ c #586E5F",
",, c #586E67",
",- c #586F6B",
",. c #587069",
",/ c #58706D",
",0 c #58706E",
",1 c #58716D",
",2 c #587172",
",3 c #58726C",
",4 c #587270",
",5 c #587374",
",6 c #58746F",
",7 c #587474",
",8 c #587777",
",9 c #587866",
",: c #59585F",
",; c #59595A",
",< c #59595D",
",= c #595C5C",
",> c #595C60",
",? c #595D64",
",@ c #595E5E",
",A c #595E60",
",B c #595F5E",
",C c #595F5F",
",D c #595F62",
",E c #596062",
",F c #596063",
",G c #59615D",
",H c #59625E",
",I c #596261",
",J c #596264",
",K c #59635C",
",L c #596360",
",M c #59636C",
",N c #596460",
",O c #596463",
",P c #59646C",
",Q c #59665C",
",R c #596663",
",S c #596665",
",T c #596666",
",U c #596668",
",V c #59666F",
",W c #59675F",
",X c #596764",
",Y c #596765",
",Z c #596767",
",[ c #59676A",
",] c #59685F",
",^ c #596860",
",_ c #596863",
",` c #596864",
",a c #59686D",
",b c #59695F",
",c c #596A67",
",d c #596A70",
",e c #596B5B",
",f c #596B61",
",g c #596C68",
",h c #596D5A",
",i c #596D68",
",j c #596D6D",
",k c #596D73",
",l c #596E5F",
",m c #596E6E",
",n c #596F65",
",o c #596F70",
",p c #596F73",
",q c #59706D",
",r c #59706E",
",s c #59707D",
",t c #597161",
",u c #597163",
",v c #597172",
",w c #59736F",
",x c #597374",
",y c #597378",
",z c #597565",
",{ c #597578",
",| c #597971",
",} c #597B76",
",~ c #598275",
"-! c #5A5664",
"-# c #5A595A",
"-$ c #5A5B67",
"-% c #5A5D60",
"-& c #5A5E5B",
"-' c #5A5E61",
"-( c #5A5E64",
"-) c #5A5E65",
"-* c #5A5F5B",
"-+ c #5A6160",
"-, c #5A6365",
"-- c #5A645B",
"-. c #5A645C",
"-/ c #5A645E",
"-0 c #5A6461",
"-1 c #5A6462",
"-2 c #5A6471",
"-3 c #5A6564",
"-4 c #5A6565",
"-5 c #5A6566",
"-6 c #5A656B",
"-7 c #5A665B",
"-8 c #5A665E",
"-9 c #5A6661",
"-: c #5A6664",
"-; c #5A6665",
"-< c #5A6862",
"-= c #5A6962",
"-> c #5A6963",
"-? c #5A6969",
"-@ c #5A696C",
"-A c #5A696D",
"-B c #5A6A5E",
"-C c #5A6A64",
"-D c #5A6B64",
"-E c #5A6B65",
"-F c #5A6B66",
"-G c #5A6B6C",
"-H c #5A6B6E",
"-I c #5A6C6A",
"-J c #5A6C6E",
"-K c #5A6C72",
"-L c #5A6D61",
"-M c #5A6D65",
"-N c #5A6E62",
"-O c #5A6E64",
"-P c #5A6E65",
"-Q c #5A6E69",
"-R c #5A6E6E",
"-S c #5A6F66",
"-T c #5A6F74",
"-U c #5A7067",
"-V c #5A7068",
"-W c #5A706B",
"-X c #5A706D",
"-Y c #5A7269",
"-Z c #5A726C",
"-[ c #5A7273",
"-] c #5A7277",
"-^ c #5A7366",
"-_ c #5A7370",
"-` c #5A7469",
"-a c #5A746F",
"-b c #5A786B",
"-c c #5A786E",
"-d c #5A7973",
"-e c #5A797C",
"-f c #5A7B73",
"-g c #5A7C76",
"-h c #5B5A6D",
"-i c #5B5C63",
"-j c #5B5D57",
"-k c #5B5E61",
"-l c #5B5E6B",
"-m c #5B5F5F",
"-n c #5B5F61",
"-o c #5B5F64",
"-p c #5B6164",
"-q c #5B616A",
"-r c #5B625B",
"-s c #5B6261",
"-t c #5B6361",
"-u c #5B6362",
"-v c #5B6562",
"-w c #5B6564",
"-x c #5B656A",
"-y c #5B6663",
"-z c #5B666C",
"-{ c #5B675E",
"-| c #5B6762",
"-} c #5B6763",
"-~ c #5B6764",
".! c #5B6863",
".# c #5B6867",
".$ c #5B6869",
".% c #5B686A",
".& c #5B6870",
".' c #5B6963",
".( c #5B6967",
".) c #5B6969",
".* c #5B6A5E",
".+ c #5B6A63",
"., c #5B6A65",
".- c #5B6A6C",
".. c #5B6B68",
"./ c #5B6B6B",
".0 c #5B6B6F",
".1 c #5B6C69",
".2 c #5B6C6F",
".3 c #5B6C70",
".4 c #5B6D67",
".5 c #5B6D6A",
".6 c #5B6D6B",
".7 c #5B6E67",
".8 c #5B6F69",
".9 c #5B6F6A",
".: c #5B6F6B",
".; c #5B7067",
".< c #5B7069",
".= c #5B706A",
".> c #5B7167",
".? c #5B716E",
".@ c #5B7170",
".A c #5B7173",
".B c #5B7269",
".C c #5B726D",
".D c #5B7377",
".E c #5B7472",
".F c #5B7475",
".G c #5B747D",
".H c #5B7563",
".I c #5B766B",
".J c #5B7672",
".K c #5B7866",
".L c #5B7A79",
".M c #5B7C76",
".N c #5B7E74",
".O c #5B7F82",
".P c #5C4F5F",
".Q c #5C555A",
".R c #5C5861",
".S c #5C5A5B",
".T c #5C5C6A",
".U c #5C5D60",
".V c #5C5D65",
".W c #5C5D68",
".X c #5C5F5F",
".Y c #5C6363",
".Z c #5C6365",
".[ c #5C6366",
".] c #5C645C",
".^ c #5C6460",
"._ c #5C6461",
".` c #5C6466",
".a c #5C6469",
".b c #5C646B",
".c c #5C6560",
".d c #5C6563",
".e c #5C6569",
".f c #5C6661",
".g c #5C6662",
".h c #5C6667",
".i c #5C675F",
".j c #5C6762",
".k c #5C6763",
".l c #5C6766",
".m c #5C6861",
".n c #5C6864",
".o c #5C6869",
".p c #5C686D",
".q c #5C6967",
".r c #5C696E",
".s c #5C6A67",
".t c #5C6A6A",
".u c #5C6A6B",
".v c #5C6A6D",
".w c #5C6B5C",
".x c #5C6B5E",
".y c #5C6B62",
".z c #5C6C5D",
".{ c #5C6C64",
".| c #5C6C66",
".} c #5C6C6E",
".~ c #5C6D63",
"/! c #5C6D65",
"/# c #5C6E66",
"/$ c #5C6E6A",
"/% c #5C6E6B",
"/& c #5C6E6D",
"/' c #5C6F5D",
"/( c #5C6F67",
"/) c #5C6F68",
"/* c #5C7073",
"/+ c #5C7074",
"/, c #5C7166",
"/- c #5C7168",
"/. c #5C7169",
"// c #5C7266",
"/0 c #5C7270",
"/1 c #5C727B",
"/2 c #5C736E",
"/3 c #5C7371",
"/4 c #5C7373",
"/5 c #5C746A",
"/6 c #5C746E",
"/7 c #5C7470",
"/8 c #5C7474",
"/9 c #5C7476",
"/: c #5C7575",
"/; c #5C7576",
"/< c #5C7770",
"/= c #5C7862",
"/> c #5C7865",
"/? c #5C796B",
"/@ c #5C796C",
"/A c #5C7979",
"/B c #5C7A78",
"/C c #5C7B7D",
"/D c #5C7D7B",
"/E c #5C7E83",
"/F c #5C7F7A",
"/G c #5C8884",
"/H c #5D565F",
"/I c #5D5D5D",
"/J c #5D5D5E",
"/K c #5D5D65",
"/L c #5D5F63",
"/M c #5D605D",
"/N c #5D6164",
"/O c #5D6166",
"/P c #5D6173",
"/Q c #5D6261",
"/R c #5D6368",
"/S c #5D645E",
"/T c #5D6461",
"/U c #5D6566",
"/V c #5D6567",
"/W c #5D6568",
"/X c #5D6569",
"/Y c #5D6660",
"/Z c #5D6662",
"/[ c #5D6762",
"/] c #5D6766",
"/^ c #5D6768",
"/_ c #5D6867",
"/` c #5D686C",
"/a c #5D6960",
"/b c #5D6964",
"/c c #5D6966",
"/d c #5D6969",
"/e c #5D696B",
"/f c #5D6A5C",
"/g c #5D6A63",
"/h c #5D6A68",
"/i c #5D6A69",
"/j c #5D6A6D",
"/k c #5D6A74",
"/l c #5D6B65",
"/m c #5D6B69",
"/n c #5D6B6E",
"/o c #5D6C62",
"/p c #5D6C64",
"/q c #5D6C69",
"/r c #5D6C6D",
"/s c #5D6D63",
"/t c #5D6D65",
"/u c #5D6D69",
"/v c #5D6D6A",
"/w c #5D6D6D",
"/x c #5D6D74",
"/y c #5D6E67",
"/z c #5D6E77",
"/{ c #5D6F68",
"/| c #5D6F6B",
"/} c #5D6F6C",
"/~ c #5D6F71",
"0! c #5D6F73",
"0# c #5D6F75",
"0$ c #5D7066",
"0% c #5D716B",
"0& c #5D716C",
"0' c #5D716D",
"0( c #5D7270",
"0) c #5D736A",
"0* c #5D736B",
"0+ c #5D7370",
"0, c #5D7371",
"0- c #5D7373",
"0. c #5D746C",
"0/ c #5D746D",
"00 c #5D746E",
"01 c #5D7470",
"02 c #5D7472",
"03 c #5D7476",
"04 c #5D7570",
"05 c #5D7575",
"06 c #5D757D",
"07 c #5D7674",
"08 c #5D7679",
"09 c #5D767D",
"0: c #5D776D",
"0; c #5D776E",
"0< c #5D7770",
"0= c #5D786F",
"0> c #5D7872",
"0? c #5D796E",
"0@ c #5D7974",
"0A c #5D7A74",
"0B c #5D7A7C",
"0C c #5D7D7F",
"0D c #5D807E",
"0E c #5D8781",
"0F c #5D8787",
"0G c #5E5965",
"0H c #5E5C5F",
"0I c #5E5F63",
"0J c #5E5F68",
"0K c #5E615E",
"0L c #5E6168",
"0M c #5E616F",
"0N c #5E6268",
"0O c #5E626D",
"0P c #5E6464",
"0Q c #5E6468",
"0R c #5E655F",
"0S c #5E6561",
"0T c #5E6567",
"0U c #5E6662",
"0V c #5E676D",
"0W c #5E6865",
"0X c #5E6866",
"0Y c #5E6965",
"0Z c #5E6967",
"0[ c #5E6968",
"0] c #5E6A62",
"0^ c #5E6B64",
"0_ c #5E6B66",
"0` c #5E6B67",
"0a c #5E6B6B",
"0b c #5E6B6D",
"0c c #5E6C67",
"0d c #5E6C68",
"0e c #5E6C69",
"0f c #5E6C6B",
"0g c #5E6C6E",
"0h c #5E6C71",
"0i c #5E6C78",
"0j c #5E6D67",
"0k c #5E6D6F",
"0l c #5E6E68",
"0m c #5E6E76",
"0n c #5E6F5E",
"0o c #5E6F66",
"0p c #5E6F6D",
"0q c #5E706A",
"0r c #5E706D",
"0s c #5E706F",
"0t c #5E7164",
"0u c #5E7165",
"0v c #5E7169",
"0w c #5E7269",
"0x c #5E736D",
"0y c #5E7371",
"0z c #5E7376",
"0{ c #5E7379",
"0| c #5E746D",
"0} c #5E746E",
"0~ c #5E7476",
"1! c #5E756E",
"1# c #5E7572",
"1$ c #5E7575",
"1% c #5E7578",
"1& c #5E786C",
"1' c #5E7872",
"1( c #5E7876",
"1) c #5E7970",
"1* c #5E7B7B",
"1+ c #5E7B7C",
"1, c #5E7B7D",
"1- c #5E7D69",
"1. c #5E7D7A",
"1/ c #5E7E73",
"10 c #5E7E7A",
"11 c #5E7F78",
"12 c #5E8171",
"13 c #5E827A",
"14 c #5E827E",
"15 c #5F575D",
"16 c #5F5B5B",
"17 c #5F605E",
"18 c #5F615F",
"19 c #5F6264",
"1: c #5F635E",
"1; c #5F6360",
"1< c #5F6361",
"1= c #5F636B",
"1> c #5F6373",
"1? c #5F6460",
"1@ c #5F666A",
"1A c #5F6764",
"1B c #5F6771",
"1C c #5F6869",
"1D c #5F6962",
"1E c #5F6968",
"1F c #5F6A62",
"1G c #5F6A6A",
"1H c #5F6A70",
"1I c #5F6B6C",
"1J c #5F6C64",
"1K c #5F6C69",
"1L c #5F6C6B",
"1M c #5F6C6C",
"1N c #5F6D63",
"1O c #5F6D68",
"1P c #5F6D6A",
"1Q c #5F6D73",
"1R c #5F6E65",
"1S c #5F6E67",
"1T c #5F6E6D",
"1U c #5F6E6E",
"1V c #5F6E6F",
"1W c #5F6E70",
"1X c #5F6E72",
"1Y c #5F6F6A",
"1Z c #5F6F74",
"1[ c #5F706A",
"1] c #5F706E",
"1^ c #5F716C",
"1_ c #5F716D",
"1` c #5F7171",
"1a c #5F7172",
"1b c #5F7269",
"1c c #5F7372",
"1d c #5F737E",
"1e c #5F7469",
"1f c #5F7471",
"1g c #5F7473",
"1h c #5F7474",
"1i c #5F7571",
"1j c #5F7578",
"1k c #5F766C",
"1l c #5F7688",
"1m c #5F7770",
"1n c #5F7772",
"1o c #5F7774",
"1p c #5F7778",
"1q c #5F7876",
"1r c #5F796C",
"1s c #5F7973",
"1t c #5F7974",
"1u c #5F7A66",
"1v c #5F7A77",
"1w c #5F7B6F",
"1x c #5F7B77",
"1y c #5F8078",
"1z c #5F847D",
"1{ c #606063",
"1| c #606073",
"1} c #606166",
"1~ c #60636B",
"2! c #606461",
"2# c #606462",
"2$ c #606468",
"2% c #60646A",
"2& c #606566",
"2' c #606664",
"2( c #60666A",
"2) c #60666D",
"2* c #606763",
"2+ c #606767",
"2, c #606771",
"2- c #606866",
"2. c #60695E",
"2/ c #606966",
"20 c #606969",
"21 c #606A63",
"22 c #606A66",
"23 c #606A68",
"24 c #606B67",
"25 c #606B68",
"26 c #606B6D",
"27 c #606C65",
"28 c #606C68",
"29 c #606C69",
"2: c #606C7A",
"2; c #606D61",
"2< c #606D66",
"2= c #606D69",
"2> c #606D6A",
"2? c #606D6B",
"2@ c #606E64",
"2A c #606E66",
"2B c #606E75",
"2C c #606F63",
"2D c #606F6A",
"2E c #607065",
"2F c #60706B",
"2G c #60706D",
"2H c #60706F",
"2I c #607072",
"2J c #607073",
"2K c #60716D",
"2L c #60716E",
"2M c #60716F",
"2N c #60726A",
"2O c #607271",
"2P c #607275",
"2Q c #607367",
"2R c #60736F",
"2S c #607372",
"2T c #607467",
"2U c #607469",
"2V c #60746C",
"2W c #60746D",
"2X c #60746E",
"2Y c #607570",
"2Z c #607571",
"2[ c #607677",
"2] c #60776D",
"2^ c #607770",
"2_ c #607772",
"2` c #607776",
"2a c #607777",
"2b c #60777B",
"2c c #60786C",
"2d c #607875",
"2e c #607877",
"2f c #60787A",
"2g c #607976",
"2h c #607A6D",
"2i c #607A72",
"2j c #607B72",
"2k c #607B7E",
"2l c #607C75",
"2m c #607D6F",
"2n c #607F77",
"2o c #608380",
"2p c #608481",
"2q c #615B5C",
"2r c #615E63",
"2s c #616167",
"2t c #616365",
"2u c #616566",
"2v c #61665C",
"2w c #616667",
"2x c #616765",
"2y c #61676E",
"2z c #616862",
"2{ c #616866",
"2| c #616868",
"2} c #61686C",
"2~ c #61686F",
"3! c #616970",
"3# c #616A61",
"3$ c #616A65",
"3% c #616A69",
"3& c #616C62",
"3' c #616C67",
"3( c #616C6E",
"3) c #616D63",
"3* c #616D69",
"3+ c #616D6E",
"3, c #616D6F",
"3- c #616E66",
"3. c #616E6B",
"3/ c #616E6D",
"30 c #616F66",
"31 c #616F68",
"32 c #616F69",
"33 c #616F6A",
"34 c #616F6E",
"35 c #616F70",
"36 c #617063",
"37 c #617067",
"38 c #61706A",
"39 c #61706D",
"3: c #61706E",
"3; c #617163",
"3< c #617166",
"3= c #61716E",
"3> c #61716F",
"3? c #617172",
"3@ c #61717E",
"3A c #617264",
"3B c #617266",
"3C c #61726C",
"3D c #61735F",
"3E c #61736C",
"3F c #61736D",
"3G c #61736E",
"3H c #617374",
"3I c #61747A",
"3J c #617569",
"3K c #61756C",
"3L c #61756E",
"3M c #617570",
"3N c #617574",
"3O c #61766E",
"3P c #617673",
"3Q c #617677",
"3R c #617775",
"3S c #61786B",
"3T c #61786F",
"3U c #617870",
"3V c #61787B",
"3W c #617972",
"3X c #61797A",
"3Y c #617A75",
"3Z c #617A76",
"3[ c #617A7A",
"3] c #617D70",
"3^ c #617E7A",
"3_ c #617F7C",
"3` c #61807A",
"3a c #61807B",
"3b c #618577",
"3c c #61867F",
"3d c #626264",
"3e c #62626B",
"3f c #62666C",
"3g c #626760",
"3h c #626766",
"3i c #626964",
"3j c #626965",
"3k c #626967",
"3l c #626968",
"3m c #62696F",
"3n c #626A67",
"3o c #626A6A",
"3p c #626A71",
"3q c #626C64",
"3r c #626C67",
"3s c #626C68",
"3t c #626C6D",
"3u c #626D61",
"3v c #626D69",
"3w c #626D73",
"3x c #626E63",
"3y c #626E67",
"3z c #626E6A",
"3{ c #626E6C",
"3| c #626E74",
"3} c #626F6A",
"3~ c #626F6C",
"4! c #626F6E",
"4# c #626F74",
"4$ c #627068",
"4% c #62706B",
"4& c #62706E",
"4' c #627070",
"4( c #627166",
"4) c #62716A",
"4* c #62716D",
"4+ c #62716E",
"4, c #627174",
"4- c #627176",
"4. c #627269",
"4/ c #627273",
"40 c #627278",
"41 c #62736B",
"42 c #627466",
"43 c #627467",
"44 c #62746D",
"45 c #62746E",
"46 c #627472",
"47 c #627474",
"48 c #62756B",
"49 c #62756E",
"4: c #627575",
"4; c #62767A",
"4< c #62767D",
"4= c #62776E",
"4> c #627770",
"4? c #627780",
"4@ c #627866",
"4A c #62786D",
"4B c #627874",
"4C c #627875",
"4D c #62796E",
"4E c #62797B",
"4F c #627A6F",
"4G c #627A70",
"4H c #627A71",
"4I c #627A81",
"4J c #627B6E",
"4K c #627B7F",
"4L c #627C76",
"4M c #627D7F",
"4N c #627D80",
"4O c #627D83",
"4P c #627E65",
"4Q c #627E7A",
"4R c #628073",
"4S c #628078",
"4T c #628087",
"4U c #628189",
"4V c #628381",
"4W c #62867C",
"4X c #628886",
"4Y c #636060",
"4Z c #63626A",
"4[ c #63656B",
"4] c #63666C",
"4^ c #636765",
"4_ c #636868",
"4` c #63687A",
"4a c #636A60",
"4b c #636A6B",
"4c c #636B6E",
"4d c #636C64",
"4e c #636C72",
"4f c #636D68",
"4g c #636D69",
"4h c #636D6F",
"4i c #636E66",
"4j c #636E68",
"4k c #636E6B",
"4l c #636E6E",
"4m c #636E6F",
"4n c #636F75",
"4o c #63706B",
"4p c #637071",
"4q c #637076",
"4r c #63707C",
"4s c #63716B",
"4t c #63716E",
"4u c #637174",
"4v c #637269",
"4w c #63726A",
"4x c #63726B",
"4y c #63726C",
"4z c #63736A",
"4{ c #63736B",
"4| c #63736D",
"4} c #637370",
"4~ c #637466",
"5! c #637469",
"5# c #63746F",
"5$ c #637474",
"5% c #637476",
"5& c #637479",
"5' c #637562",
"5( c #637572",
"5) c #637668",
"5* c #637670",
"5+ c #637673",
"5, c #637674",
"5- c #637675",
"5. c #637678",
"5/ c #637770",
"50 c #637771",
"51 c #637773",
"52 c #637971",
"53 c #63797E",
"54 c #637A73",
"55 c #637A75",
"56 c #637B74",
"57 c #637B7B",
"58 c #637C6F",
"59 c #637C73",
"5: c #637D7F",
"5; c #637E6C",
"5< c #637E73",
"5= c #637E7C",
"5> c #638076",
"5? c #638078",
"5@ c #638079",
"5A c #63807B",
"5B c #638178",
"5C c #63817E",
"5D c #638286",
"5E c #63837B",
"5F c #63847C",
"5G c #638484",
"5H c #638882",
"5I c #638A86",
"5J c #638D80",
"5K c #646161",
"5L c #646465",
"5M c #646468",
"5N c #646565",
"5O c #64676B",
"5P c #646962",
"5Q c #646A61",
"5R c #646A6B",
"5S c #646A6C",
"5T c #646B6E",
"5U c #646B70",
"5V c #646C66",
"5W c #646D6D",
"5X c #646D7D",
"5Y c #646E66",
"5Z c #646E6A",
"5[ c #646E76",
"5] c #646F6A",
"5^ c #646F6B",
"5_ c #646F6D",
"5` c #646F70",
"5a c #646F71",
"5b c #646F72",
"5c c #64706A",
"5d c #647071",
"5e c #647072",
"5f c #64716D",
"5g c #647171",
"5h c #647271",
"5i c #647275",
"5j c #647371",
"5k c #647372",
"5l c #647374",
"5m c #64737A",
"5n c #64746B",
"5o c #64746C",
"5p c #647475",
"5q c #64756C",
"5r c #647571",
"5s c #647572",
"5t c #647573",
"5u c #647576",
"5v c #64766B",
"5w c #64766D",
"5x c #64766E",
"5y c #647673",
"5z c #647676",
"5{ c #64767C",
"5| c #64776F",
"5} c #64777C",
"5~ c #647866",
"6! c #64786D",
"6# c #64786E",
"6$ c #64786F",
"6% c #647873",
"6& c #64787A",
"6' c #64787C",
"6( c #647978",
"6) c #647A70",
"6* c #647A74",
"6+ c #647A79",
"6, c #647B73",
"6- c #647B74",
"6. c #647C77",
"6/ c #647C82",
"60 c #647D7B",
"61 c #647D7F",
"62 c #647E6E",
"63 c #647E75",
"64 c #648079",
"65 c #64807A",
"66 c #64807F",
"67 c #648283",
"68 c #648284",
"69 c #64837D",
"6: c #648479",
"6; c #648480",
"6< c #648481",
"6= c #648688",
"6> c #648689",
"6? c #648785",
"6@ c #648984",
"6A c #648985",
"6B c #648A7D",
"6C c #656259",
"6D c #65656E",
"6E c #656571",
"6F c #65696A",
"6G c #65696B",
"6H c #656A65",
"6I c #656A6F",
"6J c #656B65",
"6K c #656C62",
"6L c #656D6B",
"6M c #656E6E",
"6N c #656E70",
"6O c #656E71",
"6P c #656F67",
"6Q c #656F68",
"6R c #656F6A",
"6S c #656F72",
"6T c #65706C",
"6U c #657070",
"6V c #657072",
"6W c #657073",
"6X c #657075",
"6Y c #657077",
"6Z c #657166",
"6[ c #65716B",
"6] c #65716C",
"6^ c #65716E",
"6_ c #657171",
"6` c #65726C",
"6a c #657367",
"6b c #657372",
"6c c #65737F",
"6d c #65746B",
"6e c #657473",
"6f c #657475",
"6g c #65747A",
"6h c #657567",
"6i c #65756C",
"6j c #657570",
"6k c #657571",
"6l c #657574",
"6m c #657577",
"6n c #65766D",
"6o c #65766F",
"6p c #657675",
"6q c #657677",
"6r c #657679",
"6s c #657772",
"6t c #657870",
"6u c #657876",
"6v c #657971",
"6w c #657972",
"6x c #657975",
"6y c #65797C",
"6z c #657A6A",
"6{ c #657A6D",
"6| c #657A72",
"6} c #657A76",
"6~ c #657B77",
"7! c #657B78",
"7# c #657C72",
"7$ c #657D70",
"7% c #657D71",
"7& c #657D73",
"7' c #657D7A",
"7( c #657E72",
"7) c #657E78",
"7* c #657E79",
"7+ c #657F7A",
"7, c #657F7E",
"7- c #657F80",
"7. c #657F86",
"7/ c #658077",
"70 c #65807B",
"71 c #658089",
"72 c #658180",
"73 c #658185",
"74 c #65838F",
"75 c #65847F",
"76 c #65848A",
"77 c #658580",
"78 c #65867C",
"79 c #658682",
"7: c #65877D",
"7; c #65877E",
"7< c #658B85",
"7= c #666268",
"7> c #666360",
"7? c #666469",
"7@ c #666A68",
"7A c #666B65",
"7B c #666B79",
"7C c #666C6C",
"7D c #666C6D",
"7E c #666C72",
"7F c #666D6F",
"7G c #666D72",
"7H c #666E68",
"7I c #666E74",
"7J c #666E76",
"7K c #666F72",
"7L c #66716B",
"7M c #66716E",
"7N c #667178",
"7O c #667266",
"7P c #66726E",
"7Q c #66736E",
"7R c #667372",
"7S c #667376",
"7T c #667469",
"7U c #667470",
"7V c #66756E",
"7W c #667570",
"7X c #667573",
"7Y c #667576",
"7Z c #667579",
"7[ c #66766D",
"7] c #667677",
"7^ c #667678",
"7_ c #667766",
"7` c #66776D",
"7a c #66776E",
"7b c #667770",
"7c c #667771",
"7d c #66777D",
"7e c #667868",
"7f c #66786F",
"7g c #667875",
"7h c #66796B",
"7i c #667976",
"7j c #667A6A",
"7k c #667A78",
"7l c #667B75",
"7m c #667B77",
"7n c #667C7A",
"7o c #667D71",
"7p c #667D74",
"7q c #667D77",
"7r c #667D7F",
"7s c #667E78",
"7t c #667E82",
"7u c #667F73",
"7v c #667F7E",
"7w c #667F7F",
"7x c #668075",
"7y c #66807F",
"7z c #668183",
"7{ c #66827F",
"7| c #668384",
"7} c #668476",
"7~ c #66857C",
"8! c #66867B",
"8# c #66887D",
"8$ c #668980",
"8% c #668D89",
"8& c #676266",
"8' c #67677B",
"8( c #676967",
"8) c #676971",
"8* c #676A72",
"8+ c #676B66",
"8, c #676B67",
"8- c #676C67",
"8. c #676E6A",
"8/ c #676F6C",
"80 c #677068",
"81 c #677072",
"82 c #677168",
"83 c #67716A",
"84 c #67716B",
"85 c #67716E",
"86 c #677173",
"87 c #677177",
"88 c #67726E",
"89 c #67726F",
"8: c #677270",
"8; c #677272",
"8< c #677370",
"8= c #677371",
"8> c #677373",
"8? c #67746D",
"8@ c #677470",
"8A c #677473",
"8B c #67756E",
"8C c #677573",
"8D c #677576",
"8E c #677578",
"8F c #67766C",
"8G c #67766F",
"8H c #677675",
"8I c #677676",
"8J c #677681",
"8K c #67776E",
"8L c #67776F",
"8M c #677773",
"8N c #677777",
"8O c #67786C",
"8P c #677876",
"8Q c #677979",
"8R c #67797E",
"8S c #677A72",
"8T c #677A79",
"8U c #677B72",
"8V c #677B79",
"8W c #677B7D",
"8X c #677B83",
"8Y c #677C72",
"8Z c #677C73",
"8[ c #677C76",
"8] c #677C79",
"8^ c #677C7A",
"8_ c #677D71",
"8` c #677D75",
"8a c #677D76",
"8b c #677D77",
"8c c #677E70",
"8d c #677F6E",
"8e c #677F72",
"8f c #677F74",
"8g c #677F75",
"8h c #677F78",
"8i c #677F79",
"8j c #677F88",
"8k c #678076",
"8l c #678086",
"8m c #678182",
"8n c #678279",
"8o c #67827A",
"8p c #678484",
"8q c #678678",
"8r c #678687",
"8s c #678A7E",
"8t c #678B86",
"8u c #678D8A",
"8v c #686368",
"8w c #68646C",
"8x c #686867",
"8y c #686868",
"8z c #68696A",
"8{ c #686A6B",
"8| c #686A70",
"8} c #686B66",
"8~ c #686B6A",
"9! c #686D71",
"9# c #686E69",
"9$ c #686E72",
"9% c #686F6B",
"9& c #687068",
"9' c #68706C",
"9( c #687071",
"9) c #68726B",
"9* c #687271",
"9+ c #687273",
"9, c #687278",
"9- c #68737B",
"9. c #687464",
"9/ c #68746E",
"90 c #687481",
"91 c #68756A",
"92 c #68756C",
"93 c #68756D",
"94 c #687570",
"95 c #687573",
"96 c #687674",
"97 c #687678",
"98 c #68776B",
"99 c #68776F",
"9: c #687770",
"9; c #687773",
"9< c #687775",
"9= c #687778",
"9> c #68777A",
"9? c #687783",
"9@ c #687784",
"9A c #687876",
"9B c #687877",
"9C c #687974",
"9D c #687982",
"9E c #687A6A",
"9F c #687A6E",
"9G c #687A76",
"9H c #687A77",
"9I c #687B6A",
"9J c #687B6C",
"9K c #687B74",
"9L c #687B75",
"9M c #687B78",
"9N c #687B81",
"9O c #687C6D",
"9P c #687C72",
"9Q c #687C73",
"9R c #687C77",
"9S c #687C79",
"9T c #687D79",
"9U c #687D7C",
"9V c #687D7D",
"9W c #687D81",
"9X c #687E6F",
"9Y c #687E85",
"9Z c #687F78",
"9[ c #687F7A",
"9] c #687F7F",
"9^ c #68806F",
"9_ c #688071",
"9` c #68807E",
"9a c #688174",
"9b c #68817D",
"9c c #688181",
"9d c #688184",
"9e c #68827D",
"9f c #688387",
"9g c #688389",
"9h c #68847E",
"9i c #688585",
"9j c #688681",
"9k c #688889",
"9l c #688A7F",
"9m c #688B85",
"9n c #688E7C",
"9o c #688E83",
"9p c #696766",
"9q c #69676D",
"9r c #696970",
"9s c #696A6C",
"9t c #696D6E",
"9u c #696E69",
"9v c #697066",
"9w c #69706C",
"9x c #697075",
"9y c #69716B",
"9z c #697173",
"9{ c #697374",
"9| c #697376",
"9} c #69746A",
"9~ c #697570",
":! c #697669",
":# c #697772",
":$ c #697777",
":% c #69786E",
":& c #697873",
":' c #697877",
":( c #69787B",
":) c #697978",
":* c #69797A",
":+ c #69797D",
":, c #697A6E",
":- c #697A73",
":. c #697A7F",
":/ c #697A80",
":0 c #697A82",
":1 c #697B66",
":2 c #697B75",
":3 c #697B80",
":4 c #697C73",
":5 c #697D69",
":6 c #697D76",
":7 c #697D7A",
":8 c #697D7B",
":9 c #697E75",
":: c #697E76",
":; c #697E78",
":< c #697E79",
":= c #697F72",
":> c #697F7B",
":? c #697F7C",
":@ c #697F7D",
":A c #697F7F",
":B c #69807B",
":C c #698081",
":D c #698083",
":E c #698172",
":F c #698179",
":G c #69817B",
":H c #69817E",
":I c #69827E",
":J c #69827F",
":K c #698575",
":L c #698677",
":M c #69878B",
":N c #69887E",
":O c #69888B",
":P c #698980",
":Q c #698A81",
":R c #698D7F",
":S c #698D8D",
":T c #698E83",
":U c #6A656A",
":V c #6A6877",
":W c #6A6967",
":X c #6A6A6B",
":Y c #6A6B6B",
":Z c #6A6B6C",
":[ c #6A6C69",
":] c #6A6D6A",
":^ c #6A6E7A",
":_ c #6A6F69",
":` c #6A6F6A",
":a c #6A6F6C",
":b c #6A7064",
":c c #6A7177",
":d c #6A7265",
":e c #6A7269",
":f c #6A726C",
":g c #6A7270",
":h c #6A7272",
":i c #6A7273",
":j c #6A7275",
":k c #6A727B",
":l c #6A736E",
":m c #6A7371",
":n c #6A7375",
":o c #6A746B",
":p c #6A7472",
":q c #6A7473",
":r c #6A7474",
":s c #6A7572",
":t c #6A7573",
":u c #6A757F",
":v c #6A776A",
":w c #6A776F",
":x c #6A7775",
":y c #6A7776",
":z c #6A7777",
":{ c #6A777B",
":| c #6A7874",
":} c #6A787A",
":~ c #6A787E",
";! c #6A7970",
";# c #6A7971",
";$ c #6A7974",
";% c #6A7976",
";& c #6A7A6E",
";' c #6A7A70",
";( c #6A7A73",
";) c #6A7A79",
";* c #6A7A7B",
";+ c #6A7B79",
";, c #6A7B7B",
";- c #6A7B7C",
";. c #6A7C75",
";/ c #6A7D6F",
";0 c #6A7D71",
";1 c #6A7D73",
";2 c #6A7D78",
";3 c #6A7D7A",
";4 c #6A7E78",
";5 c #6A7E79",
";6 c #6A7E7B",
";7 c #6A7F78",
";8 c #6A7F7E",
";9 c #6A8078",
";: c #6A8173",
";; c #6A8176",
";< c #6A817B",
";= c #6A8186",
";> c #6A826F",
";? c #6A8280",
";@ c #6A847B",
";A c #6A8482",
";B c #6A8489",
";C c #6A857E",
";D c #6A8582",
";E c #6A8583",
";F c #6A8585",
";G c #6A8586",
";H c #6A8776",
";I c #6A877D",
";J c #6A877F",
";K c #6A897E",
";L c #6A8A79",
";M c #6A8A7C",
";N c #6A8A83",
";O c #6A8D81",
";P c #6A8F8E",
";Q c #6A9188",
";R c #6A928F",
";S c #6A9585",
";T c #6B6E6D",
";U c #6B6E74",
";V c #6B6F6D",
";W c #6B6F6F",
";X c #6B7073",
";Y c #6B7177",
";Z c #6B726C",
";[ c #6B736E",
";] c #6B746D",
";^ c #6B7477",
";_ c #6B7672",
";` c #6B767D",
";a c #6B7764",
";b c #6B7766",
";c c #6B776A",
";d c #6B776E",
";e c #6B776F",
";f c #6B7772",
";g c #6B7773",
";h c #6B7775",
";i c #6B7779",
";j c #6B786C",
";k c #6B7870",
";l c #6B7874",
";m c #6B787B",
";n c #6B7971",
";o c #6B7976",
";p c #6B7978",
";q c #6B797E",
";r c #6B7A74",
";s c #6B7A75",
";t c #6B7A7C",
";u c #6B7B78",
";v c #6B7B7A",
";w c #6B7C73",
";x c #6B7C76",
";y c #6B7C79",
";z c #6B7C7E",
";{ c #6B7D75",
";| c #6B7D7C",
";} c #6B7D7D",
";~ c #6B7E6E",
"<! c #6B7E70",
"<# c #6B7E75",
"<$ c #6B7E77",
"<% c #6B7F7F",
"<& c #6B806E",
"<' c #6B8074",
"<( c #6B8078",
"<) c #6B8081",
"<* c #6B8085",
"<+ c #6B8089",
"<, c #6B8178",
"<- c #6B8179",
"<. c #6B817F",
"</ c #6B8274",
"<0 c #6B827D",
"<1 c #6B8285",
"<2 c #6B8378",
"<3 c #6B837F",
"<4 c #6B847B",
"<5 c #6B847E",
"<6 c #6B857D",
"<7 c #6B8685",
"<8 c #6B878C",
"<9 c #6B878F",
"<: c #6B887F",
"<; c #6B888B",
"<< c #6B8982",
"<= c #6B8983",
"<> c #6B898F",
"<? c #6B8B85",
"<@ c #6B8B88",
"<A c #6B8B89",
"<B c #6B8C7C",
"<C c #6B8C83",
"<D c #6B8D96",
"<E c #6B8F8F",
"<F c #6B8F91",
"<G c #6B918E",
"<H c #6C6877",
"<I c #6C6B68",
"<J c #6C6C73",
"<K c #6C6E6B",
"<L c #6C6F79",
"<M c #6C706A",
"<N c #6C7077",
"<O c #6C7265",
"<P c #6C7278",
"<Q c #6C7377",
"<R c #6C7379",
"<S c #6C7570",
"<T c #6C7575",
"<U c #6C766D",
"<V c #6C7674",
"<W c #6C7770",
"<X c #6C7971",
"<Y c #6C7982",
"<Z c #6C7A70",
"<[ c #6C7A72",
"<] c #6C7A73",
"<^ c #6C7A75",
"<_ c #6C7B6F",
"<` c #6C7B77",
"<a c #6C7B78",
"<b c #6C7B7D",
"<c c #6C7C78",
"<d c #6C7D79",
"<e c #6C7D81",
"<f c #6C7D86",
"<g c #6C7E7B",
"<h c #6C7E7D",
"<i c #6C7E82",
"<j c #6C7F77",
"<k c #6C8081",
"<l c #6C8083",
"<m c #6C8172",
"<n c #6C8180",
"<o c #6C8274",
"<p c #6C8275",
"<q c #6C8278",
"<r c #6C827B",
"<s c #6C8284",
"<t c #6C837E",
"<u c #6C8381",
"<v c #6C847F",
"<w c #6C8489",
"<x c #6C8583",
"<y c #6C8676",
"<z c #6C867B",
"<{ c #6C8687",
"<| c #6C8789",
"<} c #6C8875",
"<~ c #6C8880",
"=! c #6C8884",
"=# c #6C8885",
"=$ c #6C898E",
"=% c #6C8A7C",
"=& c #6C8A86",
"=' c #6C8B7F",
"=( c #6C8E89",
"=) c #6C8E92",
"=* c #6C9290",
"=+ c #6D6969",
"=, c #6D6D6A",
"=- c #6D6E72",
"=. c #6D7078",
"=/ c #6D716E",
"=0 c #6D7170",
"=1 c #6D7270",
"=2 c #6D736F",
"=3 c #6D7479",
"=4 c #6D7577",
"=5 c #6D7775",
"=6 c #6D777A",
"=7 c #6D787D",
"=8 c #6D7975",
"=9 c #6D7978",
"=: c #6D7A6B",
"=; c #6D7A6E",
"=< c #6D7A7E",
"== c #6D7B6D",
"=> c #6D7B6F",
"=? c #6D7B75",
"=@ c #6D7B76",
"=A c #6D7C77",
"=B c #6D7C78",
"=C c #6D7D74",
"=D c #6D7E79",
"=E c #6D7F75",
"=F c #6D7F77",
"=G c #6D7F7D",
"=H c #6D7F7F",
"=I c #6D8072",
"=J c #6D8075",
"=K c #6D8174",
"=L c #6D827B",
"=M c #6D8378",
"=N c #6D8381",
"=O c #6D847E",
"=P c #6D8487",
"=Q c #6D8579",
"=R c #6D8678",
"=S c #6D8683",
"=T c #6D8778",
"=U c #6D877A",
"=V c #6D877C",
"=W c #6D878A",
"=X c #6D8979",
"=Y c #6D8984",
"=Z c #6D8A80",
"=[ c #6D8E8C",
"=] c #6D8F87",
"=^ c #6D9192",
"=_ c #6D9380",
"=` c #6D9C98",
"=a c #6E6E69",
"=b c #6E706E",
"=c c #6E7273",
"=d c #6E7278",
"=e c #6E7471",
"=f c #6E747A",
"=g c #6E7578",
"=h c #6E7675",
"=i c #6E7774",
"=j c #6E7776",
"=k c #6E7872",
"=l c #6E7973",
"=m c #6E7A75",
"=n c #6E7A77",
"=o c #6E7B75",
"=p c #6E7B77",
"=q c #6E7B78",
"=r c #6E7B7B",
"=s c #6E7B7C",
"=t c #6E7C77",
"=u c #6E7D72",
"=v c #6E7D75",
"=w c #6E7D77",
"=x c #6E7D78",
"=y c #6E7D7B",
"=z c #6E7D7C",
"={ c #6E7E75",
"=| c #6E7E77",
"=} c #6E7E7B",
"=~ c #6E7E80",
">! c #6E7F74",
"># c #6E7F79",
">$ c #6E7F7B",
">% c #6E7F7C",
">& c #6E807B",
">' c #6E8081",
">( c #6E816F",
">) c #6E8177",
">* c #6E817D",
">+ c #6E8181",
">, c #6E8183",
">- c #6E827D",
">. c #6E827E",
">/ c #6E8280",
">0 c #6E8281",
">1 c #6E8388",
">2 c #6E8478",
">3 c #6E8479",
">4 c #6E847E",
">5 c #6E8486",
">6 c #6E857A",
">7 c #6E857B",
">8 c #6E857C",
">9 c #6E8580",
">: c #6E8581",
">; c #6E867C",
">< c #6E8681",
">= c #6E8683",
">> c #6E8687",
">? c #6E8772",
">@ c #6E8778",
">A c #6E8786",
">B c #6E8879",
">C c #6E887A",
">D c #6E887C",
">E c #6E8881",
">F c #6E8982",
">G c #6E8987",
">H c #6E898D",
">I c #6E8C81",
">J c #6E8C83",
">K c #6E8C8F",
">L c #6E8E7A",
">M c #6E8E7D",
">N c #6E8F8D",
">O c #6E8F8F",
">P c #6E9088",
">Q c #6E9190",
">R c #6E938F",
">S c #6E9D9B",
">T c #6F6E73",
">U c #6F6F70",
">V c #6F707B",
">W c #6F7371",
">X c #6F7471",
">Y c #6F7671",
">Z c #6F7778",
">[ c #6F7872",
">] c #6F7970",
">^ c #6F7973",
">_ c #6F797F",
">` c #6F7A72",
">a c #6F7B7D",
">b c #6F7C78",
">c c #6F7C7B",
">d c #6F7D76",
">e c #6F7D7A",
">f c #6F7D82",
">g c #6F7E70",
">h c #6F7E73",
">i c #6F7F7A",
">j c #6F7F7F",
">k c #6F7F81",
">l c #6F8078",
">m c #6F8079",
">n c #6F8178",
">o c #6F817A",
">p c #6F817F",
">q c #6F8271",
">r c #6F8278",
">s c #6F827D",
">t c #6F827F",
">u c #6F837F",
">v c #6F8477",
">w c #6F847A",
">x c #6F847C",
">y c #6F8482",
">z c #6F8486",
">{ c #6F848A",
">| c #6F8582",
">} c #6F8589",
">~ c #6F867B",
"?! c #6F867E",
"?# c #6F867F",
"?$ c #6F8680",
"?% c #6F868E",
"?& c #6F877E",
"?' c #6F878E",
"?( c #6F897D",
"?) c #6F8987",
"?* c #6F8A87",
"?+ c #6F8B76",
"?, c #6F8C86",
"?- c #6F8D8B",
"?. c #6F8F95",
"?/ c #6F907E",
"?0 c #6F908B",
"?1 c #6F928A",
"?2 c #6F9496",
"?3 c #6F978A",
"?4 c #706764",
"?5 c #706F73",
"?6 c #707177",
"?7 c #707371",
"?8 c #707476",
"?9 c #707477",
"?: c #70747A",
"?; c #70756F",
"?< c #707676",
"?= c #707971",
"?> c #707A6E",
"?? c #707A73",
"?@ c #707A7D",
"?A c #707B6F",
"?B c #707B71",
"?C c #707B73",
"?D c #707B77",
"?E c #707B7E",
"?F c #707B81",
"?G c #707C6F",
"?H c #707C71",
"?I c #707C72",
"?J c #707D76",
"?K c #707D78",
"?L c #707E74",
"?M c #707E76",
"?N c #707E87",
"?O c #708077",
"?P c #708178",
"?Q c #70817B",
"?R c #70817F",
"?S c #708186",
"?T c #708282",
"?U c #708385",
"?V c #708476",
"?W c #708478",
"?X c #708483",
"?Y c #708570",
"?Z c #70857B",
"?[ c #70857D",
"?] c #708581",
"?^ c #708583",
"?_ c #708587",
"?` c #70858A",
"?a c #70867D",
"?b c #70867E",
"?c c #708686",
"?d c #708688",
"?e c #708778",
"?f c #70877E",
"?g c #708781",
"?h c #70878B",
"?i c #708875",
"?j c #708885",
"?k c #708974",
"?l c #70897E",
"?m c #708985",
"?n c #708989",
"?o c #70898B",
"?p c #708A7A",
"?q c #708A7D",
"?r c #708C80",
"?s c #708D82",
"?t c #708D86",
"?u c #708D96",
"?v c #708F87",
"?w c #709181",
"?x c #709488",
"?y c #709494",
"?z c #709692",
"?{ c #717169",
"?| c #717179",
"?} c #71766E",
"?~ c #71776F",
"@! c #717770",
"@# c #717774",
"@$ c #717779",
"@% c #71777B",
"@& c #717871",
"@' c #71796B",
"@( c #717974",
"@) c #717A7C",
"@* c #717A81",
"@+ c #717C81",
"@, c #717C83",
"@- c #717D77",
"@. c #717D7D",
"@/ c #717E76",
"@0 c #717E8A",
"@1 c #717F6D",
"@2 c #717F75",
"@3 c #717F81",
"@4 c #717F8C",
"@5 c #718084",
"@6 c #718086",
"@7 c #718174",
"@8 c #718175",
"@9 c #718176",
"@: c #71817B",
"@; c #718276",
"@< c #718282",
"@= c #718392",
"@> c #71847A",
"@? c #71847B",
"@@ c #71847C",
"@A c #718579",
"@B c #71857A",
"@C c #71857B",
"@D c #718585",
"@E c #718678",
"@F c #718679",
"@G c #71867C",
"@H c #71867D",
"@I c #718681",
"@J c #718689",
"@K c #71877D",
"@L c #718781",
"@M c #718787",
"@N c #718886",
"@O c #71888C",
"@P c #718972",
"@Q c #718986",
"@R c #718987",
"@S c #718A7A",
"@T c #718A7D",
"@U c #718A80",
"@V c #718A87",
"@W c #718B83",
"@X c #718B87",
"@Y c #718C78",
"@Z c #718C8F",
"@[ c #718E7C",
"@] c #718E82",
"@^ c #718E85",
"@_ c #719193",
"@` c #719990",
"@a c #719A90",
"@b c #719A95",
"@c c #72727A",
"@d c #727373",
"@e c #727375",
"@f c #727379",
"@g c #72747D",
"@h c #727585",
"@i c #72766B",
"@j c #727974",
"@k c #727976",
"@l c #727B74",
"@m c #727C74",
"@n c #727D75",
"@o c #727D77",
"@p c #727D7A",
"@q c #727D81",
"@r c #727D86",
"@s c #727E77",
"@t c #727E7A",
"@u c #727F7D",
"@v c #727F81",
"@w c #728079",
"@x c #72807D",
"@y c #72816C",
"@z c #72817A",
"@{ c #72817C",
"@| c #72826E",
"@} c #72827A",
"@~ c #728385",
"A! c #72847E",
"A# c #728584",
"A$ c #728586",
"A% c #728683",
"A& c #72877B",
"A' c #72877C",
"A( c #728781",
"A) c #728782",
"A* c #72878B",
"A+ c #72887A",
"A, c #72887C",
"A- c #728881",
"A. c #728886",
"A/ c #728895",
"A0 c #728977",
"A1 c #728989",
"A2 c #72898C",
"A3 c #728A7E",
"A4 c #728A85",
"A5 c #728B83",
"A6 c #728B85",
"A7 c #728B8C",
"A8 c #728C7D",
"A9 c #728D7D",
"A: c #728D80",
"A; c #728D81",
"A< c #728D90",
"A= c #728E89",
"A> c #729079",
"A? c #72907B",
"A@ c #72918B",
"AA c #729192",
"AB c #729381",
"AC c #729390",
"AD c #736E6E",
"AE c #73727E",
"AF c #737475",
"AG c #737A73",
"AH c #737C7A",
"AI c #737D85",
"AJ c #737E86",
"AK c #737F86",
"AL c #738078",
"AM c #738079",
"AN c #738180",
"AO c #738182",
"AP c #738275",
"AQ c #73827D",
"AR c #738280",
"AS c #738284",
"AT c #738378",
"AU c #73837D",
"AV c #738380",
"AW c #738383",
"AX c #738472",
"AY c #73847D",
"AZ c #738578",
"A[ c #73857C",
"A] c #738583",
"A^ c #738678",
"A_ c #738684",
"A` c #73877C",
"Aa c #73887F",
"Ab c #738881",
"Ac c #738886",
"Ad c #73888A",
"Ae c #73888B",
"Af c #73897F",
"Ag c #738980",
"Ah c #73898D",
"Ai c #738A88",
"Aj c #738A8F",
"Ak c #738B7D",
"Al c #738B7F",
"Am c #738C7C",
"An c #738C84",
"Ao c #738C8A",
"Ap c #738E81",
"Aq c #738E8D",
"Ar c #738F84",
"As c #73907E",
"At c #73938F",
"Au c #739894",
"Av c #747679",
"Aw c #74767A",
"Ax c #74777D",
"Ay c #747782",
"Az c #74797A",
"A{ c #747A6E",
"A| c #747C72",
"A} c #747E7F",
"A~ c #747F77",
"B! c #747F8D",
"B# c #748074",
"B$ c #74807A",
"B% c #748184",
"B& c #748284",
"B' c #748375",
"B( c #748377",
"B) c #74837C",
"B* c #74837D",
"B+ c #748384",
"B, c #748386",
"B- c #748478",
"B. c #748480",
"B/ c #748484",
"B0 c #74857C",
"B1 c #748580",
"B2 c #74858F",
"B3 c #748686",
"B4 c #74868A",
"B5 c #748774",
"B6 c #748775",
"B7 c #74877E",
"B8 c #748783",
"B9 c #748785",
"B: c #748888",
"B; c #74897E",
"B< c #748A7E",
"B= c #748A87",
"B> c #748B88",
"B? c #748C7B",
"B@ c #748C80",
"BA c #748C82",
"BB c #748D86",
"BC c #748E8F",
"BD c #748E90",
"BE c #748F83",
"BF c #749082",
"BG c #74908D",
"BH c #749094",
"BI c #74918B",
"BJ c #749195",
"BK c #74927E",
"BL c #749296",
"BM c #749382",
"BN c #74938C",
"BO c #749590",
"BP c #75787B",
"BQ c #757B6A",
"BR c #757C81",
"BS c #757E72",
"BT c #757E79",
"BU c #757E7A",
"BV c #757F74",
"BW c #757F7A",
"BX c #757F84",
"BY c #758178",
"BZ c #75827A",
"B[ c #75827B",
"B] c #758374",
"B^ c #75837A",
"B_ c #75837E",
"B` c #758382",
"Ba c #758383",
"Bb c #758384",
"Bc c #758477",
"Bd c #758479",
"Be c #758481",
"Bf c #758483",
"Bg c #758484",
"Bh c #758486",
"Bi c #758583",
"Bj c #75867B",
"Bk c #758681",
"Bl c #75877C",
"Bm c #758783",
"Bn c #758788",
"Bo c #75887F",
"Bp c #758885",
"Bq c #758886",
"Br c #758887",
"Bs c #758889",
"Bt c #75897E",
"Bu c #758980",
"Bv c #758983",
"Bw c #758987",
"Bx c #758A83",
"By c #758B78",
"Bz c #758B88",
"B{ c #758C83",
"B| c #758C85",
"B} c #758D81",
"B~ c #758D84",
"C! c #758D8C",
"C# c #758E7C",
"C$ c #758E83",
"C% c #758F86",
"C& c #758F8C",
"C' c #75908B",
"C( c #759185",
"C) c #759387",
"C* c #759388",
"C+ c #759482",
"C, c #759586",
"C- c #759E93",
"C. c #767B73",
"C/ c #767B7C",
"C0 c #767D77",
"C1 c #767D7B",
"C2 c #767E76",
"C3 c #768179",
"C4 c #768180",
"C5 c #768280",
"C6 c #768281",
"C7 c #76828D",
"C8 c #76837A",
"C9 c #768384",
"C: c #76847F",
"C; c #768489",
"C< c #76857A",
"C= c #76857D",
"C> c #76857E",
"C? c #76857F",
"C@ c #768581",
"CA c #768788",
"CB c #768876",
"CC c #768889",
"CD c #768986",
"CE c #76898B",
"CF c #768A7A",
"CG c #768A85",
"CH c #768A88",
"CI c #768B7D",
"CJ c #768B7F",
"CK c #768B84",
"CL c #768B8B",
"CM c #768C76",
"CN c #768C7F",
"CO c #768C85",
"CP c #768D7D",
"CQ c #768D87",
"CR c #768D88",
"CS c #768E80",
"CT c #768E8C",
"CU c #768E94",
"CV c #768F7F",
"CW c #768F82",
"CX c #76908D",
"CY c #769187",
"CZ c #769190",
"C[ c #769193",
"C] c #769286",
"C^ c #769287",
"C_ c #76928A",
"C` c #76928F",
"Ca c #769384",
"Cb c #76938E",
"Cc c #76938F",
"Cd c #76958B",
"Ce c #76958D",
"Cf c #76958E",
"Cg c #769792",
"Ch c #76999A",
"Ci c #76A0A9",
"Cj c #777572",
"Ck c #777877",
"Cl c #777B79",
"Cm c #777B7C",
"Cn c #777C7B",
"Co c #777D86",
"Cp c #77807E",
"Cq c #77817B",
"Cr c #77827D",
"Cs c #77827E",
"Ct c #77837D",
"Cu c #77837F",
"Cv c #77846E",
"Cw c #77857A",
"Cx c #778589",
"Cy c #778681",
"Cz c #77877D",
"C{ c #778782",
"C| c #778784",
"C} c #77887F",
"C~ c #778881",
"D! c #778884",
"D# c #77897D",
"D$ c #778A81",
"D% c #778A8B",
"D& c #778A90",
"D' c #778B7A",
"D( c #778B7D",
"D) c #778C7B",
"D* c #778C8B",
"D+ c #778D7B",
"D, c #778D83",
"D- c #778F81",
"D. c #778F96",
"D/ c #779080",
"D0 c #77908B",
"D1 c #77917D",
"D2 c #779189",
"D3 c #779196",
"D4 c #779280",
"D5 c #779293",
"D6 c #779385",
"D7 c #779396",
"D8 c #779483",
"D9 c #779594",
"D: c #779A85",
"D; c #779A94",
"D< c #779C94",
"D= c #77A19A",
"D> c #78727E",
"D? c #787A71",
"D@ c #787B81",
"DA c #787C80",
"DB c #787C81",
"DC c #787F82",
"DD c #788273",
"DE c #788277",
"DF c #788287",
"DG c #788376",
"DH c #788382",
"DI c #788384",
"DJ c #78847B",
"DK c #788486",
"DL c #78857B",
"DM c #78857D",
"DN c #78857F",
"DO c #788586",
"DP c #78867E",
"DQ c #78868A",
"DR c #78877C",
"DS c #78877E",
"DT c #788789",
"DU c #78887D",
"DV c #788885",
"DW c #78898F",
"DX c #788A88",
"DY c #788B85",
"DZ c #788B92",
"D[ c #788D7A",
"D] c #788D7F",
"D^ c #788D80",
"D_ c #788D83",
"D` c #788E87",
"Da c #788E94",
"Db c #788F83",
"Dc c #788F92",
"Dd c #789080",
"De c #789188",
"Df c #789189",
"Dg c #789190",
"Dh c #78938C",
"Di c #789393",
"Dj c #789394",
"Dk c #789492",
"Dl c #789592",
"Dm c #789598",
"Dn c #789691",
"Do c #789692",
"Dp c #789799",
"Dq c #789897",
"Dr c #789A95",
"Ds c #789B90",
"Dt c #789B98",
"Du c #789C8E",
"Dv c #78A29E",
"Dw c #797D80",
"Dx c #797E84",
"Dy c #797F75",
"Dz c #797F82",
"D{ c #798175",
"D| c #798278",
"D} c #798377",
"D~ c #798579",
"E! c #798681",
"E# c #798686",
"E$ c #798689",
"E% c #79877F",
"E& c #798787",
"E' c #798884",
"E( c #798885",
"E) c #798887",
"E* c #79898E",
"E+ c #798991",
"E, c #798A87",
"E- c #798A8B",
"E. c #798C82",
"E/ c #798C8A",
"E0 c #798E94",
"E1 c #798F80",
"E2 c #798F81",
"E3 c #798F90",
"E4 c #799084",
"E5 c #799292",
"E6 c #799389",
"E7 c #79988E",
"E8 c #799B8B",
"E9 c #7A7E8A",
"E: c #7A7F89",
"E; c #7A8077",
"E< c #7A807D",
"E= c #7A8176",
"E> c #7A817E",
"E? c #7A8283",
"E@ c #7A837C",
"EA c #7A837D",
"EB c #7A837E",
"EC c #7A847F",
"ED c #7A8683",
"EE c #7A877B",
"EF c #7A8885",
"EG c #7A888F",
"EH c #7A897B",
"EI c #7A8A8D",
"EJ c #7A8C82",
"EK c #7A8C8A",
"EL c #7A8D83",
"EM c #7A8D94",
"EN c #7A8E7F",
"EO c #7A8F84",
"EP c #7A8F96",
"EQ c #7A908C",
"ER c #7A9185",
"ES c #7A9186",
"ET c #7A9384",
"EU c #7A9389",
"EV c #7A948A",
"EW c #7A948B",
"EX c #7A968F",
"EY c #7A969C",
"EZ c #7A9786",
"E[ c #7A978A",
"E] c #7A9885",
"E^ c #7A9996",
"E_ c #7A999A",
"E` c #7A9FA0",
"Ea c #7B7E7D",
"Eb c #7B7F80",
"Ec c #7B8182",
"Ed c #7B8189",
"Ee c #7B8280",
"Ef c #7B837A",
"Eg c #7B8383",
"Eh c #7B8580",
"Ei c #7B8584",
"Ej c #7B858C",
"Ek c #7B8687",
"El c #7B8689",
"Em c #7B8781",
"En c #7B897D",
"Eo c #7B897F",
"Ep c #7B8982",
"Eq c #7B8987",
"Er c #7B8A85",
"Es c #7B8A88",
"Et c #7B8B8D",
"Eu c #7B8C84",
"Ev c #7B8C87",
"Ew c #7B8C89",
"Ex c #7B8C8C",
"Ey c #7B8D86",
"Ez c #7B8F91",
"E{ c #7B9083",
"E| c #7B9087",
"E} c #7B9089",
"E~ c #7B9187",
"F! c #7B9189",
"F# c #7B9190",
"F$ c #7B9193",
"F% c #7B9281",
"F& c #7B938A",
"F' c #7B9494",
"F( c #7B9582",
"F) c #7B9591",
"F* c #7B968B",
"F+ c #7B9890",
"F, c #7B9B86",
"F- c #7B9B92",
"F. c #7B9C9C",
"F/ c #7B9E97",
"F0 c #7B9E9C",
"F1 c #7BA0A0",
"F2 c #7C787F",
"F3 c #7C7981",
"F4 c #7C8188",
"F5 c #7C8378",
"F6 c #7C8582",
"F7 c #7C8589",
"F8 c #7C878A",
"F9 c #7C8888",
"F: c #7C897B",
"F; c #7C8984",
"F< c #7C8987",
"F= c #7C8A83",
"F> c #7C8A87",
"F? c #7C8B80",
"F@ c #7C8B86",
"FA c #7C8E7E",
"FB c #7C8E83",
"FC c #7C8E85",
"FD c #7C8E87",
"FE c #7C8F82",
"FF c #7C8F91",
"FG c #7C8F99",
"FH c #7C9087",
"FI c #7C9091",
"FJ c #7C918F",
"FK c #7C9193",
"FL c #7C9282",
"FM c #7C9285",
"FN c #7C9287",
"FO c #7C948E",
"FP c #7C9496",
"FQ c #7C9585",
"FR c #7C9587",
"FS c #7C9588",
"FT c #7C958F",
"FU c #7C9593",
"FV c #7C9796",
"FW c #7C988F",
"FX c #7C9890",
"FY c #7C9894",
"FZ c #7C989D",
"F[ c #7C998E",
"F] c #7C9B90",
"F^ c #7C9C9A",
"F_ c #7CA19B",
"F` c #7CA49B",
"Fa c #7D736D",
"Fb c #7D8688",
"Fc c #7D8783",
"Fd c #7D897E",
"Fe c #7D8A8B",
"Ff c #7D8B87",
"Fg c #7D8B8B",
"Fh c #7D8C81",
"Fi c #7D8D86",
"Fj c #7D8D87",
"Fk c #7D8D8A",
"Fl c #7D8D8C",
"Fm c #7D8E7D",
"Fn c #7D8E82",
"Fo c #7D8E84",
"Fp c #7D8E96",
"Fq c #7D8F85",
"Fr c #7D9084",
"Fs c #7D9186",
"Ft c #7D9281",
"Fu c #7D928A",
"Fv c #7D928C",
"Fw c #7D928E",
"Fx c #7D9383",
"Fy c #7D938E",
"Fz c #7D948A",
"F{ c #7D9490",
"F| c #7D968D",
"F} c #7D978D",
"F~ c #7D988F",
"G! c #7D9893",
"G# c #7D998E",
"G$ c #7D9D96",
"G% c #7DA19E",
"G& c #7DA297",
"G' c #7E7F75",
"G( c #7E8171",
"G) c #7E8184",
"G* c #7E8483",
"G+ c #7E8588",
"G, c #7E867A",
"G- c #7E8783",
"G. c #7E8889",
"G/ c #7E897C",
"G0 c #7E898F",
"G1 c #7E8995",
"G2 c #7E8A7A",
"G3 c #7E8B84",
"G4 c #7E8B86",
"G5 c #7E8C88",
"G6 c #7E8C8D",
"G7 c #7E8D82",
"G8 c #7E8D94",
"G9 c #7E8F8A",
"G: c #7E908C",
"G; c #7E9184",
"G< c #7E9187",
"G= c #7E9284",
"G> c #7E9285",
"G? c #7E9287",
"G@ c #7E9290",
"GA c #7E9484",
"GB c #7E948A",
"GC c #7E9582",
"GD c #7E9589",
"GE c #7E9789",
"GF c #7E9790",
"GG c #7E9A8E",
"GH c #7E9A96",
"GI c #7E9B97",
"GJ c #7E9E97",
"GK c #7EA59E",
"GL c #7EA69B",
"GM c #7F7C7E",
"GN c #7F827A",
"GO c #7F8282",
"GP c #7F8384",
"GQ c #7F847C",
"GR c #7F8683",
"GS c #7F8884",
"GT c #7F8984",
"GU c #7F8A83",
"GV c #7F8B86",
"GW c #7F8C81",
"GX c #7F8C8B",
"GY c #7F8D88",
"GZ c #7F8D8A",
"G[ c #7F8D92",
"G] c #7F8E87",
"G^ c #7F8F7F",
"G_ c #7F8F90",
"G` c #7F9083",
"Ga c #7F908C",
"Gb c #7F9183",
"Gc c #7F9184",
"Gd c #7F9186",
"Ge c #7F927D",
"Gf c #7F9280",
"Gg c #7F9289",
"Gh c #7F9385",
"Gi c #7F9595",
"Gj c #7F9690",
"Gk c #7F988D",
"Gl c #7F9991",
"Gm c #7F9997",
"Gn c #7F9E9A",
"Go c #7FA09D",
"Gp c #807A75",
"Gq c #807B79",
"Gr c #80888E",
"Gs c #80898C",
"Gt c #808A85",
"Gu c #808A8C",
"Gv c #808B7D",
"Gw c #808C85",
"Gx c #808D8D",
"Gy c #808E84",
"Gz c #808E88",
"G{ c #808E8E",
"G| c #808F90",
"G} c #809083",
"G~ c #809183",
"H! c #80918C",
"H# c #809288",
"H$ c #80928F",
"H% c #809290",
"H& c #809298",
"H' c #809389",
"H( c #80938A",
"H) c #80958A",
"H* c #809596",
"H+ c #809699",
"H, c #809785",
"H- c #80988A",
"H. c #80988F",
"H/ c #809894",
"H0 c #80998A",
"H1 c #80998B",
"H2 c #809991",
"H3 c #809D8E",
"H4 c #80A093",
"H5 c #80A2A2",
"H6 c #80ABA8",
"H7 c #817A70",
"H8 c #817E81",
"H9 c #81837C",
"H: c #81857F",
"H; c #818A7F",
"H< c #818C8A",
"H= c #818D84",
"H> c #818E92",
"H? c #818F84",
"H@ c #818F91",
"HA c #819097",
"HB c #81917D",
"HC c #819186",
"HD c #81928A",
"HE c #819488",
"HF c #819492",
"HG c #81949A",
"HH c #819590",
"HI c #819689",
"HJ c #819799",
"HK c #819891",
"HL c #819991",
"HM c #819A94",
"HN c #819A98",
"HO c #819B91",
"HP c #819C94",
"HQ c #819D87",
"HR c #819E96",
"HS c #81A18C",
"HT c #82817F",
"HU c #82868A",
"HV c #82868E",
"HW c #828B86",
"HX c #828C86",
"HY c #828C87",
"HZ c #828C92",
"H[ c #828C94",
"H] c #828C96",
"H^ c #828D78",
"H_ c #828D89",
"H` c #828F88",
"Ha c #828F93",
"Hb c #828F94",
"Hc c #82918C",
"Hd c #829190",
"He c #82928C",
"Hf c #829392",
"Hg c #829395",
"Hh c #82948A",
"Hi c #829793",
"Hj c #829892",
"Hk c #829899",
"Hl c #829988",
"Hm c #829A9A",
"Hn c #829E98",
"Ho c #82A09B",
"Hp c #82A29D",
"Hq c #838580",
"Hr c #83897F",
"Hs c #838C8E",
"Ht c #838E8A",
"Hu c #838F90",
"Hv c #839087",
"Hw c #83908D",
"Hx c #83908E",
"Hy c #839188",
"Hz c #83918F",
"H{ c #83948D",
"H| c #839493",
"H} c #839684",
"H~ c #83968C",
"I! c #83968F",
"I# c #839A81",
"I$ c #839A8D",
"I% c #839C85",
"I& c #839C91",
"I' c #839E97",
"I( c #839E98",
"I) c #839F8C",
"I* c #83A1A1",
"I+ c #83A297",
"I, c #83A39A",
"I- c #83A49E",
"I. c #848987",
"I/ c #848D8D",
"I0 c #848E82",
"I1 c #848E84",
"I2 c #848E88",
"I3 c #848E8A",
"I4 c #848F8D",
"I5 c #849186",
"I6 c #849187",
"I7 c #849289",
"I8 c #849296",
"I9 c #849398",
"I: c #849489",
"I; c #84948E",
"I< c #849491",
"I= c #849589",
"I> c #849590",
"I? c #84968F",
"I@ c #84977F",
"IA c #849789",
"IB c #849794",
"IC c #84979E",
"ID c #849891",
"IE c #849996",
"IF c #849A8F",
"IG c #849B8A",
"IH c #849B94",
"II c #849D9B",
"IJ c #849F96",
"IK c #84A4A4",
"IL c #84A79D",
"IM c #858286",
"IN c #858A89",
"IO c #858B85",
"IP c #858C83",
"IQ c #858D81",
"IR c #859085",
"IS c #859199",
"IT c #85938C",
"IU c #859392",
"IV c #859684",
"IW c #85968E",
"IX c #859783",
"IY c #859791",
"IZ c #859896",
"I[ c #859A98",
"I] c #859A9A",
"I^ c #859B96",
"I_ c #859C93",
"I` c #859E8A",
"Ia c #859E92",
"Ib c #859E9F",
"Ic c #85A098",
"Id c #85A496",
"Ie c #85A59B",
"If c #85A697",
"Ig c #85ACA5",
"Ih c #868983",
"Ii c #868B85",
"Ij c #868C85",
"Ik c #868D89",
"Il c #868F86",
"Im c #86908D",
"In c #86908E",
"Io c #869192",
"Ip c #869286",
"Iq c #86938F",
"Ir c #86948F",
"Is c #869590",
"It c #869593",
"Iu c #869594",
"Iv c #869597",
"Iw c #869698",
"Ix c #869A99",
"Iy c #869D95",
"Iz c #869F8F",
"I{ c #869F94",
"I| c #86A3A5",
"I} c #86A69F",
"I~ c #86A6A7",
"J! c #878D8C",
"J# c #878E7E",
"J$ c #87918A",
"J% c #87928A",
"J& c #879387",
"J' c #87958C",
"J( c #87958D",
"J) c #87978E",
"J* c #879989",
"J+ c #879992",
"J, c #879993",
"J- c #879995",
"J. c #879B88",
"J/ c #879B96",
"J0 c #879D8F",
"J1 c #879E93",
"J2 c #87A093",
"J3 c #87A0A2",
"J4 c #87A18E",
"J5 c #87A19E",
"J6 c #87A693",
"J7 c #888B90",
"J8 c #888C8B",
"J9 c #888F89",
"J: c #889181",
"J; c #889188",
"J< c #889286",
"J= c #88948D",
"J> c #88987F",
"J? c #88988D",
"J@ c #88988F",
"JA c #889890",
"JB c #88998A",
"JC c #889A88",
"JD c #889A8F",
"JE c #889D95",
"JF c #889FA0",
"JG c #88AAA0",
"JH c #88B0AB",
"JI c #898B97",
"JJ c #898D87",
"JK c #89908F",
"JL c #899385",
"JM c #899490",
"JN c #89958D",
"JO c #899797",
"JP c #899988",
"JQ c #899A8E",
"JR c #899B8F",
"JS c #899E90",
"JT c #899E91",
"JU c #899F97",
"JV c #89A09A",
"JW c #89A19E",
"JX c #89A69D",
"JY c #89A893",
"JZ c #8A8E8E",
"J[ c #8A9191",
"J] c #8A928D",
"J^ c #8A9387",
"J_ c #8A9593",
"J` c #8A9893",
"Ja c #8A989B",
"Jb c #8A9A95",
"Jc c #8A9B8D",
"Jd c #8A9B98",
"Je c #8A9D97",
"Jf c #8A9E9A",
"Jg c #8AA195",
"Jh c #8AA19D",
"Ji c #8AA29E",
"Jj c #8AA9A4",
"Jk c #8B9290",
"Jl c #8B948C",
"Jm c #8B988F",
"Jn c #8B9985",
"Jo c #8B9A8E",
"Jp c #8B9D93",
"Jq c #8B9D99",
"Jr c #8B9E97",
"Js c #8BA29F",
"Jt c #8C9085",
"Ju c #8C9290",
"Jv c #8C9297",
"Jw c #8C9B96",
"Jx c #8C9B9E",
"Jy c #8C9D98",
"Jz c #8CA39B",
"J{ c #8CA691",
"J| c #8D8E95",
"J} c #8D9793",
"J~ c #8D998C",
"K! c #8D998E",
"K# c #8D9993",
"K$ c #8D9E99",
"K% c #8DA091",
"K& c #8DA1A5",
"K' c #8DA595",
"K( c #8DA68F",
"K) c #8DA9A2",
"K* c #8DAC9F",
"K+ c #8E9296",
"K, c #8E9496",
"K- c #8E9B9C",
"K. c #8E9D9C",
"K/ c #8EA090",
"K0 c #8EA09A",
"K1 c #8EA1A1",
"K2 c #8EA29A",
"K3 c #8EA2A2",
"K4 c #8EA79A",
"K5 c #8EA9A7",
"K6 c #8EA9A8",
"K7 c #8EABA9",
"K8 c #8EADA9",
"K9 c #8F9488",
"K: c #8F988B",
"K; c #8F9991",
"K< c #8F9C9D",
"K= c #8FA4A1",
"K> c #8FA69B",
"K? c #8FAAA7",
"K@ c #8FAAAD",
"KA c #909A96",
"KB c #909C95",
"KC c #909D94",
"KD c #909D98",
"KE c #90A09E",
"KF c #90A29F",
"KG c #90A39B",
"KH c #90A3A5",
"KI c #90A6A5",
"KJ c #90A79C",
"KK c #918E93",
"KL c #919483",
"KM c #919B94",
"KN c #919B96",
"KO c #919D97",
"KP c #919E9F",
"KQ c #91A19E",
"KR c #92918E",
"KS c #929B8F",
"KT c #929B9B",
"KU c #929F9F",
"KV c #92A09B",
"KW c #92A0A4",
"KX c #92A19E",
"KY c #92A1A4",
"KZ c #92A2A3",
"K[ c #92A394",
"K] c #92A59F",
"K^ c #92AAA7",
"K_ c #939893",
"K` c #939894",
"Ka c #93998A",
"Kb c #939C97",
"Kc c #939F8C",
"Kd c #939F9F",
"Ke c #93A190",
"Kf c #93A295",
"Kg c #93A49D",
"Kh c #93A69F",
"Ki c #93A9A0",
"Kj c #93AAA9",
"Kk c #93ADA2",
"Kl c #959391",
"Km c #95958A",
"Kn c #95A196",
"Ko c #95A69B",
"Kp c #95B0A8",
"Kq c #969E9C",
"Kr c #96A09B",
"Ks c #96A397",
"Kt c #96A398",
"Ku c #96A5A0",
"Kv c #96A89A",
"Kw c #96ABAC",
"Kx c #97ABAA",
"Ky c #97ACA2",
"Kz c #97B1B2",
"K{ c #98A499",
"K| c #98A7A1",
"K} c #98A899",
"K~ c #98B1A5",
"L! c #999A9F",
"L# c #999B8D",
"L$ c #999CA4",
"L% c #99A1A3",
"L& c #99A395",
"L' c #99A9A5",
"L( c #99ACA9",
"L) c #9AA9AC",
"L* c #9AAB9E",
"L+ c #9AABA2",
"L, c #9AACA8",
"L- c #9BA297",
"L. c #9BA2A4",
"L/ c #9BA39C",
"L0 c #9BA3A1",
"L1 c #9BA7A8",
"L2 c #9CA098",
"L3 c #9CB0A8",
"L4 c #9DA2A1",
"L5 c #9DA7A7",
"L6 c #9DA8A4",
"L7 c #9F9EA1",
"L8 c #9FA6A2",
"L9 c #A0A5A2",
"L: c #A0A79C",
"L; c #A1AEA6",
"L< c #A2AFA5",
"L= c #A7ACA2",
"L> c #A8A7A4",
"L? c #A8AAA5",
"L@ c #A8AFAB",
"LA c #AAABA9",
"LB c #B3B4AA",
/* pixels */
"9%0Z:F8i?_Bl4t&/*y.x,D4k1R(6)z(I$k'X-b>JD9531=*<+)DDCuD%+K+L<8'53f/H@J?|65K$*.&W#n)D-R7&,z&k-`,$52=CDJA}EwH{=O+<$~4v*S-r%[(PCd5N",
"E;+-5P?f,V*{*l-g4F7D1}/|4s'S(+>B&l%-)N+E$*#@,pCZ?!G4GRB,7t<D1l74>|.U1HCq'J*&>A+D.H1B5{49?YAT5/1w>7=I>)@n9!F7J!<22w>d7j(?>pD20#A$",
".I!H1O3u):&70D;R2g3?>sEoI=.1/b,^#*/K8E-s!F&,71KIIy?3KgHJCi4C+M-H(r:oG|K.*68H3X1<9^@+I9DWE6;K0*/l)x).BY@k.j;iCDJ*>3A7D(AhEx8p=Y*2",
")i@y+46C%V)f.F=<9_85=CD~Ih2#&V+l$2%8:*<O-74(;YI~L3J,K/C7@4K?>2+C9)<UKqJu6~.x>;3~<pDXIdH,@u9S>?/S.S6aCwDS5Y<`BeL9KG>QI6J<<z2[/?6z",
"@EI#<&5'-1;?9m042_'E2C19Km2<$,'P)y.:.uIGGIE)EgL>KpDQ5:,sI}A44H3o9KI2L.LADzFmDGCkA#2)$B,ZGCE4966N:[EHJDJmHXH_J]KDIB6_@(2{GWA@%H8q",
"1p@]5k4P1!1'<@=n,~(.$::!H}KB(#*M;XFHG6E??'Dc:uL)L5Ae'k$PB3Fy5>8I>+/;6;JG<:5k,SDPJT9q%N5%IJHPHw;I0@<TELK]H%HzElKMG70X5u1YI??;.p66",
"&m2K&;2T-#$z1472-C+b,l3jG^J}Az5SG)5OC/6T:~1XHAL%J|C&7H!rCaHK0v1D5p(d/B8s&Z&%1UBt=A<S=w6rDsDtJZ50.B*bFkI5<X93I0In7?0Z7];4I$+p>f2e",
"!=%d'Z()%6#I(i0//{=XA9E|JPL=J=)l+Y9'I<J$;U(U0yKrKbIkI)BxCfF9?L#H)JC{;m/D*v%X3iE.B_=4I/GFGoDo,9%]#>=AG.@R@i8GGhFoB0CtA:GkEWJp7Z&~",
"##&.'(*r)2!Q+H&u+#;TJRH$KsL2I>C48C?4J9IqH88R8(EmINJlG9=oIaAm:f2D5|?>:.?6,X2N;f<V=cHW<<DuCHE@4@.Y&#3q0>4<Cs@&C>@;BZD#7}H'B:=Q@H-<",
"'0+>'T'h*0%h*W+/4}080'AL.#G4KTEv@QJ-KUGaJ]A<9,I!HDFBE}>`-0A6;o8a?fJK>tI&@I8N61=z>4C<9j8V3Y8bD]0)0cEAH94MJLIRIsCVCFBc,oC#(5-4AM,_",
"+7*/+A3c:A)U*C&]&S)H2P8S8D=fI4JhHhHFKZL1L(EzE&H)4R7bEXEO*s,*11GTG#>9HfKjK5D&,w-G%E%^4U=j-332=0C(Iz6)6BA1JdHvCK7$/#(s5[39$J$=0X/2",
"9//</5?+/4+I6$*'&2(:=F9I:s6JB[K=K~JUJ%L:IDKhKe=E+~;{I,C=.>91-YK*B70Q6^FCHiI'>L0x0s00<~<q2!EpE{LBK2B5G/A?D'IIF,2]*+/>5E5+$$$d,C=>",
"3_%>(9/^DRAV,(*)6*Dh<lEbIiH:2QDgJr7l8_B<KNJOAU2R6WJAKyF{=(<n1[K!B}&i!g)O=TJ49l9e9LH0BRC3JfL+KtL?JSD{8<=1JnJiCgER;.;(B{E24|?q<Z@G",
"2p#Y'#0YJ;7{'1A(5}>1?0B~H1:77k@<FT<-8gBoL#L8C'?*FJHNDkH6I-'l,iC5Dd(p$4&hJ0IV9cDnH2F;HjApI*H|BqHMJw@:4^:hKSGlF!C%A'9]A_=V5j8<8&2Y",
"-@-X0`5(>:-]87.l@3-57*J^?=)3:z>>9V5#<m<^D$G[6y3t2J0B>HF-#r$3*[3C88*f(^->9yE~1YFx?,2SF*Cv)=-|=qE5H*>m<WEcL-J`IrB?/$(m;3?e+Q-k*-+v",
"-i+|<B7#AqCb;}3+$A9s3?=K/N&C.2Aj=*C$J{J>KcK(8;$x'N(/E'4~%.%T$p6^?/>DBy?BK'Af0q37+:>$E>@13n%f@YD4G5FKE^KEK{JgFh6s!L.-/X6R&>#i,r*7",
"5M-$0,:K7<=ZBT8<$V2A;vJqIt575&5D?hFiJEH^KLD}@P,,*J/s3[;j)G+B'u20@pF6C+@SJ.9F4j;d/Y7T;zA[.82L=L@7G<H>JWK;L&J~?s.h$F6Z0A+}*:%4(.)q",
"6i'x%3)J%2-aAvC.(|-,6#IbKu@O8/H/8r9M7:<y*9EF2/<!?[;%>X?<1G.;)P:mI:=|+v-=-{6dJ&HCCJDVEtI;8!3W<1@UBv=G8>;Z8}E#Fv0'2>:w6L*m6-+1(22*",
")<2:DZ1u!3#3&F6|Ak;8@[EYIKCn?T753Q6VG!?V2G0e(uG>FrK|Fa?@9x6{*$=m(f+x/(D+'~'WH@IcJVKAKQKXJeA);78k-W$u=qB(3$3FC_@bDjGcB6;L3b-?&c/M",
")`0mB!3]!$!t&R;/<o;FGDD8IUASH-5v*o?]F/Db8?2;.<J(JQHUGqDy>#=H:v7U7@2zH5><1e3y=pK-JsL4K_A~98G:>C5q3)(_Bi;|2<-V8F?r.J>^*n1-=,9z)e&6",
"1#+F131y.&*=&b1P4J7p/c8aFO<b;D,6:PIpJ8GBEJH;>@JzK`7E(]3/ADA%5zI8J/IYDv<==&G?GbI.L';r/i-uF5IWCR>n?P599T<u?)9d/6:B2I,j#o0NHr@)*S/Q",
"9f?2=[G&E9+J/A38?k6!(q0^EiB%IZ;B>IJ)KkK4F]@^@~L<L6AI#9#~36@W-dB+GHF^KWDq=`<>HxKRHT7e&{+YBdGyC!D5B`EI@XD=6A10,36:59)g'U)<H<8%*N4#",
",{'a7QD7@*/:*%2N31Gf,t0fEK>0;=5lBf8TFS;g*(-DDIJCKV?X*@&:>(=e-~,.4;*1Gi9h%A*HIOK+I]/o-P(v7aFWE/;e:+&I>}Dr)Z$U2h;@9Z<3:8/*Cc,v.0&,",
"!S't-1,B)w030?9<<aHlK[K9E(Hc=7$S$?6x;<>!/v)>43KdK0FXAgJ:D|F%0p#{$c1V7S0;#W.`DeHdHVEQK^HEE!?ZB|/$$@${<g/+)##m1./7G3FcH.H?E<?K4[#A",
"!?(Y5:,70|%a1:0%I1IPIjI`CIFQFq1].78d:49E7%0.AOJ[FzK#;!JtAP>Z/a'M)10u6>:H2?5UD!DCHHK)L@KPES2nB*6[-n/<Di@,/u%k+P*49C:pGdGgGQ6Q4_$f",
"..'d,y/C2Z&e1r585Z6]3x@|+.::AR7V<6/-D,:L<}6,FbJbJ@GS2H4a+WBP.^,h235m=.D>;C5s8JHs@x@t9N?!0+1f?R?b@#/~G_<.=;5.,5'*%!($)Q.4-m0o9X<5",
">PBGBO?zGM;x8M(;!y28;V:d')$t/wCI=RBKGdHSHLC]E3C08:C11+DN'6$a+89v;]GKJaL0H!C|44<%)?)6?WG(,W&P6}CN>v3.<kAbAr;t(A%b!D!Z+'5w,=%O$rGJ",
"A=:S;^?{EfIM2E'z$'+*4p:e&{%Z0RI@CMC2B$E1=}Ac;cE=:a-u=$CQ'w'o(O@'<M>/E,..;>F?2.+f+o*U<u@C.c(Z29J'F~4{;pA+J#C^-B!d!}#=;qB;5K&&(`@M",
"<0%;%$,UEaGs3>+{*Q7U562U?I@!.]ETD[(=%|+tI^J3>y0WEnCqF.BNEC?&(4?(>q#'!'!E9OHQD18z>Y=uGXGvD?;b3}JoC}&+%R<KKaJJ6F(a,N;'FfIvJM9t6j=r",
"B=)W!j%CE-G02W)81b=v<_6`@?5x:IG;F(0t!k&f9iK&ITF'H=@DJXJyBb6g'&='B))7!#!)7fAGE%;s@l??CjC8Al8~:|KfEN$o#C&OK:DM8P/V2t?7@WE8@5?c4L=@",
"8u2g(&)&BC<A3F'D$N(c3N5f'!*?8{@TBM7q'23UAtHgHY9w=x/rErGz4$!z,R:RFN---8!W?}JN:'9.0X+;<aB-+3+(IlKn@A$E&^-L;kAT:)3B,A1dHG?C(o%@4S2b",
"0E5IF_=NCe9o*k!<!.)n*h%Y3'*q7OB]KoK}GGJ6K%KCCA4f-j4lG`=8/T!5%t/GA-D-ENB#G7AF@v)g!X,n;:3k.i(7J1I7H#8aB.FRE[8e33);#&35:{.d*P#05B0V",
"3:02=PF}9n5H#w!e#g$()v621J',/t3-GpH`J?JYL*KOBk3G=D17:c;$1F#5)d+GD0GOGtG,?~:`=:'A$j(z455]+e+m=FCpG}5CCXGEF>?p3C.+!{#6.}/,,Q#a*Y)/",
"*w%X$Q&$$O&D%?(~.*&v?e+=3D%c9QD)?A899J;a=hHaG{;OB8>_IE;y:b$r'9C::]2},J(V%(2~.'(M/y,14x={/'.z+r4.,W6f)Y:=-67d;l84+_#`1&*}/=#Q#(,I",
"!4&a)u:J%B!7.P?D/pJ-Ki=U83*K:t2N*>.ZEu7[*E&HEPKJFjJjL,D<J+7Y1~3p&x.<:n1N%P$b;J:|8B??;_DL.q8`4w3{(g#h5=FD'f,MFeEhBs?N:(;`?v764I$5",
"%U*j6<1o$l&=)+@B6wEVAY;)6l;,3;6h-E8CAiF&)}-924JcIAGjB&>-01Bz2v3#)2-_<x18#2'r$-FtAH6PCB7h.mAf>w.!)L&`=!Fl3r%I-%K,Gu@d<{6?8W=),).K",
"127L=S554A=B4o77@{,@.g+nDLDw5c22B^BhJ2>GAX=?GVFuKv-y!h#}KKCU9A(S.b9|D.>V7C6J.wBUA|&q$w$gBVHtAo3T?#:yFgHe>h,%4cCLFP*5&4)I:TDa7!,'",
"-[6p;MAs.N@_/E5F?1)B!A(K?8>e@26k>&D`BA@VABHmFIIgL;)V!~$9EjFZ?S0a7gBWCoICG1Ek+dCSG~)h!8#DG-FE?m:>CC9GD_Fd=t7^,dA.Cr(`!:$8@aD;:Q1n",
"(1#;:Z8U#k'f&179>E0w%)(XAZ6v<(,u86./EZ?g8Q.%<9ISKxAJ-((e@`?.8X-/0k.TJFJx@w.s4Q60Fs.k,?&?Bn;E2&)^%F&Y5h<]%+&G0h<R8*1h#K$xAC7v@K,!",
"!p#T+}&3$S#N'j)-7-0d7f8[8K=52m(y&'4%7x2^3w*H:&H@IwJIIoHZCEBH4T(>(n-oHb@r?U.v6m3(419{HIE*@q>a,-%g!0'E0r1T(l(%:D0O3!;h8v:?I{Ie4B!P",
"$)#7%1,0-c(F/x%D4q1@6U>~:65`3M$/&0*?/w,c4=,|>F1)CY>=DfFvBXG+:-#G#y5a@=Cx<JBp68%_BS4ZF2?9>j5T(g&}!U!c0L.X%^'b1Q-!:35i8^G]I[Hn9[%%",
"6&#R#p&55(,/)9-q#J'}&T*_$#'g**1g7(0l>g/g:s.G<dA`Cz2y2k%i+k3@0g/L069=8yF$?l;n(@/)%p'=-2*;&<)*)a*p&y#s(h'H,G&g%x(L#t/z,k8h+Z*R9A<C",
"I_7/9-+O/@.O'_$R!!%&-x+&$q%e(BI+A>G%KzGwAQ6b4n/-(')G/11z&H$M<+@@HPH]D/COBDAK&?#z!(!J/P0G#,$^)(7>5_+V:O4u3m.$$v(G!&$s<wA8,+'..DE`",
"F330<?1`2B9@,<&|!f'Q<L1{#x$Y)%F[IfF|>5B'G2IH92;0+0(x9?:q)'0i%z@8H7J_CT@s>kFY-v,T$i!@5X2,#b!a#v8x<I-*9*8)1c6c0J7K#Z&UDTED(t$&+9E7",
"6n'$$[#X>R4]%}++'7/W7G8n151v:GH3FM-S%:*F>[>,,[3%)r7rChDY@eBg69H4:1(,1C;1DBGn2o&M%W2M6/@c(*(W*x27/[!`$h%v?5FF3|>[.V<PFUJB@j,&8Y=_",
"I%&)!2%#6O=g/R#_.R:i4,1W<N1>6=H(G''B!9$y?HIF8c0M;27RAxH&H[BL5<GLI(%S!i#SDp<G4X2f([/O<HAy<Y*z)m:l7_!]!l%';W@$:<;;-A-e9DC,:>-Z3R=J",
"A&2D$7!q+N7z+w'q&p'8/!5!,x&n'e<4Hy4m(R%7?y8t%}&B+S+];[6r/F%j1mEqBa4)+5*eFG>S,q(8'R$>6EA*0~#j,><,/J%0%D%L2O<v:&-B&r#/Bu@/'%%`.(@z",
"BY474V8o.E=b0H$D#-';/q*D$n!O*d(HG*GYGAFLCXC*(E#:!I-&?a63#O%5//?t6DD6IxG$C`5G3a$Z!-'|+s4**i&J+g2-,O<-7+;+</8Z(C(b!V'K5d;~&-$|:h7M",
";&9a1,C-70:%*I!R#+$`'?+%'`$H1s#.?MBjA^=%;QCG(D!>$<'y/}1_.,52:22%=l7s;A;#.M:C-N#M!%!b(T1F'O+,3*.))0.L3`>W<[1x#q%s$m$I)C'/*#({>r3&",
"0n0-)b.e#e!w%~-t*t#|'<+T)u'^$X(h#]5q9:21!N&o)X7M3g4b5W>8801a9$<c,42d0:+@$}'H510t%M$i'@+^4d6%*T6l#y787E361A$]%m=^2F%w1h0<'m*37N:,",
"%^3v4`90!C!6&L2X1E/n4e-l4E'C)t#4!M%<%J5~&*![(}?wF:9rDO:0@Z4h'G$G,]$L3$:5!B!m6u7u7;342$5e=->i&9){#l'p,HGN%|#)09JHK81%<s076@6(=925",
"'v?JFp7B!*!+#E5t=y1V2q:j.p8]1i$.#?&d050K#1!n$T>M64:U;-B13lBF1?0U2'!Y;S?x'n+_+iD^7)9&1KL!L$KYCW9##d/d=3F<+a(j%_<j7m9}9uD*1(A2=2)j",
"4gCmEGD@8w%y0]2x9p)]%n!v:W5r)E%,#F7o9N1S-^-O)T.|?G#[#&)F>iFw.t.~*~<,BEF)B9G=5n9b=I$%+6DAKlL7>N5-%q@;<iIqHq7`5Q5o51-.+[,L7,7I3E3S",
"9W?`?%AE-h*]/Z8,2|#s!T#u;&C~1$!x,25A<FD34y.{,;3O?O&_!K#f;^Gm>c>OC[CtGUK@K7G@-;8$KF&N!1,PKHK<E_C@+2,a@NHkI|?-/f823z+c!_%*23955L-Q",
"-w/`@hE:3e!|+R-p-+,F%K'><'E$(<)K46,m4N<E(-%P.Q=i8f4>&j'[ANF4((8A<e2cKwL,>%3V0bHuK1I38l6YGrAW8.BQ>U#jA5CV;P0{1L3A42,E%Q&M735*2u.f",
"&A26:kDF)_!s8m8'2(8=5y6e>o@F:;''!o(k;N1_$+!/%{EeCyEy8#BrF#GP8PF@5,F8H+E+,K%r414FJ7JvFVG83F4m-F&t'{)[?^;H,e+$3=2=+U+z2T<7?F=#+q&%",
"9(6G.34:,@']:V:^1|=f81B@;G<h6'&X':.k7P9~0S)M4+-'.o;*D:Bw@6J5JkB4C;GZC)?:2@3d1k'Y-z:MEM=W<|3L*a-J*!/9B20=)o/%Au67,8:E3J5b0F4K.r'F",
"=c9+5g7F>*.a.WEd0z(J3H4b&[,g4r6X4':#.9<%:}7J5`8|*B4&>T-}+j4ODx?dDHC6@}ClDU@fDK.5.61Z<f:@.A40AU9B/00~4/)S>u3^547y2i480$*V)R(03,9;",
"=++?9>>z6q<Q.[3Z%o$C2`,*$1#!)ADl:X7i?u>KA/:$1M$0$!)):Y1;'L'V>{GxK>F+K3Ho<;Iu6S'c!;#cBJ<*0!4?/tA;F`;5EU>b0C2a7''4$6$K(w.=!G)c/e7H",
"4i-f5?6.7n@>0&)k%=$;/k/.#B&y)@B/Aw9PAa?j<t;D'~#P(`&EA,:_,Y6M1I4WA3L/BIIL?o@LAn&Q*u(N:g/_3P'~*|?Q<$FnE]IQ2V1q2j2l%l+x:97X!u$e(!=a",
"=/99,f(50'1j.y-:,:/I9t/h,#1t)G7WA{&s(Q#U>t<)&w%/)5>]FA@.><EB==@-EE+h'-,*HO<r+u*J-%=F;69#7c=k5)A0940}@m8/Ge:x'3Bm5JH~>x5;'s*L8O8-",
"6L)|#L)s5@@g3s5R2s/U6I-T*X*,7.HJ@0#%#^&K6+Dm%u&@+X:rF=E0Ad:N6t=]Im._)4*^HRC?.@/8027R=~4u:/=6-MCP?i,`)K4$HBAl-I9R7|EsJV1/)!/3/]3K",
"=M0('i)p9`9Y0I3h*A&z7=3<)~(38jAA16*8'+6K6o4!&!8+.n*Z>6?n7w-K3I9U5$0_>'9gF0F1.@4G.?/jB>?$,b*O/m@94D-U8@7A>%>l@o<#%91X=d;5(i'G+!;9",
"2+*c/&,}?E;u=s-)$_),0T0P'T#$&82r0[+`5vIX5V6H5^0j!^8L;w9k)$%G#V1*814-@%C9K6Hp7~#<#897>.9H+y&S*GDE4z*`<.BBA]A!4{'I!,.C*g1^&($W,!4Y"
};
