/* XPM */
static char *unique_pattern_material_09[] = {
/* columns rows colors chars-per-pixel */
"64 64 2760 2",
/* colors */
"!! c #261A11",
"!# c #271A0E",
"!$ c #2B1B10",
"!% c #2B1E12",
"!& c #2C1D11",
"!' c #2C1E13",
"!( c #2D1E15",
"!) c #2D1F14",
"!* c #2E1F14",
"!+ c #2E2112",
"!, c #2E2113",
"!- c #2E2115",
"!. c #2E2117",
"!/ c #2E2516",
"!0 c #2F1D12",
"!1 c #2F2013",
"!2 c #2F2015",
"!3 c #2F2317",
"!4 c #2F2416",
"!5 c #2F2417",
"!6 c #2F2612",
"!7 c #2F2812",
"!8 c #301D0C",
"!9 c #302013",
"!: c #302113",
"!; c #302417",
"!< c #30251B",
"!= c #311F14",
"!> c #312114",
"!? c #312215",
"!@ c #312314",
"!A c #312415",
"!B c #31241C",
"!C c #312618",
"!D c #312716",
"!E c #322214",
"!F c #322317",
"!G c #322318",
"!H c #32271E",
"!I c #32281A",
"!J c #32281C",
"!K c #32281E",
"!L c #322919",
"!M c #33241B",
"!N c #33251B",
"!O c #332616",
"!P c #33271E",
"!Q c #342115",
"!R c #342217",
"!S c #342312",
"!T c #342315",
"!U c #342419",
"!V c #342518",
"!W c #342519",
"!X c #342617",
"!Y c #34261B",
"!Z c #342920",
"![ c #352318",
"!] c #352418",
"!^ c #352419",
"!_ c #352518",
"!` c #35261A",
"!a c #35261B",
"!b c #352716",
"!c c #352719",
"!d c #35271C",
"!e c #352914",
"!f c #35291D",
"!g c #352B1D",
"!h c #362315",
"!i c #362317",
"!j c #362415",
"!k c #362418",
"!l c #362618",
"!m c #36261A",
"!n c #36271B",
"!o c #36281A",
"!p c #36281B",
"!q c #36281E",
"!r c #362916",
"!s c #36291D",
"!t c #362A1E",
"!u c #362B1A",
"!v c #362B21",
"!w c #362C1B",
"!x c #37200F",
"!y c #372214",
"!z c #372315",
"!{ c #372415",
"!| c #372417",
"!} c #372519",
"!~ c #372616",
"#! c #37271A",
"## c #37271E",
"#$ c #37281A",
"#% c #37281B",
"#& c #37281D",
"#' c #37281E",
"#( c #37291B",
"#) c #37291E",
"#* c #372A1A",
"#+ c #372A1E",
"#, c #372B1D",
"#- c #372C1E",
"#. c #372D1D",
"#/ c #382212",
"#0 c #382213",
"#1 c #382215",
"#2 c #382314",
"#3 c #382315",
"#4 c #382518",
"#5 c #382519",
"#6 c #38261A",
"#7 c #38261B",
"#8 c #38271C",
"#9 c #38281A",
"#: c #38281B",
"#; c #38281C",
"#< c #38281E",
"#= c #38281F",
"#> c #382918",
"#? c #38291B",
"#@ c #38291D",
"#A c #38291F",
"#B c #382A19",
"#C c #382A1A",
"#D c #382A1C",
"#E c #382A1D",
"#F c #382B19",
"#G c #382B1B",
"#H c #382B1C",
"#I c #382B21",
"#J c #382B23",
"#K c #382C24",
"#L c #382D21",
"#M c #382E1C",
"#N c #382E1E",
"#O c #382E22",
"#P c #382E23",
"#Q c #392214",
"#R c #392317",
"#S c #392517",
"#T c #392518",
"#U c #392519",
"#V c #39251B",
"#W c #392616",
"#X c #392619",
"#Y c #392718",
"#Z c #39271A",
"#[ c #392814",
"#] c #39281D",
"#^ c #39281E",
"#_ c #39291D",
"#` c #392A1D",
"#a c #392A1E",
"#b c #392A21",
"#c c #392B1B",
"#d c #392B1C",
"#e c #392B1F",
"#f c #392B20",
"#g c #392B21",
"#h c #392B22",
"#i c #392C1C",
"#j c #392C1F",
"#k c #392D1B",
"#l c #392D21",
"#m c #392D25",
"#n c #392E20",
"#o c #3A2214",
"#p c #3A2517",
"#q c #3A2614",
"#r c #3A2618",
"#s c #3A2619",
"#t c #3A2718",
"#u c #3A271B",
"#v c #3A281B",
"#w c #3A281D",
"#x c #3A291D",
"#y c #3A2A1D",
"#z c #3A2A1E",
"#{ c #3A2A1F",
"#| c #3A2B21",
"#} c #3A2B22",
"#~ c #3A2C1E",
"$! c #3A2C20",
"$# c #3A2D1E",
"$$ c #3A2D22",
"$% c #3A2E1B",
"$& c #3A2E1E",
"$' c #3A2E21",
"$( c #3A3020",
"$) c #3A3023",
"$* c #3A3024",
"$+ c #3B2410",
"$, c #3B2417",
"$- c #3B261A",
"$. c #3B2716",
"$/ c #3B2718",
"$0 c #3B2719",
"$1 c #3B271A",
"$2 c #3B2818",
"$3 c #3B281B",
"$4 c #3B281C",
"$5 c #3B2915",
"$6 c #3B291A",
"$7 c #3B291E",
"$8 c #3B2A19",
"$9 c #3B2A1A",
"$: c #3B2A1E",
"$; c #3B2A1F",
"$< c #3B2A20",
"$= c #3B2B1A",
"$> c #3B2B1C",
"$? c #3B2B1E",
"$@ c #3B2B1F",
"$A c #3B2B22",
"$B c #3B2C1C",
"$C c #3B2C1E",
"$D c #3B2C1F",
"$E c #3B2C20",
"$F c #3B2D1F",
"$G c #3B2D21",
"$H c #3B2D23",
"$I c #3B2E1F",
"$J c #3B2E23",
"$K c #3B2F1C",
"$L c #3B2F1D",
"$M c #3B2F1E",
"$N c #3B2F22",
"$O c #3B331C",
"$P c #3C2211",
"$Q c #3C2411",
"$R c #3C2412",
"$S c #3C2616",
"$T c #3C2718",
"$U c #3C271A",
"$V c #3C281B",
"$W c #3C281C",
"$X c #3C2917",
"$Y c #3C291A",
"$Z c #3C291B",
"$[ c #3C291C",
"$] c #3C291D",
"$^ c #3C2A16",
"$_ c #3C2A1F",
"$` c #3C2B1C",
"$a c #3C2B1F",
"$b c #3C2B20",
"$c c #3C2C1F",
"$d c #3C2C23",
"$e c #3C2D1C",
"$f c #3C2D23",
"$g c #3C2E21",
"$h c #3C2E22",
"$i c #3C2F1F",
"$j c #3C2F20",
"$k c #3C2F21",
"$l c #3C301F",
"$m c #3C3021",
"$n c #3C3023",
"$o c #3C3123",
"$p c #3C3127",
"$q c #3C3227",
"$r c #3C331F",
"$s c #3C3323",
"$t c #3D2315",
"$u c #3D2513",
"$v c #3D2713",
"$w c #3D2717",
"$x c #3D2819",
"$y c #3D281A",
"$z c #3D281D",
"${ c #3D2917",
"$| c #3D291A",
"$} c #3D291C",
"$~ c #3D2A1A",
"%! c #3D2A1B",
"%# c #3D2A1C",
"%$ c #3D2A1E",
"%% c #3D2B1B",
"%& c #3D2B1C",
"%' c #3D2B1D",
"%( c #3D2B1E",
"%) c #3D2B1F",
"%* c #3D2B20",
"%+ c #3D2C1D",
"%, c #3D2C1E",
"%- c #3D2C20",
"%. c #3D2C21",
"%/ c #3D2C22",
"%0 c #3D2D1F",
"%1 c #3D2D22",
"%2 c #3D2E18",
"%3 c #3D2E1D",
"%4 c #3D2E1E",
"%5 c #3D2E1F",
"%6 c #3D2E20",
"%7 c #3D2E21",
"%8 c #3D2F1F",
"%9 c #3D2F20",
"%: c #3D2F21",
"%; c #3D2F22",
"%< c #3D2F24",
"%= c #3D2F25",
"%> c #3D3021",
"%? c #3D3025",
"%@ c #3D3026",
"%A c #3D3028",
"%B c #3D3121",
"%C c #3D3123",
"%D c #3D3220",
"%E c #3D3229",
"%F c #3D3324",
"%G c #3D3425",
"%H c #3D3525",
"%I c #3E2416",
"%J c #3E2514",
"%K c #3E2719",
"%L c #3E281A",
"%M c #3E281C",
"%N c #3E2916",
"%O c #3E2918",
"%P c #3E291A",
"%Q c #3E291B",
"%R c #3E291C",
"%S c #3E2A1C",
"%T c #3E2A1D",
"%U c #3E2A1E",
"%V c #3E2B19",
"%W c #3E2B1D",
"%X c #3E2B1F",
"%Y c #3E2B21",
"%Z c #3E2C1C",
"%[ c #3E2C1F",
"%] c #3E2C20",
"%^ c #3E2C21",
"%_ c #3E2D1D",
"%` c #3E2D1E",
"%a c #3E2D1F",
"%b c #3E2D21",
"%c c #3E2D22",
"%d c #3E2E1B",
"%e c #3E2E1C",
"%f c #3E2E1F",
"%g c #3E2E20",
"%h c #3E2E21",
"%i c #3E2E23",
"%j c #3E2F1B",
"%k c #3E2F1C",
"%l c #3E2F21",
"%m c #3E2F22",
"%n c #3E2F23",
"%o c #3E2F24",
"%p c #3E2F26",
"%q c #3E301F",
"%r c #3E3022",
"%s c #3E3023",
"%t c #3E3025",
"%u c #3E3121",
"%v c #3E3122",
"%w c #3E3126",
"%x c #3E3224",
"%y c #3E3225",
"%z c #3E3226",
"%{ c #3E3228",
"%| c #3E3323",
"%} c #3E3324",
"%~ c #3E3423",
"&! c #3E3529",
"&# c #3F2618",
"&$ c #3F2817",
"&% c #3F2819",
"&& c #3F2916",
"&' c #3F2919",
"&( c #3F291B",
"&) c #3F2A18",
"&* c #3F2A19",
"&+ c #3F2A1D",
"&, c #3F2A1E",
"&- c #3F2B1C",
"&. c #3F2B1D",
"&/ c #3F2B1E",
"&0 c #3F2C1C",
"&1 c #3F2C1F",
"&2 c #3F2C20",
"&3 c #3F2C21",
"&4 c #3F2D1D",
"&5 c #3F2D1E",
"&6 c #3F2D21",
"&7 c #3F2D22",
"&8 c #3F2E1D",
"&9 c #3F2E1F",
"&: c #3F2E21",
"&; c #3F2E22",
"&< c #3F2E23",
"&= c #3F2F1D",
"&> c #3F2F22",
"&? c #3F2F23",
"&@ c #3F301F",
"&A c #3F3023",
"&B c #3F3123",
"&C c #3F3124",
"&D c #3F3127",
"&E c #3F3222",
"&F c #3F3225",
"&G c #3F3226",
"&H c #3F3227",
"&I c #3F3228",
"&J c #3F3229",
"&K c #3F3326",
"&L c #3F3422",
"&M c #3F3423",
"&N c #3F3424",
"&O c #3F3426",
"&P c #3F342A",
"&Q c #3F352B",
"&R c #402515",
"&S c #402717",
"&T c #402819",
"&U c #402918",
"&V c #40291A",
"&W c #40291B",
"&X c #402A1B",
"&Y c #402A1E",
"&Z c #402B1C",
"&[ c #402B1D",
"&] c #402B1E",
"&^ c #402B1F",
"&_ c #402B20",
"&` c #402C1A",
"&a c #402C1B",
"&b c #402C1C",
"&c c #402C1D",
"&d c #402C1E",
"&e c #402C1F",
"&f c #402D1B",
"&g c #402D1C",
"&h c #402D1D",
"&i c #402D1E",
"&j c #402D1F",
"&k c #402D20",
"&l c #402D21",
"&m c #402E1B",
"&n c #402E1E",
"&o c #402E1F",
"&p c #402E21",
"&q c #402E22",
"&r c #402E23",
"&s c #402F1F",
"&t c #402F20",
"&u c #402F21",
"&v c #402F22",
"&w c #402F23",
"&x c #402F24",
"&y c #40301D",
"&z c #40301F",
"&{ c #403020",
"&| c #403021",
"&} c #403023",
"&~ c #403024",
"'! c #403027",
"'# c #40311E",
"'$ c #40311F",
"'% c #403122",
"'& c #403123",
"'' c #403124",
"'( c #403125",
"') c #403221",
"'* c #403223",
"'+ c #403224",
"', c #403225",
"'- c #403226",
"'. c #403228",
"'/ c #403323",
"'0 c #403327",
"'1 c #403426",
"'2 c #40342A",
"'3 c #403528",
"'4 c #403723",
"'5 c #412715",
"'6 c #412917",
"'7 c #41291A",
"'8 c #412A19",
"'9 c #412B1B",
"': c #412B1E",
"'; c #412B1F",
"'< c #412C1D",
"'= c #412C1F",
"'> c #412D1B",
"'? c #412D1D",
"'@ c #412D1E",
"'A c #412D1F",
"'B c #412D20",
"'C c #412D21",
"'D c #412D22",
"'E c #412E1B",
"'F c #412E1D",
"'G c #412E1E",
"'H c #412E20",
"'I c #412E21",
"'J c #412E22",
"'K c #412F1B",
"'L c #412F1F",
"'M c #412F20",
"'N c #412F21",
"'O c #412F22",
"'P c #412F23",
"'Q c #412F24",
"'R c #412F25",
"'S c #413021",
"'T c #413024",
"'U c #413025",
"'V c #41311F",
"'W c #413121",
"'X c #413124",
"'Y c #413126",
"'Z c #41321D",
"'[ c #413221",
"'] c #413222",
"'^ c #413223",
"'_ c #413224",
"'` c #413225",
"'a c #413227",
"'b c #413228",
"'c c #413321",
"'d c #413323",
"'e c #413324",
"'f c #413326",
"'g c #413327",
"'h c #413328",
"'i c #413329",
"'j c #413424",
"'k c #413427",
"'l c #413523",
"'m c #413527",
"'n c #413628",
"'o c #413629",
"'p c #413723",
"'q c #413727",
"'r c #413829",
"'s c #422818",
"'t c #42291C",
"'u c #422A19",
"'v c #422A1C",
"'w c #422B1C",
"'x c #422B1D",
"'y c #422C1C",
"'z c #422C1D",
"'{ c #422C20",
"'| c #422D1D",
"'} c #422D1E",
"'~ c #422D1F",
"(! c #422D20",
"(# c #422D21",
"($ c #422E1D",
"(% c #422E20",
"(& c #422E21",
"(' c #422F1E",
"(( c #422F1F",
"() c #422F20",
"(* c #422F21",
"(+ c #422F22",
"(, c #422F23",
"(- c #42301C",
"(. c #42301F",
"(/ c #423020",
"(0 c #423021",
"(1 c #423022",
"(2 c #423023",
"(3 c #423024",
"(4 c #423025",
"(5 c #423026",
"(6 c #423122",
"(7 c #423123",
"(8 c #423124",
"(9 c #423125",
"(: c #423126",
"(; c #423221",
"(< c #423222",
"(= c #423225",
"(> c #423322",
"(? c #423325",
"(@ c #423327",
"(A c #423328",
"(B c #423329",
"(C c #423420",
"(D c #423422",
"(E c #423423",
"(F c #423426",
"(G c #423428",
"(H c #423521",
"(I c #423522",
"(J c #423524",
"(K c #423526",
"(L c #423529",
"(M c #42352B",
"(N c #42362C",
"(O c #42372A",
"(P c #42382D",
"(Q c #432918",
"(R c #432A18",
"(S c #432C16",
"(T c #432C1A",
"(U c #432C1B",
"(V c #432C1D",
"(W c #432C1E",
"(X c #432D1A",
"(Y c #432D1D",
"(Z c #432E1C",
"([ c #432E1E",
"(] c #432E1F",
"(^ c #432E20",
"(_ c #432F1E",
"(` c #432F20",
"(a c #432F21",
"(b c #432F22",
"(c c #43301D",
"(d c #43301F",
"(e c #433020",
"(f c #433021",
"(g c #433022",
"(h c #433023",
"(i c #433024",
"(j c #433026",
"(k c #433120",
"(l c #433121",
"(m c #433122",
"(n c #433123",
"(o c #433124",
"(p c #433125",
"(q c #433126",
"(r c #433127",
"(s c #433221",
"(t c #433222",
"(u c #433223",
"(v c #433224",
"(w c #433225",
"(x c #433226",
"(y c #433227",
"(z c #433321",
"({ c #433322",
"(| c #433323",
"(} c #433324",
"(~ c #433325",
")! c #433326",
")# c #433327",
")$ c #433328",
")% c #43341E",
")& c #43341F",
")' c #433423",
")( c #433424",
")) c #433426",
")* c #433427",
")+ c #433428",
"), c #43342A",
")- c #43342B",
"). c #433521",
")/ c #433524",
")0 c #433525",
")1 c #433526",
")2 c #433527",
")3 c #433624",
")4 c #433626",
")5 c #433627",
")6 c #433629",
")7 c #433724",
")8 c #433729",
")9 c #43372B",
"): c #43372D",
"); c #43382B",
")< c #44291A",
")= c #442B1A",
")> c #442B1C",
")? c #442C1E",
")@ c #442D16",
")A c #442D1E",
")B c #442D1F",
")C c #442E1E",
")D c #442E20",
")E c #442E22",
")F c #442F1B",
")G c #442F1E",
")H c #442F20",
")I c #442F21",
")J c #442F23",
")K c #44301D",
")L c #44301E",
")M c #443022",
")N c #443023",
")O c #443121",
")P c #443122",
")Q c #443123",
")R c #443124",
")S c #443125",
")T c #443126",
")U c #44321F",
")V c #443221",
")W c #443222",
")X c #443223",
")Y c #443224",
")Z c #443226",
")[ c #443227",
")] c #443320",
")^ c #443321",
")_ c #443324",
")` c #443325",
")a c #443422",
")b c #443423",
")c c #443425",
")d c #443426",
")e c #443427",
")f c #443429",
")g c #44342B",
")h c #443523",
")i c #443524",
")j c #443528",
")k c #44352B",
")l c #44352C",
")m c #443622",
")n c #443625",
")o c #443626",
")p c #443627",
")q c #44362C",
")r c #443726",
")s c #44372C",
")t c #443826",
")u c #443827",
")v c #443929",
")w c #44392C",
")x c #443A2A",
")y c #443B2B",
")z c #443C2B",
"){ c #452D1D",
")| c #452E1A",
")} c #452E1E",
")~ c #452E1F",
"*! c #452E20",
"*# c #452E21",
"*$ c #452F1F",
"*% c #452F20",
"*& c #452F21",
"*' c #453022",
"*( c #45311F",
"*) c #453120",
"** c #453123",
"*+ c #453124",
"*, c #453127",
"*- c #453222",
"*. c #453223",
"*/ c #453224",
"*0 c #453225",
"*1 c #453226",
"*2 c #453323",
"*3 c #453324",
"*4 c #453326",
"*5 c #453327",
"*6 c #453328",
"*7 c #453425",
"*8 c #453426",
"*9 c #453427",
"*: c #453428",
"*; c #453527",
"*< c #453528",
"*= c #453529",
"*> c #45352C",
"*? c #453625",
"*@ c #45362D",
"*A c #453724",
"*B c #453729",
"*C c #45372B",
"*D c #453825",
"*E c #453828",
"*F c #45382D",
"*G c #453926",
"*H c #453927",
"*I c #453929",
"*J c #45392C",
"*K c #453A2D",
"*L c #453B2B",
"*M c #453B2F",
"*N c #453C31",
"*O c #462C1C",
"*P c #462E1C",
"*Q c #462E1D",
"*R c #462E21",
"*S c #462F1C",
"*T c #462F1F",
"*U c #462F20",
"*V c #462F21",
"*W c #46301C",
"*X c #46301E",
"*Y c #463020",
"*Z c #463021",
"*[ c #463024",
"*] c #463120",
"*^ c #463121",
"*_ c #463122",
"*` c #463123",
"*a c #463124",
"*b c #463125",
"*c c #463220",
"*d c #463224",
"*e c #463225",
"*f c #463322",
"*g c #463323",
"*h c #463326",
"*i c #463327",
"*j c #463420",
"*k c #463423",
"*l c #463424",
"*m c #463425",
"*n c #463426",
"*o c #463427",
"*p c #463428",
"*q c #463429",
"*r c #463522",
"*s c #463524",
"*t c #463526",
"*u c #463529",
"*v c #46352A",
"*w c #46361F",
"*x c #463623",
"*y c #463624",
"*z c #463628",
"*{ c #463629",
"*| c #46362A",
"*} c #46362B",
"*~ c #46362C",
"+! c #463725",
"+# c #463726",
"+$ c #463727",
"+% c #463728",
"+& c #463729",
"+' c #46372A",
"+( c #46372B",
"+) c #46372C",
"+* c #46372D",
"++ c #463829",
"+, c #46382A",
"+- c #46382B",
"+. c #463831",
"+/ c #46392A",
"+0 c #46392E",
"+1 c #463A30",
"+2 c #463B2D",
"+3 c #463C27",
"+4 c #463C31",
"+5 c #464229",
"+6 c #472D1D",
"+7 c #472D1E",
"+8 c #472E1D",
"+9 c #472E23",
"+: c #472F1F",
"+; c #472F21",
"+< c #47301F",
"+= c #473021",
"+> c #473022",
"+? c #47311F",
"+@ c #473121",
"+A c #473122",
"+B c #473123",
"+C c #473124",
"+D c #473222",
"+E c #473223",
"+F c #473224",
"+G c #473225",
"+H c #473321",
"+I c #473322",
"+J c #473323",
"+K c #473324",
"+L c #473325",
"+M c #473326",
"+N c #473328",
"+O c #473419",
"+P c #473421",
"+Q c #473423",
"+R c #473424",
"+S c #473425",
"+T c #473426",
"+U c #473427",
"+V c #473428",
"+W c #473522",
"+X c #473523",
"+Y c #473524",
"+Z c #473525",
"+[ c #473526",
"+] c #473528",
"+^ c #473529",
"+_ c #47352A",
"+` c #473625",
"+a c #473626",
"+b c #473627",
"+c c #473628",
"+d c #473629",
"+e c #47362C",
"+f c #473725",
"+g c #473726",
"+h c #473727",
"+i c #473729",
"+j c #47372A",
"+k c #47372B",
"+l c #47372C",
"+m c #473822",
"+n c #473825",
"+o c #473826",
"+p c #473827",
"+q c #47382A",
"+r c #47382B",
"+s c #47382C",
"+t c #47382E",
"+u c #473925",
"+v c #473929",
"+w c #47392A",
"+x c #47392B",
"+y c #47392F",
"+z c #473A29",
"+{ c #473A2A",
"+| c #473A2B",
"+} c #473A2D",
"+~ c #473B26",
",! c #473B27",
",# c #473B28",
",$ c #473B29",
",% c #473B2C",
",& c #473B2D",
",' c #473C25",
",( c #473D2F",
",) c #473F2B",
",* c #474127",
",+ c #482E1C",
",, c #482F19",
",- c #482F1F",
",. c #482F21",
",/ c #48301E",
",0 c #483021",
",1 c #48311E",
",2 c #48311F",
",3 c #483120",
",4 c #483121",
",5 c #483122",
",6 c #483123",
",7 c #483223",
",8 c #483225",
",9 c #483226",
",: c #48331D",
",; c #483322",
",< c #483323",
",= c #483324",
",> c #483325",
",? c #483326",
",@ c #483327",
",A c #483420",
",B c #483422",
",C c #483423",
",D c #483424",
",E c #483426",
",F c #483427",
",G c #483521",
",H c #483526",
",I c #483527",
",J c #483528",
",K c #483529",
",L c #483626",
",M c #483627",
",N c #483628",
",O c #48362A",
",P c #48362B",
",Q c #483726",
",R c #483727",
",S c #483729",
",T c #48372C",
",U c #483822",
",V c #483826",
",W c #483827",
",X c #483829",
",Y c #48382B",
",Z c #48382C",
",[ c #48382D",
",] c #483927",
",^ c #483928",
",_ c #48392B",
",` c #48392C",
",a c #48392D",
",b c #48392F",
",c c #483930",
",d c #483A2B",
",e c #483A2C",
",f c #483A2E",
",g c #483B29",
",h c #483B2B",
",i c #483B2C",
",j c #483B2D",
",k c #483B2E",
",l c #483B34",
",m c #483C2D",
",n c #483D30",
",o c #483D31",
",p c #492E1D",
",q c #492F1B",
",r c #492F1E",
",s c #49301D",
",t c #493020",
",u c #493022",
",v c #49311E",
",w c #493122",
",x c #493221",
",y c #493223",
",z c #49331E",
",{ c #49331F",
",| c #493323",
",} c #493324",
",~ c #493325",
"-! c #493326",
"-# c #493420",
"-$ c #493424",
"-% c #493425",
"-& c #493427",
"-' c #493429",
"-( c #493520",
"-) c #493522",
"-* c #493523",
"-+ c #493524",
"-, c #493525",
"-- c #493526",
"-. c #493527",
"-/ c #493528",
"-0 c #493626",
"-1 c #493628",
"-2 c #493629",
"-3 c #49362A",
"-4 c #493726",
"-5 c #493727",
"-6 c #493728",
"-7 c #493729",
"-8 c #49372A",
"-9 c #49372B",
"-: c #49372C",
"-; c #493826",
"-< c #49382A",
"-= c #49382C",
"-> c #49382D",
"-? c #49382E",
"-@ c #493926",
"-A c #493927",
"-B c #493928",
"-C c #49392B",
"-D c #49392C",
"-E c #49392E",
"-F c #49392F",
"-G c #493A28",
"-H c #493A29",
"-I c #493A2A",
"-J c #493A2B",
"-K c #493A2C",
"-L c #493A2D",
"-M c #493A2E",
"-N c #493A2F",
"-O c #493A31",
"-P c #493B2B",
"-Q c #493B2C",
"-R c #493B2F",
"-S c #493B30",
"-T c #493C28",
"-U c #493C2C",
"-V c #493C31",
"-W c #493C32",
"-X c #493D2C",
"-Y c #49402B",
"-Z c #4A301E",
"-[ c #4A3020",
"-] c #4A311B",
"-^ c #4A3120",
"-_ c #4A321F",
"-` c #4A3223",
"-a c #4A3224",
"-b c #4A3225",
"-c c #4A3321",
"-d c #4A3322",
"-e c #4A3323",
"-f c #4A3325",
"-g c #4A3326",
"-h c #4A3424",
"-i c #4A3426",
"-j c #4A3428",
"-k c #4A351E",
"-l c #4A3523",
"-m c #4A3525",
"-n c #4A3526",
"-o c #4A3527",
"-p c #4A3528",
"-q c #4A3628",
"-r c #4A3629",
"-s c #4A362A",
"-t c #4A3725",
"-u c #4A3726",
"-v c #4A3727",
"-w c #4A3728",
"-x c #4A3729",
"-y c #4A372A",
"-z c #4A372B",
"-{ c #4A381F",
"-| c #4A3827",
"-} c #4A382B",
"-~ c #4A382C",
".! c #4A382D",
".# c #4A392A",
".$ c #4A392B",
".% c #4A392E",
".& c #4A392F",
".' c #4A3A2C",
".( c #4A3A2D",
".) c #4A3B29",
".* c #4A3B2B",
".+ c #4A3B2C",
"., c #4A3B2E",
".- c #4A3B2F",
".. c #4A3C2C",
"./ c #4A3C2E",
".0 c #4A3D2D",
".1 c #4A3D2E",
".2 c #4A3D30",
".3 c #4A3D32",
".4 c #4A3F2D",
".5 c #4A3F2E",
".6 c #4A3F32",
".7 c #4A412F",
".8 c #4B2F1C",
".9 c #4B3220",
".: c #4B3221",
".; c #4B3222",
".< c #4B3223",
".= c #4B3321",
".> c #4B3322",
".? c #4B3323",
".@ c #4B3324",
".A c #4B3325",
".B c #4B3424",
".C c #4B3425",
".D c #4B3426",
".E c #4B3520",
".F c #4B3522",
".G c #4B3524",
".H c #4B3525",
".I c #4B3526",
".J c #4B3527",
".K c #4B3529",
".L c #4B3622",
".M c #4B3626",
".N c #4B3627",
".O c #4B3628",
".P c #4B3629",
".Q c #4B3723",
".R c #4B3725",
".S c #4B3726",
".T c #4B3727",
".U c #4B3728",
".V c #4B3729",
".W c #4B372A",
".X c #4B3826",
".Y c #4B3827",
".Z c #4B3829",
".[ c #4B382A",
".] c #4B382C",
".^ c #4B3926",
"._ c #4B3927",
".` c #4B3929",
".a c #4B392A",
".b c #4B392D",
".c c #4B392F",
".d c #4B3A2A",
".e c #4B3A2C",
".f c #4B3A2E",
".g c #4B3A2F",
".h c #4B3A30",
".i c #4B3B26",
".j c #4B3B28",
".k c #4B3B29",
".l c #4B3B2A",
".m c #4B3B2D",
".n c #4B3B2F",
".o c #4B3C2D",
".p c #4B3C32",
".q c #4B3D2C",
".r c #4B3D2E",
".s c #4B3D31",
".t c #4B3D32",
".u c #4B3E2B",
".v c #4B3E2E",
".w c #4B3E2F",
".x c #4B3E31",
".y c #4B3E32",
".z c #4B3E33",
".{ c #4B3E35",
".| c #4B3F30",
".} c #4B4232",
".~ c #4C3223",
"/! c #4C3225",
"/# c #4C3321",
"/$ c #4C3325",
"/% c #4C3421",
"/& c #4C3422",
"/' c #4C3425",
"/( c #4C3427",
"/) c #4C3521",
"/* c #4C3522",
"/+ c #4C3523",
"/, c #4C3526",
"/- c #4C3527",
"/. c #4C3621",
"// c #4C3626",
"/0 c #4C3627",
"/1 c #4C3629",
"/2 c #4C3726",
"/3 c #4C3727",
"/4 c #4C3728",
"/5 c #4C3729",
"/6 c #4C3826",
"/7 c #4C382A",
"/8 c #4C382B",
"/9 c #4C382E",
"/: c #4C3928",
"/; c #4C3929",
"/< c #4C392A",
"/= c #4C392B",
"/> c #4C392C",
"/? c #4C3A28",
"/@ c #4C3A2A",
"/A c #4C3A2B",
"/B c #4C3A2C",
"/C c #4C3A2E",
"/D c #4C3A2F",
"/E c #4C3A30",
"/F c #4C3B2A",
"/G c #4C3B2B",
"/H c #4C3B2D",
"/I c #4C3B2E",
"/J c #4C3B2F",
"/K c #4C3B30",
"/L c #4C3B31",
"/M c #4C3C2A",
"/N c #4C3C2E",
"/O c #4C3C2F",
"/P c #4C3C30",
"/Q c #4C3D2B",
"/R c #4C3D2C",
"/S c #4C3D2D",
"/T c #4C3D2E",
"/U c #4C3D2F",
"/V c #4C3D30",
"/W c #4C3D31",
"/X c #4C3D33",
"/Y c #4C3D34",
"/Z c #4C3E2B",
"/[ c #4C3E2E",
"/] c #4C3E2F",
"/^ c #4C3E32",
"/_ c #4C3F2A",
"/` c #4C3F37",
"/a c #4C4034",
"/b c #4C4333",
"/c c #4C4531",
"/d c #4D3121",
"/e c #4D3322",
"/f c #4D3323",
"/g c #4D3324",
"/h c #4D3422",
"/i c #4D3423",
"/j c #4D3426",
"/k c #4D3523",
"/l c #4D3524",
"/m c #4D3525",
"/n c #4D3526",
"/o c #4D3527",
"/p c #4D3624",
"/q c #4D3626",
"/r c #4D3627",
"/s c #4D3628",
"/t c #4D3723",
"/u c #4D3727",
"/v c #4D3728",
"/w c #4D3729",
"/x c #4D3825",
"/y c #4D3826",
"/z c #4D3828",
"/{ c #4D3829",
"/| c #4D382A",
"/} c #4D3928",
"/~ c #4D3929",
"0! c #4D392B",
"0# c #4D392C",
"0$ c #4D392D",
"0% c #4D3A27",
"0& c #4D3A29",
"0' c #4D3A2A",
"0( c #4D3A2B",
"0) c #4D3A2C",
"0* c #4D3A2D",
"0+ c #4D3A2E",
"0, c #4D3B27",
"0- c #4D3B29",
"0. c #4D3B2A",
"0/ c #4D3B2B",
"00 c #4D3B2C",
"01 c #4D3B2D",
"02 c #4D3B2E",
"03 c #4D3B30",
"04 c #4D3C2B",
"05 c #4D3C2D",
"06 c #4D3C2E",
"07 c #4D3C2F",
"08 c #4D3C30",
"09 c #4D3C31",
"0: c #4D3D2A",
"0; c #4D3D2C",
"0< c #4D3D2D",
"0= c #4D3D2F",
"0> c #4D3D30",
"0? c #4D3D31",
"0@ c #4D3D33",
"0A c #4D3D34",
"0B c #4D3E28",
"0C c #4D3E2D",
"0D c #4D3E30",
"0E c #4D3E31",
"0F c #4D3F30",
"0G c #4D3F31",
"0H c #4D4030",
"0I c #4D4031",
"0J c #4D4032",
"0K c #4D4035",
"0L c #4D412F",
"0M c #4D4130",
"0N c #4D4135",
"0O c #4E331F",
"0P c #4E3523",
"0Q c #4E3524",
"0R c #4E3527",
"0S c #4E3528",
"0T c #4E3624",
"0U c #4E3627",
"0V c #4E3724",
"0W c #4E3726",
"0X c #4E3727",
"0Y c #4E3728",
"0Z c #4E3729",
"0[ c #4E3824",
"0] c #4E3828",
"0^ c #4E3829",
"0_ c #4E382A",
"0` c #4E382B",
"0a c #4E3926",
"0b c #4E3929",
"0c c #4E392A",
"0d c #4E392B",
"0e c #4E3A29",
"0f c #4E3A2A",
"0g c #4E3A2C",
"0h c #4E3A2D",
"0i c #4E3B29",
"0j c #4E3B2B",
"0k c #4E3B2C",
"0l c #4E3B2D",
"0m c #4E3B2E",
"0n c #4E3B2F",
"0o c #4E3B31",
"0p c #4E3B32",
"0q c #4E3C2C",
"0r c #4E3C2D",
"0s c #4E3C2E",
"0t c #4E3C2F",
"0u c #4E3C31",
"0v c #4E3D29",
"0w c #4E3D2A",
"0x c #4E3D2C",
"0y c #4E3D2D",
"0z c #4E3D2E",
"0{ c #4E3D2F",
"0| c #4E3D30",
"0} c #4E3D31",
"0~ c #4E3D32",
"1! c #4E3E2C",
"1# c #4E3E2D",
"1$ c #4E3E2F",
"1% c #4E3E30",
"1& c #4E3E31",
"1' c #4E3E33",
"1( c #4E3E35",
"1) c #4E3F2C",
"1* c #4E3F2D",
"1+ c #4E3F2F",
"1, c #4E3F30",
"1- c #4E3F33",
"1. c #4E3F36",
"1/ c #4E402F",
"10 c #4E4031",
"11 c #4E4033",
"12 c #4E4035",
"13 c #4E412D",
"14 c #4E4136",
"15 c #4E4332",
"16 c #4E4333",
"17 c #4E4335",
"18 c #4F3321",
"19 c #4F3322",
"1: c #4F3421",
"1; c #4F3425",
"1< c #4F3625",
"1= c #4F3626",
"1> c #4F371E",
"1? c #4F3721",
"1@ c #4F3726",
"1A c #4F3729",
"1B c #4F3828",
"1C c #4F3829",
"1D c #4F382A",
"1E c #4F3929",
"1F c #4F392A",
"1G c #4F392B",
"1H c #4F392C",
"1I c #4F3A28",
"1J c #4F3A29",
"1K c #4F3A2A",
"1L c #4F3A2B",
"1M c #4F3A2C",
"1N c #4F3A2D",
"1O c #4F3B29",
"1P c #4F3B2A",
"1Q c #4F3B2B",
"1R c #4F3B2C",
"1S c #4F3B2D",
"1T c #4F3B2E",
"1U c #4F3B2F",
"1V c #4F3C29",
"1W c #4F3C2B",
"1X c #4F3C2C",
"1Y c #4F3C2D",
"1Z c #4F3C2F",
"1[ c #4F3C30",
"1] c #4F3C33",
"1^ c #4F3D29",
"1_ c #4F3D2B",
"1` c #4F3D2D",
"1a c #4F3D2E",
"1b c #4F3D30",
"1c c #4F3D32",
"1d c #4F3E2B",
"1e c #4F3E2C",
"1f c #4F3E2D",
"1g c #4F3E30",
"1h c #4F3E32",
"1i c #4F3E33",
"1j c #4F3F2D",
"1k c #4F3F2E",
"1l c #4F3F31",
"1m c #4F3F32",
"1n c #4F3F34",
"1o c #4F3F35",
"1p c #4F402E",
"1q c #4F4030",
"1r c #4F4031",
"1s c #4F4032",
"1t c #4F4036",
"1u c #4F4135",
"1v c #4F422F",
"1w c #4F4232",
"1x c #4F4236",
"1y c #4F4335",
"1z c #4F4431",
"1{ c #4F4433",
"1| c #4F4535",
"1} c #4F4638",
"1~ c #503624",
"2! c #503625",
"2# c #503725",
"2$ c #503727",
"2% c #503728",
"2& c #503729",
"2' c #503823",
"2( c #503827",
"2) c #503828",
"2* c #503829",
"2+ c #50382B",
"2, c #503928",
"2- c #503929",
"2. c #50392A",
"2/ c #50392B",
"20 c #503A27",
"21 c #503A2A",
"22 c #503A2B",
"23 c #503A2E",
"24 c #503B25",
"25 c #503B2A",
"26 c #503B2C",
"27 c #503B2D",
"28 c #503B2E",
"29 c #503C2B",
"2: c #503C2C",
"2; c #503C2D",
"2< c #503C2E",
"2= c #503C2F",
"2> c #503D2A",
"2? c #503D2B",
"2@ c #503D2C",
"2A c #503D2D",
"2B c #503D2E",
"2C c #503D2F",
"2D c #503D30",
"2E c #503D31",
"2F c #503E2B",
"2G c #503E2C",
"2H c #503E2E",
"2I c #503E2F",
"2J c #503E31",
"2K c #503E32",
"2L c #503E33",
"2M c #503F2B",
"2N c #503F2F",
"2O c #503F33",
"2P c #503F34",
"2Q c #50402C",
"2R c #50402D",
"2S c #504030",
"2T c #504031",
"2U c #504035",
"2V c #504130",
"2W c #504131",
"2X c #504132",
"2Y c #504134",
"2Z c #504135",
"2[ c #504138",
"2] c #504231",
"2^ c #504233",
"2_ c #504237",
"2` c #50432E",
"2a c #504338",
"2b c #50473C",
"2c c #513521",
"2d c #513722",
"2e c #513725",
"2f c #513727",
"2g c #513826",
"2h c #513827",
"2i c #513927",
"2j c #513928",
"2k c #51392A",
"2l c #51392B",
"2m c #51392C",
"2n c #513A25",
"2o c #513A29",
"2p c #513A2B",
"2q c #513B2A",
"2r c #513B2B",
"2s c #513B2C",
"2t c #513B2D",
"2u c #513B2F",
"2v c #513C29",
"2w c #513C2D",
"2x c #513C2E",
"2y c #513C30",
"2z c #513D2B",
"2{ c #513D2D",
"2| c #513D2E",
"2} c #513D2F",
"2~ c #513D30",
"3! c #513E2B",
"3# c #513E2C",
"3$ c #513E2D",
"3% c #513E2E",
"3& c #513E2F",
"3' c #513E30",
"3( c #513E31",
"3) c #513E32",
"3* c #513F2F",
"3+ c #513F30",
"3, c #513F31",
"3- c #513F32",
"3. c #513F33",
"3/ c #513F34",
"30 c #51402D",
"31 c #51402F",
"32 c #514031",
"33 c #514032",
"34 c #514034",
"35 c #514036",
"36 c #51412E",
"37 c #514133",
"38 c #514134",
"39 c #514135",
"3: c #514137",
"3; c #51422F",
"3< c #514230",
"3= c #514231",
"3> c #514233",
"3? c #51432F",
"3@ c #514334",
"3A c #514335",
"3B c #514430",
"3C c #514434",
"3D c #514534",
"3E c #514535",
"3F c #51453A",
"3G c #514735",
"3H c #523524",
"3I c #523726",
"3J c #523826",
"3K c #523828",
"3L c #523926",
"3M c #523927",
"3N c #523928",
"3O c #52392A",
"3P c #523A24",
"3Q c #523A2A",
"3R c #523A2B",
"3S c #523B28",
"3T c #523B2A",
"3U c #523B2B",
"3V c #523B2C",
"3W c #523B2D",
"3X c #523C28",
"3Y c #523C2B",
"3Z c #523C2C",
"3[ c #523C2D",
"3] c #523D28",
"3^ c #523D29",
"3_ c #523D2B",
"3` c #523D2D",
"3a c #523D2E",
"3b c #523D2F",
"3c c #523E2C",
"3d c #523E2D",
"3e c #523E2E",
"3f c #523E2F",
"3g c #523E30",
"3h c #523E31",
"3i c #523F2F",
"3j c #523F31",
"3k c #523F32",
"3l c #523F35",
"3m c #524030",
"3n c #524031",
"3o c #524032",
"3p c #524033",
"3q c #524034",
"3r c #524035",
"3s c #524130",
"3t c #524131",
"3u c #524132",
"3v c #524133",
"3w c #524135",
"3x c #524136",
"3y c #524230",
"3z c #524231",
"3{ c #524234",
"3| c #524235",
"3} c #524236",
"3~ c #52432D",
"4! c #524331",
"4# c #524333",
"4$ c #524336",
"4% c #524338",
"4& c #52433A",
"4' c #524430",
"4( c #524434",
"4) c #524535",
"4* c #524537",
"4+ c #524538",
"4, c #52453A",
"4- c #52473A",
"4. c #52483B",
"4/ c #533824",
"40 c #533928",
"41 c #533929",
"42 c #533A26",
"43 c #533A28",
"44 c #533A2B",
"45 c #533A2C",
"46 c #533A2D",
"47 c #533B29",
"48 c #533B2B",
"49 c #533B2C",
"4: c #533C2C",
"4; c #533C2D",
"4< c #533C2E",
"4= c #533D2D",
"4> c #533D2E",
"4? c #533D2F",
"4@ c #533E2A",
"4A c #533E2B",
"4B c #533E2D",
"4C c #533E2F",
"4D c #533E30",
"4E c #533E32",
"4F c #533F2E",
"4G c #533F30",
"4H c #533F31",
"4I c #533F32",
"4J c #533F33",
"4K c #53402B",
"4L c #534030",
"4M c #534031",
"4N c #534032",
"4O c #534033",
"4P c #534034",
"4Q c #534035",
"4R c #534133",
"4S c #534135",
"4T c #534232",
"4U c #534233",
"4V c #534234",
"4W c #534237",
"4X c #534239",
"4Y c #534331",
"4Z c #534332",
"4[ c #534336",
"4] c #534337",
"4^ c #534436",
"4_ c #534437",
"4` c #534439",
"4a c #534533",
"4b c #534534",
"4c c #534537",
"4d c #53453D",
"4e c #534630",
"4f c #534632",
"4g c #534633",
"4h c #534636",
"4i c #534734",
"4j c #53473A",
"4k c #53473B",
"4l c #54392A",
"4m c #543A25",
"4n c #543A27",
"4o c #543A28",
"4p c #543A29",
"4q c #543A2B",
"4r c #543B2A",
"4s c #543C2A",
"4t c #543C2B",
"4u c #543C2C",
"4v c #543C2D",
"4w c #543C2F",
"4x c #543D2C",
"4y c #543D2D",
"4z c #543D2E",
"4{ c #543D2F",
"4| c #543E2A",
"4} c #543E2D",
"4~ c #543E2E",
"5! c #543E2F",
"5# c #543E30",
"5$ c #543F30",
"5% c #543F31",
"5& c #543F32",
"5' c #54402E",
"5( c #54402F",
"5) c #544031",
"5* c #544032",
"5+ c #544033",
"5, c #54412D",
"5- c #54412E",
"5. c #544130",
"5/ c #544131",
"50 c #544132",
"51 c #544133",
"52 c #544134",
"53 c #544232",
"54 c #544233",
"55 c #544234",
"56 c #544237",
"57 c #54432F",
"58 c #544332",
"59 c #544333",
"5: c #544336",
"5; c #544337",
"5< c #544338",
"5= c #544339",
"5> c #544438",
"5? c #544535",
"5@ c #544536",
"5A c #544537",
"5B c #544538",
"5C c #54453A",
"5D c #54463B",
"5E c #544738",
"5F c #544830",
"5G c #544838",
"5H c #544B3C",
"5I c #544D3C",
"5J c #544F38",
"5K c #553A29",
"5L c #553A2B",
"5M c #553B2C",
"5N c #553C2A",
"5O c #553C2C",
"5P c #553C2D",
"5Q c #553D2B",
"5R c #553D2C",
"5S c #553D2D",
"5T c #553D2F",
"5U c #553D30",
"5V c #553E29",
"5W c #553E2C",
"5X c #553E2E",
"5Y c #553E31",
"5Z c #553F26",
"5[ c #553F2B",
"5] c #553F2D",
"5^ c #553F2F",
"5_ c #553F30",
"5` c #553F31",
"5a c #553F33",
"5b c #55402E",
"5c c #55402F",
"5d c #554030",
"5e c #554031",
"5f c #554032",
"5g c #55412F",
"5h c #554130",
"5i c #554131",
"5j c #554132",
"5k c #554133",
"5l c #554134",
"5m c #554233",
"5n c #554234",
"5o c #554235",
"5p c #55432D",
"5q c #554333",
"5r c #554334",
"5s c #554338",
"5t c #554430",
"5u c #554435",
"5v c #554436",
"5w c #554439",
"5x c #55443A",
"5y c #554532",
"5z c #554533",
"5{ c #554534",
"5| c #554537",
"5} c #554538",
"5~ c #55453A",
"6! c #554633",
"6# c #554636",
"6$ c #554637",
"6% c #554639",
"6& c #55463D",
"6' c #554736",
"6( c #554737",
"6) c #554738",
"6* c #554837",
"6+ c #554838",
"6, c #554A37",
"6- c #554A39",
"6. c #554A3D",
"6/ c #554A3E",
"60 c #554B39",
"61 c #563928",
"62 c #563A28",
"63 c #563B2A",
"64 c #563C29",
"65 c #563C2B",
"66 c #563C2C",
"67 c #563D2A",
"68 c #563D2D",
"69 c #563D2E",
"6: c #563E2F",
"6; c #563F2A",
"6< c #563F2E",
"6= c #563F2F",
"6> c #563F30",
"6? c #563F33",
"6@ c #56402B",
"6A c #56402C",
"6B c #564030",
"6C c #564031",
"6D c #564034",
"6E c #56412C",
"6F c #564130",
"6G c #564131",
"6H c #564132",
"6I c #564133",
"6J c #564230",
"6K c #564231",
"6L c #564234",
"6M c #564235",
"6N c #564236",
"6O c #56432F",
"6P c #564334",
"6Q c #564335",
"6R c #564336",
"6S c #56442B",
"6T c #564433",
"6U c #564434",
"6V c #564435",
"6W c #564437",
"6X c #564438",
"6Y c #564534",
"6Z c #564536",
"6[ c #564537",
"6] c #564538",
"6^ c #564539",
"6_ c #56453A",
"6` c #56453B",
"6a c #564634",
"6b c #564636",
"6c c #564637",
"6d c #564638",
"6e c #564639",
"6f c #56463A",
"6g c #564739",
"6h c #56473C",
"6i c #56473D",
"6j c #56483E",
"6k c #564935",
"6l c #56493A",
"6m c #56493B",
"6n c #564A3A",
"6o c #564B38",
"6p c #573B29",
"6q c #573C2C",
"6r c #573D2C",
"6s c #573E2D",
"6t c #573E2E",
"6u c #573E2F",
"6v c #573F2D",
"6w c #573F2E",
"6x c #573F2F",
"6y c #57402D",
"6z c #57402E",
"6{ c #57402F",
"6| c #574031",
"6} c #574032",
"6~ c #574033",
"7! c #574132",
"7# c #57422F",
"7$ c #574231",
"7% c #574232",
"7& c #574233",
"7' c #574234",
"7( c #574235",
"7) c #57432E",
"7* c #574331",
"7+ c #574332",
"7, c #574333",
"7- c #574334",
"7. c #574335",
"7/ c #574336",
"70 c #57442F",
"71 c #574431",
"72 c #574433",
"73 c #574434",
"74 c #574436",
"75 c #574437",
"76 c #574438",
"77 c #574535",
"78 c #574536",
"79 c #574537",
"7: c #574539",
"7; c #57462F",
"7< c #574637",
"7= c #574638",
"7> c #57463A",
"7? c #57463B",
"7@ c #574735",
"7A c #574737",
"7B c #574739",
"7C c #57473A",
"7D c #57473D",
"7E c #574833",
"7F c #57483E",
"7G c #574938",
"7H c #574939",
"7I c #57493A",
"7J c #57493E",
"7K c #574A3A",
"7L c #574B3A",
"7M c #574B3B",
"7N c #574B3C",
"7O c #574C3E",
"7P c #574D3C",
"7Q c #583D29",
"7R c #583D2D",
"7S c #583D2E",
"7T c #583E2D",
"7U c #583E2E",
"7V c #583F2C",
"7W c #583F2E",
"7X c #583F31",
"7Y c #58402B",
"7Z c #58402E",
"7[ c #58402F",
"7] c #584031",
"7^ c #58412D",
"7_ c #58412F",
"7` c #584130",
"7a c #584133",
"7b c #58422E",
"7c c #584233",
"7d c #584237",
"7e c #584331",
"7f c #584332",
"7g c #584333",
"7h c #584334",
"7i c #584336",
"7j c #584432",
"7k c #584436",
"7l c #584437",
"7m c #584532",
"7n c #584537",
"7o c #584538",
"7p c #584637",
"7q c #584639",
"7r c #58463A",
"7s c #58463B",
"7t c #584738",
"7u c #58473A",
"7v c #58473C",
"7w c #584836",
"7x c #584838",
"7y c #584839",
"7z c #58483A",
"7{ c #58483D",
"7| c #584937",
"7} c #584938",
"7~ c #584A3A",
"8! c #584A3C",
"8# c #584A3E",
"8$ c #584A3F",
"8% c #584B39",
"8& c #584B3C",
"8' c #593D2A",
"8( c #593E2B",
"8) c #593F2A",
"8* c #593F2F",
"8+ c #593F30",
"8, c #59402F",
"8- c #594132",
"8. c #59432B",
"8/ c #594333",
"80 c #594334",
"81 c #594434",
"82 c #594437",
"83 c #594533",
"84 c #594537",
"85 c #594538",
"86 c #594539",
"87 c #594635",
"88 c #594637",
"89 c #594638",
"8: c #594639",
"8; c #594738",
"8< c #594739",
"8= c #59473A",
"8> c #594835",
"8? c #59483A",
"8@ c #59483C",
"8A c #59493D",
"8B c #594A38",
"8C c #594A3E",
"8D c #594A3F",
"8E c #594A40",
"8F c #594D3E",
"8G c #5A3E2E",
"8H c #5A3F2F",
"8I c #5A402C",
"8J c #5A402F",
"8K c #5A4030",
"8L c #5A412F",
"8M c #5A4230",
"8N c #5A4231",
"8O c #5A4234",
"8P c #5A4235",
"8Q c #5A4333",
"8R c #5A4334",
"8S c #5A4433",
"8T c #5A4434",
"8U c #5A4435",
"8V c #5A4436",
"8W c #5A4437",
"8X c #5A4438",
"8Y c #5A452E",
"8Z c #5A4533",
"8[ c #5A4537",
"8] c #5A4633",
"8^ c #5A4635",
"8_ c #5A4636",
"8` c #5A4637",
"8a c #5A4638",
"8b c #5A4639",
"8c c #5A4731",
"8d c #5A4736",
"8e c #5A4737",
"8f c #5A4739",
"8g c #5A473A",
"8h c #5A473B",
"8i c #5A4839",
"8j c #5A483B",
"8k c #5A483D",
"8l c #5A493A",
"8m c #5A493B",
"8n c #5A493D",
"8o c #5A4A37",
"8p c #5A4A38",
"8q c #5A4A3D",
"8r c #5A4A3E",
"8s c #5A4B3D",
"8t c #5A4B3F",
"8u c #5A4B40",
"8v c #5A4B41",
"8w c #5A4C3E",
"8x c #5A4C40",
"8y c #5A4F46",
"8z c #5B3F2A",
"8{ c #5B3F2F",
"8| c #5B4030",
"8} c #5B412E",
"8~ c #5B4131",
"9! c #5B4230",
"9# c #5B4231",
"9$ c #5B4232",
"9% c #5B4331",
"9& c #5B4332",
"9' c #5B4333",
"9( c #5B4335",
"9) c #5B4431",
"9* c #5B4435",
"9+ c #5B4436",
"9, c #5B4437",
"9- c #5B4532",
"9. c #5B4534",
"9/ c #5B4535",
"90 c #5B4536",
"91 c #5B4635",
"92 c #5B4636",
"93 c #5B4637",
"94 c #5B4638",
"95 c #5B4639",
"96 c #5B4730",
"97 c #5B4734",
"98 c #5B4735",
"99 c #5B4736",
"9: c #5B4738",
"9; c #5B4739",
"9< c #5B473A",
"9= c #5B4836",
"9> c #5B4837",
"9? c #5B4839",
"9@ c #5B483B",
"9A c #5B4937",
"9B c #5B4939",
"9C c #5B493D",
"9D c #5B493E",
"9E c #5B4A3A",
"9F c #5B4B38",
"9G c #5B4C3A",
"9H c #5B4C3D",
"9I c #5B4C3E",
"9J c #5B4C3F",
"9K c #5B4C42",
"9L c #5B4C43",
"9M c #5B4E42",
"9N c #5B5043",
"9O c #5B5139",
"9P c #5C4030",
"9Q c #5C4231",
"9R c #5C4232",
"9S c #5C4332",
"9T c #5C4432",
"9U c #5C4435",
"9V c #5C4437",
"9W c #5C4531",
"9X c #5C4533",
"9Y c #5C4534",
"9Z c #5C4535",
"9[ c #5C4536",
"9] c #5C4537",
"9^ c #5C4633",
"9_ c #5C4636",
"9` c #5C4637",
"9a c #5C4737",
"9b c #5C4738",
"9c c #5C4838",
"9d c #5C483A",
"9e c #5C483B",
"9f c #5C4938",
"9g c #5C4939",
"9h c #5C493B",
"9i c #5C493C",
"9j c #5C493D",
"9k c #5C493F",
"9l c #5C4A37",
"9m c #5C4A3A",
"9n c #5C4A3F",
"9o c #5C4B3D",
"9p c #5C4C3A",
"9q c #5C4C3F",
"9r c #5C4C42",
"9s c #5C4E3C",
"9t c #5C4F3D",
"9u c #5C4F45",
"9v c #5C5140",
"9w c #5D4130",
"9x c #5D4332",
"9y c #5D4333",
"9z c #5D4431",
"9{ c #5D4432",
"9| c #5D4433",
"9} c #5D4437",
"9~ c #5D4533",
":! c #5D4537",
":# c #5D4631",
":$ c #5D4632",
":% c #5D4635",
":& c #5D4636",
":' c #5D4737",
":( c #5D4738",
":) c #5D4739",
":* c #5D473A",
":+ c #5D4833",
":, c #5D4836",
":- c #5D4839",
":. c #5D483B",
":/ c #5D4936",
":0 c #5D4937",
":1 c #5D4938",
":2 c #5D493A",
":3 c #5D493B",
":4 c #5D493C",
":5 c #5D4A39",
":6 c #5D4A3B",
":7 c #5D4A3C",
":8 c #5D4B38",
":9 c #5D4B39",
":: c #5D4B3A",
":; c #5D4B3B",
":< c #5D4B3C",
":= c #5D4C3C",
":> c #5D4C3D",
":? c #5D4C41",
":@ c #5D4D37",
":A c #5D4D3D",
":B c #5D4E3A",
":C c #5D4E44",
":D c #5D5042",
":E c #5D5247",
":F c #5E4333",
":G c #5E4436",
":H c #5E4533",
":I c #5E4535",
":J c #5E4634",
":K c #5E4635",
":L c #5E4636",
":M c #5E4638",
":N c #5E4739",
":O c #5E473A",
":P c #5E473B",
":Q c #5E4837",
":R c #5E4838",
":S c #5E4839",
":T c #5E4937",
":U c #5E4938",
":V c #5E4939",
":W c #5E493A",
":X c #5E493B",
":Y c #5E493D",
":Z c #5E493E",
":[ c #5E4A38",
":] c #5E4A3B",
":^ c #5E4A3C",
":_ c #5E4A3D",
":` c #5E4A3E",
":a c #5E4B3A",
":b c #5E4B3C",
":c c #5E4B3D",
":d c #5E4B3E",
":e c #5E4C3C",
":f c #5E4D39",
":g c #5E4D3B",
":h c #5E4D3C",
":i c #5E4D3E",
":j c #5E4D3F",
":k c #5E4D42",
":l c #5E4E3D",
":m c #5E4E40",
":n c #5E4E41",
":o c #5E4E45",
":p c #5E4F41",
":q c #5E503C",
":r c #5E5042",
":s c #5E523E",
":t c #5F4332",
":u c #5F4534",
":v c #5F4631",
":w c #5F4735",
":x c #5F4737",
":y c #5F4835",
":z c #5F4836",
":{ c #5F4838",
":| c #5F4839",
":} c #5F483A",
":~ c #5F4934",
";! c #5F4935",
";# c #5F493A",
";$ c #5F4A37",
";% c #5F4A3A",
";& c #5F4A3B",
";' c #5F4A3D",
";( c #5F4B3A",
";) c #5F4B3B",
";* c #5F4B3D",
";+ c #5F4B3E",
";, c #5F4C3C",
";- c #5F4C3D",
";. c #5F4C3E",
";/ c #5F4D3D",
";0 c #5F4D40",
";1 c #5F4D41",
";2 c #5F4E40",
";3 c #5F4F3E",
";4 c #5F4F43",
";5 c #5F5043",
";6 c #5F513E",
";7 c #5F5243",
";8 c #5F5344",
";9 c #604531",
";: c #604533",
";; c #604535",
";< c #604636",
";= c #604735",
";> c #604736",
";? c #604839",
";@ c #604935",
";A c #60493B",
";B c #604A37",
";C c #604A38",
";D c #604A3A",
";E c #604A3B",
";F c #604B38",
";G c #604B3B",
";H c #604B3C",
";I c #604B3D",
";J c #604B3E",
";K c #604B3F",
";L c #604C3B",
";M c #604C3C",
";N c #604C3D",
";O c #604D3A",
";P c #604D3D",
";Q c #604D3F",
";R c #604D40",
";S c #604E3E",
";T c #604E3F",
";U c #604E43",
";V c #604F41",
";W c #605043",
";X c #60513F",
";Y c #605146",
";Z c #60523E",
";[ c #60523F",
";] c #605243",
";^ c #605247",
";_ c #614736",
";` c #614738",
";a c #614838",
";b c #61483A",
";c c #614933",
";d c #614937",
";e c #61493B",
";f c #614A39",
";g c #614A3A",
";h c #614B38",
";i c #614B3B",
";j c #614B3C",
";k c #614C37",
";l c #614C3B",
";m c #614C3D",
";n c #614D3B",
";o c #614D3D",
";p c #614D3F",
";q c #614D40",
";r c #614E3D",
";s c #614E42",
";t c #614F3C",
";u c #614F3E",
";v c #614F42",
";w c #614F43",
";x c #615040",
";y c #615041",
";z c #615042",
";{ c #61513F",
";| c #615143",
";} c #615245",
";~ c #615248",
"<! c #61533F",
"<# c #615345",
"<$ c #624534",
"<% c #624733",
"<& c #624738",
"<' c #624837",
"<( c #624937",
"<) c #62493A",
"<* c #624A39",
"<+ c #624B39",
"<, c #624B3C",
"<- c #624B3D",
"<. c #624C39",
"</ c #624C3B",
"<0 c #624C3C",
"<1 c #624C3D",
"<2 c #624D3E",
"<3 c #624E3C",
"<4 c #624E3D",
"<5 c #624E3F",
"<6 c #624E40",
"<7 c #624E41",
"<8 c #624F3A",
"<9 c #624F40",
"<: c #624F41",
"<; c #625043",
"<< c #62513E",
"<= c #625146",
"<> c #62523C",
"<? c #62523D",
"<@ c #625245",
"<A c #625340",
"<B c #625341",
"<C c #625745",
"<D c #63493C",
"<E c #634A39",
"<F c #634B39",
"<G c #634B3A",
"<H c #634C35",
"<I c #634C39",
"<J c #634C3D",
"<K c #634C3E",
"<L c #634D3B",
"<M c #634D3E",
"<N c #634D40",
"<O c #634E3C",
"<P c #634E3E",
"<Q c #634E41",
"<R c #634F3F",
"<S c #634F41",
"<T c #635041",
"<U c #635042",
"<V c #635141",
"<W c #635142",
"<X c #635145",
"<Y c #63523E",
"<Z c #635241",
"<[ c #635341",
"<] c #635342",
"<^ c #635347",
"<_ c #635442",
"<` c #635449",
"<a c #63544A",
"<b c #644634",
"<c c #644938",
"<d c #644B38",
"<e c #644B39",
"<f c #644B3D",
"<g c #644C3C",
"<h c #644C3D",
"<i c #644D3A",
"<j c #644D3C",
"<k c #644D3E",
"<l c #644D3F",
"<m c #644E3E",
"<n c #644E3F",
"<o c #644E41",
"<p c #644F3E",
"<q c #644F40",
"<r c #644F41",
"<s c #644F42",
"<t c #64503E",
"<u c #64503F",
"<v c #645040",
"<w c #645043",
"<x c #645141",
"<y c #645142",
"<z c #645143",
"<{ c #645144",
"<| c #645145",
"<} c #645242",
"<~ c #645244",
"=! c #645342",
"=# c #645343",
"=$ c #645347",
"=% c #645442",
"=& c #645547",
"=' c #645648",
"=( c #654A38",
"=) c #654C3C",
"=* c #654C3D",
"=+ c #654C3E",
"=, c #654D3C",
"=- c #654E3B",
"=. c #654E3F",
"=/ c #654F40",
"=0 c #65503E",
"=1 c #65503F",
"=2 c #655040",
"=3 c #655041",
"=4 c #655043",
"=5 c #65513F",
"=6 c #655140",
"=7 c #655142",
"=8 c #655143",
"=9 c #655245",
"=: c #655246",
"=; c #655344",
"=< c #655441",
"== c #655445",
"=> c #655449",
"=? c #655544",
"=@ c #655644",
"=A c #655646",
"=B c #655649",
"=C c #655848",
"=D c #664A37",
"=E c #664B38",
"=F c #664D3B",
"=G c #664D3C",
"=H c #664E39",
"=I c #664F3F",
"=J c #665143",
"=K c #665240",
"=L c #665244",
"=M c #665245",
"=N c #665343",
"=O c #665347",
"=P c #66543D",
"=Q c #665443",
"=R c #665542",
"=S c #665545",
"=T c #665546",
"=U c #66554A",
"=V c #665645",
"=W c #66574A",
"=X c #665A4B",
"=Y c #674C38",
"=Z c #674D3D",
"=[ c #674E38",
"=] c #674E3D",
"=^ c #674F3F",
"=_ c #674F41",
"=` c #67503D",
"=a c #675042",
"=b c #67513E",
"=c c #675141",
"=d c #67523F",
"=e c #675244",
"=f c #675245",
"=g c #675343",
"=h c #675345",
"=i c #675542",
"=j c #675546",
"=k c #675547",
"=l c #675649",
"=m c #67584B",
"=n c #67594B",
"=o c #684C38",
"=p c #684E39",
"=q c #684E3A",
"=r c #684F40",
"=s c #685042",
"=t c #685143",
"=u c #685243",
"=v c #685342",
"=w c #685343",
"=x c #685344",
"=y c #685442",
"=z c #685447",
"={ c #685545",
"=| c #685547",
"=} c #685548",
"=~ c #685647",
">! c #685845",
"># c #685B4F",
">$ c #694E3E",
">% c #694F3D",
">& c #695140",
">' c #69523E",
">( c #695245",
">) c #695343",
">* c #695344",
">+ c #69543E",
">, c #695445",
">- c #695446",
">. c #695544",
">/ c #695547",
">0 c #695548",
">1 c #695647",
">2 c #69564B",
">3 c #695747",
">4 c #695749",
">5 c #695847",
">6 c #695A4A",
">7 c #695B4E",
">8 c #695E4D",
">9 c #6A503B",
">: c #6A5040",
">; c #6A5140",
">< c #6A5141",
">= c #6A5243",
">> c #6A5341",
">? c #6A5343",
">@ c #6A5444",
">A c #6A5544",
">B c #6A5546",
">C c #6A5547",
">D c #6A5647",
">E c #6A5648",
">F c #6A5848",
">G c #6A5949",
">H c #6A594B",
">I c #6A5B4C",
">J c #6B5240",
">K c #6B5342",
">L c #6B5444",
">M c #6B5541",
">N c #6B5548",
">O c #6B5645",
">P c #6B5647",
">Q c #6B5746",
">R c #6B5749",
">S c #6B5849",
">T c #6B5948",
">U c #6B5949",
">V c #6B594B",
">W c #6B5A47",
">X c #6B5A49",
">Y c #6B5A4B",
">Z c #6B5A4C",
">[ c #6B5B49",
">] c #6B5B4B",
">^ c #6B5C48",
">_ c #6B5E4E",
">` c #6C513D",
">a c #6C533E",
">b c #6C5544",
">c c #6C564A",
">d c #6C5845",
">e c #6C584A",
">f c #6C5C49",
">g c #6C5D53",
">h c #6C644D",
">i c #6D5343",
">j c #6D5346",
">k c #6D5440",
">l c #6D5443",
">m c #6D5543",
">n c #6D5645",
">o c #6D5647",
">p c #6D5847",
">q c #6D594C",
">r c #6D594D",
">s c #6D5A4A",
">t c #6D5B47",
">u c #6D5E4C",
">v c #6D5F4F",
">w c #6D6050",
">x c #6E5445",
">y c #6E5644",
">z c #6E5844",
">{ c #6E5848",
">| c #6E5A4B",
">} c #6E5C4C",
">~ c #6E5C4D",
"?! c #6E5E51",
"?# c #6F543F",
"?$ c #6F5444",
"?% c #6F5540",
"?& c #6F5542",
"?' c #6F5644",
"?( c #6F5746",
"?) c #6F5847",
"?* c #6F5848",
"?+ c #6F5849",
"?, c #6F5A49",
"?- c #6F5C4B",
"?. c #6F5D4B",
"?/ c #6F624E",
"?0 c #705642",
"?1 c #705745",
"?2 c #70594A",
"?3 c #705A48",
"?4 c #705A4A",
"?5 c #705C4B",
"?6 c #705C4E",
"?7 c #705D4B",
"?8 c #705D4D",
"?9 c #715642",
"?: c #715843",
"?; c #715849",
"?< c #715A49",
"?= c #715A4A",
"?> c #715B4F",
"?? c #715D4B",
"?@ c #715D4C",
"?A c #715E4C",
"?B c #71614F",
"?C c #716154",
"?D c #71624F",
"?E c #716253",
"?F c #725644",
"?G c #725946",
"?H c #725D4F",
"?I c #725E48",
"?J c #725F52",
"?K c #726353",
"?L c #735949",
"?M c #735A48",
"?N c #735B4B",
"?O c #735C49",
"?P c #735C4C",
"?Q c #735E49",
"?R c #73604D",
"?S c #73604F",
"?T c #736255",
"?U c #73665A",
"?V c #745C4A",
"?W c #745C4D",
"?X c #745C4E",
"?Y c #745D4F",
"?Z c #745E4D",
"?[ c #745E4F",
"?] c #74614B",
"?^ c #746154",
"?_ c #746353",
"?` c #74675C",
"?a c #755D4B",
"?b c #755E4C",
"?c c #755F4A",
"?d c #756152",
"?e c #756153",
"?f c #756354",
"?g c #756358",
"?h c #756454",
"?i c #765A47",
"?j c #765D4C",
"?k c #765D50",
"?l c #766051",
"?m c #766251",
"?n c #775B49",
"?o c #775C4B",
"?p c #775F4D",
"?q c #776151",
"?r c #776251",
"?s c #786452",
"?t c #796251",
"?u c #7A614C",
"?v c #7B6653",
"?w c #7C6450",
"?x c #7C6657",
"?y c #7C6758",
"?z c #7D6153",
"?{ c #7D6957",
"?| c #7E6556",
"?} c #7E6B59",
"?~ c #8C705C",
/* pixels */
"%h3t>]=N*|%{2m9@>38p>)5T*`&6//*l,V*?5g2#7V9!4|*j%e,$+X9X;!7*2q+?%)#5-K0B(C%20v)_!L$M-Q9a80>A:X0t.7$K,Y9Z*_*/(t%3!/&M&>361/16(~!c",
"'&!g-B>U2J1.-s'Y!!6.?g1[/D-O2<12#f0J5v906K=K<3723C>8>X7e:V:V0c8O3n%o(<*s/S+u0C6V'h!V3|=81V!n(30)7>3-:73'%]:^1&#E$m!K(G31,_9t7|8w",
")i'$3Z'x$18r)M4H%'/O&3,04I(,/7;j5q;]9.=r<m>Q?A;3:A7~<425<07+7+6B-!4N3%*m+j=S=Q=j885_+A7Z%a(d0W8*80?V?F+;21:w>x2<6%3$3Z7$:R*y')78",
"9;079(-.(:(B*:*p,M%c/86^.e''.V&i&@3D<[:l;#**1b4!7E0K.U)M*d,}.Z/M+g-D=g'H3i/;)U5F.4*(4=8[+M:V:K*/,M'<5_,5)I5d,}(d%?(w6x511E*o$a/=",
".-%i1H)N/T$p10,S5u->7i;&;->V>F:<%D'4>f;M6H+c&>5z/_4k3Q1M0Z0h9A3<.)+Z*d4y-%$!'#$r'p1O2s7]5P+T/2'O%b!Q(i&e(T$2$X('#K!(#T/z4F,S*y3*",
"'S%C$I+b$j&!%r.d;/+x(;8a8m;z?t?S#i'n2]?->B;R0g+g*{8D;g>p=y2M70,U%6+M,x6v8^.d>[1z+25)65;#6K:h+v0::=>.;D6J1I2R6b9f-U(t&o*-%,2V1r,Q",
".u8%0F$l*H(P;S3c7K++&t3n5-0z5P1M)j'00q9d26<2:46>&x9n3Y;$6E96?]:/0/0=.T7#;@3]1e3^0=770q;!=d8c8>1!!@3==~3_0.2?6a8B:s3?0-%d&E.|7M#n",
"5H/b9v7L1}2b:D<B.z#L$o+w-M0>1h8j4d+1;~<`)k'(9u5D&J+.(m3m%70w;74)6c2^4##`2I9m7z4a,)%|'[+i3{=V>w)7!6+3+~3t!Y+x(D*x5J9O,'!u$).6&N!I",
")a(I/A/<+q#l$x%N&)#Y2$2i9T3R/d9),:)b,+.~/i0Q=p3U9S4Q8(,,3P=[5Z.E83/B-x5V.F6E;k0%&L#*!f6@9W7f'V+z,*+50M7^6A7)%q(C/c>h4($?+v(F1`%j",
")(%s.%%$)$*M735l1W(19h5^81%S,-'>&A'j7o-a&,*+4l937g.p.I/k2*<I;C<F'H-=)M<i4t=6<.6B8;-x2B6Q9]-4/R.$7w3u1&-w3T6T<Y9H1v)x(@.Z%)*{>H9q",
"8r+s#x+M348#*9<13%397h;`?O-.%T#s,Z+x1Y3V(Y&')H27#v%t*W<g9S7$)H/49e<M>i7`?w8Z5X:G2~:!8Q/v2p1J.I1R+J/4)C48/l?M>B50-J#@&222$`#~<z2P",
".,%;8e-<0m0>7o>Q4f0L:a<Z?Z=s4I(v53*E*g.a!z&]%Q$4!V#O71.Q>J46/-'G>W79>K<E;>8M>;8+%.0]5'(/3i+[8J,+0l2r&X.<&U,|-w,L.w5A)E+=3t&A&q&d",
",b(g:-(d0{#)-|>+3z2`?D6O2G7k%^3Z4[(O&9&10s)N%[,F*C9N7p2<<6;+#u#c!C,`<l90%X3-*m(4+^**72;F-_$}+B.I*|%Q(_(-&$%V4@#t=n>{:}6I*-1x3*<P",
"+`1P;h2=#]#'('&`9=:i=5?R?r94-e5_4B1h6C=.=+4z=(:&*d5>;#$u8*4r)<*c'S,|:J&U,<4|,{/),N,-2,;=,y+7$t4o3g622!7W-g1K%%!8+$5.4G?P(0/@.S7e",
"1#2>5^)H(s&D6[8;3%,E#U*e:W5l0_8/>26R2p2x:)8U941S/D.h2l/m<c9R*&48*+3`2o-c20,z3S*(!`%Z3'2o)=>%>:;_,F$x8-,w%R)M#D!A'#&=-w)L+Q2N31.Y",
"2I8d1%8^4$5C+d,K7{5+'U#7-3*>,O+M'U!2'D1M,@7'<x6].b2L1A6H:u7]6D0**a2~'8-l1?:#:0,M%g1`?<<12*,88W>@-@!E#q2s'I,E.`%%/Z3<-I*s/A)23#6y",
"/}-A0d#u&d#A1;<f1A1N%I5U4x=a<*/r65!^/!4n<%41=]?);_=$&#&Y-Z>`;=44$V%R1E${7Y209-8]5r*m>s8L=E1@&Z&c%k!,,E$P4n7Z*$&{1`-X-A&a'G/F5i/y",
")W%80m$04=.%5_<J84.]7/(!#4$Z,~-m7,)Q.[(Y7X1@?1;f2~9r8P9P3H?i63>L#3&,.G/#+:)O&f*-.$9_;N8T1B1R(X%Q)X*(/v*T61)~-m3%1p<_8A0k<P:e?v3g",
"584^+r'='W*J&v*v-w&x-r-1![!U(&2C>|55.Y'H434u0T1S-D)j//*Z4n*P8,3L1B.@9~-e-^6{80&/'R4v7c:S&W-d7h(&)W2r'~,2&a'>,7053>6d1i4I99.)>S01",
"4e15$k)0)p$'*<#91p5E$g1y*n7%=|=V<!)u#d)o/{,0+=1&,L%v%0!1+@5O0Q6u=+1R87&n*f8^6<-`#84~6T3$.X6U-6&-!S*m9B2?2F1+0y&g!o#*'))X2A%C&K-H",
"#N!D'n$s!t!H%y'd,k'm,(<C8x1'*F=%>_60*L8F8s(y-V?U4.4-4[4_4c6e.f.%&;+_.++,/]1-?T5<#h3|,#)v'e6m,%!v.k='4g;6(|%5,d1m#P,m)y6-=W$n)t$&",
"!r'^5~'e#;$:&o)V(t.a&?/V!_%)&n/?>d4b<>5p4s,1,/(c1W7<8Y;c?%;9<b?~=**Q*^5]1B2c:t9|9<3I6G(`.V7j.R$.2I4A(6&j+A/6-+7j/G/3)e(n2y/<0,*w",
"2M0j.K#14I+)%_2z&8,E,?-n!>0r%&-5*21s?};u+J)K&s.`6Z?B0[>M-):$=`:x4E=22j;;8*,r%L2%8g0W8H7U5K6w2v*m8q#!8U5P7R;f:,1O0<,M.N,r;?=T=<+!",
",R,Y(q5l>q)l-r0s>,9d;I*!2|-2(e!F!N#`,H.T+C1Z*m'X<W?K)L/6/t'K<u6M5*/447496:#r(q,F7u'I#R8O'z5*$!)d+x)e(,;#=c(h(++I8i+q%/+U(p=k=#4Y",
"-2==)e:Y=1&D-j:O><<N<k4>:z0g/~#8&/#w)M%(%P3a(o)*2H9J*X5h>k?b?m:(:X8/3Z5^/h7h3h2s,T%U8b&&(V+S,M1S&6*3.d0]:Q2r2K3j5|7I!'$<1S:6<:>1",
"#^(:'P0/+[,b(x.N9/</920d7_+T%X#X0f2}#])N/7'}**#6+E7:)}8|6=5c;d2x)T(9/w3N;a6B1F/>:Z>o?*<04~9h/{:}82?y>/9?7'-y0g;G<}>v854M5+<;,F.O",
"/K8n-C00+''20}/>+J:]-x<p>y08/8%1)X(7&u,I%T!00h%]<R37([**407[)A%)(w1`;o&..>.:*#(];v4=5+0)*R*U(#94<w?==f7i%*&x(9#%%v8C4]8;&A0G0|3)",
",Y>I;|*B09!Z./.q3B4'(?8`9d=3;/'`0z*y$e8!!a!i3'7C<W<<#~'L3,&/+E/A>S:f7A,L*g-n+K,7(y:'7p($'M2B&k0^?X7'+S+@.H&x0D6g+|.*6]/O1&14,[52",
";Y8&0K,n);%<%u,!-T134i+%=A;*5@!p',$#'f'o-R*=5?.x9I/U!X6l.m*v3m0G4$1,'+6(#-#I+^519i=h-;%`&>;0:67%;.5:#C%9%#&:/S1g'+2^-M7D,`09'b%^",
"$n.t&Q&P3F):.}3G'r%H5I)z.,,Z+&%m%x,i6,'n'*#>+q+r;57M3~8o=!<Y<V9l4^$$!s%m#,#!<|9e5B6W8v,c#J/8.!,@*0*1(B*v0A'g&G!%!J%@):4`4X=}!B$A",
"(.)W920V)^+z)%<?=P#k%B1d(k1a._#:'S:q?/6k)m(C#G.e=O%G3;%>2Q>t1!810(;r>*/0((2{-75M4Z4L1A9V't*[5Y+9096?4E?z>j=94=(f)*)Y;K<D<&:P69*%",
"0z&H$?*84!+h$>!;4(0H'k0;:+8e-h8i??>^:9+a#q5t)_:c;2..-t,A24?I97:y:~=0?{<L5,1^%,215;4O3h2f(Y,F7l=38k6N23>=5a76%(!j%z)8(L/|.J%]/26z",
"$z!d!)*?*m,`1X0~+&6Z)4#:$V.V+D2C;(;M>!579>?81$1u;V:m73)]=-=w=y2:3i.I>3,H1B)R&p,>)g0$3k)M0])Z9<9;2D$_&x75?e=:-:!G+0#l!##Z3a/>5d':",
"*p3a*z$c5r8@:S:(&[1K*0!|(d.U-&?)>l=G>':U29>}<s6R*i<=<(:|2,*]3a+C/,'B4y){-/-5-.1T$d1c2}/8:N0#0+*,7o5%.]#X76>B<99i+y3g*v%^(a/4%P$,",
"9;;q)N1L4O353a(52~+U5n<R4H1T9,6H;g=.6=4}5!1Q5*5w'&1u<+:((b,3,F5T*`>e=/=,=]?L>N%^##(41m=484;+,O/C/C*p.h+M&k+L7u4S6i85)Z-q%.+_-.&X",
"!?!:#y+F3f6h9g:g=?6!6U0?*i$]%l+i&n315r<1?4>P:j/U<@1w04;n7c,9-o*i'C5`;J<'22)N;H2E#}8a;+:_/72K-:0n2L'P,K:3.O0h.W0#1(&l1S&k&.(:!l)_",
"(z*D-B<:)53/?_<]=@*G(K$f0D05>5.r*y,g/Q=M:`857y+}'-*K1j-A6Y019/-2$])R;D:'3Z-/<r?x1i.O0+?>/<(A(h-n(2,F'H84?2:.7.2/1o(u$;,P6Y0!#8/H",
"!O3C+#/a&}.s7w9m*I'3'q17&A=B>6:p/^6-(J.v/78l9o=;4+2a3u-L+a1W0m-y#%)+/9(r7q9<=}<S6g!l)[6`9K2O9D:7#e/O0)3.?J>|9</738<X7t%w9J7C.#%_",
"!b#B#F({*{&F9s=%(D$%'l$L(K)n.0,h2I1{7P.66g.(.38y-W:E8x?C%:'')q%.$e11.%03,O0o-?3l,&,a#<0p9k6&5x/E0I=m4%/L1]2L(j.c4,<##+#y!E#$%&%+",
"%}!w!e!O)V({3#.`'c)3)3#*$^-(5b/:9l,].^4K(R/&/x5[<O;x)|4|+O8.2'4/.9,G/#%J<H$+$R,s-,'@0X.9>9;:<d8G/8'M*f8'9!/e.=0T0E+x1p1P,C-+-#3X",
",k$*'/,R0r)d-u(:(l..&E,R54;S2Y-E;{&~6$5k+G()(7.(8i/P-y!T7&3d(/(0(v6P-q$/-n5!2w?+:n;,;&=e82<k;l=x>g1n,D;L3b809`+M$<$q3|-P#a)c$?%=",
",7+6&b5W4=:*/%-]644m.L&h(_:{;d/$)~.B0P:L4p.@*U)>;e>03J&T)I&.%T/#,=*d41'7&%0U0S3Q8:,p67.85R8)8I=q9j7S+89w9{1:6643(:'s-*#W$|*S'w(Q",
"1M:F9x:L4<(4'~2r?G/h19)D1C7c2-/77a3f*$1F8Q0]4G(*5+.%5S4;>&?37!(%1[*o0^.I$1%Q#X*/;1/j286r6=<e:%9Z$7/,22%M9Z5Q'9,=2L'6#o*d4;'y'>--",
"&q8+<j7!2k5w(`&m?Q9^8/5#-d0(;q)O,F$a*d3`?&1K:c<{=J!M.V/v2o?d=7(b-s%i,<7g0X0b*4<7/C8R:M3V/q3R0Y;b)N&V:&6|2)+<'}&,-F4q:I6|;i5k'z'z",
"*a*P2j4I05;s:[?.980v5'**9d8f;%<U#z(92;3e;j5(4D<y8b$H*$5^>m?q>n6C6Q(8#X&*-m0r6C>o+l9#(W2$9!-.-b:u;*'5)?&_*V';,u!x#8-f5N-n,5&Y7!4?",
"'F$w*$53332Z;t>T00$9+R&9*&;q<q5l%n1[6L;P'A*d3g1M;U#b+@4~-q5$>,<m,O(h,7#T#y'H!=2}'_89<F/57./0/,8N6Q(Y1=6C%M272&/3*q%L.D$3.D#V(!#p",
"(v-0)_0i)V']/F7m3!/G(/1X'J3.)f7r9D.g*43&0!845w$b3r2[)[(i'A523)*55s56007-,J9::486'j#j#&'!-z2<!y&q+e3k5*?l7(=_;b2}0u5a(37!-n+N!$#7",
"6e1l$83n7j.e3+0'0.:1+Q:5#2!}7n3j1[3(216B;A4~'J!R1S2U.H.H0e#/'|/p:24F,s0a7;=H=b=)%Y%-!h#S,;9Q8Q=t7d9}+;1D9$?o?$<)(q*h!{(^&('u*$&e",
"(~2_+44j>#,o;^.{;8&I(M/Y'a)l.p6j/X;W>79K%p)-(N%E6/*N)w)5!.'.#g%h;^6%=&4h2T)1;V0@,l:C.z-S#m),*}4W7F:o4&8u%A+);w;^/`#m%t$I#f,f.&0A",
")K(S-{6S:v5j?'?9>a7Q-^.?#0/84;1K*Y0b(Y2(&)-+)L%!6K7B7b(['y(!'{/r2.*],v2n?'?c?u:J=z?a:H'y.E/*1~3M5l?#?:8},/$Q2d=Y2E=o1>)@,q-k%O$v",
"+W6;0O*O6q;p=F?0422g0T/'0R,F6B*$*c4C/s*b&+*z53.d1#'/0r(v'N))025*&24H4U%'-w9B?@0z'U<h80%K+H'E3M+>-p<$6s5M/g/f182h.V8z6p7T8~,B/..S",
"1E2e3O452+7s+=<//+6{5e2<:|*02x5i5'4U(i*0(&-}?6?s597J<p<T8=8<>Y8:'Q6X0&(0)V,M,S$B#f9+7!-i6{=D7[&^3h/(5L9+&S-[.A:!->8{&R,69'<K6}47",
"8V2p3K3a5f-:/01M2;/5/C8;9c0l9c/@)h(>6d1T,E+D>)>D;-?!<6<v>>=v8U5l0+,>7.5j/}*2$=)'/W/r<-?'?n?N;<68(y#Q4{2u/f45,6)B&r.=1</04w-b6t9*",
"?(9Z=I<n/7#=/v.P*'.V:]5_?m50;B3e1p%l7x;m(%-o9b8T3(7:6G4>918S8Z>b;q1U,~+=4O4M.e*7*u+A2r/{<)>;?;6F-926;E:'/o,.&(1E+V4{0c<,6~-'9y?W",
">-?|<Q>$6=+e-/*a,J+T2<.C<G7k>O5d={0E3{?[?k=L>R<5&<%t1Q9%;i?,7-5_5&.g2=+L2t0c'J(a*q;q0g>??j?p?Y/<*6(,+]8R9U9Y*'&13:$W4?0U/w/C$-9[",
"6R>c=^>o:S#{,Y-r;H5j<p;i'v;);G.W8a&5+[85;#5*;y8g.n(L*))X=i9=1T+V(p&>&t(/*k;(4L/4.%8X;l?5?7>Q>E?^>r4J1T28:(9`0c*08E=L.H&l*'+V>(%]",
"3q(6,Y2W,`!P%--N/N5m;}01:^3w.(%F1|#M$(!3-L#'7t9q:r5G.5(H2Q.q,M==9M!5$M;Z4b>u?f3k1t6V=X.1,j3A3|8t7O6*8$5};4<^6f+k+**9%s,i)s?`=U'i",
"6V7G+p'](w0N%h%4'%;X2]3s1f'&)*+&&O#.$N(='^*;8?=m2X7N)..j*A3B+{>~?h6'.i1j+m:88i/J=>*l*r&B)//Q5A7=9C,S3+7}8B=R1f,X.y1*,^9F7C%`$E$D",
"30<8(''z*_&C1_(Z#[&y.H8K't#!$~7e,W1*&4+A.O#(9G;O.^3E3<0y.'1{)r&L::1)9p04(E%~+o320g,})G1E7|<A:K.M1F9z5S1B(d:@<t.H3@)F/k.H$S!9(m0j",
")S/8#u5+:b*@,K)Q!~.#!*(:&;&?/I3m#H,`'&<~7v6_4V4T5y.2-H)*-C'W!4!7$O'&&|0>6#=i5{+{#_)I1J74:;5/3c.l5r,48U?H!R4>*d-/*~%S)B-r#5%[4[4R",
"&7-~/11R(a$H;Q)e'e+{.o!]*.&w%]&A')&E+-+t!}+]5o:>3y)4(}!q!k/@/M-Y6o.''I.Z/7>G:B/[$h,t/{<o3T8_-5,].m$T/u(b.I8R2o'?'i,J1G:d1Y-79E1l",
"-56)+#3[3o9L4P)#)o=C?E<03&:k$[%0).$i!+$@$6$Y3i-0+{)9(0***`)P8?+/+s,F-$%W-v&z6+1*06$U(U9$3W=u.f5r84%S-n1E5S;#=z>C;*3p/V3*0x1q3v05",
"6n2V.,-854<a<2:c.o!-#);'5f=l:X>/$F'_!W&d/q1M/7!&)*!<)`4~.;&[*7#r#{8h9g&0+P$51k7@>4)!(i$y/n8Q)M6L95'~4:=Z9&51:b>Z;W5m4T+f#?+0./7H",
"%w'1,e$G,R+(*5>07?#|(y1Z&j!m3}3x5=.t3j'A-m2@;T0t/K$J*1/|.W'J'T-}1h:?:T>z)&'Z+n+o0y%0*t0`4?0h1T5r;[+Y$T)J'I-:&92S4*%f&8#D$C)64#-G"
};
