/* XPM */
static char *wooden_01[] = {
/* columns rows colors chars-per-pixel */
"64 64 3855 2",
/* colors */
"!! c #211F1A",
"!# c #21201A",
"!$ c #21201B",
"!% c #22201B",
"!& c #22211B",
"!' c #22211C",
"!( c #22221C",
"!) c #231F1A",
"!* c #23201B",
"!+ c #23211B",
"!, c #23211C",
"!- c #23221C",
"!. c #23221D",
"!/ c #23231E",
"!0 c #241F1A",
"!1 c #24201B",
"!2 c #24211B",
"!3 c #24211C",
"!4 c #24221C",
"!5 c #24221D",
"!6 c #24231D",
"!7 c #251F1B",
"!8 c #25201A",
"!9 c #25201B",
"!: c #25211C",
"!; c #25221C",
"!< c #25221D",
"!= c #25231D",
"!> c #25231E",
"!? c #26201B",
"!@ c #26211C",
"!A c #26221C",
"!B c #26221D",
"!C c #26231D",
"!D c #26251F",
"!E c #262520",
"!F c #27201B",
"!G c #27201C",
"!H c #27211B",
"!I c #27211C",
"!J c #27221C",
"!K c #27231E",
"!L c #27251F",
"!M c #272520",
"!N c #28201B",
"!O c #28211B",
"!P c #28211C",
"!Q c #28221C",
"!R c #28221D",
"!S c #28231D",
"!T c #28231E",
"!U c #28241E",
"!V c #29201B",
"!W c #29211C",
"!X c #29221C",
"!Y c #29221D",
"!Z c #29221E",
"![ c #29231E",
"!] c #29241E",
"!^ c #29281F",
"!_ c #29291F",
"!` c #292920",
"!a c #2A221D",
"!b c #2A231D",
"!c c #2A241E",
"!d c #2A241F",
"!e c #2B211B",
"!f c #2B211C",
"!g c #2B221C",
"!h c #2B221D",
"!i c #2B231D",
"!j c #2B231E",
"!k c #2B241E",
"!l c #2B251E",
"!m c #2B2A21",
"!n c #2B2C1E",
"!o c #2C211C",
"!p c #2C221C",
"!q c #2C221D",
"!r c #2C231D",
"!s c #2C241E",
"!t c #2C241F",
"!u c #2C251D",
"!v c #2C271F",
"!w c #2C2A20",
"!x c #2C2C22",
"!y c #2D201B",
"!z c #2D211C",
"!{ c #2D221C",
"!| c #2D221D",
"!} c #2D231D",
"!~ c #2D241D",
"#! c #2D241F",
"## c #2D251D",
"#$ c #2D251E",
"#% c #2D251F",
"#& c #2D2620",
"#' c #2D2720",
"#( c #2D2C22",
"#) c #2E211B",
"#* c #2E221C",
"#+ c #2E221D",
"#, c #2E231D",
"#- c #2E231E",
"#. c #2E241D",
"#/ c #2E241E",
"#0 c #2E241F",
"#1 c #2E2520",
"#2 c #2E2620",
"#3 c #2E271E",
"#4 c #2E281E",
"#5 c #2E291F",
"#6 c #2E2A1F",
"#7 c #2E2B20",
"#8 c #2E2B21",
"#9 c #2E3D27",
"#: c #2F211C",
"#; c #2F221C",
"#< c #2F221D",
"#= c #2F231E",
"#> c #2F241E",
"#? c #2F251D",
"#@ c #2F251F",
"#A c #2F261D",
"#B c #2F261E",
"#C c #2F2620",
"#D c #2F271D",
"#E c #2F271E",
"#F c #2F291F",
"#G c #2F2A21",
"#H c #2F2D20",
"#I c #2F2E22",
"#J c #30201C",
"#K c #30211B",
"#L c #30221C",
"#M c #30221D",
"#N c #30231D",
"#O c #30231E",
"#P c #30241E",
"#Q c #30241F",
"#R c #30251D",
"#S c #30251E",
"#T c #30251F",
"#U c #302520",
"#V c #302620",
"#W c #302B20",
"#X c #302C20",
"#Y c #302E21",
"#Z c #31201B",
"#[ c #31211B",
"#] c #31241E",
"#^ c #31251E",
"#_ c #31251F",
"#` c #31261F",
"#a c #31281D",
"#b c #312A1F",
"#c c #312A21",
"#d c #312B22",
"#e c #312C20",
"#f c #312C22",
"#g c #312D23",
"#h c #313321",
"#i c #313323",
"#j c #31392C",
"#k c #32201B",
"#l c #32221C",
"#m c #32221D",
"#n c #32231D",
"#o c #32231F",
"#p c #32241D",
"#q c #32241E",
"#r c #32241F",
"#s c #32251D",
"#t c #32261E",
"#u c #32261F",
"#v c #32271B",
"#w c #32291F",
"#x c #322920",
"#y c #322A1E",
"#z c #322B20",
"#{ c #322B21",
"#| c #322C1F",
"#} c #322E21",
"#~ c #322E24",
"$! c #322F21",
"$# c #322F22",
"$$ c #322F23",
"$% c #323D2B",
"$& c #33211C",
"$' c #33221B",
"$( c #33221D",
"$) c #33231C",
"$* c #33231D",
"$+ c #33231E",
"$, c #33241E",
"$- c #33251D",
"$. c #33251E",
"$/ c #33251F",
"$0 c #33261D",
"$1 c #33261F",
"$2 c #33271E",
"$3 c #33271F",
"$4 c #332723",
"$5 c #33281E",
"$6 c #33281F",
"$7 c #33291F",
"$8 c #332A1F",
"$9 c #332A20",
"$: c #332A21",
"$; c #332C1F",
"$< c #332C21",
"$= c #332C23",
"$> c #332E23",
"$? c #333021",
"$@ c #333025",
"$A c #333123",
"$B c #333125",
"$C c #333223",
"$D c #333225",
"$E c #33372C",
"$F c #33372F",
"$G c #34221C",
"$H c #34241D",
"$I c #34251F",
"$J c #34261F",
"$K c #342720",
"$L c #34281E",
"$M c #34291D",
"$N c #34291F",
"$O c #342A21",
"$P c #342B1F",
"$Q c #342B20",
"$R c #342B21",
"$S c #342C20",
"$T c #342C21",
"$U c #342D22",
"$V c #342E20",
"$W c #342E25",
"$X c #342F21",
"$Y c #343023",
"$Z c #343125",
"$[ c #343325",
"$] c #34342A",
"$^ c #343D2D",
"$_ c #343F28",
"$` c #34412D",
"$a c #35201A",
"$b c #35211B",
"$c c #35221C",
"$d c #35231C",
"$e c #35231E",
"$f c #35241D",
"$g c #35241E",
"$h c #35251E",
"$i c #35251F",
"$j c #35261D",
"$k c #35271F",
"$l c #35291F",
"$m c #352921",
"$n c #352A1E",
"$o c #352B1E",
"$p c #352B20",
"$q c #352C1F",
"$r c #352C21",
"$s c #352D20",
"$t c #352F21",
"$u c #352F25",
"$v c #353223",
"$w c #353625",
"$x c #35392D",
"$y c #35422E",
"$z c #36221D",
"${ c #36231D",
"$| c #36241C",
"$} c #36241D",
"$~ c #36241E",
"%! c #36251D",
"%# c #36251E",
"%$ c #36251F",
"%% c #36261D",
"%& c #36261E",
"%' c #36271F",
"%( c #362720",
"%) c #36281E",
"%* c #36281F",
"%+ c #362A1F",
"%, c #362B20",
"%- c #362C22",
"%. c #362D1F",
"%/ c #362D21",
"%0 c #362E21",
"%1 c #362E23",
"%2 c #362F20",
"%3 c #362F24",
"%4 c #362F25",
"%5 c #363328",
"%6 c #363524",
"%7 c #363525",
"%8 c #36352A",
"%9 c #36352B",
"%: c #363629",
"%; c #363726",
"%< c #36382A",
"%= c #36392B",
"%> c #364233",
"%? c #37231B",
"%@ c #37231D",
"%A c #37241E",
"%B c #37251D",
"%C c #37251F",
"%D c #37261D",
"%E c #372620",
"%F c #372622",
"%G c #372720",
"%H c #37281E",
"%I c #37291F",
"%J c #372A1F",
"%K c #372C1F",
"%L c #372C20",
"%M c #372D1F",
"%N c #372D21",
"%O c #372E1F",
"%P c #372E20",
"%Q c #372E21",
"%R c #372E23",
"%S c #372F24",
"%T c #373026",
"%U c #373224",
"%V c #373226",
"%W c #373528",
"%X c #373728",
"%Y c #373828",
"%Z c #373C32",
"%[ c #374131",
"%] c #38221B",
"%^ c #38241D",
"%_ c #38241E",
"%` c #38251D",
"%a c #38251E",
"%b c #38261C",
"%c c #38261F",
"%d c #38281E",
"%e c #38291E",
"%f c #382A21",
"%g c #382B1F",
"%h c #382C1F",
"%i c #382C20",
"%j c #382D20",
"%k c #382F29",
"%l c #383124",
"%m c #383322",
"%n c #38352B",
"%o c #38362C",
"%p c #383723",
"%q c #383729",
"%r c #38392C",
"%s c #383E30",
"%t c #384130",
"%u c #39211C",
"%v c #39231D",
"%w c #39241D",
"%x c #39251E",
"%y c #39261F",
"%z c #392620",
"%{ c #39271E",
"%| c #39291E",
"%} c #392920",
"%~ c #392A1F",
"&! c #392B1F",
"&# c #392C21",
"&$ c #392D25",
"&% c #392F23",
"&& c #393123",
"&' c #393126",
"&( c #393226",
"&) c #393227",
"&* c #393325",
"&+ c #393327",
"&, c #393329",
"&- c #393627",
"&. c #39392A",
"&/ c #393D32",
"&0 c #394431",
"&1 c #394436",
"&2 c #39463A",
"&3 c #3A231C",
"&4 c #3A231E",
"&5 c #3A241D",
"&6 c #3A251E",
"&7 c #3A281F",
"&8 c #3A291E",
"&9 c #3A2A21",
"&: c #3A2B1E",
"&; c #3A2B1F",
"&< c #3A2C1F",
"&= c #3A3024",
"&> c #3A3124",
"&? c #3A3322",
"&@ c #3A3326",
"&A c #3A3327",
"&B c #3A3427",
"&C c #3A3524",
"&D c #3A362A",
"&E c #3A362C",
"&F c #3A382C",
"&G c #3A392C",
"&H c #3A3B2A",
"&I c #3A3B2D",
"&J c #3A3C2E",
"&K c #3A3D2F",
"&L c #3B211B",
"&M c #3B211C",
"&N c #3B221C",
"&O c #3B241C",
"&P c #3B241D",
"&Q c #3B251E",
"&R c #3B2520",
"&S c #3B271E",
"&T c #3B281D",
"&U c #3B291E",
"&V c #3B2920",
"&W c #3B2A1F",
"&X c #3B2B1F",
"&Y c #3B2B20",
"&Z c #3B2C1E",
"&[ c #3B2C1F",
"&] c #3B2E24",
"&^ c #3B2F25",
"&_ c #3B3120",
"&` c #3B3125",
"&a c #3B3126",
"&b c #3B3221",
"&c c #3B3225",
"&d c #3B3322",
"&e c #3B3326",
"&f c #3B342F",
"&g c #3B3526",
"&h c #3B3626",
"&i c #3B3729",
"&j c #3B3829",
"&k c #3B382A",
"&l c #3B392D",
"&m c #3B3A28",
"&n c #3B3B27",
"&o c #3B3C28",
"&p c #3B3D31",
"&q c #3B4131",
"&r c #3B4434",
"&s c #3C221D",
"&t c #3C241D",
"&u c #3C241E",
"&v c #3C251D",
"&w c #3C271D",
"&x c #3C2720",
"&y c #3C281E",
"&z c #3C291E",
"&{ c #3C2B1F",
"&| c #3C2B21",
"&} c #3C2F21",
"&~ c #3C3020",
"'! c #3C3025",
"'# c #3C3225",
"'$ c #3C3427",
"'% c #3C3627",
"'& c #3C3629",
"'' c #3C362A",
"'( c #3C372B",
"') c #3C3A33",
"'* c #3C3B2F",
"'+ c #3C4136",
"', c #3C4535",
"'- c #3C4536",
"'. c #3C4836",
"'/ c #3C493B",
"'0 c #3C4B40",
"'1 c #3C4F39",
"'2 c #3D231E",
"'3 c #3D271C",
"'4 c #3D2720",
"'5 c #3D281D",
"'6 c #3D2B20",
"'7 c #3D2D20",
"'8 c #3D2D22",
"'9 c #3D2E20",
"': c #3D2E24",
"'; c #3D2F20",
"'< c #3D3224",
"'= c #3D3229",
"'> c #3D3326",
"'? c #3D3327",
"'@ c #3D3328",
"'A c #3D3427",
"'B c #3D3528",
"'C c #3D352D",
"'D c #3D3630",
"'E c #3D3729",
"'F c #3D372C",
"'G c #3D382C",
"'H c #3D392E",
"'I c #3D392F",
"'J c #3D3E2F",
"'K c #3D3F33",
"'L c #3D4031",
"'M c #3D4131",
"'N c #3D4237",
"'O c #3D4337",
"'P c #3D4637",
"'Q c #3D4836",
"'R c #3E231C",
"'S c #3E231F",
"'T c #3E251C",
"'U c #3E261F",
"'V c #3E281F",
"'W c #3E2B1F",
"'X c #3E2B22",
"'Y c #3E2D22",
"'Z c #3E2E20",
"'[ c #3E2E21",
"'] c #3E2F20",
"'^ c #3E2F21",
"'_ c #3E3224",
"'` c #3E352B",
"'a c #3E352C",
"'b c #3E3628",
"'c c #3E3629",
"'d c #3E362D",
"'e c #3E392D",
"'f c #3E3A2D",
"'g c #3E3E34",
"'h c #3E422F",
"'i c #3E4437",
"'j c #3E463C",
"'k c #3E493C",
"'l c #3E4F42",
"'m c #3F2820",
"'n c #3F2A1F",
"'o c #3F2E23",
"'p c #3F3023",
"'q c #3F3128",
"'r c #3F3321",
"'s c #3F3324",
"'t c #3F3429",
"'u c #3F3525",
"'v c #3F352B",
"'w c #3F3627",
"'x c #3F3723",
"'y c #3F372A",
"'z c #3F392C",
"'{ c #3F3D2F",
"'| c #3F3E2C",
"'} c #3F3E2E",
"'~ c #3F3F2C",
"(! c #3F3F2E",
"(# c #3F4033",
"($ c #3F4234",
"(% c #3F4333",
"(& c #3F4334",
"(' c #3F4431",
"(( c #3F4436",
"() c #3F4538",
"(* c #3F4636",
"(+ c #3F4836",
"(, c #3F4838",
"(- c #3F4A3A",
"(. c #3F4A3D",
"(/ c #3F4B3D",
"(0 c #3F4C3A",
"(1 c #3F4E3A",
"(2 c #40221D",
"(3 c #40231C",
"(4 c #40231D",
"(5 c #40251E",
"(6 c #402620",
"(7 c #40271E",
"(8 c #40281D",
"(9 c #402920",
"(: c #402B20",
"(; c #402C22",
"(< c #402D21",
"(= c #402E1E",
"(> c #402F26",
"(? c #403026",
"(@ c #403126",
"(A c #403226",
"(B c #403326",
"(C c #403627",
"(D c #403629",
"(E c #403728",
"(F c #403930",
"(G c #403A2A",
"(H c #403A30",
"(I c #403B2C",
"(J c #403B2E",
"(K c #403D28",
"(L c #403D2E",
"(M c #403D33",
"(N c #403F30",
"(O c #40412D",
"(P c #404231",
"(Q c #404232",
"(R c #40432E",
"(S c #404333",
"(T c #404436",
"(U c #40443A",
"(V c #404638",
"(W c #404A36",
"(X c #404A3B",
"(Y c #404B37",
"(Z c #404B3C",
"([ c #404F3A",
"(] c #404F42",
"(^ c #41271E",
"(_ c #41281E",
"(` c #41281F",
"(a c #41291E",
"(b c #412B1E",
"(c c #412B1F",
"(d c #412C1F",
"(e c #412D1E",
"(f c #412E1F",
"(g c #412E20",
"(h c #412E21",
"(i c #412E22",
"(j c #413025",
"(k c #413122",
"(l c #413127",
"(m c #413223",
"(n c #413226",
"(o c #413322",
"(p c #413420",
"(q c #413425",
"(r c #41362B",
"(s c #413728",
"(t c #413827",
"(u c #413A2B",
"(v c #413B2B",
"(w c #413C29",
"(x c #413C2F",
"(y c #413D2E",
"(z c #413F2F",
"({ c #41422F",
"(| c #414433",
"(} c #414539",
"(~ c #414733",
")! c #414836",
")# c #41493B",
")$ c #41493C",
")% c #414A43",
")& c #414F3F",
")' c #415642",
")( c #42261E",
")) c #42291E",
")* c #422D21",
")+ c #422F22",
"), c #423123",
")- c #423125",
"). c #42331F",
")/ c #423422",
")0 c #423427",
")1 c #423526",
")2 c #423629",
")3 c #42362A",
")4 c #423722",
")5 c #423727",
")6 c #423728",
")7 c #423828",
")8 c #423A2A",
")9 c #423A2C",
"): c #423B2B",
"); c #423D26",
")< c #423D30",
")= c #423F2C",
")> c #424234",
")? c #424333",
")@ c #424530",
")A c #424534",
")B c #424536",
")C c #424539",
")D c #424739",
")E c #424C3C",
")F c #424D40",
")G c #424E3E",
")H c #424F40",
")I c #425242",
")J c #425444",
")K c #425540",
")L c #43251F",
")M c #432A22",
")N c #432B1E",
")O c #432C20",
")P c #433420",
")Q c #433425",
")R c #433525",
")S c #433528",
")T c #433529",
")U c #43362B",
")V c #433727",
")W c #433824",
")X c #433825",
")Y c #43382A",
")Z c #43382C",
")[ c #43392A",
")] c #433A28",
")^ c #433A2C",
")_ c #433C2A",
")` c #433D29",
")a c #433D2C",
")b c #43402C",
")c c #434030",
")d c #434031",
")e c #434435",
")f c #434439",
")g c #434637",
")h c #434732",
")i c #434739",
")j c #434C3A",
")k c #434E3E",
")l c #43503E",
")m c #435146",
")n c #435745",
")o c #435E49",
")p c #44201C",
")q c #442620",
")r c #44291D",
")s c #44291F",
")t c #442D21",
")u c #442F22",
")v c #443022",
")w c #443226",
")x c #443425",
")y c #443527",
")z c #443622",
"){ c #443722",
")| c #443728",
")} c #443824",
")~ c #443826",
"*! c #44392A",
"*# c #443A2E",
"*$ c #443C27",
"*% c #443D2F",
"*& c #443D30",
"*' c #443E2D",
"*( c #443E2E",
"*) c #443E2F",
"** c #44402B",
"*+ c #44412F",
"*, c #444435",
"*- c #444530",
"*. c #444538",
"*/ c #44483C",
"*0 c #444A38",
"*1 c #444A39",
"*2 c #444B42",
"*3 c #444C3C",
"*4 c #444F3F",
"*5 c #444F41",
"*6 c #44503D",
"*7 c #445045",
"*8 c #445147",
"*9 c #445849",
"*: c #45201B",
"*; c #45271D",
"*< c #45281E",
"*= c #452922",
"*> c #452E1F",
"*? c #452F20",
"*@ c #453024",
"*A c #453127",
"*B c #453222",
"*C c #453322",
"*D c #453424",
"*E c #453426",
"*F c #453525",
"*G c #453626",
"*H c #45382A",
"*I c #453A27",
"*J c #453B2C",
"*K c #453D2D",
"*L c #453F2D",
"*M c #453F30",
"*N c #453F32",
"*O c #45402E",
"*P c #454130",
"*Q c #454131",
"*R c #454132",
"*S c #454134",
"*T c #454137",
"*U c #45422B",
"*V c #454335",
"*W c #454437",
"*X c #45443A",
"*Y c #454632",
"*Z c #454638",
"*[ c #454837",
"*] c #454A3D",
"*^ c #454B39",
"*_ c #454B3A",
"*` c #454D3B",
"*a c #454E33",
"*b c #454E42",
"*c c #454F3B",
"*d c #455340",
"*e c #455443",
"*f c #455445",
"*g c #455447",
"*h c #455547",
"*i c #455646",
"*j c #455943",
"*k c #46231D",
"*l c #46251F",
"*m c #462A1D",
"*n c #462B21",
"*o c #462F21",
"*p c #463122",
"*q c #463223",
"*r c #463325",
"*s c #463421",
"*t c #463428",
"*u c #463526",
"*v c #46361F",
"*w c #463626",
"*x c #463627",
"*y c #463725",
"*z c #46392B",
"*{ c #463A26",
"*| c #463C37",
"*} c #463E2A",
"*~ c #463E2E",
"+! c #463F31",
"+# c #464031",
"+$ c #464135",
"+% c #464632",
"+& c #464836",
"+' c #464837",
"+( c #46483B",
"+) c #46483D",
"+* c #464A3B",
"++ c #464B38",
"+, c #464B44",
"+- c #464F3E",
"+. c #465547",
"+/ c #465640",
"+0 c #46574B",
"+1 c #465F4C",
"+2 c #47261E",
"+3 c #47281E",
"+4 c #472E1F",
"+5 c #472F23",
"+6 c #473020",
"+7 c #473120",
"+8 c #473121",
"+9 c #473123",
"+: c #473220",
"+; c #473224",
"+< c #473522",
"+= c #473524",
"+> c #473629",
"+? c #47372A",
"+@ c #47372C",
"+A c #473829",
"+B c #473B2F",
"+C c #473B30",
"+D c #473C34",
"+E c #473D2F",
"+F c #473D31",
"+G c #473D32",
"+H c #474030",
"+I c #47412C",
"+J c #474333",
"+K c #474431",
"+L c #474432",
"+M c #474435",
"+N c #474539",
"+O c #474639",
"+P c #47463A",
"+Q c #474739",
"+R c #474833",
"+S c #47483B",
"+T c #474939",
"+U c #474A38",
"+V c #474C39",
"+W c #474E40",
"+X c #474F42",
"+Y c #475142",
"+Z c #475340",
"+[ c #475344",
"+] c #475345",
"+^ c #475544",
"+_ c #475A4F",
"+` c #48261E",
"+a c #482820",
"+b c #482F22",
"+c c #483225",
"+d c #483323",
"+e c #483325",
"+f c #483326",
"+g c #483628",
"+h c #483729",
"+i c #48372B",
"+j c #48372D",
"+k c #483827",
"+l c #483927",
"+m c #483928",
"+n c #483A2F",
"+o c #483E2D",
"+p c #484233",
"+q c #484331",
"+r c #484434",
"+s c #484530",
"+t c #484B3E",
"+u c #484C3C",
"+v c #484C41",
"+w c #484F3E",
"+x c #485043",
"+y c #485141",
"+z c #485246",
"+{ c #48533C",
"+| c #485343",
"+} c #485544",
"+~ c #485644",
",! c #485744",
",# c #485A47",
",$ c #485A4A",
",% c #485D41",
",& c #485D4D",
",' c #492D1E",
",( c #493221",
",) c #493225",
",* c #493322",
",+ c #493423",
",, c #493424",
",- c #493427",
",. c #493625",
",/ c #493626",
",0 c #493727",
",1 c #493828",
",2 c #49392D",
",3 c #493930",
",4 c #493A25",
",5 c #493A26",
",6 c #493E2D",
",7 c #493F2E",
",8 c #493F2F",
",9 c #494031",
",: c #49412D",
",; c #49422E",
",< c #494330",
",= c #494335",
",> c #49442D",
",? c #494439",
",@ c #49443D",
",A c #494735",
",B c #494834",
",C c #494936",
",D c #494937",
",E c #494A3A",
",F c #494A3D",
",G c #494B34",
",H c #494B37",
",I c #494B38",
",J c #494C35",
",K c #494D39",
",L c #494D3D",
",M c #495146",
",N c #495242",
",O c #495243",
",P c #495248",
",Q c #495346",
",R c #495347",
",S c #495544",
",T c #495547",
",U c #495549",
",V c #495644",
",W c #495748",
",X c #495845",
",Y c #49584A",
",Z c #49593E",
",[ c #495C44",
",] c #495C4E",
",^ c #496151",
",_ c #496455",
",` c #4A231D",
",a c #4A251C",
",b c #4A2B1E",
",c c #4A2B20",
",d c #4A3121",
",e c #4A3223",
",f c #4A3424",
",g c #4A3426",
",h c #4A3526",
",i c #4A3625",
",j c #4A3628",
",k c #4A372E",
",l c #4A392A",
",m c #4A3C29",
",n c #4A3D25",
",o c #4A3D2F",
",p c #4A3E28",
",q c #4A3F2F",
",r c #4A402D",
",s c #4A4137",
",t c #4A4333",
",u c #4A4531",
",v c #4A4533",
",w c #4A4534",
",x c #4A4539",
",y c #4A4635",
",z c #4A4636",
",{ c #4A473A",
",| c #4A4837",
",} c #4A4A38",
",~ c #4A4A3B",
"-! c #4A4D36",
"-# c #4A503D",
"-$ c #4A5141",
"-% c #4A5239",
"-& c #4A5340",
"-' c #4A5442",
"-( c #4A553F",
"-) c #4A5548",
"-* c #4A574A",
"-+ c #4A5845",
"-, c #4A5849",
"-- c #4A584A",
"-. c #4A5B4A",
"-/ c #4A5D49",
"-0 c #4A604D",
"-1 c #4A6153",
"-2 c #4A624E",
"-3 c #4A664F",
"-4 c #4B241C",
"-5 c #4B261D",
"-6 c #4B271E",
"-7 c #4B312A",
"-8 c #4B3223",
"-9 c #4B3224",
"-: c #4B3228",
"-; c #4B3526",
"-< c #4B3622",
"-= c #4B3723",
"-> c #4B3725",
"-? c #4B382B",
"-@ c #4B3926",
"-A c #4B392A",
"-B c #4B392E",
"-C c #4B3B2A",
"-D c #4B3B2E",
"-E c #4B3C26",
"-F c #4B3C2C",
"-G c #4B3C2F",
"-H c #4B3E32",
"-I c #4B3E39",
"-J c #4B3F2D",
"-K c #4B3F30",
"-L c #4B4031",
"-M c #4B422D",
"-N c #4B4236",
"-O c #4B432B",
"-P c #4B4336",
"-Q c #4B433C",
"-R c #4B463A",
"-S c #4B4736",
"-T c #4B4834",
"-U c #4B4836",
"-V c #4B4A40",
"-W c #4B4B3F",
"-X c #4B4D3A",
"-Y c #4B4D3C",
"-Z c #4B4E40",
"-[ c #4B4F3D",
"-] c #4B4F40",
"-^ c #4B5037",
"-_ c #4B5038",
"-` c #4B503C",
"-a c #4B513A",
"-b c #4B5140",
"-c c #4B5341",
"-d c #4B5447",
"-e c #4B563E",
"-f c #4B5645",
"-g c #4B564B",
"-h c #4B5741",
"-i c #4B5743",
"-j c #4B5843",
"-k c #4B5848",
"-l c #4B5A46",
"-m c #4B6144",
"-n c #4B614F",
"-o c #4B6155",
"-p c #4B624D",
"-q c #4B634D",
"-r c #4B6354",
"-s c #4C241D",
"-t c #4C281D",
"-u c #4C281E",
"-v c #4C2C23",
"-w c #4C301E",
"-x c #4C3027",
"-y c #4C3324",
"-z c #4C342C",
"-{ c #4C372E",
"-| c #4C3827",
"-} c #4C3927",
"-~ c #4C392F",
".! c #4C3A2E",
".# c #4C3B27",
".$ c #4C3B29",
".% c #4C3B2C",
".& c #4C3D30",
".' c #4C3E2C",
".( c #4C3E2D",
".) c #4C3F31",
".* c #4C4132",
".+ c #4C4135",
"., c #4C4237",
".- c #4C4333",
".. c #4C4334",
"./ c #4C4432",
".0 c #4C4737",
".1 c #4C4738",
".2 c #4C4739",
".3 c #4C4930",
".4 c #4C493F",
".5 c #4C4B3A",
".6 c #4C4B3B",
".7 c #4C4C3F",
".8 c #4C4C40",
".9 c #4C4C44",
".: c #4C4D3F",
".; c #4C4E3D",
".< c #4C5143",
".= c #4C533E",
".> c #4C5447",
".? c #4C573E",
".@ c #4C5E4E",
".A c #4C604B",
".B c #4C6452",
".C c #4C6551",
".D c #4C664E",
".E c #4C6A4F",
".F c #4D241E",
".G c #4D291F",
".H c #4D2E1F",
".I c #4D2E20",
".J c #4D3429",
".K c #4D382D",
".L c #4D3B28",
".M c #4D3D2A",
".N c #4D3D2F",
".O c #4D4034",
".P c #4D4134",
".Q c #4D4332",
".R c #4D4335",
".S c #4D4336",
".T c #4D4439",
".U c #4D443C",
".V c #4D4530",
".W c #4D4536",
".X c #4D4730",
".Y c #4D473A",
".Z c #4D4B3F",
".[ c #4D4C3E",
".] c #4D4C3F",
".^ c #4D4D3F",
"._ c #4D4D41",
".` c #4D4F3D",
".a c #4D5136",
".b c #4D513E",
".c c #4D5147",
".d c #4D5239",
".e c #4D5644",
".f c #4D5742",
".g c #4D5C44",
".h c #4D5D41",
".i c #4D5D45",
".j c #4D6147",
".k c #4D6151",
".l c #4D634F",
".m c #4D644A",
".n c #4D6453",
".o c #4D6553",
".p c #4E281E",
".q c #4E2C1E",
".r c #4E301F",
".s c #4E3021",
".t c #4E3425",
".u c #4E3626",
".v c #4E3A37",
".w c #4E3B29",
".x c #4E3B2C",
".y c #4E3B2E",
".z c #4E3B2F",
".{ c #4E3E31",
".| c #4E3F2A",
".} c #4E3F2B",
".~ c #4E3F35",
"/! c #4E4030",
"/# c #4E4033",
"/$ c #4E4034",
"/% c #4E4124",
"/& c #4E4230",
"/' c #4E4233",
"/( c #4E4330",
"/) c #4E4430",
"/* c #4E4436",
"/+ c #4E4438",
"/, c #4E4533",
"/- c #4E4538",
"/. c #4E453A",
"// c #4E4637",
"/0 c #4E4734",
"/1 c #4E473B",
"/2 c #4E4839",
"/3 c #4E483D",
"/4 c #4E4939",
"/5 c #4E493B",
"/6 c #4E4A30",
"/7 c #4E4A3A",
"/8 c #4E4B31",
"/9 c #4E4B3C",
"/: c #4E4B3D",
"/; c #4E4B40",
"/< c #4E4C33",
"/= c #4E4C3B",
"/> c #4E4C3E",
"/? c #4E4D40",
"/@ c #4E4E38",
"/A c #4E4E43",
"/B c #4E503D",
"/C c #4E5040",
"/D c #4E5045",
"/E c #4E523A",
"/F c #4E543E",
"/G c #4E5445",
"/H c #4E5644",
"/I c #4E573D",
"/J c #4E5745",
"/K c #4E5948",
"/L c #4E594D",
"/M c #4E5A42",
"/N c #4E5A43",
"/O c #4E5A47",
"/P c #4E5B48",
"/Q c #4E5C50",
"/R c #4E5D4A",
"/S c #4E5D4B",
"/T c #4E5D4F",
"/U c #4E5F48",
"/V c #4E5F4B",
"/W c #4E6150",
"/X c #4E644C",
"/Y c #4E6554",
"/Z c #4E694E",
"/[ c #4E6A5E",
"/] c #4F301E",
"/^ c #4F3021",
"/_ c #4F3127",
"/` c #4F3225",
"/a c #4F3324",
"/b c #4F3724",
"/c c #4F3826",
"/d c #4F3930",
"/e c #4F3B28",
"/f c #4F3C29",
"/g c #4F3D2D",
"/h c #4F3E2C",
"/i c #4F3E35",
"/j c #4F402A",
"/k c #4F402D",
"/l c #4F402F",
"/m c #4F4034",
"/n c #4F4130",
"/o c #4F4131",
"/p c #4F4137",
"/q c #4F4533",
"/r c #4F4632",
"/s c #4F4635",
"/t c #4F4636",
"/u c #4F4637",
"/v c #4F473A",
"/w c #4F4838",
"/x c #4F493A",
"/y c #4F493D",
"/z c #4F4E3D",
"/{ c #4F4F3D",
"/| c #4F4F3E",
"/} c #4F4F3F",
"/~ c #4F4F43",
"0! c #4F4F44",
"0# c #4F503A",
"0$ c #4F503B",
"0% c #4F503D",
"0& c #4F5041",
"0' c #4F5042",
"0( c #4F513D",
"0) c #4F5141",
"0* c #4F5239",
"0+ c #4F5544",
"0, c #4F5642",
"0- c #4F5644",
"0. c #4F5741",
"0/ c #4F5849",
"00 c #4F5943",
"01 c #4F5946",
"02 c #4F5A44",
"03 c #4F5C41",
"04 c #4F5C49",
"05 c #4F5F4A",
"06 c #4F6151",
"07 c #4F6851",
"08 c #4F6852",
"09 c #50251F",
"0: c #502923",
"0; c #503022",
"0< c #50321F",
"0= c #503321",
"0> c #503424",
"0? c #503723",
"0@ c #503826",
"0A c #503C30",
"0B c #503D2A",
"0C c #503F2F",
"0D c #504229",
"0E c #504233",
"0F c #504234",
"0G c #504235",
"0H c #504332",
"0I c #504334",
"0J c #504435",
"0K c #504530",
"0L c #504635",
"0M c #504734",
"0N c #504834",
"0O c #504839",
"0P c #504932",
"0Q c #504935",
"0R c #504937",
"0S c #504A35",
"0T c #504A3A",
"0U c #504B39",
"0V c #504B3A",
"0W c #504B3C",
"0X c #504D3F",
"0Y c #504D41",
"0Z c #504F3F",
"0[ c #50513E",
"0] c #505142",
"0^ c #50523A",
"0_ c #505242",
"0` c #505344",
"0a c #505346",
"0b c #505448",
"0c c #505540",
"0d c #505543",
"0e c #505741",
"0f c #505749",
"0g c #50574A",
"0h c #505846",
"0i c #505945",
"0j c #50594A",
"0k c #505B4B",
"0l c #505C4C",
"0m c #505E48",
"0n c #505F45",
"0o c #50604B",
"0p c #506150",
"0q c #50674E",
"0r c #512A1D",
"0s c #512A1E",
"0t c #513424",
"0u c #513429",
"0v c #513524",
"0w c #513526",
"0x c #513824",
"0y c #51392C",
"0z c #513C26",
"0{ c #513C2A",
"0| c #513D2E",
"0} c #513F2B",
"0~ c #513F2F",
"1! c #514031",
"1# c #514233",
"1$ c #514631",
"1% c #514633",
"1& c #514639",
"1' c #51463A",
"1( c #514731",
"1) c #514732",
"1* c #514739",
"1+ c #514832",
"1, c #514836",
"1- c #514A2C",
"1. c #514A36",
"1/ c #514A37",
"10 c #514A3D",
"11 c #514B39",
"12 c #514C3C",
"13 c #514C3E",
"14 c #514D3F",
"15 c #514F3F",
"16 c #515040",
"17 c #51513B",
"18 c #515141",
"19 c #51523C",
"1: c #51533E",
"1; c #51533F",
"1< c #515642",
"1= c #51564A",
"1> c #515943",
"1? c #515947",
"1@ c #515A49",
"1A c #515A4B",
"1B c #515E4B",
"1C c #516352",
"1D c #516358",
"1E c #516450",
"1F c #51664C",
"1G c #516656",
"1H c #516955",
"1I c #516A57",
"1J c #52281C",
"1K c #522B20",
"1L c #522C20",
"1M c #523421",
"1N c #523425",
"1O c #523825",
"1P c #523928",
"1Q c #52392A",
"1R c #523A24",
"1S c #523A2C",
"1T c #523B29",
"1U c #523B2A",
"1V c #523C2A",
"1W c #523D2F",
"1X c #523E2D",
"1Y c #523F31",
"1Z c #523F34",
"1[ c #52402B",
"1] c #524234",
"1^ c #524430",
"1_ c #524531",
"1` c #524630",
"1a c #524633",
"1b c #524634",
"1c c #524637",
"1d c #524735",
"1e c #524837",
"1f c #52483B",
"1g c #524936",
"1h c #524A35",
"1i c #524A38",
"1j c #524A39",
"1k c #524B34",
"1l c #524C3A",
"1m c #524D33",
"1n c #524D3C",
"1o c #524E38",
"1p c #524E3F",
"1q c #524F42",
"1r c #52503C",
"1s c #525139",
"1t c #52513E",
"1u c #525140",
"1v c #525240",
"1w c #525241",
"1x c #525443",
"1y c #525542",
"1z c #525549",
"1{ c #525744",
"1| c #525843",
"1} c #525844",
"1~ c #525948",
"2! c #525C4A",
"2# c #525C4B",
"2$ c #525D4E",
"2% c #525E4C",
"2& c #525F49",
"2' c #526045",
"2( c #52604E",
"2) c #526055",
"2* c #526149",
"2+ c #52614A",
"2, c #52624E",
"2- c #526351",
"2. c #526455",
"2/ c #52654C",
"20 c #526550",
"21 c #526753",
"22 c #52694E",
"23 c #526A5B",
"24 c #526A5C",
"25 c #526B54",
"26 c #526C51",
"27 c #527054",
"28 c #53241E",
"29 c #53261C",
"2: c #532B1F",
"2; c #532F26",
"2< c #533222",
"2= c #533421",
"2> c #533629",
"2? c #53362D",
"2@ c #533728",
"2A c #533B28",
"2B c #533C2D",
"2C c #533D29",
"2D c #533D2F",
"2E c #533E26",
"2F c #533F2F",
"2G c #533F30",
"2H c #53402C",
"2I c #53402E",
"2J c #534231",
"2K c #53432D",
"2L c #53432F",
"2M c #534431",
"2N c #534432",
"2O c #534734",
"2P c #534833",
"2Q c #534837",
"2R c #534A34",
"2S c #534B33",
"2T c #534C34",
"2U c #534C3B",
"2V c #534C3C",
"2W c #534E38",
"2X c #534F3A",
"2Y c #534F40",
"2Z c #534F41",
"2[ c #535040",
"2] c #53513E",
"2^ c #535144",
"2_ c #535245",
"2` c #53533E",
"2a c #535542",
"2b c #535543",
"2c c #535546",
"2d c #535641",
"2e c #535644",
"2f c #535647",
"2g c #535744",
"2h c #53583D",
"2i c #535840",
"2j c #535842",
"2k c #535845",
"2l c #53584F",
"2m c #535941",
"2n c #535948",
"2o c #535949",
"2p c #535A46",
"2q c #535A47",
"2r c #535A48",
"2s c #535A4D",
"2t c #535B43",
"2u c #535D45",
"2v c #535E4A",
"2w c #535E4C",
"2x c #535F46",
"2y c #535F4C",
"2z c #535F52",
"2{ c #53604C",
"2| c #536054",
"2} c #536254",
"2~ c #53634A",
"3! c #536556",
"3# c #53695B",
"3$ c #536A50",
"3% c #536A56",
"3& c #536B59",
"3' c #536C5E",
"3( c #536E5D",
"3) c #536F5E",
"3* c #537B60",
"3+ c #54241E",
"3, c #543021",
"3- c #543521",
"3. c #543720",
"3/ c #543724",
"30 c #543923",
"31 c #543925",
"32 c #543A26",
"33 c #543B29",
"34 c #543C28",
"35 c #543C2B",
"36 c #543E2A",
"37 c #54402F",
"38 c #544134",
"39 c #544630",
"3: c #544633",
"3; c #544634",
"3< c #544736",
"3= c #544832",
"3> c #544834",
"3? c #54483D",
"3@ c #544939",
"3A c #544B39",
"3B c #544D43",
"3C c #544E37",
"3D c #544E3D",
"3E c #545037",
"3F c #545040",
"3G c #54513F",
"3H c #545142",
"3I c #54523E",
"3J c #54533B",
"3K c #545344",
"3L c #545346",
"3M c #545442",
"3N c #545446",
"3O c #545640",
"3P c #545644",
"3Q c #54573E",
"3R c #545844",
"3S c #545946",
"3T c #545947",
"3U c #545A47",
"3V c #545A48",
"3W c #545A4C",
"3X c #545A4D",
"3Y c #545B48",
"3Z c #545B4A",
"3[ c #545C48",
"3] c #545C49",
"3^ c #545C4E",
"3_ c #545E4B",
"3` c #545E4E",
"3a c #545E4F",
"3b c #545F4F",
"3c c #545F50",
"3d c #54604E",
"3e c #546050",
"3f c #546254",
"3g c #546353",
"3h c #546757",
"3i c #546853",
"3j c #546958",
"3k c #546D55",
"3l c #547661",
"3m c #55231D",
"3n c #55311E",
"3o c #553228",
"3p c #55322A",
"3q c #553625",
"3r c #55372A",
"3s c #55382D",
"3t c #553924",
"3u c #553B2E",
"3v c #553C29",
"3w c #553E2D",
"3x c #55402D",
"3y c #554231",
"3z c #554531",
"3{ c #554535",
"3| c #554635",
"3} c #554637",
"3~ c #554838",
"4! c #554840",
"4# c #554935",
"4$ c #554A37",
"4% c #554A38",
"4& c #554B39",
"4' c #554B3A",
"4( c #554C34",
"4) c #554C38",
"4* c #554C3C",
"4+ c #554C3E",
"4, c #554D3C",
"4- c #554D40",
"4. c #55503C",
"4/ c #55503D",
"40 c #55503F",
"41 c #55513D",
"42 c #555140",
"43 c #555141",
"44 c #555143",
"45 c #555244",
"46 c #555441",
"47 c #555640",
"48 c #555647",
"49 c #55574B",
"4: c #555844",
"4; c #555948",
"4< c #555B48",
"4= c #555B4F",
"4> c #555C4C",
"4? c #555C4D",
"4@ c #555D4A",
"4A c #555D4D",
"4B c #555E4D",
"4C c #555F4D",
"4D c #555F51",
"4E c #555F53",
"4F c #556049",
"4G c #55614D",
"4H c #556151",
"4I c #556249",
"4J c #55624A",
"4K c #55624F",
"4L c #556255",
"4M c #556346",
"4N c #55634C",
"4O c #556351",
"4P c #55644F",
"4Q c #556451",
"4R c #556552",
"4S c #55664E",
"4T c #556751",
"4U c #556853",
"4V c #556855",
"4W c #55694E",
"4X c #556958",
"4Y c #557059",
"4Z c #562926",
"4[ c #56321F",
"4] c #563428",
"4^ c #56372B",
"4_ c #563824",
"4` c #563D25",
"4a c #563D2C",
"4b c #563D31",
"4c c #563E2E",
"4d c #563F33",
"4e c #564129",
"4f c #56412D",
"4g c #564331",
"4h c #564635",
"4i c #564735",
"4j c #564738",
"4k c #56492F",
"4l c #564B37",
"4m c #564B39",
"4n c #564C36",
"4o c #564C3C",
"4p c #564C42",
"4q c #564D39",
"4r c #564D47",
"4s c #564E37",
"4t c #564E39",
"4u c #565240",
"4v c #565340",
"4w c #565544",
"4x c #565641",
"4y c #565749",
"4z c #565845",
"4{ c #565847",
"4| c #565848",
"4} c #565947",
"4~ c #565A43",
"5! c #565A47",
"5# c #565A48",
"5$ c #565A4B",
"5% c #565B47",
"5& c #565B4B",
"5' c #565C47",
"5( c #565C4A",
"5) c #565D42",
"5* c #565D4A",
"5+ c #565D4F",
"5, c #565E45",
"5- c #565E47",
"5. c #565F4C",
"5/ c #565F55",
"50 c #56604E",
"51 c #56614A",
"52 c #56624C",
"53 c #566254",
"54 c #566256",
"55 c #56634C",
"56 c #56644D",
"57 c #56644F",
"58 c #56654D",
"59 c #56664F",
"5: c #566746",
"5; c #566751",
"5< c #566754",
"5= c #566758",
"5> c #566856",
"5? c #566952",
"5@ c #566956",
"5A c #56695B",
"5B c #566A5B",
"5C c #566B55",
"5D c #566B56",
"5E c #566D55",
"5F c #566D5E",
"5G c #566E5E",
"5H c #566F5B",
"5I c #566F5C",
"5J c #566F5E",
"5K c #56715B",
"5L c #567866",
"5M c #57291D",
"5N c #573424",
"5O c #57352F",
"5P c #573B22",
"5Q c #573B29",
"5R c #573C2B",
"5S c #573C2D",
"5T c #57402B",
"5U c #574133",
"5V c #574136",
"5W c #574229",
"5X c #574330",
"5Y c #574525",
"5Z c #574531",
"5[ c #574838",
"5] c #574B42",
"5^ c #574C34",
"5_ c #574C3C",
"5` c #574D33",
"5a c #574E33",
"5b c #574F39",
"5c c #574F3F",
"5d c #574F43",
"5e c #575037",
"5f c #57523C",
"5g c #575445",
"5h c #575549",
"5i c #57563D",
"5j c #575647",
"5k c #57583E",
"5l c #575944",
"5m c #575A40",
"5n c #575A42",
"5o c #575B47",
"5p c #575C47",
"5q c #575C4F",
"5r c #575D51",
"5s c #575E4D",
"5t c #575F4B",
"5u c #575F4D",
"5v c #57614D",
"5w c #57614E",
"5x c #576150",
"5y c #576451",
"5z c #576551",
"5{ c #576554",
"5| c #57655A",
"5} c #576656",
"5~ c #576657",
"6! c #576757",
"6# c #576855",
"6$ c #57685B",
"6% c #576952",
"6& c #576B50",
"6' c #576C58",
"6( c #576E59",
"6) c #576E5A",
"6* c #577059",
"6+ c #583827",
"6, c #58382A",
"6- c #583927",
"6. c #583929",
"6/ c #583C2D",
"60 c #583F2D",
"61 c #584030",
"62 c #584034",
"63 c #58422D",
"64 c #58422E",
"65 c #584431",
"66 c #58452D",
"67 c #584630",
"68 c #584837",
"69 c #58483A",
"6: c #584A38",
"6; c #584E3C",
"6< c #584F38",
"6= c #585035",
"6> c #58503C",
"6? c #585043",
"6@ c #58513B",
"6A c #58513E",
"6B c #585140",
"6C c #58523E",
"6D c #585240",
"6E c #585242",
"6F c #58533F",
"6G c #58543C",
"6H c #58543E",
"6I c #585444",
"6J c #585446",
"6K c #585744",
"6L c #585747",
"6M c #58584C",
"6N c #585A46",
"6O c #585A49",
"6P c #585A4A",
"6Q c #585A4D",
"6R c #585B41",
"6S c #585B45",
"6T c #585B4E",
"6U c #585C4D",
"6V c #585D4A",
"6W c #585F43",
"6X c #585F45",
"6Y c #58604B",
"6Z c #586054",
"6[ c #58614F",
"6] c #58624E",
"6^ c #58624F",
"6_ c #586251",
"6` c #58634E",
"6a c #58634F",
"6b c #58644B",
"6c c #586450",
"6d c #586452",
"6e c #586546",
"6f c #586A58",
"6g c #586A59",
"6h c #586B50",
"6i c #586C51",
"6j c #587256",
"6k c #587654",
"6l c #587862",
"6m c #587865",
"6n c #587C67",
"6o c #593128",
"6p c #593320",
"6q c #593421",
"6r c #593623",
"6s c #593729",
"6t c #59392F",
"6u c #593931",
"6v c #593A29",
"6w c #593D26",
"6x c #593D2D",
"6y c #594032",
"6z c #594034",
"6{ c #594136",
"6| c #594531",
"6} c #594639",
"6~ c #594737",
"7! c #594931",
"7# c #594932",
"7$ c #594937",
"7% c #594938",
"7& c #594939",
"7' c #594B39",
"7( c #594B3E",
"7) c #594C3A",
"7* c #594D40",
"7+ c #594E3E",
"7, c #594F39",
"7- c #594F3A",
"7. c #594F3B",
"7/ c #59503C",
"70 c #59513B",
"71 c #59523A",
"72 c #59533A",
"73 c #59533D",
"74 c #59533E",
"75 c #59543E",
"76 c #59543F",
"77 c #595543",
"78 c #595843",
"79 c #595845",
"7: c #595846",
"7; c #595A47",
"7< c #595B46",
"7= c #595B47",
"7> c #595B4C",
"7? c #595C44",
"7@ c #595C4C",
"7A c #595D45",
"7B c #595F4C",
"7C c #595F52",
"7D c #596048",
"7E c #59604C",
"7F c #596052",
"7G c #59614E",
"7H c #596256",
"7I c #596554",
"7J c #59655B",
"7K c #59664E",
"7L c #596653",
"7M c #596655",
"7N c #596754",
"7O c #59685D",
"7P c #596C57",
"7Q c #596C59",
"7R c #596C5A",
"7S c #596D57",
"7T c #597157",
"7U c #59715D",
"7V c #597363",
"7W c #597864",
"7X c #59795F",
"7Y c #597A61",
"7Z c #5A2C1E",
"7[ c #5A2C1F",
"7] c #5A2E1E",
"7^ c #5A3429",
"7_ c #5A3831",
"7` c #5A391F",
"7a c #5A392B",
"7b c #5A3B2A",
"7c c #5A3D21",
"7d c #5A3E2E",
"7e c #5A3F2C",
"7f c #5A3F30",
"7g c #5A422E",
"7h c #5A4233",
"7i c #5A4436",
"7j c #5A4438",
"7k c #5A482D",
"7l c #5A482F",
"7m c #5A4838",
"7n c #5A4932",
"7o c #5A4A2E",
"7p c #5A4A32",
"7q c #5A4C36",
"7r c #5A4D35",
"7s c #5A4D3A",
"7t c #5A4D3C",
"7u c #5A4E3E",
"7v c #5A4F39",
"7w c #5A4F3D",
"7x c #5A5041",
"7y c #5A513D",
"7z c #5A5141",
"7{ c #5A5238",
"7| c #5A5340",
"7} c #5A5545",
"7~ c #5A5641",
"8! c #5A5644",
"8# c #5A5739",
"8$ c #5A5742",
"8% c #5A5745",
"8& c #5A5746",
"8' c #5A583F",
"8( c #5A5848",
"8) c #5A584A",
"8* c #5A5A43",
"8+ c #5A5A47",
"8, c #5A5B46",
"8- c #5A5C40",
"8. c #5A5C4A",
"8/ c #5A5C4D",
"80 c #5A5D47",
"81 c #5A5D49",
"82 c #5A5D4C",
"83 c #5A5E43",
"84 c #5A5E47",
"85 c #5A5E4F",
"86 c #5A5F48",
"87 c #5A5F4E",
"88 c #5A5F4F",
"89 c #5A5F50",
"8: c #5A6044",
"8; c #5A6048",
"8< c #5A6049",
"8= c #5A604A",
"8> c #5A6054",
"8? c #5A614E",
"8@ c #5A6151",
"8A c #5A624B",
"8B c #5A624F",
"8C c #5A634F",
"8D c #5A6550",
"8E c #5A6650",
"8F c #5A6652",
"8G c #5A6653",
"8H c #5A6753",
"8I c #5A6755",
"8J c #5A6756",
"8K c #5A6953",
"8L c #5A6956",
"8M c #5A6A59",
"8N c #5A7158",
"8O c #5A715A",
"8P c #5A7160",
"8Q c #5A725D",
"8R c #5A735A",
"8S c #5A7361",
"8T c #5A7366",
"8U c #5A745E",
"8V c #5A7560",
"8W c #5A7562",
"8X c #5A795D",
"8Y c #5A7A68",
"8Z c #5A836E",
"8[ c #5B311F",
"8] c #5B322A",
"8^ c #5B3321",
"8_ c #5B382B",
"8` c #5B3A2C",
"8a c #5B3A32",
"8b c #5B3F30",
"8c c #5B402A",
"8d c #5B4034",
"8e c #5B4135",
"8f c #5B4329",
"8g c #5B4332",
"8h c #5B433C",
"8i c #5B4533",
"8j c #5B4636",
"8k c #5B472F",
"8l c #5B4A38",
"8m c #5B4A3A",
"8n c #5B4B3B",
"8o c #5B4C3B",
"8p c #5B4D3D",
"8q c #5B4D3E",
"8r c #5B4E40",
"8s c #5B4F3C",
"8t c #5B4F42",
"8u c #5B503D",
"8v c #5B5042",
"8w c #5B513D",
"8x c #5B513E",
"8y c #5B5234",
"8z c #5B5244",
"8{ c #5B5245",
"8| c #5B543B",
"8} c #5B543D",
"8~ c #5B5442",
"9! c #5B5542",
"9# c #5B5641",
"9$ c #5B5645",
"9% c #5B5842",
"9& c #5B5845",
"9' c #5B5946",
"9( c #5B594A",
"9) c #5B5A45",
"9* c #5B5A49",
"9+ c #5B5A4C",
"9, c #5B5A4D",
"9- c #5B5A4F",
"9. c #5B5B42",
"9/ c #5B5B46",
"90 c #5B5C44",
"91 c #5B5D45",
"92 c #5B5D4A",
"93 c #5B5F4C",
"94 c #5B5F4D",
"95 c #5B5F4F",
"96 c #5B604D",
"97 c #5B6149",
"98 c #5B624D",
"99 c #5B6250",
"9: c #5B6352",
"9; c #5B6357",
"9< c #5B6450",
"9= c #5B654F",
"9> c #5B6752",
"9? c #5B6754",
"9@ c #5B6A58",
"9A c #5B6B52",
"9B c #5B6B57",
"9C c #5B6D50",
"9D c #5B6D58",
"9E c #5B6D59",
"9F c #5B6D5B",
"9G c #5B6E5C",
"9H c #5B7056",
"9I c #5B715C",
"9J c #5B7162",
"9K c #5B7166",
"9L c #5B725F",
"9M c #5B7355",
"9N c #5B7760",
"9O c #5B7762",
"9P c #5B7867",
"9Q c #5B795E",
"9R c #5B7F65",
"9S c #5C2D20",
"9T c #5C2E1C",
"9U c #5C3428",
"9V c #5C3521",
"9W c #5C3523",
"9X c #5C412E",
"9Y c #5C4130",
"9Z c #5C472F",
"9[ c #5C4731",
"9] c #5C4735",
"9^ c #5C4830",
"9_ c #5C483A",
"9` c #5C483F",
"9a c #5C4931",
"9b c #5C4A35",
"9c c #5C4A37",
"9d c #5C4B37",
"9e c #5C4C39",
"9f c #5C4E34",
"9g c #5C4E38",
"9h c #5C4F3D",
"9i c #5C4F3E",
"9j c #5C503D",
"9k c #5C533A",
"9l c #5C5341",
"9m c #5C5343",
"9n c #5C5344",
"9o c #5C543D",
"9p c #5C5442",
"9q c #5C5540",
"9r c #5C5545",
"9s c #5C5744",
"9t c #5C5847",
"9u c #5C5B46",
"9v c #5C5B4D",
"9w c #5C5C40",
"9x c #5C5C42",
"9y c #5C5C44",
"9z c #5C5C4B",
"9{ c #5C5C4D",
"9| c #5C5D45",
"9} c #5C5D48",
"9~ c #5C5D4B",
":! c #5C5D4C",
":# c #5C5E4A",
":$ c #5C5F43",
":% c #5C5F48",
":& c #5C5F4F",
":' c #5C6147",
":( c #5C6149",
":) c #5C6154",
":* c #5C624F",
":+ c #5C634F",
":, c #5C644A",
":- c #5C6551",
":. c #5C6552",
":/ c #5C6755",
":0 c #5C6948",
":1 c #5C694C",
":2 c #5C6955",
":3 c #5C6957",
":4 c #5C6A53",
":5 c #5C6D54",
":6 c #5C6F59",
":7 c #5C6F5B",
":8 c #5C7061",
":9 c #5C7251",
":: c #5C7365",
":; c #5C7455",
":< c #5C745D",
":= c #5C7563",
":> c #5C775C",
":? c #5C7B6B",
":@ c #5C8065",
":A c #5D3420",
":B c #5D361F",
":C c #5D3927",
":D c #5D3B2C",
":E c #5D3D34",
":F c #5D4030",
":G c #5D432E",
":H c #5D4333",
":I c #5D4536",
":J c #5D4835",
":K c #5D483B",
":L c #5D4930",
":M c #5D4932",
":N c #5D4939",
":O c #5D4A3B",
":P c #5D4C37",
":Q c #5D4D34",
":R c #5D4D3A",
":S c #5D4F35",
":T c #5D4F42",
":U c #5D4F44",
":V c #5D5033",
":W c #5D503E",
":X c #5D523E",
":Y c #5D523F",
":Z c #5D533F",
":[ c #5D5842",
":] c #5D5846",
":^ c #5D5944",
":_ c #5D5A3D",
":` c #5D5A48",
":a c #5D5A4D",
":b c #5D5A4E",
":c c #5D5B46",
":d c #5D5D4C",
":e c #5D5E49",
":f c #5D5E4E",
":g c #5D5F52",
":h c #5D614C",
":i c #5D6150",
":j c #5D624D",
":k c #5D6250",
":l c #5D634E",
":m c #5D6350",
":n c #5D6351",
":o c #5D654F",
":p c #5D6550",
":q c #5D6555",
":r c #5D6651",
":s c #5D6655",
":t c #5D6756",
":u c #5D684F",
":v c #5D6854",
":w c #5D6855",
":x c #5D685B",
":y c #5D6A54",
":z c #5D6A63",
":{ c #5D6B5A",
":| c #5D6B60",
":} c #5D6C58",
":~ c #5D6D56",
";! c #5D6D61",
";# c #5D6F61",
";$ c #5D725C",
";% c #5D7558",
";& c #5D755C",
";' c #5D775E",
";( c #5D785F",
";) c #5D796E",
";* c #5D7A68",
";+ c #5D7C5F",
";, c #5D7E67",
";- c #5D8668",
";. c #5E2922",
";/ c #5E3020",
";0 c #5E412E",
";1 c #5E432A",
";2 c #5E4632",
";3 c #5E4933",
";4 c #5E4C39",
";5 c #5E4C3B",
";6 c #5E4D35",
";7 c #5E503E",
";8 c #5E513D",
";9 c #5E5249",
";: c #5E533A",
";; c #5E5340",
";< c #5E5341",
";= c #5E5541",
";> c #5E5641",
";? c #5E5642",
";@ c #5E5645",
";A c #5E573F",
";B c #5E5744",
";C c #5E583D",
";D c #5E5940",
";E c #5E5A48",
";F c #5E5B43",
";G c #5E5B45",
";H c #5E5C41",
";I c #5E5C47",
";J c #5E5D45",
";K c #5E5D48",
";L c #5E5E4E",
";M c #5E5E52",
";N c #5E614E",
";O c #5E624C",
";P c #5E624E",
";Q c #5E6351",
";R c #5E654E",
";S c #5E6550",
";T c #5E664F",
";U c #5E6656",
";V c #5E6659",
";W c #5E6849",
";X c #5E6A51",
";Y c #5E6D5C",
";Z c #5E6E61",
";[ c #5E6F64",
";] c #5E715E",
";^ c #5E7160",
";_ c #5E7260",
";` c #5E7358",
";a c #5E735D",
";b c #5E7763",
";c c #5E7863",
";d c #5E7A61",
";e c #5E8571",
";f c #5F2D20",
";g c #5F3320",
";h c #5F3325",
";i c #5F3820",
";j c #5F3920",
";k c #5F3D24",
";l c #5F3E22",
";m c #5F3F2A",
";n c #5F3F2B",
";o c #5F3F30",
";p c #5F4129",
";q c #5F4630",
";r c #5F463B",
";s c #5F483C",
";t c #5F483E",
";u c #5F4932",
";v c #5F4A3C",
";w c #5F4D39",
";x c #5F4D3E",
";y c #5F4D40",
";z c #5F4E3F",
";{ c #5F503F",
";| c #5F513F",
";} c #5F533F",
";~ c #5F543C",
"<! c #5F5441",
"<# c #5F5442",
"<$ c #5F5644",
"<% c #5F5742",
"<& c #5F5946",
"<' c #5F5A46",
"<( c #5F5B43",
"<) c #5F5B44",
"<* c #5F5B4A",
"<+ c #5F5B4D",
"<, c #5F5C48",
"<- c #5F5C4C",
"<. c #5F5D51",
"</ c #5F5E49",
"<0 c #5F5F41",
"<1 c #5F5F47",
"<2 c #5F6044",
"<3 c #5F6049",
"<4 c #5F6146",
"<5 c #5F6152",
"<6 c #5F624D",
"<7 c #5F634C",
"<8 c #5F634F",
"<9 c #5F644C",
"<: c #5F644E",
"<; c #5F6450",
"<< c #5F6453",
"<= c #5F6753",
"<> c #5F6950",
"<? c #5F6955",
"<@ c #5F6A54",
"<A c #5F6C52",
"<B c #5F6C55",
"<C c #5F6D5A",
"<D c #5F6D5C",
"<E c #5F6E59",
"<F c #5F6F58",
"<G c #5F705B",
"<H c #5F7060",
"<I c #5F715D",
"<J c #5F725D",
"<K c #5F725E",
"<L c #5F745F",
"<M c #5F755F",
"<N c #5F7562",
"<O c #5F7564",
"<P c #5F7663",
"<Q c #5F7865",
"<R c #5F7868",
"<S c #5F7D62",
"<T c #5F7D69",
"<U c #5F815F",
"<V c #5F8F74",
"<W c #602E21",
"<X c #603323",
"<Y c #603720",
"<Z c #603A2F",
"<[ c #603B2A",
"<] c #603B34",
"<^ c #604031",
"<_ c #60432C",
"<` c #60442D",
"<a c #60452D",
"<b c #604633",
"<c c #60483A",
"<d c #604931",
"<e c #60493C",
"<f c #604C39",
"<g c #604C3B",
"<h c #604E38",
"<i c #604F38",
"<j c #604F3C",
"<k c #605038",
"<l c #60513B",
"<m c #60513D",
"<n c #60513E",
"<o c #605244",
"<p c #60553D",
"<q c #605545",
"<r c #60563A",
"<s c #605644",
"<t c #605742",
"<u c #60583C",
"<v c #605947",
"<w c #605A4A",
"<x c #605B4A",
"<y c #605C45",
"<z c #605C49",
"<{ c #605D4F",
"<| c #605E47",
"<} c #605E49",
"<~ c #605E4C",
"=! c #605F4F",
"=# c #60604A",
"=$ c #606051",
"=% c #60614B",
"=& c #60624C",
"=' c #606444",
"=( c #606451",
"=) c #606456",
"=* c #60664C",
"=+ c #606651",
"=, c #606951",
"=- c #606959",
"=. c #606A54",
"=/ c #606B54",
"=0 c #606B55",
"=1 c #606D56",
"=2 c #606D57",
"=3 c #606D60",
"=4 c #606E51",
"=5 c #606E61",
"=6 c #606F57",
"=7 c #606F58",
"=8 c #60735E",
"=9 c #60745A",
"=: c #60765F",
"=; c #60795F",
"=< c #607D67",
"== c #608069",
"=> c #60806C",
"=? c #613425",
"=@ c #613A26",
"=A c #613C29",
"=B c #613D27",
"=C c #61432D",
"=D c #614631",
"=E c #614636",
"=F c #614839",
"=G c #614934",
"=H c #614F39",
"=I c #614F3E",
"=J c #61503D",
"=K c #615134",
"=L c #61513A",
"=M c #61513F",
"=N c #61543D",
"=O c #615540",
"=P c #61563F",
"=Q c #615640",
"=R c #615644",
"=S c #615645",
"=T c #615743",
"=U c #615842",
"=V c #615845",
"=W c #615846",
"=X c #615B48",
"=Y c #615B4D",
"=Z c #615C42",
"=[ c #615F4B",
"=] c #616046",
"=^ c #61604C",
"=_ c #61614F",
"=` c #616253",
"=a c #616450",
"=b c #616555",
"=c c #616656",
"=d c #61674A",
"=e c #61674F",
"=f c #616750",
"=g c #616850",
"=h c #616855",
"=i c #616957",
"=j c #616B4D",
"=k c #616B56",
"=l c #616B57",
"=m c #616C59",
"=n c #616C5D",
"=o c #616D58",
"=p c #616F5E",
"=q c #61705C",
"=r c #617157",
"=s c #617568",
"=t c #617660",
"=u c #617661",
"=v c #61775F",
"=w c #617764",
"=x c #61795E",
"=y c #617D64",
"=z c #617F72",
"={ c #61815E",
"=| c #618676",
"=} c #622D1D",
"=~ c #624027",
">! c #624032",
"># c #624134",
">$ c #624230",
">% c #624334",
">& c #624339",
">' c #624431",
">( c #624527",
">) c #624A39",
">* c #624B36",
">+ c #624C3A",
">, c #624C3C",
">- c #62503D",
">. c #62513C",
">/ c #62513F",
">0 c #62543A",
">1 c #625441",
">2 c #625637",
">3 c #62563F",
">4 c #625640",
">5 c #625946",
">6 c #625C41",
">7 c #625C47",
">8 c #625C4A",
">9 c #625E4A",
">: c #625E4F",
">; c #625F4E",
">< c #62604D",
">= c #62604F",
">> c #626154",
">? c #626354",
">@ c #62635B",
">A c #62654B",
">B c #626553",
">C c #626650",
">D c #626654",
">E c #626853",
">F c #626855",
">G c #626951",
">H c #626952",
">I c #626A4D",
">J c #626B55",
">K c #626E58",
">L c #626F59",
">M c #626F5A",
">N c #62705F",
">O c #627060",
">P c #62725C",
">Q c #627260",
">R c #62735D",
">S c #627462",
">T c #627561",
">U c #627656",
">V c #627664",
">W c #627763",
">X c #62776B",
">Y c #627B62",
">Z c #627E67",
">[ c #627F67",
">] c #633A27",
">^ c #634631",
">_ c #634639",
">` c #634833",
">a c #634B36",
">b c #634C36",
">c c #634C39",
">d c #634C3B",
">e c #634C3E",
">f c #634E38",
">g c #634E42",
">h c #634F37",
">i c #635036",
">j c #635041",
">k c #635335",
">l c #635535",
">m c #635541",
">n c #635644",
">o c #63573D",
">p c #635742",
">q c #635749",
">r c #635843",
">s c #635845",
">t c #635A3D",
">u c #635A46",
">v c #635A4F",
">w c #635B4D",
">x c #635D46",
">y c #635F49",
">z c #635F4A",
">{ c #635F4D",
">| c #636247",
">} c #636251",
">~ c #63644F",
"?! c #63654D",
"?# c #636749",
"?$ c #636756",
"?% c #636951",
"?& c #636953",
"?' c #636955",
"?( c #63695A",
"?) c #636A5B",
"?* c #636C57",
"?+ c #636D54",
"?, c #636D58",
"?- c #636D59",
"?. c #636E5C",
"?/ c #63705C",
"?0 c #637165",
"?1 c #637259",
"?2 c #637358",
"?3 c #63755F",
"?4 c #637563",
"?5 c #637F72",
"?6 c #638472",
"?7 c #64271D",
"?8 c #643D2E",
"?9 c #644026",
"?: c #64402B",
"?; c #64402C",
"?< c #644228",
"?= c #644632",
"?> c #64492A",
"?? c #64492B",
"?@ c #644A36",
"?A c #644B39",
"?B c #644E37",
"?C c #644E47",
"?D c #64503C",
"?E c #64513E",
"?F c #645141",
"?G c #64523D",
"?H c #645242",
"?I c #64533F",
"?J c #64543A",
"?K c #645440",
"?L c #645543",
"?M c #645642",
"?N c #645740",
"?O c #645742",
"?P c #645839",
"?Q c #64583D",
"?R c #645847",
"?S c #645947",
"?T c #645A3C",
"?U c #645A47",
"?V c #645A49",
"?W c #645B43",
"?X c #645C45",
"?Y c #645E4D",
"?Z c #646049",
"?[ c #64604A",
"?] c #64604E",
"?^ c #64614D",
"?_ c #646249",
"?` c #64624C",
"?a c #646451",
"?b c #646650",
"?c c #646951",
"?d c #646A4B",
"?e c #646A4D",
"?f c #646B5E",
"?g c #646D57",
"?h c #646D61",
"?i c #646D62",
"?j c #646E53",
"?k c #646F56",
"?l c #64715C",
"?m c #647361",
"?n c #64765D",
"?o c #647868",
"?p c #647A64",
"?q c #647A67",
"?r c #647B60",
"?s c #647B66",
"?t c #647C57",
"?u c #647C6F",
"?v c #648671",
"?w c #648870",
"?x c #64896C",
"?y c #653B31",
"?z c #653E29",
"?{ c #65422E",
"?| c #654438",
"?} c #654537",
"?~ c #65462C",
"@! c #654C36",
"@# c #654C37",
"@$ c #65503F",
"@% c #655443",
"@& c #655642",
"@' c #655645",
"@( c #65593D",
"@) c #65593F",
"@* c #655B47",
"@+ c #655C45",
"@, c #655D47",
"@- c #655D4D",
"@. c #655E40",
"@/ c #656042",
"@0 c #656047",
"@1 c #65604B",
"@2 c #656146",
"@3 c #656149",
"@4 c #65614E",
"@5 c #656453",
"@6 c #65654D",
"@7 c #656553",
"@8 c #656652",
"@9 c #656758",
"@: c #656845",
"@; c #656852",
"@< c #656858",
"@= c #656955",
"@> c #656A57",
"@? c #656C5E",
"@@ c #656F57",
"@A c #657063",
"@B c #65715E",
"@C c #657255",
"@D c #657560",
"@E c #657C69",
"@F c #657D60",
"@G c #657F6A",
"@H c #658973",
"@I c #658D85",
"@J c #663831",
"@K c #663A29",
"@L c #664136",
"@M c #664225",
"@N c #66442B",
"@O c #66472E",
"@P c #66492F",
"@Q c #664C33",
"@R c #664C36",
"@S c #664D3A",
"@T c #664E3F",
"@U c #664F39",
"@V c #665036",
"@W c #665039",
"@X c #665135",
"@Y c #66523B",
"@Z c #665241",
"@[ c #665341",
"@] c #665437",
"@^ c #66543A",
"@_ c #66553B",
"@` c #665645",
"@a c #665847",
"@b c #665848",
"@c c #66593D",
"@d c #665941",
"@e c #665942",
"@f c #665A45",
"@g c #665C43",
"@h c #665C45",
"@i c #665C4B",
"@j c #665D3A",
"@k c #665E45",
"@l c #666053",
"@m c #666244",
"@n c #666349",
"@o c #666446",
"@p c #666550",
"@q c #666558",
"@r c #666653",
"@s c #66684D",
"@t c #66694F",
"@u c #666952",
"@v c #666955",
"@w c #666962",
"@x c #666A4E",
"@y c #666A58",
"@z c #666A5B",
"@{ c #666B5B",
"@| c #666D50",
"@} c #666D59",
"@~ c #666E57",
"A! c #667054",
"A# c #66715B",
"A$ c #66745D",
"A% c #66755B",
"A& c #667561",
"A' c #667656",
"A( c #66785E",
"A) c #667965",
"A* c #667A66",
"A+ c #667A68",
"A, c #667A6E",
"A- c #667E66",
"A. c #667F64",
"A/ c #668168",
"A0 c #66826C",
"A1 c #66836E",
"A2 c #668370",
"A3 c #66896E",
"A4 c #672D20",
"A5 c #67371F",
"A6 c #674324",
"A7 c #674530",
"A8 c #67462B",
"A9 c #674631",
"A: c #674832",
"A; c #674A35",
"A< c #674B35",
"A= c #674F3D",
"A> c #675136",
"A? c #67513C",
"A@ c #67523C",
"AA c #675242",
"AB c #67553A",
"AC c #675642",
"AD c #675843",
"AE c #67593F",
"AF c #675946",
"AG c #675B46",
"AH c #675C43",
"AI c #675D47",
"AJ c #675D4B",
"AK c #675F4B",
"AL c #67634C",
"AM c #676352",
"AN c #67644C",
"AO c #676651",
"AP c #676655",
"AQ c #67674E",
"AR c #67685B",
"AS c #67694D",
"AT c #676A4C",
"AU c #676A50",
"AV c #676A58",
"AW c #676B54",
"AX c #676D53",
"AY c #676D55",
"AZ c #676E54",
"A[ c #676F5B",
"A] c #677060",
"A^ c #677154",
"A_ c #677155",
"A` c #67745A",
"Aa c #67755D",
"Ab c #677566",
"Ac c #67785F",
"Ad c #677863",
"Ae c #677D64",
"Af c #678064",
"Ag c #678065",
"Ah c #678169",
"Ai c #67826A",
"Aj c #678572",
"Ak c #679876",
"Al c #683D22",
"Am c #684026",
"An c #684028",
"Ao c #68422E",
"Ap c #68462F",
"Aq c #684E39",
"Ar c #684F34",
"As c #685036",
"At c #685139",
"Au c #68523A",
"Av c #68523C",
"Aw c #68553D",
"Ax c #68563B",
"Ay c #68563C",
"Az c #685640",
"A{ c #685736",
"A| c #68573C",
"A} c #685A3E",
"A~ c #685A44",
"B! c #685A45",
"B# c #685A4A",
"B$ c #685B47",
"B% c #685C48",
"B& c #685D4F",
"B' c #685F4B",
"B( c #685F4C",
"B) c #685F4D",
"B* c #68604B",
"B+ c #68614C",
"B, c #68614E",
"B- c #686252",
"B. c #68644A",
"B/ c #68644E",
"B0 c #68664A",
"B1 c #68664C",
"B2 c #68674B",
"B3 c #68684D",
"B4 c #686B57",
"B5 c #686B58",
"B6 c #686C54",
"B7 c #686C58",
"B8 c #686E57",
"B9 c #687257",
"B: c #687258",
"B; c #68745C",
"B< c #687563",
"B= c #687565",
"B> c #68765C",
"B? c #68765F",
"B@ c #68775C",
"BA c #687763",
"BB c #687B60",
"BC c #687B67",
"BD c #687E6A",
"BE c #68826C",
"BF c #688472",
"BG c #688571",
"BH c #688B78",
"BI c #688D76",
"BJ c #69352F",
"BK c #693A2A",
"BL c #69482C",
"BM c #694934",
"BN c #694A39",
"BO c #694B37",
"BP c #694E38",
"BQ c #694E3C",
"BR c #69563F",
"BS c #695745",
"BT c #69583D",
"BU c #695A40",
"BV c #695B3C",
"BW c #695B41",
"BX c #695C3A",
"BY c #695C44",
"BZ c #695C47",
"B[ c #695C4B",
"B] c #695D40",
"B^ c #695D42",
"B_ c #695E43",
"B` c #695F44",
"Ba c #695F4B",
"Bb c #696143",
"Bc c #69614B",
"Bd c #696248",
"Be c #69644B",
"Bf c #696452",
"Bg c #696455",
"Bh c #696550",
"Bi c #696551",
"Bj c #69664E",
"Bk c #696655",
"Bl c #696749",
"Bm c #69674E",
"Bn c #696750",
"Bo c #696753",
"Bp c #696957",
"Bq c #696A52",
"Br c #696A5B",
"Bs c #696A64",
"Bt c #696B50",
"Bu c #696B54",
"Bv c #696C50",
"Bw c #696C52",
"Bx c #696D54",
"By c #696E50",
"Bz c #696E5E",
"B{ c #69715E",
"B| c #697263",
"B} c #69735B",
"B~ c #697360",
"C! c #69745C",
"C# c #69755F",
"C$ c #697767",
"C% c #697856",
"C& c #697864",
"C' c #69795C",
"C( c #697961",
"C) c #697A62",
"C* c #697A63",
"C+ c #697D63",
"C, c #697E6D",
"C- c #698062",
"C. c #69806A",
"C/ c #698671",
"C0 c #698677",
"C1 c #69896C",
"C2 c #698C75",
"C3 c #6A3B29",
"C4 c #6A4739",
"C5 c #6A4F3D",
"C6 c #6A5038",
"C7 c #6A513F",
"C8 c #6A523F",
"C9 c #6A5539",
"C: c #6A5844",
"C; c #6A5845",
"C< c #6A5945",
"C= c #6A5A41",
"C> c #6A5A43",
"C? c #6A5A47",
"C@ c #6A5C44",
"CA c #6A5D3E",
"CB c #6A5F4D",
"CC c #6A603F",
"CD c #6A6045",
"CE c #6A604D",
"CF c #6A6145",
"CG c #6A634A",
"CH c #6A654D",
"CI c #6A6758",
"CJ c #6A6851",
"CK c #6A694E",
"CL c #6A6A53",
"CM c #6A6C4F",
"CN c #6A6C5E",
"CO c #6A6E53",
"CP c #6A6E56",
"CQ c #6A7354",
"CR c #6A735E",
"CS c #6A765E",
"CT c #6A775E",
"CU c #6A785D",
"CV c #6A785E",
"CW c #6A7A69",
"CX c #6A7F65",
"CY c #6A8060",
"CZ c #6A8167",
"C[ c #6A856F",
"C] c #6A866F",
"C^ c #6A876E",
"C_ c #6B4027",
"C` c #6B452F",
"Ca c #6B4C2E",
"Cb c #6B4E3A",
"Cc c #6B5135",
"Cd c #6B5138",
"Ce c #6B5233",
"Cf c #6B523C",
"Cg c #6B5335",
"Ch c #6B533F",
"Ci c #6B573B",
"Cj c #6B5747",
"Ck c #6B5C42",
"Cl c #6B5C4A",
"Cm c #6B5D48",
"Cn c #6B5E45",
"Co c #6B5E48",
"Cp c #6B603E",
"Cq c #6B614D",
"Cr c #6B6242",
"Cs c #6B6346",
"Ct c #6B634E",
"Cu c #6B644D",
"Cv c #6B6550",
"Cw c #6B6956",
"Cx c #6B6B54",
"Cy c #6B6B5B",
"Cz c #6B6C51",
"C{ c #6B6D5A",
"C| c #6B6D5C",
"C} c #6B7057",
"C~ c #6B7259",
"D! c #6B725E",
"D# c #6B745C",
"D$ c #6B765F",
"D% c #6B7661",
"D& c #6B7963",
"D' c #6B7B60",
"D( c #6B7C63",
"D) c #6B7D5C",
"D* c #6B7D6D",
"D+ c #6B7E66",
"D, c #6B8768",
"D- c #6B8F7C",
"D. c #6C3D2D",
"D/ c #6C4234",
"D0 c #6C4A2E",
"D1 c #6C4D3D",
"D2 c #6C4F35",
"D3 c #6C4F3A",
"D4 c #6C513B",
"D5 c #6C5442",
"D6 c #6C553D",
"D7 c #6C5645",
"D8 c #6C583B",
"D9 c #6C5843",
"D: c #6C5940",
"D; c #6C5A3F",
"D< c #6C5F52",
"D= c #6C604E",
"D> c #6C614C",
"D? c #6C614D",
"D@ c #6C624F",
"DA c #6C6346",
"DB c #6C6350",
"DC c #6C654A",
"DD c #6C684D",
"DE c #6C6A49",
"DF c #6C6C4B",
"DG c #6C6F51",
"DH c #6C6F5F",
"DI c #6C705E",
"DJ c #6C705F",
"DK c #6C715E",
"DL c #6C7251",
"DM c #6C725E",
"DN c #6C7459",
"DO c #6C745B",
"DP c #6C7665",
"DQ c #6C775D",
"DR c #6C7967",
"DS c #6C826D",
"DT c #6C826E",
"DU c #6C8367",
"DV c #6D3E25",
"DW c #6D422F",
"DX c #6D4230",
"DY c #6D4429",
"DZ c #6D442F",
"D[ c #6D4433",
"D] c #6D452B",
"D^ c #6D4932",
"D_ c #6D4935",
"D` c #6D4A32",
"Da c #6D4A33",
"Db c #6D4C3C",
"Dc c #6D5149",
"Dd c #6D5340",
"De c #6D534A",
"Df c #6D593D",
"Dg c #6D5A46",
"Dh c #6D5D48",
"Di c #6D6044",
"Dj c #6D624C",
"Dk c #6D6455",
"Dl c #6D6553",
"Dm c #6D674E",
"Dn c #6D6857",
"Do c #6D6A50",
"Dp c #6D6A56",
"Dq c #6D6B51",
"Dr c #6D6C58",
"Ds c #6D6C59",
"Dt c #6D6E4D",
"Du c #6D6F57",
"Dv c #6D7165",
"Dw c #6D7253",
"Dx c #6D725D",
"Dy c #6D735E",
"Dz c #6D745E",
"D{ c #6D7960",
"D| c #6D7966",
"D} c #6D7A57",
"D~ c #6D7B69",
"E! c #6D7C62",
"E# c #6D7D66",
"E$ c #6D7D6A",
"E% c #6D8374",
"E& c #6D9C80",
"E' c #6E3F2E",
"E( c #6E4233",
"E) c #6E4633",
"E* c #6E4F4A",
"E+ c #6E5437",
"E, c #6E5639",
"E- c #6E573F",
"E. c #6E5D47",
"E/ c #6E5E46",
"E0 c #6E5F41",
"E1 c #6E5F46",
"E2 c #6E604A",
"E3 c #6E6353",
"E4 c #6E6651",
"E5 c #6E6848",
"E6 c #6E684F",
"E7 c #6E6850",
"E8 c #6E6959",
"E9 c #6E6B4E",
"E: c #6E6B5B",
"E; c #6E6B5C",
"E< c #6E6C5E",
"E= c #6E6D4E",
"E> c #6E6F5A",
"E? c #6E705A",
"E@ c #6E715A",
"EA c #6E7456",
"EB c #6E7458",
"EC c #6E7A5B",
"ED c #6E7B5F",
"EE c #6E7D61",
"EF c #6E846D",
"EG c #6E8976",
"EH c #6E8F78",
"EI c #6F2D26",
"EJ c #6F463A",
"EK c #6F482C",
"EL c #6F4930",
"EM c #6F4A35",
"EN c #6F4B38",
"EO c #6F4D38",
"EP c #6F4E36",
"EQ c #6F5139",
"ER c #6F533A",
"ES c #6F5749",
"ET c #6F5843",
"EU c #6F5A48",
"EV c #6F5B44",
"EW c #6F5C4C",
"EX c #6F5D43",
"EY c #6F5E47",
"EZ c #6F614A",
"E[ c #6F6353",
"E] c #6F6549",
"E^ c #6F654B",
"E_ c #6F654F",
"E` c #6F6752",
"Ea c #6F684F",
"Eb c #6F6856",
"Ec c #6F6A54",
"Ed c #6F6E50",
"Ee c #6F704F",
"Ef c #6F7058",
"Eg c #6F715D",
"Eh c #6F7260",
"Ei c #6F735C",
"Ej c #6F7461",
"Ek c #6F765E",
"El c #6F7862",
"Em c #6F7965",
"En c #6F7A68",
"Eo c #6F7B67",
"Ep c #6F806C",
"Eq c #6F8574",
"Er c #6F866B",
"Es c #6F8A70",
"Et c #6F8B7B",
"Eu c #6F9078",
"Ev c #6F9378",
"Ew c #6F9A81",
"Ex c #703B20",
"Ey c #703B22",
"Ez c #705441",
"E{ c #705C46",
"E| c #705C48",
"E} c #705C4C",
"E~ c #705D4D",
"F! c #705E46",
"F# c #705E48",
"F$ c #706347",
"F% c #70634F",
"F& c #70644D",
"F' c #706451",
"F( c #706454",
"F) c #706548",
"F* c #706551",
"F+ c #70664C",
"F, c #706654",
"F- c #70684F",
"F. c #706D55",
"F/ c #707255",
"F0 c #707355",
"F1 c #70735F",
"F2 c #707368",
"F3 c #70745C",
"F4 c #70745E",
"F5 c #707557",
"F6 c #707960",
"F7 c #707B65",
"F8 c #707C5F",
"F9 c #707E5E",
"F: c #707E67",
"F; c #707E6E",
"F< c #708062",
"F= c #708875",
"F> c #708970",
"F? c #708D79",
"F@ c #708F6C",
"FA c #714A33",
"FB c #714D3A",
"FC c #71583F",
"FD c #715D3F",
"FE c #715E4B",
"FF c #715F40",
"FG c #716049",
"FH c #71624E",
"FI c #71654F",
"FJ c #71694B",
"FK c #716952",
"FL c #716A4E",
"FM c #716D59",
"FN c #716E58",
"FO c #716F4F",
"FP c #716F5A",
"FQ c #71705A",
"FR c #717255",
"FS c #717460",
"FT c #71755A",
"FU c #717A61",
"FV c #717C66",
"FW c #717D61",
"FX c #717E64",
"FY c #718369",
"FZ c #718F72",
"F[ c #72261D",
"F] c #724C32",
"F^ c #724D32",
"F_ c #724E35",
"F` c #725030",
"Fa c #725239",
"Fb c #72543D",
"Fc c #72563E",
"Fd c #725D45",
"Fe c #726254",
"Ff c #72634A",
"Fg c #726748",
"Fh c #72674F",
"Fi c #726850",
"Fj c #726952",
"Fk c #726B4F",
"Fl c #726B54",
"Fm c #726C55",
"Fn c #726D5B",
"Fo c #726F5B",
"Fp c #72704F",
"Fq c #727256",
"Fr c #72725B",
"Fs c #727457",
"Ft c #72765D",
"Fu c #727766",
"Fv c #72785A",
"Fw c #72785B",
"Fx c #727B60",
"Fy c #727F6C",
"Fz c #728267",
"F{ c #72826C",
"F| c #728975",
"F} c #728C72",
"F~ c #733C28",
"G! c #734331",
"G# c #734A33",
"G$ c #734C35",
"G% c #734F3E",
"G& c #735035",
"G' c #73513F",
"G( c #735437",
"G) c #73553C",
"G* c #73573F",
"G+ c #73583D",
"G, c #735C41",
"G- c #735C44",
"G. c #736146",
"G/ c #73614D",
"G0 c #73624C",
"G1 c #736648",
"G2 c #736651",
"G3 c #736655",
"G4 c #736E5B",
"G5 c #736F55",
"G6 c #737059",
"G7 c #73705D",
"G8 c #737156",
"G9 c #737861",
"G: c #737864",
"G; c #737B65",
"G< c #737D66",
"G= c #737E5F",
"G> c #737E63",
"G? c #738A72",
"G@ c #739078",
"GA c #73907A",
"GB c #74351D",
"GC c #744229",
"GD c #744729",
"GE c #744E3D",
"GF c #745136",
"GG c #745743",
"GH c #745F40",
"GI c #745F4A",
"GJ c #746149",
"GK c #746244",
"GL c #74643E",
"GM c #746451",
"GN c #74654B",
"GO c #746658",
"GP c #746A54",
"GQ c #746C57",
"GR c #746C5D",
"GS c #746F57",
"GT c #74755B",
"GU c #74785D",
"GV c #747861",
"GW c #747863",
"GX c #747A63",
"GY c #747B63",
"GZ c #747B64",
"G[ c #747F72",
"G] c #748267",
"G^ c #748273",
"G_ c #748770",
"G` c #748B73",
"Ga c #748C67",
"Gb c #753625",
"Gc c #75442B",
"Gd c #754638",
"Ge c #754930",
"Gf c #754A2E",
"Gg c #754D37",
"Gh c #75523A",
"Gi c #755339",
"Gj c #755542",
"Gk c #755C44",
"Gl c #755C4D",
"Gm c #75614B",
"Gn c #756352",
"Go c #756650",
"Gp c #756851",
"Gq c #756E52",
"Gr c #757357",
"Gs c #75755F",
"Gt c #757566",
"Gu c #757763",
"Gv c #757863",
"Gw c #757C5B",
"Gx c #75816A",
"Gy c #758267",
"Gz c #759181",
"G{ c #759878",
"G| c #763A23",
"G} c #764936",
"G~ c #764C32",
"H! c #764D37",
"H# c #76543E",
"H$ c #765539",
"H% c #765747",
"H& c #765841",
"H' c #765A3C",
"H( c #765A45",
"H) c #765A46",
"H* c #765B42",
"H+ c #765C3D",
"H, c #765F53",
"H- c #766045",
"H. c #76633F",
"H/ c #76654B",
"H0 c #766550",
"H1 c #76674B",
"H2 c #766A4D",
"H3 c #766B52",
"H4 c #766C54",
"H5 c #766D4E",
"H6 c #766D50",
"H7 c #766D55",
"H8 c #766E58",
"H9 c #766E5B",
"H: c #767059",
"H; c #767155",
"H< c #76715C",
"H= c #767257",
"H> c #767258",
"H? c #76755F",
"H@ c #76785F",
"HA c #767862",
"HB c #767863",
"HC c #767A5A",
"HD c #767D60",
"HE c #767E61",
"HF c #767F63",
"HG c #767F69",
"HH c #768B6E",
"HI c #76907B",
"HJ c #769280",
"HK c #76957E",
"HL c #773B23",
"HM c #774127",
"HN c #774B3C",
"HO c #774F39",
"HP c #77503A",
"HQ c #775142",
"HR c #77583E",
"HS c #775938",
"HT c #77593A",
"HU c #776244",
"HV c #776251",
"HW c #77664B",
"HX c #776650",
"HY c #77684C",
"HZ c #776854",
"H[ c #776952",
"H] c #77715A",
"H^ c #77725A",
"H_ c #77745D",
"H` c #777557",
"Ha c #777A63",
"Hb c #777E63",
"Hc c #777E67",
"Hd c #77856A",
"He c #77856C",
"Hf c #778A7C",
"Hg c #778E70",
"Hh c #778E76",
"Hi c #783925",
"Hj c #784532",
"Hk c #784B30",
"Hl c #784B36",
"Hm c #785845",
"Hn c #785F47",
"Ho c #786142",
"Hp c #786148",
"Hq c #786549",
"Hr c #78654E",
"Hs c #786552",
"Ht c #786756",
"Hu c #78684D",
"Hv c #786851",
"Hw c #786A4C",
"Hx c #786A53",
"Hy c #786E55",
"Hz c #786F54",
"H{ c #787052",
"H| c #787054",
"H} c #78725C",
"H~ c #78775F",
"I! c #787862",
"I# c #78795B",
"I$ c #787A5D",
"I% c #788065",
"I& c #78826A",
"I' c #788369",
"I( c #78865F",
"I) c #79412A",
"I* c #794327",
"I+ c #794B34",
"I, c #794C33",
"I- c #795033",
"I. c #79604A",
"I/ c #79614B",
"I0 c #79624B",
"I1 c #796752",
"I2 c #796A57",
"I3 c #796B4F",
"I4 c #796D46",
"I5 c #796D50",
"I6 c #797159",
"I7 c #79735B",
"I8 c #79785B",
"I9 c #797D6A",
"I: c #797E64",
"I; c #797F5F",
"I< c #79806F",
"I= c #79846A",
"I> c #79876B",
"I? c #798870",
"I@ c #799279",
"IA c #799582",
"IB c #7A452B",
"IC c #7A4B3C",
"ID c #7A4C2E",
"IE c #7A543B",
"IF c #7A5E49",
"IG c #7A6C53",
"IH c #7A705B",
"II c #7A7357",
"IJ c #7A7561",
"IK c #7A765B",
"IL c #7A765D",
"IM c #7A7D62",
"IN c #7A7E6A",
"IO c #7A856C",
"IP c #7A8F73",
"IQ c #7A8F76",
"IR c #7A9577",
"IS c #7B553C",
"IT c #7B593F",
"IU c #7B5D49",
"IV c #7B634B",
"IW c #7B694E",
"IX c #7B6951",
"IY c #7B6B49",
"IZ c #7B704E",
"I[ c #7B7058",
"I] c #7B7252",
"I^ c #7B765A",
"I_ c #7B765F",
"I` c #7B7B60",
"Ia c #7B7D6C",
"Ib c #7B806B",
"Ic c #7B8161",
"Id c #7B8974",
"Ie c #7C462B",
"If c #7C4A32",
"Ig c #7C5832",
"Ih c #7C5A4A",
"Ii c #7C5E3B",
"Ij c #7C694D",
"Ik c #7C6C57",
"Il c #7C6F4C",
"Im c #7C7067",
"In c #7C715A",
"Io c #7C7661",
"Ip c #7C7A61",
"Iq c #7C7F67",
"Ir c #7C7F6A",
"Is c #7C846E",
"It c #7C896D",
"Iu c #7C8A61",
"Iv c #7C9F85",
"Iw c #7D4F34",
"Ix c #7D5042",
"Iy c #7D5F4C",
"Iz c #7D6047",
"I{ c #7D624C",
"I| c #7D7057",
"I} c #7D7863",
"I~ c #7D8062",
"J! c #7D876E",
"J# c #7D8968",
"J$ c #7D8C72",
"J% c #7D9979",
"J& c #7E391E",
"J' c #7E5331",
"J( c #7E5F45",
"J) c #7E624A",
"J* c #7E6348",
"J+ c #7E6949",
"J, c #7E6C4C",
"J- c #7E6E56",
"J. c #7E6F51",
"J/ c #7E7051",
"J0 c #7E725C",
"J1 c #7E7454",
"J2 c #7E755D",
"J3 c #7E7856",
"J4 c #7E7E6B",
"J5 c #7E8059",
"J6 c #7E896D",
"J7 c #7E8B76",
"J8 c #7E8D6A",
"J9 c #7F4927",
"J: c #7F5436",
"J; c #7F5743",
"J< c #7F5A36",
"J= c #7F5A3D",
"J> c #7F5F42",
"J? c #7F6247",
"J@ c #7F644A",
"JA c #7F664A",
"JB c #7F6656",
"JC c #7F6C50",
"JD c #7F6D45",
"JE c #7F6E5D",
"JF c #7F7352",
"JG c #7F7355",
"JH c #7F755D",
"JI c #7F7650",
"JJ c #7F7C62",
"JK c #7F8269",
"JL c #7F8B72",
"JM c #804E2C",
"JN c #804F3A",
"JO c #80593C",
"JP c #805D3D",
"JQ c #805F43",
"JR c #80655A",
"JS c #806648",
"JT c #80673F",
"JU c #806C53",
"JV c #806C5A",
"JW c #807455",
"JX c #807555",
"JY c #807556",
"JZ c #80755C",
"J[ c #807859",
"J] c #80816C",
"J^ c #808565",
"J_ c #808660",
"J` c #80886E",
"Ja c #808C70",
"Jb c #809279",
"Jc c #80947D",
"Jd c #815F40",
"Je c #816249",
"Jf c #81674D",
"Jg c #816C53",
"Jh c #81705A",
"Ji c #81735F",
"Jj c #81785E",
"Jk c #817E65",
"Jl c #818A72",
"Jm c #819073",
"Jn c #81997E",
"Jo c #825338",
"Jp c #825648",
"Jq c #82644D",
"Jr c #826A51",
"Js c #826B50",
"Jt c #826B56",
"Ju c #826D4D",
"Jv c #82735F",
"Jw c #828160",
"Jx c #828A62",
"Jy c #834D32",
"Jz c #83634B",
"J{ c #836A4D",
"J| c #837A57",
"J} c #837B66",
"J~ c #837D67",
"K! c #83876F",
"K# c #83997C",
"K$ c #845435",
"K% c #845538",
"K& c #84674F",
"K' c #846A57",
"K( c #847051",
"K) c #847257",
"K* c #847456",
"K+ c #847B59",
"K, c #84977D",
"K- c #854733",
"K. c #855B40",
"K/ c #855B44",
"K0 c #855D3D",
"K1 c #856B50",
"K2 c #856C4C",
"K3 c #857555",
"K4 c #857E67",
"K5 c #858062",
"K6 c #859880",
"K7 c #864F3C",
"K8 c #86603C",
"K9 c #866345",
"K: c #86644C",
"K; c #866A4F",
"K< c #866E52",
"K= c #866F5C",
"K> c #867256",
"K? c #867954",
"K@ c #868063",
"KA c #868466",
"KB c #868E70",
"KC c #874325",
"KD c #876A4F",
"KE c #87755E",
"KF c #877759",
"KG c #877C56",
"KH c #877E5F",
"KI c #878769",
"KJ c #878A7F",
"KK c #878B67",
"KL c #878F76",
"KM c #88765F",
"KN c #88885E",
"KO c #89513A",
"KP c #895C3E",
"KQ c #89623F",
"KR c #89785B",
"KS c #89806A",
"KT c #898673",
"KU c #8A6F4F",
"KV c #8A7253",
"KW c #8A775A",
"KX c #8B633B",
"KY c #8B6C56",
"KZ c #8B6F57",
"K[ c #8B9072",
"K] c #8C6649",
"K^ c #8C724C",
"K_ c #8C8069",
"K` c #8C835E",
"Ka c #8D5A3D",
"Kb c #8D6142",
"Kc c #8D9276",
"Kd c #8DA492",
"Ke c #8E5F45",
"Kf c #8E6648",
"Kg c #8E705F",
"Kh c #8F6743",
"Ki c #8F7159",
"Kj c #90896F",
"Kk c #91694B",
"Kl c #91825E",
"Km c #944A33",
"Kn c #94613D",
"Ko c #94725C",
"Kp c #966D51",
"Kq c #967F58",
"Kr c #998F77",
"Ks c #9C5A39",
"Kt c #9E5B42",
"Ku c #9F583E",
/* pixels */
"E=A^7T+14X>AFv@FD'7o,q0KEQFCITApH'E5KR9_5b9p:eE<KjKeD[IZKtKuKnHM=}I*EyB#00A'4s8w!O%@?;G12TG~F]J'I)KaI,HdF{F@:9={Dt6W047X7YBx;WFO",
"71>u:V3.0s-41J?|6K6RAsAn6,+q9/Dp>,/a?9JQ;iIf3n.u2A6v7n0D0^HWI;D#4F6V/)G.4q2K9o(T!,!Y$w<D)KDm:l9C;LJK><I0Dh2G0A:a4T2,).0?/b,K'e+R",
"(C(S'!%{#I-T(P(%)R.1B1B_FG,(%e#<.]&61%?D.L:PGO>F1uFLK5K>JzHl-s*{2=9T3s<h4f.x*|*7!.!{31@OK$FA2C,.-u0z+CD8<a3t%y:g-_/f:B0<;l36%(!:",
"'U%0#/2@;h7h2B+@/w7A?R2X/`6p)(.q-B-V*N1!-F&e*?+f)O3/)y+x)51WA@?Q?(BIA0BH5H8UCo+g&y+3J=2J,h>-=C8bH%Hz9n)l)3(R8p@UE|@j?=<bJ?G&BO6-",
"A;@^A%3MD!)b&0('%p'%0V*H44/43F5M4%7:/J1@0j,H'u%l%Q)P11)Y)d)8:b),$`'P,#087J4R5r=-$X!E.:0W7'/y0&$Z3<F..E+S:]*y5d*R*L0+-D7g1T*M%[(p",
"5;3D7/;8+h1l3Q7r?P@XK?K*28>t*s0,G;=#G7API_GXIbG4?'Cz7+<'.F6`<64/4&JwIo?o8K;$53;##}$C4-8)+7@0E6Fm@,K1KoI4AK/X-mAg,Z0N-@*I9U>0;65q",
"+T(!&d&Z#`+$8`4Z2?&|,r(D%t2r-R+U/D%o)f(K1p($.!&#.&,u&n'*%67E8A-q9K066$5.6;+/6h@8!k!U9=75;==*:1939LA/528vIU8yJTEI7j*z.)*$4:)$+((,",
"7`6|(`Ck/'4@:m/@/HFSD}@Y9^9wAB.r@MCFJ~>PB*+J:-:j(.<.+{1r:`?v2<1L;;8:9(5L+z.>'/)H!x''41:!=nJ%FK@J<yJHBYE@BD@G7V:&2~FX:GD:CE(~0c#V",
"Bt,>#/%Q*!?b0g38>458>E6U.O?H(H1=DP>h$4'GGn;rCtH!K]KqK:Kg<!Ec@!(>@RCd1QHwH>BR4i8|(2(4)s6{AJ5*,=7$32G*,j657=8-=[:p<s:w/?'qC70x)V+M",
"+~*1'A6/30At8i2O:F2:F_ID8[DYAl)q:I.tJ&GBIwIEAq*($x#r%q&-*'1/Ea+i0F*#+:<d/%?<J)3C!,!B#'$[:+8X;P@E3gGz'Q6gB><K=p4M?FB#<^EL5X0B'^4+",
"(g,wBXDE>f&|35%w/*&2:'9&-#3e)'.B&=%7=rCMJNG|GCE`C?Cq3G:NA=>g10&1%44'6DHy7[:C*B',!1$n&E$m5c3}*A.@$%1e3:1u4eB+<H/U425(?c8'4UDH*_,$",
")`@n;1:L:H=F(?(a&v%M0{(b)N)*-y0u)[/l,89r0!,l:J-|6:Fr1a>xBdGxK)<xDBFiG2Aa,?&J@51{%*$J0X)&=v/KGQJr>*JuKDD:EQ/5Cl>+,41-(E(v:Q&[(i%'",
"-M+&,s'n0@1].|1O(M3v>!3w>_G:G]G>En1;4w,17);09j'$#0+?#x'c+D'J*&(x/:/z)A)_+c<eCj.Q!4#H.n1z7C:h3K0//B?$5s/s1P.9GqD;C8H6=N6sJpD7)c(u",
"5a,'2EIS2>8f2H#f,y%I&A+j*P430y7t@c7p0Q3~4]--)i,71}B-0U@zB~G97&3]7G5'5$9*/!)@(I%&#!%'JBEe?^3k4SE#4>5`+W48FH5,5u)C,O0k+G-<0S)k97B3",
"%|*%&)!/'l=o3J-%%V!|,:%O)W%X)L/i3u0H1h'+07Go<l6@.T8287=g@t:.:t9>:r<;HA;]-3/02k9d#?#8)C/-?Y1`5i1'0ZD*F?8S<QAZG==d12)4,n0J9+?N'X!G",
"$6%a#l,f(8!A$d%^&N!}&w(e!y!9!t$s%+*n(7+d+4(m&Q#q${(=$I$l#@&$$T#u$$(r#T'v%T&B$K!d!W#N&l%=%r*Z'K-]*3,B.N.M.(&}#>$+#+%B!F&S%~!k$p!k",
"!j!L#G!K!'#s!.!i!4!%!H!*!:!+$*!:!;#/!i!R!=!<!r!C!~!X!f!3#=!?#^%b${$,%)!D#F#2#z&c!O!V!:#-$i!{!N!|%'#1#>!s!l$L!Z#N#p$j!6!P!z!7!%!$",
";uDZ,`7]3mHLJOCc@W/_,*?7)z!}$h$[(z&RA<I-3q=~GD=@>dHXCaAmFg/j?a+v-12}1G;S86FTGI@>?)B75t3&1HF47;6]C.Is=Y9!@-@96I9A9O-**,8z@:&o&H%m",
"Fk:n4P;c-26n=|;e?%EmIuI(8j#Z#),+A67.3I<-C|<<24-r'-8@:yD$ETHP7($]?JGjJ;JeJv=c,@1D)#9gFhI5JSKE5+>9</@qGMD4:[8D,}1I=^2NA{Cr>k(6.W-=",
"3;6W.a2W#J'[-U-~)~1$*F<k>D#,$~6.-x*F+m-?-P/;B^1j>.C=@48OC/A*CTAR;)9P>W?55I;!H^H,ESH/IjGv:d<E:~5x2|3$:<9N3B1|=_D5<#KiIeDV.I?E9t*x",
"F,C:4h>7IFFI4W<F<z'<'a#j(-!S!c+p4C5w0)0%4y=w,~+'+N%r'j&K')(Q0f*-,J-d+Z<R4L;Y;V3b4H2.-p,X(W1A==6#I94A2o8.9v>;1EC'@cHZ>g4!6N?fH@;g",
"GWH7*9>OEHG@G?5p/I,x*U7y;.!A%];q7w/#>N*/(])G*.*2,P({*e.84d6~0|.sAFF/7z,G3S.?3c;[5B8H'~()3P)2+I/3GtFV=)/Z8<0mDz;`1F.d2PGrC4HTK^Bh",
"+r6t&W*c.P<3?C.v7%6H(w.~/V!B!5*iCR?V6f*`<>91E}I}H~I>Er8J>Y0-3_.e$R;O/R1,4/<AEDBuC!Gu=78E8B8C.j:~*)@/9[5U>jHgC*E*E4(G)U0C)!,&.A/O",
"G$CbEP4z2Y1k<JC-?2Bf(&7dA9!1!X,vC<+;8t:{0a5&<M5>5D=k?sG/BW0d8I=+/>/4>@9J4D8M542)8THB40:i/G-hEi:c15GU.%-aD&0[-g=65{IO=lGY79)+H1;m",
"J8C%9M:ZIi>)DgHnH2:vEk6[(O!Q#D-00p(0.l?wIvG_C[H=IdG`Hf5J?/A#B&2-:6BGEGE!=zBF@@C&Bo>H,U3f842c%k'L*Y?3'k<%9Z)y5T@V*v1)B.;5<r9i6T7~",
"<=7_BJIxKNJ$F8-o3HB'HxJC+H$H$c<jAM.;HmG!@SJUGQ2)(V._FyC$BCHIGsEp<O4V;K64:M>pB<IaFjF&Bk?h7H9I5A<N?u:8@AGl@29>6m<~1RD`3r1S1V>.E;2%",
"18)J,%)j/$)MFFJD??9aH;B{6]'7#>6F-N$^0q;->qH[JXFtKVB@>[C)IqFM5F7I+y@kFu>Z3[F5JmIrHKDKJ3CeJ}7N<B,]::I$1xG[Fo:3C1HuAU)]=f**-'@11s+%",
"8,D?@QEMCD9u%:&(->){A};k%_!%!b>T6%CB;76Y,T,Y+|5/:qFQJV?~4*3hEfKKDGIzIpJbEsJc=i:|)m96+t.b5|+,J>J,I#KrFpAN;:2U0I&V(*$_'1*6'D2y=L4g",
"EK9V@''i)IDuE9E+4~HsGd<fGE#,$;,SAV9:7P8L3a4t1o4v.R#_)u(C/v:?.C959sDjB4-++)3?9eERCH-Y.57F7O3(23@?HSK8I6-l.i@lJ[K0@|*O>1<tJf<:4J/M",
";I$v$y)F3p9Y)x)-$64`<@>}+Q$M$|,z0h3`1B.Z0Y8/3L)},E/d/}9{@+I1IC@CA2Aj=>IRF'2&3#;^@I@w.*7-5W)t.z+^$F,Q/W0l0:=M49/L)%3e160R+L'M(#+*",
"#7&*#@#a#%#i%S&.%G&M!T$e$8#L$)%R&k&i!w$$(J&&$V%l#>$-#b!|&C&j*X(B'b//*J&G%Y$q*Q*S%D&_&m$9'N)a'_*y%L(9*r'B$!%;$B&q,d*m(j!Y$7,<,6+!",
"$?!4!,!<$o!f!2#+!o!2$5&:#m!s%N$3!4#m!I!4&<#M#n#P$N!i$<#W'=$O&Y!|#,$2#^!|!h!p!u#E!.!4#+!%(A!&!+$e'&$C!M#o%h!<$f%x'7$))r!2!V!#!q#%",
"?j1tCuH0?tB;<8CsDLHCJ^J$Jk@Z9~F}=88N9F9Q.h>I<{F:F6DIDbI8Af1?)n*f$>&F*b.`-['}69C~-Z6*0_*u2S0P-&4|A(7<?k?A='=`8%CGAS<UAkBaK%A4?{B`",
"(|7#D6:S-:*=%(%A=X1f:U<]3i2+/P$E#5)E/(5e&@<w+2'xAd5v6Z.c9@A&A+2n#R%5CWHhEv@DEoF>?qCV=$$::X.{5!AC1#Gi=J.f8>45/C0X9$&u09E'2h8(-i*[",
"HU4_9b/A5@?WDs1(E[50D)CY>wH)C@DDD07!/{,F;UEE5G((*49B9?;&3b2!Eg1C%j)0JYJ<EY.g(1?i1~;F;M8PJaIc26KSA[=5IIBb4lF0,[4rDkCZG{>MK=HO9|E1",
"5l5:0**U'm%z)=47:,4<,B3E,{&r-n*g3Z6eKAKlGy9`3VK#?r.S,z5<5y9-?m(U#U#YF|8$3X@BK@KF3AH??*=t6c:/9l'2.<EuAh+0-IA`DfD];w>K:^-T'h.m*d*)",
"2q2#;zEB(Y):83:I7^<ZEN;vBSHa<I?X6_;_.,.Y/~7*:kBq/x>{CPJJFP=q8W,!$@'?D_GT3dEh=xIV@;AWDy1><L6Q)B?M?.:=8e1h92/S2/;9ChDd8q)9<7I&7M+6",
"5j:(C,;(CyD+D,FZGaF<CSIn62@gE.JdG0.VFe9#;CDrFxK!=u>SF=B=:x@<'`1c$u!}2zKII3FcKJKdIAK6FzI@ImJ`?-Et?6HJ?]Fw=T+K+w4Q9.Dq19.6:EGmC;9_",
"E~?z;y.77{JZ8hBrCK9k5OEJ@LBVH.H|K<6q8n1Y6<5P8d8G5E2w-,.^7@+#2]2`'p%?:_;{,I.=8&A!AY7s@$(}9E6(-/8Y1N-wJ]7U5oJxIkAG&?66)p#S0(<0AxBE",
"?#E0JP0;-v.y$W#9(+4E5=<14n6o>bBiCI,3;d5)8~1q<+6M=a@}A,?,4~/m;<8!$L![,V7R2[=(68;4BpA.8/5]:O>nI[F$8#K+K;@i;|5_-;BB;,3l1:&R2G4mE^H`",
"-(0$<SB}K`EWFD?T,m0}1m7u6>51>%Fb<_63;2@(IYI|H])g.2'r*V+.0j21%))?&%#t@%1X,|9<<3'g;E/,<?<9=&.e)5/N-`6)<VD%J_H:@oJ|Ay/e708g/<4NE?>G",
"5f76De@$+['06!*8([,^2*H<AuE{>^8u.;3U89-k(T-c7D,t)e4;;>FNJlJ!7m@~#{$J9;.U.+9,D|JiB)*G:TEF5z5n80;G2v0#.KC360)<6^=S<vGKEA=;B6?U<o4j",
"GR5~;'6G@b<}-e@u7K/^8x-b:)J0J7?d7}5578>2=E?B<yCQ=9@_7?1+2MF((/3!!`+A9m1n,A2n2j;}6d8?=4=K3.GP0o:z=3J#F;=sDnFs6kFE?12a5k+o8]<g4>E:",
"I:8*3zCgHo4k,i5Y?&6j=0FdDi73>$CxAO2;-6GHD20wG/J{FnI`IJKPBeA_CnH5(f#K>8J6DN@aEU:K4p3G1U0v2l5%;j7cBPA8<|8;F8BmD37f8F5KF*=tA]B/A5DF",
"GfF^<pIHH(9f2i,<0e2e8{-!0c6S@eEV<[;nIlK[JhAeElHD<P94-t+=%n/T1<EX%v$bIy?n<T,R13AE56:267E1:u@H3)E3F`BLBQ>|C+B(=2@sCU;b=!9x?e=<E%Bs",
"G-E-FR;~-7+B&f'C$=*+<*986C3Y=P?[C]A1?p:*3j2$3^+Y,M'S4b,-FaI.?}DQ$D&I4B;H;xBvB?=y,_-QBNFBBM6x-{1Z<q@r3O=]3+7e.4/Q+_7Q=GG,E)=I/E3|",
"%U&6'4(@%c-E*<*C(n(k$m%}$Q'y(F&p'O#W%9'@'8$r(q'9$/*;&P#Z)Q#c#-&>!I!g!B%-#@&`%Z(X's#L%P#3%s$#$t%h$U$z*:'Y*~*}#_%J'5,)#C#~!^-F,g-A",
"&z(;&5'T(c%I!p#@!s!J%2$'$G!a';'Z-9*l%C#A&U&3!J#]%!!#!_!'&X&t!0&L!8!e!{#|#R!@!I!,!(#v!k%d*o!f#*#K(:$s%u(4&u&;!4#h!n&~0t(3*k)w#.%J",
"*K'>6[<5<(:0HYF+A~0EF%2'K(JgGKE_CJ<42g.oCX8VEbI!I^JtK7K2A7>`J*+a9hBZD>JjEiDOBnHE@v:59z/r=O;35b-O6X>rG32f6a*a/8EC90A-E&AiI=JG46+s",
"&A37/697C`?y5N>&?!=,?I.'&D+-,N5}3U4=.XB$ArCf1K=U>~H8GV>X6!H}4ID~1f4,-8Fq3R2d)D:7*0,;&hB8>R6E;R4.>?CpCC>l)z+`)/3o&b,pG}Jo3@0`AXB5",
"$6%H-W2FBK34>:1v01=.?g:$:Y@3)>1w@=H$I'3=;BIQG^:@4Y;TC{AQ7x1i-}7k=HC9Gp>(<WH#5mDvA&8ZKLDMK_E+)X2R4u./'I.G>]:A-X%F'&*52m0iK4J15-2D",
"!<#@(l)1@[/p4^FYJL>C@{KcK/8^/t6=6P'.*]2JFJ7q:R7|=V143T/=<`?:;AA|<c4G2(3W,W27;N9q1&A>?_+O6L/h)S&s,k-^8o'z/.9y+6DwG5GLIW>yKWG(,b&4",
"*q+>/99D;%5^;D6z>'0>6w=B;fALBzG#74:o++,C-$&{.}+8/g615SD@;?:s+C4[9G(Z+k<u/75g572b)o.k;s:W@p;QC#;X>VF7995?6b05-jDc>e6}GeAoA:AA2{1g",
"(x&9/q775V4{:;22=jFWI?=/0O592sCw0b4}8}@h@6:o:f;Z8Q:488Dl95C2GADT/Y+X5hF1>L?4C0EqA)5C3y6?G%G8J4DUIt6JAvAHC5@d03EdJII~J/IGD/:%4?6O",
"%8'{3%ILCAE2GgK'=e)6&+,//oH-E,IMBwB,2^CvDR810L-.20&/%>(s,o@`>3HbH_@P<iAD2Q6i1y=:*^(N'V(tHpB!6&EwD-2x*j>J);0.3xGJ=%D9GbJAGGJ+H+Bg",
"#,%gBcJR;@+PDxA$D=HtJ5I%=h9'Bl?L?+<C;+GNG+/+=U>o7vF!JnC^;a?l=A29CODS7WA3<G5bJ.JFH3BAH&E>D<DJ>/6uATKBJqI{KMKTF3I2I7I<J:HRHNB:8s'H",
"#B)v<&0T?KAI@&-K=Q72;J=R@T,5@KHQG'Jy=?>cKmK-6r%$8_-5EO;t,D4O+5*@C6GF7b>i*p6yBU0]>#DXJ(H4E$6l2k4KB9FUHcHe.DHF?Z@.A?F-C}HvJEByBT<$",
"#d(L<n.$%E'(/2)^+Q*W1.H*ExIBJMKZ?SG6Cm4x.R5Z7lE/+E'fCiJ2FlH9IKDo>58m1tE7-C33@)F)+n-J3{D{HG@f=mINK,IP:}GZ+uEjC(HHB|:#B2K3J@6+0=8a",
"'t!m<,DAI]E]2u#Q(y*t1^$1-H/|>Q9R6B<2JsKXKbDa%%$7)T'R3>6A-L4o/1+}-)'|/&2L3-+l8k@m5R>6B0;p;/9S+V/[3'*hB%@y?G@x:c2I7i.=9)GkD^9c/O%8",
"${']@#KUKpGcD.<Y/c1*2NI+KsHkHiE(0~?@?8KhKCF~9W?>.#.-@7I/DCB]EZ?O/k8c.04).J3,<XG)@NH{D17L)oD(FfGwJWIg=Z?`>aAz;oEz1[@]HjJ-K&K.F[Aw",
"$*,eIXKQDW>z:>-S..?`9z9}2,/FGS>m1b7,1_<)9j>=>v5Q+]7>2V17,L85@*9i5[.w:D4(0M-G-z,0+Y3*8R4$=bAb>>F2=WCNKYKkKfHV7S028r8=?x/u0n-f.[2Z",
"$d/]3964,c4#0G&!'E7BB[>s8l'w4c1dKHKGF#Gh<m7?9%8+3N*T,92_5#=1,20')hF99]9X7a>UAc9H;*?0IhK9HrG<6'E8CL.3,,/n=DHqBj2p25>BKOJ9C_C>2t4a",
"!)#:%i%/%3#/&x#p!b':$k'6+9&^&]&a'o':$.#4%<(F'F$Y&,(h%_-;*w!v$X$A%W%1&'#X'#*E$S%,+F)|)Z#&$8$t&g'f#g%E(<(o+b&7)7*D%N$P%2%f(_$(%v$&",
"'3#q0r,a7Z&T%##w&8&{+<(d+e!k'W$k'2.p1M#$))%`$a#k!X!-!b#-#y!!#;%u$}$*!s#('d#e#[!N!,!]$:%K#_#O##$g!k!>&O(^(5#6$0#O#*$d*m.H*>%.##!|"
};
