/* XPM */
static char *wooden_09[] = {
/* columns rows colors chars-per-pixel */
"64 64 3311 2",
/* colors */
"!! c #312219",
"!# c #322117",
"!$ c #322218",
"!% c #322623",
"!& c #332418",
"!' c #33271F",
"!( c #332720",
"!) c #342622",
"!* c #35241B",
"!+ c #36251D",
"!, c #36261D",
"!- c #36271F",
"!. c #372519",
"!/ c #37251C",
"!0 c #37261A",
"!1 c #37261C",
"!2 c #372920",
"!3 c #38241C",
"!4 c #38251C",
"!5 c #38261A",
"!6 c #38261D",
"!7 c #38271C",
"!8 c #3A271C",
"!9 c #3A281E",
"!: c #3A2921",
"!; c #3A2A21",
"!< c #3A2A23",
"!= c #3B271B",
"!> c #3B281E",
"!? c #3B291E",
"!@ c #3B2920",
"!A c #3B2A1E",
"!B c #3B2A1F",
"!C c #3B2B1F",
"!D c #3B2B21",
"!E c #3C271C",
"!F c #3C281A",
"!G c #3C281C",
"!H c #3C281D",
"!I c #3C281E",
"!J c #3C291C",
"!K c #3C291E",
"!L c #3C2A20",
"!M c #3C2A21",
"!N c #3C2A23",
"!O c #3C2B1E",
"!P c #3C2B1F",
"!Q c #3C2B20",
"!R c #3C2B23",
"!S c #3D281B",
"!T c #3D291B",
"!U c #3D291C",
"!V c #3D291D",
"!W c #3D291F",
"!X c #3D2A1D",
"!Y c #3D2A1E",
"!Z c #3D2A1F",
"![ c #3D2A21",
"!] c #3D2B20",
"!^ c #3D2B23",
"!_ c #3D2C20",
"!` c #3D2C21",
"!a c #3D2C22",
"!b c #3D2D21",
"!c c #3E291C",
"!d c #3E2A1F",
"!e c #3E2B1D",
"!f c #3E2B1E",
"!g c #3E2B1F",
"!h c #3E2B21",
"!i c #3E2B22",
"!j c #3E2C1F",
"!k c #3E2C20",
"!l c #3E2C21",
"!m c #3E2C22",
"!n c #3E2D24",
"!o c #3E2E24",
"!p c #3E2F22",
"!q c #3F291D",
"!r c #3F291E",
"!s c #3F2A1D",
"!t c #3F2A1E",
"!u c #3F2A22",
"!v c #3F2B1F",
"!w c #3F2C20",
"!x c #3F2C21",
"!y c #3F2C22",
"!z c #3F2D20",
"!{ c #3F2D21",
"!| c #3F2D22",
"!} c #3F2D23",
"!~ c #3F2E23",
"#! c #40281B",
"## c #40291B",
"#$ c #402A1E",
"#% c #402A20",
"#& c #402B1D",
"#' c #402B1E",
"#( c #402C1F",
"#) c #402C20",
"#* c #402C21",
"#+ c #402C23",
"#, c #402D20",
"#- c #402D21",
"#. c #402D22",
"#/ c #402D25",
"#0 c #402E22",
"#1 c #402E24",
"#2 c #402F22",
"#3 c #402F26",
"#4 c #41291C",
"#5 c #412A1D",
"#6 c #412A1E",
"#7 c #412A1F",
"#8 c #412B1E",
"#9 c #412B1F",
"#: c #412B21",
"#; c #412B25",
"#< c #412C1E",
"#= c #412C20",
"#> c #412C21",
"#? c #412C22",
"#@ c #412D1D",
"#A c #412D1E",
"#B c #412D20",
"#C c #412D21",
"#D c #412D25",
"#E c #412E20",
"#F c #412E22",
"#G c #412E23",
"#H c #412E24",
"#I c #412F21",
"#J c #412F23",
"#K c #412F24",
"#L c #412F26",
"#M c #412F28",
"#N c #413125",
"#O c #422718",
"#P c #422C20",
"#Q c #422C21",
"#R c #422D1E",
"#S c #422D1F",
"#T c #422D20",
"#U c #422D21",
"#V c #422E1D",
"#W c #422E20",
"#X c #422E26",
"#Y c #422F1C",
"#Z c #422F1F",
"#[ c #422F25",
"#] c #422F27",
"#^ c #423025",
"#_ c #423028",
"#` c #423129",
"#a c #432C1F",
"#b c #432D1E",
"#c c #432D1F",
"#d c #432D20",
"#e c #432E23",
"#f c #432F20",
"#g c #432F21",
"#h c #432F22",
"#i c #432F23",
"#j c #432F25",
"#k c #433023",
"#l c #433024",
"#m c #433026",
"#n c #433028",
"#o c #433124",
"#p c #433125",
"#q c #433127",
"#r c #433129",
"#s c #442B20",
"#t c #442C1E",
"#u c #442C20",
"#v c #442D1F",
"#w c #442D20",
"#x c #442E1E",
"#y c #442E1F",
"#z c #442E21",
"#{ c #442E23",
"#| c #442F20",
"#} c #442F21",
"#~ c #442F22",
"$! c #442F23",
"$# c #442F24",
"$$ c #443025",
"$% c #443026",
"$& c #443126",
"$' c #443127",
"$( c #443128",
"$) c #443129",
"$* c #443227",
"$+ c #443228",
"$, c #443229",
"$- c #443329",
"$. c #44332B",
"$/ c #452D1E",
"$0 c #452E1E",
"$1 c #452F1F",
"$2 c #452F20",
"$3 c #452F23",
"$4 c #452F24",
"$5 c #45301F",
"$6 c #453020",
"$7 c #453022",
"$8 c #453023",
"$9 c #453024",
"$: c #453026",
"$; c #453125",
"$< c #453126",
"$= c #453127",
"$> c #453226",
"$? c #453228",
"$@ c #453328",
"$A c #453329",
"$B c #45332A",
"$C c #45342B",
"$D c #45352B",
"$E c #462B1F",
"$F c #462D1E",
"$G c #462F1F",
"$H c #462F20",
"$I c #462F23",
"$J c #462F28",
"$K c #463021",
"$L c #463022",
"$M c #463024",
"$N c #463025",
"$O c #463120",
"$P c #463122",
"$Q c #463123",
"$R c #463124",
"$S c #463125",
"$T c #463126",
"$U c #463221",
"$V c #463222",
"$W c #463223",
"$X c #463224",
"$Y c #463226",
"$Z c #463227",
"$[ c #463228",
"$] c #463229",
"$^ c #463323",
"$_ c #463326",
"$` c #463328",
"$a c #46332A",
"$b c #46342A",
"$c c #472F20",
"$d c #472F22",
"$e c #473022",
"$f c #473121",
"$g c #473122",
"$h c #473126",
"$i c #473128",
"$j c #473222",
"$k c #473223",
"$l c #473224",
"$m c #473226",
"$n c #473227",
"$o c #473228",
"$p c #473323",
"$q c #473326",
"$r c #473327",
"$s c #473328",
"$t c #47332A",
"$u c #473424",
"$v c #47342A",
"$w c #47342D",
"$x c #47352A",
"$y c #47352B",
"$z c #482F20",
"${ c #483021",
"$| c #483024",
"$} c #483025",
"$~ c #483125",
"%! c #483126",
"%# c #483127",
"%$ c #483221",
"%% c #483223",
"%& c #483224",
"%' c #483322",
"%( c #483323",
"%) c #483326",
"%* c #483327",
"%+ c #483328",
"%, c #483329",
"%- c #48332A",
"%. c #483426",
"%/ c #483427",
"%0 c #483428",
"%1 c #483429",
"%2 c #48342A",
"%3 c #483524",
"%4 c #483528",
"%5 c #483529",
"%6 c #48352A",
"%7 c #48352B",
"%8 c #48352C",
"%9 c #492F1F",
"%: c #493021",
"%; c #493121",
"%< c #493124",
"%= c #493223",
"%> c #493224",
"%? c #493225",
"%@ c #493323",
"%A c #493324",
"%B c #493325",
"%C c #493326",
"%D c #493327",
"%E c #493328",
"%F c #493428",
"%G c #493429",
"%H c #49342A",
"%I c #493524",
"%J c #493528",
"%K c #493529",
"%L c #49352A",
"%M c #49352B",
"%N c #49352C",
"%O c #493629",
"%P c #49362A",
"%Q c #49362D",
"%R c #49372A",
"%S c #4A2F1F",
"%T c #4A3124",
"%U c #4A3126",
"%V c #4A321F",
"%W c #4A3324",
"%X c #4A3325",
"%Y c #4A3326",
"%Z c #4A3327",
"%[ c #4A3426",
"%] c #4A3427",
"%^ c #4A3428",
"%_ c #4A3429",
"%` c #4A3529",
"%a c #4A352A",
"%b c #4A3624",
"%c c #4A3628",
"%d c #4A362A",
"%e c #4A362B",
"%f c #4B3324",
"%g c #4B3325",
"%h c #4B3326",
"%i c #4B3423",
"%j c #4B3424",
"%k c #4B3425",
"%l c #4B3426",
"%m c #4B3427",
"%n c #4B3428",
"%o c #4B3429",
"%p c #4B3526",
"%q c #4B3527",
"%r c #4B3528",
"%s c #4B3529",
"%t c #4B352A",
"%u c #4B352B",
"%v c #4B3626",
"%w c #4B3628",
"%x c #4B3629",
"%y c #4B362A",
"%z c #4B362B",
"%{ c #4B362C",
"%| c #4B362D",
"%} c #4B372A",
"%~ c #4B372B",
"&! c #4B372C",
"&# c #4B372D",
"&$ c #4C3127",
"&% c #4C3325",
"&& c #4C3426",
"&' c #4C3427",
"&( c #4C3525",
"&) c #4C3527",
"&* c #4C3528",
"&+ c #4C3529",
"&, c #4C352A",
"&- c #4C3625",
"&. c #4C3629",
"&/ c #4C362A",
"&0 c #4C362B",
"&1 c #4C362C",
"&2 c #4C362D",
"&3 c #4C3728",
"&4 c #4C3729",
"&5 c #4C372A",
"&6 c #4C372B",
"&7 c #4C372C",
"&8 c #4C372D",
"&9 c #4C382A",
"&: c #4C3928",
"&; c #4D3324",
"&< c #4D3325",
"&= c #4D3425",
"&> c #4D3428",
"&? c #4D3525",
"&@ c #4D3527",
"&A c #4D3528",
"&B c #4D352A",
"&C c #4D3626",
"&D c #4D3627",
"&E c #4D3628",
"&F c #4D362A",
"&G c #4D362D",
"&H c #4D3728",
"&I c #4D3729",
"&J c #4D372A",
"&K c #4D372B",
"&L c #4D372C",
"&M c #4D372D",
"&N c #4D382A",
"&O c #4D382E",
"&P c #4D392F",
"&Q c #4D3A2B",
"&R c #4D3A2E",
"&S c #4D3A2F",
"&T c #4D3A34",
"&U c #4D3D38",
"&V c #4E3423",
"&W c #4E352A",
"&X c #4E3624",
"&Y c #4E3626",
"&Z c #4E3627",
"&[ c #4E3728",
"&] c #4E372A",
"&^ c #4E372B",
"&_ c #4E372C",
"&` c #4E372D",
"&a c #4E3827",
"&b c #4E382A",
"&c c #4E382C",
"&d c #4E382F",
"&e c #4E392B",
"&f c #4E392C",
"&g c #4E392D",
"&h c #4E392E",
"&i c #4E3A2D",
"&j c #4E3A32",
"&k c #4F3624",
"&l c #4F3628",
"&m c #4F3725",
"&n c #4F3728",
"&o c #4F372C",
"&p c #4F372D",
"&q c #4F3826",
"&r c #4F382A",
"&s c #4F382B",
"&t c #4F382C",
"&u c #4F382D",
"&v c #4F382E",
"&w c #4F3928",
"&x c #4F392C",
"&y c #4F392D",
"&z c #4F392E",
"&{ c #4F3930",
"&| c #4F3A2C",
"&} c #4F3A2D",
"&~ c #4F3A2E",
"'! c #4F3A2F",
"'# c #4F3B26",
"'$ c #4F3B31",
"'% c #4F3B36",
"'& c #4F3C33",
"'' c #4F3D2C",
"'( c #503628",
"') c #50372A",
"'* c #503829",
"'+ c #50382A",
"', c #50382B",
"'- c #503929",
"'. c #50392B",
"'/ c #50392E",
"'0 c #503930",
"'1 c #503A2C",
"'2 c #503A2D",
"'3 c #503A2E",
"'4 c #503B2A",
"'5 c #503B2F",
"'6 c #503C2C",
"'7 c #503E39",
"'8 c #51382B",
"'9 c #51382D",
"': c #513928",
"'; c #51392A",
"'< c #51392B",
"'= c #51392C",
"'> c #51392F",
"'? c #513A27",
"'@ c #513A2A",
"'A c #513A2C",
"'B c #513A2D",
"'C c #513A2F",
"'D c #513B24",
"'E c #513B2C",
"'F c #513B2D",
"'G c #513C2D",
"'H c #513C2F",
"'I c #513E3B",
"'J c #52382A",
"'K c #523A2B",
"'L c #523B2D",
"'M c #523C2E",
"'N c #523C2F",
"'O c #523C30",
"'P c #523D2B",
"'Q c #523D31",
"'R c #523E30",
"'S c #523F31",
"'T c #533A2A",
"'U c #533A2D",
"'V c #533B29",
"'W c #533B2A",
"'X c #533B2E",
"'Y c #533C2B",
"'Z c #543523",
"'[ c #543A27",
"'] c #543A2A",
"'^ c #543B2E",
"'_ c #543C2C",
"'` c #543C2D",
"'a c #543C2E",
"'b c #543C31",
"'c c #543C32",
"'d c #543D2B",
"'e c #543D2D",
"'f c #543E2F",
"'g c #553924",
"'h c #553A29",
"'i c #553B2B",
"'j c #553C2F",
"'k c #553C30",
"'l c #553D2B",
"'m c #553E2B",
"'n c #563D26",
"'o c #563D2B",
"'p c #563D31",
"'q c #563E2B",
"'r c #563E30",
"'s c #563E33",
"'t c #563E34",
"'u c #563E37",
"'v c #563F2D",
"'w c #563F2E",
"'x c #56402F",
"'y c #564030",
"'z c #564237",
"'{ c #573D2C",
"'| c #573D2E",
"'} c #573E32",
"'~ c #573E35",
"(! c #574038",
"(# c #57412E",
"($ c #574130",
"(% c #574335",
"(& c #583D33",
"(' c #583E29",
"(( c #583E2E",
"() c #583E2F",
"(* c #583E37",
"(+ c #583F31",
"(, c #58402E",
"(- c #584030",
"(. c #584032",
"(/ c #584033",
"(0 c #584131",
"(1 c #58443D",
"(2 c #58483C",
"(3 c #593F2F",
"(4 c #59402E",
"(5 c #594032",
"(6 c #594035",
"(7 c #594036",
"(8 c #59422F",
"(9 c #594231",
"(: c #594338",
"(; c #594434",
"(< c #594532",
"(= c #594634",
"(> c #5A4132",
"(? c #5A4237",
"(@ c #5A423A",
"(A c #5A423D",
"(B c #5A4332",
"(C c #5A4335",
"(D c #5A4337",
"(E c #5A4339",
"(F c #5A433B",
"(G c #5A4434",
"(H c #5A4444",
"(I c #5A4535",
"(J c #5A4634",
"(K c #5A463A",
"(L c #5A4841",
"(M c #5B4029",
"(N c #5B402E",
"(O c #5B412C",
"(P c #5B4231",
"(Q c #5B4238",
"(R c #5B432E",
"(S c #5B4336",
"(T c #5B442E",
"(U c #5B4431",
"(V c #5B443A",
"(W c #5B4533",
"(X c #5B4534",
"(Y c #5C4031",
"(Z c #5C4033",
"([ c #5C412C",
"(] c #5C412F",
"(^ c #5C4136",
"(_ c #5C413A",
"(` c #5C422D",
"(a c #5C4233",
"(b c #5C432E",
"(c c #5C4332",
"(d c #5C4430",
"(e c #5C4432",
"(f c #5C4437",
"(g c #5C4439",
"(h c #5C4531",
"(i c #5C453D",
"(j c #5C453E",
"(k c #5C463F",
"(l c #5C4735",
"(m c #5C4740",
"(n c #5C4744",
"(o c #5C4831",
"(p c #5C4939",
"(q c #5D4029",
"(r c #5D4132",
"(s c #5D422E",
"(t c #5D432B",
"(u c #5D432F",
"(v c #5D4436",
"(w c #5D4438",
"(x c #5D443C",
"(y c #5D4532",
"(z c #5D453A",
"({ c #5D453E",
"(| c #5D4632",
"(} c #5D4634",
"(~ c #5D4636",
")! c #5D4637",
")# c #5D4639",
")$ c #5D463E",
")% c #5D4640",
")& c #5D4737",
")' c #5D473D",
")( c #5D4837",
")) c #5D4934",
")* c #5D4937",
")+ c #5E4130",
"), c #5E4237",
")- c #5E432F",
"). c #5E4330",
")/ c #5E442C",
")0 c #5E4433",
")1 c #5E4436",
")2 c #5E452E",
")3 c #5E4533",
")4 c #5E4537",
")5 c #5E453A",
")6 c #5E453B",
")7 c #5E462C",
")8 c #5E4634",
")9 c #5E4736",
"): c #5E4737",
"); c #5E473B",
")< c #5E4740",
")= c #5E4840",
")> c #5E4C3F",
")? c #5F432B",
")@ c #5F4336",
")A c #5F4338",
")B c #5F4430",
")C c #5F4437",
")D c #5F452D",
")E c #5F4531",
")F c #5F4532",
")G c #5F4534",
")H c #5F4537",
")I c #5F453D",
")J c #5F4631",
")K c #5F4632",
")L c #5F463C",
")M c #5F4732",
")N c #5F4733",
")O c #5F4738",
")P c #5F473C",
")Q c #5F4834",
")R c #5F483C",
")S c #5F4942",
")T c #5F4A36",
")U c #5F4A3F",
")V c #5F4C48",
")W c #5F4D3F",
")X c #5F4D44",
")Y c #5F4E3C",
")Z c #60432F",
")[ c #60442D",
")] c #60442E",
")^ c #604437",
")_ c #60452E",
")` c #60452F",
")a c #60453E",
")b c #604630",
")c c #604631",
")d c #60463A",
")e c #60463B",
")f c #604734",
")g c #604735",
")h c #60473D",
")i c #604830",
")j c #604833",
")k c #604838",
")l c #60483C",
")m c #60483E",
")n c #60483F",
")o c #604843",
")p c #604932",
")q c #60493F",
")r c #604941",
")s c #604B41",
")t c #61432A",
")u c #61432B",
")v c #61442F",
")w c #614435",
")x c #61452F",
")y c #61463C",
")z c #61472F",
"){ c #614734",
")| c #614831",
")} c #614835",
")~ c #614836",
"*! c #614837",
"*# c #61483A",
"*$ c #614934",
"*% c #614935",
"*& c #614936",
"*' c #61493A",
"*( c #614940",
"*) c #614A36",
"** c #614A37",
"*+ c #614A3D",
"*, c #614A40",
"*- c #614B34",
"*. c #614B3A",
"*/ c #614B3F",
"*0 c #614B40",
"*1 c #614B42",
"*2 c #614B43",
"*3 c #614C3E",
"*4 c #614D3A",
"*5 c #62442D",
"*6 c #624533",
"*7 c #62462D",
"*8 c #62462E",
"*9 c #624631",
"*: c #624637",
"*; c #624731",
"*< c #624733",
"*= c #62473A",
"*> c #624832",
"*? c #62483B",
"*@ c #62483F",
"*A c #624933",
"*B c #624935",
"*C c #624938",
"*D c #624940",
"*E c #624A34",
"*F c #624A36",
"*G c #624A39",
"*H c #624A3E",
"*I c #624A40",
"*J c #624B35",
"*K c #624B38",
"*L c #624C35",
"*M c #624C40",
"*N c #624C41",
"*O c #624D3A",
"*P c #624D3C",
"*Q c #624F3E",
"*R c #63452F",
"*S c #63462D",
"*T c #634637",
"*U c #63472E",
"*V c #634730",
"*W c #634732",
"*X c #634734",
"*Y c #634832",
"*Z c #634839",
"*[ c #63483A",
"*] c #63483B",
"*^ c #634935",
"*_ c #634936",
"*` c #63493A",
"*a c #63493D",
"*b c #634941",
"*c c #634A31",
"*d c #634A37",
"*e c #634A42",
"*f c #634B35",
"*g c #634B36",
"*h c #634B37",
"*i c #634B41",
"*j c #634C36",
"*k c #634C38",
"*l c #634C39",
"*m c #634C3A",
"*n c #634D3A",
"*o c #634D3C",
"*p c #634D46",
"*q c #634D48",
"*r c #634E3A",
"*s c #634E43",
"*t c #634E46",
"*u c #634F40",
"*v c #63503D",
"*w c #644336",
"*x c #64442D",
"*y c #64452B",
"*z c #644731",
"*{ c #64482F",
"*| c #644831",
"*} c #644832",
"*~ c #644833",
"+! c #64492D",
"+# c #644931",
"+$ c #644933",
"+% c #644938",
"+& c #644939",
"+' c #64493E",
"+( c #644A32",
"+) c #644A33",
"+* c #644A34",
"++ c #644A3B",
"+, c #644A3C",
"+- c #644A3D",
"+. c #644A3E",
"+/ c #644B34",
"+0 c #644B35",
"+1 c #644B36",
"+2 c #644B3B",
"+3 c #644B40",
"+4 c #644B41",
"+5 c #644C3A",
"+6 c #644C3B",
"+7 c #644D3D",
"+8 c #644D43",
"+9 c #644D4A",
"+: c #644E40",
"+; c #644F3B",
"+< c #644F3F",
"+= c #644F47",
"+> c #65462D",
"+? c #654732",
"+@ c #65482E",
"+A c #654830",
"+B c #654832",
"+C c #654838",
"+D c #65483A",
"+E c #65492F",
"+F c #654932",
"+G c #654933",
"+H c #654937",
"+I c #654A31",
"+J c #654A33",
"+K c #654A38",
"+L c #654B34",
"+M c #654B36",
"+N c #654B38",
"+O c #654B3D",
"+P c #654B3E",
"+Q c #654B41",
"+R c #654C32",
"+S c #654C33",
"+T c #654C35",
"+U c #654C36",
"+V c #654C38",
"+W c #654C3A",
"+X c #654C3B",
"+Y c #654C3C",
"+Z c #654C42",
"+[ c #654D36",
"+] c #654D38",
"+^ c #654D3D",
"+_ c #654D42",
"+` c #654D45",
"+a c #654E37",
"+b c #654E39",
"+c c #654E42",
"+d c #654F48",
"+e c #664839",
"+f c #66483A",
"+g c #664931",
"+h c #664936",
"+i c #664939",
"+j c #66493B",
"+k c #664A32",
"+l c #664A33",
"+m c #664A34",
"+n c #664A37",
"+o c #664A3C",
"+p c #664A3E",
"+q c #664B31",
"+r c #664B34",
"+s c #664B35",
"+t c #664B36",
"+u c #664B3C",
"+v c #664B45",
"+w c #664C34",
"+x c #664C37",
"+y c #664C38",
"+z c #664C3E",
"+{ c #664C42",
"+| c #664C43",
"+} c #664D35",
"+~ c #664D36",
",! c #664D38",
",# c #664D39",
",$ c #664D40",
",% c #664E35",
",& c #664E37",
",' c #664E3A",
",( c #664E3C",
",) c #664E3D",
",* c #664E3E",
",+ c #664F3D",
",, c #664F41",
",- c #664F43",
",. c #665037",
",/ c #66503C",
",0 c #66503D",
",1 c #66503E",
",2 c #665140",
",3 c #665141",
",4 c #67482F",
",5 c #67483B",
",6 c #674934",
",7 c #674A33",
",8 c #674B31",
",9 c #674B33",
",: c #674B34",
",; c #674B36",
",< c #674B3F",
",= c #674C32",
",> c #674C33",
",? c #674C34",
",@ c #674C36",
",A c #674C38",
",B c #674C3C",
",C c #674C3D",
",D c #674C3E",
",E c #674D34",
",F c #674D35",
",G c #674D36",
",H c #674D37",
",I c #674D38",
",J c #674D39",
",K c #674D3C",
",L c #674D40",
",M c #674D45",
",N c #674D46",
",O c #674E35",
",P c #674E39",
",Q c #674E3E",
",R c #674E3F",
",S c #674E46",
",T c #674F39",
",U c #674F3B",
",V c #674F43",
",W c #674F49",
",X c #67503C",
",Y c #675049",
",Z c #67513C",
",[ c #675142",
",] c #67533F",
",^ c #675543",
",_ c #684731",
",` c #684834",
",a c #684933",
",b c #684A2F",
",c c #684B31",
",d c #684B33",
",e c #684B3C",
",f c #684C33",
",g c #684C34",
",h c #684C37",
",i c #684C3F",
",j c #684C44",
",k c #684D35",
",l c #684D36",
",m c #684D39",
",n c #684D3B",
",o c #684D41",
",p c #684E35",
",q c #684E36",
",r c #684E38",
",s c #684E3B",
",t c #684E3D",
",u c #684E41",
",v c #684E45",
",w c #684E4A",
",x c #684F36",
",y c #684F38",
",z c #684F3A",
",{ c #684F42",
",| c #685037",
",} c #68503A",
",~ c #68503D",
"-! c #685046",
"-# c #685047",
"-$ c #68513D",
"-% c #685146",
"-& c #685148",
"-' c #68523D",
"-( c #68523F",
"-) c #685241",
"-* c #685247",
"-+ c #685450",
"-, c #69492F",
"-- c #694A30",
"-. c #694A34",
"-/ c #694A35",
"-0 c #694A39",
"-1 c #694A3A",
"-2 c #694B30",
"-3 c #694B3B",
"-4 c #694C31",
"-5 c #694C32",
"-6 c #694C34",
"-7 c #694C3C",
"-8 c #694C41",
"-9 c #694D32",
"-: c #694D34",
"-; c #694D37",
"-< c #694D38",
"-= c #694D3E",
"-> c #694D41",
"-? c #694D42",
"-@ c #694E34",
"-A c #694E35",
"-B c #694E36",
"-C c #694E37",
"-D c #694E3A",
"-E c #694E46",
"-F c #694F35",
"-G c #694F38",
"-H c #694F39",
"-I c #694F3A",
"-J c #694F3C",
"-K c #694F47",
"-L c #695038",
"-M c #695039",
"-N c #69503B",
"-O c #69513B",
"-P c #69523A",
"-Q c #69523F",
"-R c #695248",
"-S c #69524A",
"-T c #695338",
"-U c #695341",
"-V c #695443",
"-W c #695545",
"-X c #695646",
"-Y c #695650",
"-Z c #6A4A31",
"-[ c #6A4A40",
"-] c #6A4B30",
"-^ c #6A4B32",
"-_ c #6A4B34",
"-` c #6A4C31",
"-a c #6A4C34",
"-b c #6A4C35",
"-c c #6A4C39",
"-d c #6A4C3A",
"-e c #6A4D32",
"-f c #6A4D36",
"-g c #6A4D37",
"-h c #6A4D3C",
"-i c #6A4E33",
"-j c #6A4E34",
"-k c #6A4E36",
"-l c #6A4E37",
"-m c #6A4E3C",
"-n c #6A4E41",
"-o c #6A4E42",
"-p c #6A4F34",
"-q c #6A4F38",
"-r c #6A4F39",
"-s c #6A4F3A",
"-t c #6A4F3E",
"-u c #6A5038",
"-v c #6A5039",
"-w c #6A503A",
"-x c #6A503C",
"-y c #6A5043",
"-z c #6A5139",
"-{ c #6A513B",
"-| c #6A5141",
"-} c #6A5144",
"-~ c #6A5145",
".! c #6A523B",
".# c #6A533A",
".$ c #6A5439",
".% c #6A543E",
".& c #6B4B35",
".' c #6B4C30",
".( c #6B4D34",
".) c #6B4D37",
".* c #6B4D3A",
".+ c #6B4D3C",
"., c #6B4D3E",
".- c #6B4D40",
".. c #6B4E33",
"./ c #6B4E35",
".0 c #6B4E36",
".1 c #6B4E38",
".2 c #6B4E43",
".3 c #6B4F33",
".4 c #6B4F36",
".5 c #6B4F37",
".6 c #6B4F38",
".7 c #6B4F39",
".8 c #6B4F3A",
".9 c #6B4F3E",
".: c #6B5037",
".; c #6B503A",
".< c #6B503B",
".= c #6B503C",
".> c #6B5042",
".? c #6B5043",
".@ c #6B5136",
".A c #6B513A",
".B c #6B513D",
".C c #6B513E",
".D c #6B5142",
".E c #6B523A",
".F c #6B523C",
".G c #6B5242",
".H c #6B5244",
".I c #6B533C",
".J c #6B533D",
".K c #6B5340",
".L c #6B543B",
".M c #6B5441",
".N c #6B544C",
".O c #6B5542",
".P c #6B563E",
".Q c #6B573E",
".R c #6C4C33",
".S c #6C4D32",
".T c #6C4E34",
".U c #6C4E3B",
".V c #6C4F36",
".W c #6C4F37",
".X c #6C4F38",
".Y c #6C4F3D",
".Z c #6C4F3F",
".[ c #6C4F40",
".] c #6C4F41",
".^ c #6C5037",
"._ c #6C5039",
".` c #6C5137",
".a c #6C513A",
".b c #6C513B",
".c c #6C5140",
".d c #6C5143",
".e c #6C5236",
".f c #6C5239",
".g c #6C523B",
".h c #6C523C",
".i c #6C523E",
".j c #6C5339",
".k c #6C533A",
".l c #6C533B",
".m c #6C5342",
".n c #6C5348",
".o c #6C5438",
".p c #6C5441",
".q c #6C5543",
".r c #6C5549",
".s c #6C563E",
".t c #6C564D",
".u c #6D4B33",
".v c #6D4B34",
".w c #6D4C30",
".x c #6D4C31",
".y c #6D4D30",
".z c #6D4D33",
".{ c #6D4D35",
".| c #6D4D37",
".} c #6D4E33",
".~ c #6D4E36",
"/! c #6D4E3A",
"/# c #6D4E3B",
"/$ c #6D4F31",
"/% c #6D4F33",
"/& c #6D4F34",
"/' c #6D4F35",
"/( c #6D4F36",
"/) c #6D4F37",
"/* c #6D4F38",
"/+ c #6D4F3B",
"/, c #6D4F3C",
"/- c #6D5034",
"/. c #6D5035",
"// c #6D5037",
"/0 c #6D5038",
"/1 c #6D5039",
"/2 c #6D503A",
"/3 c #6D503D",
"/4 c #6D5042",
"/5 c #6D5043",
"/6 c #6D5136",
"/7 c #6D5138",
"/8 c #6D5139",
"/9 c #6D513A",
"/: c #6D513B",
"/; c #6D5140",
"/< c #6D5144",
"/= c #6D5147",
"/> c #6D523A",
"/? c #6D523F",
"/@ c #6D5241",
"/A c #6D5247",
"/B c #6D5338",
"/C c #6D5339",
"/D c #6D533A",
"/E c #6D533B",
"/F c #6D533C",
"/G c #6D533D",
"/H c #6D533E",
"/I c #6D5343",
"/J c #6D5439",
"/K c #6D543C",
"/L c #6D543D",
"/M c #6D5440",
"/N c #6D5446",
"/O c #6D5447",
"/P c #6D553A",
"/Q c #6D553E",
"/R c #6D553F",
"/S c #6D5541",
"/T c #6D5544",
"/U c #6D5548",
"/V c #6D554F",
"/W c #6D563B",
"/X c #6D5640",
"/Y c #6D5646",
"/Z c #6D5845",
"/[ c #6D5944",
"/] c #6D5B4E",
"/^ c #6E4C30",
"/_ c #6E4C33",
"/` c #6E4F35",
"/a c #6E4F39",
"/b c #6E4F3A",
"/c c #6E5030",
"/d c #6E5035",
"/e c #6E5036",
"/f c #6E5037",
"/g c #6E503B",
"/h c #6E503E",
"/i c #6E5040",
"/j c #6E5135",
"/k c #6E5137",
"/l c #6E5138",
"/m c #6E513C",
"/n c #6E5238",
"/o c #6E5239",
"/p c #6E523A",
"/q c #6E523B",
"/r c #6E523F",
"/s c #6E5338",
"/t c #6E5339",
"/u c #6E533A",
"/v c #6E533B",
"/w c #6E533C",
"/x c #6E533D",
"/y c #6E5342",
"/z c #6E5346",
"/{ c #6E543A",
"/| c #6E543B",
"/} c #6E543C",
"/~ c #6E543D",
"0! c #6E543F",
"0# c #6E544B",
"0$ c #6E553D",
"0% c #6E553E",
"0& c #6E553F",
"0' c #6E5548",
"0( c #6E5550",
"0) c #6E5641",
"0* c #6E5642",
"0+ c #6E5643",
"0, c #6E583D",
"0- c #6E5842",
"0. c #6E584C",
"0/ c #6F4C31",
"00 c #6F4D3C",
"01 c #6F4F33",
"02 c #6F4F37",
"03 c #6F4F38",
"04 c #6F5033",
"05 c #6F5035",
"06 c #6F5037",
"07 c #6F503A",
"08 c #6F5134",
"09 c #6F5135",
"0: c #6F5136",
"0; c #6F513A",
"0< c #6F5237",
"0= c #6F5239",
"0> c #6F523A",
"0? c #6F523B",
"0@ c #6F5242",
"0A c #6F5243",
"0B c #6F5247",
"0C c #6F5337",
"0D c #6F5338",
"0E c #6F5339",
"0F c #6F533A",
"0G c #6F533B",
"0H c #6F533F",
"0I c #6F5342",
"0J c #6F5345",
"0K c #6F5438",
"0L c #6F543B",
"0M c #6F543D",
"0N c #6F543F",
"0O c #6F544B",
"0P c #6F553D",
"0Q c #6F5550",
"0R c #6F563C",
"0S c #6F563D",
"0T c #6F5640",
"0U c #6F5647",
"0V c #6F5741",
"0W c #6F5743",
"0X c #6F574C",
"0Y c #6F583F",
"0Z c #6F5843",
"0[ c #6F5846",
"0] c #6F584B",
"0^ c #6F5851",
"0_ c #6F5A43",
"0` c #704F35",
"0a c #704F37",
"0b c #704F38",
"0c c #705035",
"0d c #705131",
"0e c #705134",
"0f c #705136",
"0g c #705137",
"0h c #70513C",
"0i c #705143",
"0j c #705239",
"0k c #70523A",
"0l c #70523B",
"0m c #705336",
"0n c #705338",
"0o c #705339",
"0p c #70533B",
"0q c #70533C",
"0r c #70533E",
"0s c #705435",
"0t c #70543A",
"0u c #70543B",
"0v c #705440",
"0w c #705444",
"0x c #70553B",
"0y c #70553C",
"0z c #70553D",
"0{ c #705540",
"0| c #70554B",
"0} c #70563C",
"0~ c #70563F",
"1! c #70574E",
"1# c #714D30",
"1$ c #714F33",
"1% c #714F36",
"1& c #714F38",
"1' c #715035",
"1( c #715138",
"1) c #71513B",
"1* c #71513D",
"1+ c #715235",
"1, c #715236",
"1- c #715238",
"1. c #715239",
"1/ c #71523A",
"10 c #715242",
"11 c #715336",
"12 c #715338",
"13 c #715339",
"14 c #71533B",
"15 c #71533E",
"16 c #715341",
"17 c #715437",
"18 c #715438",
"19 c #715439",
"1: c #71543A",
"1; c #71543B",
"1< c #71553A",
"1= c #71553C",
"1> c #715540",
"1? c #715547",
"1@ c #715548",
"1A c #715637",
"1B c #71563B",
"1C c #71563D",
"1D c #71563F",
"1E c #71573F",
"1F c #715740",
"1G c #715741",
"1H c #71574C",
"1I c #715841",
"1J c #715843",
"1K c #715946",
"1L c #715956",
"1M c #715A44",
"1N c #715A48",
"1O c #715B45",
"1P c #725136",
"1Q c #725137",
"1R c #725139",
"1S c #725142",
"1T c #725237",
"1U c #72523C",
"1V c #72523F",
"1W c #725243",
"1X c #725245",
"1Y c #725336",
"1Z c #725338",
"1[ c #725339",
"1] c #72533B",
"1^ c #72533D",
"1_ c #725343",
"1` c #725345",
"1a c #725438",
"1b c #72543B",
"1c c #72543C",
"1d c #72543D",
"1e c #725536",
"1f c #72553A",
"1g c #72553C",
"1h c #72553E",
"1i c #72553F",
"1j c #725540",
"1k c #725542",
"1l c #725547",
"1m c #72563A",
"1n c #72563D",
"1o c #72563E",
"1p c #72573A",
"1q c #72573D",
"1r c #725741",
"1s c #725840",
"1t c #725842",
"1u c #725843",
"1v c #725846",
"1w c #725940",
"1x c #725942",
"1y c #725949",
"1z c #725A46",
"1{ c #725A51",
"1| c #734F35",
"1} c #735136",
"1~ c #735139",
"2! c #735232",
"2# c #735239",
"2$ c #735335",
"2% c #735336",
"2& c #735338",
"2' c #73533A",
"2( c #73533C",
"2) c #735438",
"2* c #735439",
"2+ c #73543A",
"2, c #73543C",
"2- c #735444",
"2. c #73553A",
"2/ c #73553B",
"20 c #73553C",
"21 c #73553D",
"22 c #73553E",
"23 c #735546",
"24 c #73563A",
"25 c #73563C",
"26 c #73563D",
"27 c #73563E",
"28 c #73573C",
"29 c #73573D",
"2: c #73573F",
"2; c #735740",
"2< c #735741",
"2= c #735742",
"2> c #735743",
"2? c #73583E",
"2@ c #735840",
"2A c #735841",
"2B c #735941",
"2C c #735942",
"2D c #735944",
"2E c #735949",
"2F c #73594C",
"2G c #735951",
"2H c #735A44",
"2I c #735B47",
"2J c #735D45",
"2K c #735D53",
"2L c #745235",
"2M c #745238",
"2N c #74523B",
"2O c #745334",
"2P c #745337",
"2Q c #74533A",
"2R c #74533B",
"2S c #74533C",
"2T c #745437",
"2U c #745438",
"2V c #745439",
"2W c #74543A",
"2X c #74543B",
"2Y c #745537",
"2Z c #745538",
"2[ c #74553B",
"2] c #74553D",
"2^ c #74553E",
"2_ c #74563A",
"2` c #74563B",
"2a c #74563C",
"2b c #745640",
"2c c #745641",
"2d c #74573A",
"2e c #74573B",
"2f c #74573C",
"2g c #74573D",
"2h c #74573E",
"2i c #745740",
"2j c #745742",
"2k c #745744",
"2l c #745839",
"2m c #74583A",
"2n c #74583D",
"2o c #74583F",
"2p c #745840",
"2q c #745842",
"2r c #74593E",
"2s c #74593F",
"2t c #745940",
"2u c #745943",
"2v c #745944",
"2w c #745946",
"2x c #745A44",
"2y c #745B45",
"2z c #745C47",
"2{ c #745C4E",
"2| c #745D43",
"2} c #755338",
"2~ c #755435",
"3! c #755436",
"3# c #755437",
"3$ c #755438",
"3% c #755439",
"3& c #75543A",
"3' c #75543C",
"3( c #755535",
"3) c #755536",
"3* c #755537",
"3+ c #755538",
"3, c #755539",
"3- c #75553A",
"3. c #75553B",
"3/ c #75553C",
"30 c #755545",
"31 c #755638",
"32 c #75563B",
"33 c #75563E",
"34 c #755739",
"35 c #75573A",
"36 c #75573B",
"37 c #75573C",
"38 c #75573D",
"39 c #75573E",
"3: c #755740",
"3; c #75583A",
"3< c #75583B",
"3= c #75583C",
"3> c #75583D",
"3? c #75583F",
"3@ c #755848",
"3A c #755940",
"3B c #755942",
"3C c #755943",
"3D c #755A3E",
"3E c #755A3F",
"3F c #755A41",
"3G c #755A42",
"3H c #755C45",
"3I c #755D46",
"3J c #755D4B",
"3K c #755E44",
"3L c #765335",
"3M c #76533B",
"3N c #765439",
"3O c #765446",
"3P c #765537",
"3Q c #765538",
"3R c #76553A",
"3S c #76553B",
"3T c #765638",
"3U c #765639",
"3V c #76563A",
"3W c #76563B",
"3X c #76563E",
"3Y c #765641",
"3Z c #765739",
"3[ c #76573B",
"3] c #76573C",
"3^ c #76573D",
"3_ c #76573E",
"3` c #76583B",
"3a c #76583C",
"3b c #76583D",
"3c c #765841",
"3d c #765843",
"3e c #76593C",
"3f c #76593E",
"3g c #76593F",
"3h c #765940",
"3i c #765942",
"3j c #76594E",
"3k c #765A3E",
"3l c #765A40",
"3m c #765A42",
"3n c #765A45",
"3o c #765B41",
"3p c #765B48",
"3q c #765C46",
"3r c #765C47",
"3s c #765D49",
"3t c #765E43",
"3u c #765E47",
"3v c #765E49",
"3w c #765E4A",
"3x c #76614A",
"3y c #774E2F",
"3z c #774F3B",
"3{ c #775134",
"3| c #775235",
"3} c #775337",
"3~ c #775437",
"4! c #775438",
"4# c #775538",
"4$ c #775539",
"4% c #77553A",
"4& c #77553C",
"4' c #775637",
"4( c #775639",
"4) c #77563B",
"4* c #77563D",
"4+ c #77563E",
"4, c #775640",
"4- c #775643",
"4. c #775738",
"4/ c #775739",
"40 c #77573B",
"41 c #77573C",
"42 c #77573D",
"43 c #77573E",
"44 c #77573F",
"45 c #775839",
"46 c #77583A",
"47 c #77583B",
"48 c #77583C",
"49 c #77583E",
"4: c #77583F",
"4; c #775840",
"4< c #775841",
"4= c #775842",
"4> c #77593C",
"4? c #77593D",
"4@ c #77593E",
"4A c #77593F",
"4B c #775940",
"4C c #775946",
"4D c #775A3F",
"4E c #775A40",
"4F c #775A41",
"4G c #775A42",
"4H c #775A43",
"4I c #775B43",
"4J c #775C43",
"4K c #775C48",
"4L c #775C54",
"4M c #775D41",
"4N c #775D42",
"4O c #775E46",
"4P c #775F44",
"4Q c #785131",
"4R c #785132",
"4S c #785139",
"4T c #785238",
"4U c #785436",
"4V c #785439",
"4W c #785538",
"4X c #785539",
"4Y c #78553B",
"4Z c #78553E",
"4[ c #785639",
"4] c #78563B",
"4^ c #785739",
"4_ c #78573A",
"4` c #78573D",
"4a c #785838",
"4b c #78583A",
"4c c #78583D",
"4d c #78583E",
"4e c #78583F",
"4f c #785841",
"4g c #78593C",
"4h c #78593D",
"4i c #78593E",
"4j c #78593F",
"4k c #785940",
"4l c #785941",
"4m c #785942",
"4n c #785945",
"4o c #785A3C",
"4p c #785A3D",
"4q c #785A3F",
"4r c #785A40",
"4s c #785A41",
"4t c #785A42",
"4u c #785A43",
"4v c #785A45",
"4w c #785B3B",
"4x c #785B3F",
"4y c #785B40",
"4z c #785B42",
"4{ c #785C40",
"4| c #785C41",
"4} c #785C42",
"4~ c #785C45",
"5! c #785C46",
"5# c #785D44",
"5$ c #785D45",
"5% c #785D4B",
"5& c #785E47",
"5' c #785F55",
"5( c #795437",
"5) c #795438",
"5* c #795538",
"5+ c #795539",
"5, c #79553A",
"5- c #79553B",
"5. c #795638",
"5/ c #795737",
"50 c #79573A",
"51 c #79573B",
"52 c #79573E",
"53 c #79573F",
"54 c #795744",
"55 c #795839",
"56 c #79583A",
"57 c #79583B",
"58 c #79583C",
"59 c #79583D",
"5: c #79583E",
"5; c #795842",
"5< c #79593C",
"5= c #79593D",
"5> c #79593E",
"5? c #795A39",
"5@ c #795A3B",
"5A c #795A3C",
"5B c #795A3D",
"5C c #795A3E",
"5D c #795A3F",
"5E c #795A41",
"5F c #795A42",
"5G c #795A43",
"5H c #795B3A",
"5I c #795B3E",
"5J c #795B3F",
"5K c #795B41",
"5L c #795B42",
"5M c #795B43",
"5N c #795B45",
"5O c #795B46",
"5P c #795B4B",
"5Q c #795C3D",
"5R c #795C40",
"5S c #795C41",
"5T c #795C43",
"5U c #795C45",
"5V c #795C46",
"5W c #795D45",
"5X c #795D47",
"5Y c #795D49",
"5Z c #795E43",
"5[ c #795E46",
"5] c #795E49",
"5^ c #795E51",
"5_ c #795F44",
"5` c #795F46",
"5a c #796049",
"5b c #79604A",
"5c c #796149",
"5d c #796449",
"5e c #7A5537",
"5f c #7A5538",
"5g c #7A5638",
"5h c #7A563B",
"5i c #7A563C",
"5j c #7A563E",
"5k c #7A563F",
"5l c #7A5739",
"5m c #7A573A",
"5n c #7A573D",
"5o c #7A573E",
"5p c #7A573F",
"5q c #7A5838",
"5r c #7A5839",
"5s c #7A583A",
"5t c #7A583B",
"5u c #7A583C",
"5v c #7A583D",
"5w c #7A5840",
"5x c #7A593D",
"5y c #7A5940",
"5z c #7A5A3C",
"5{ c #7A5A3D",
"5| c #7A5A3F",
"5} c #7A5A41",
"5~ c #7A5A44",
"6! c #7A5B3E",
"6# c #7A5B3F",
"6$ c #7A5B41",
"6% c #7A5B45",
"6& c #7A5B49",
"6' c #7A5C3E",
"6( c #7A5C3F",
"6) c #7A5C40",
"6* c #7A5C41",
"6+ c #7A5C42",
"6, c #7A5C49",
"6- c #7A5D41",
"6. c #7A5D43",
"6/ c #7A5D44",
"60 c #7A5D49",
"61 c #7A5E3F",
"62 c #7A5E40",
"63 c #7A5E41",
"64 c #7A5E43",
"65 c #7A5F46",
"66 c #7A5F48",
"67 c #7A6046",
"68 c #7A6047",
"69 c #7A6143",
"6: c #7A6145",
"6; c #7A6248",
"6< c #7A6350",
"6= c #7A6750",
"6> c #7B5636",
"6? c #7B5638",
"6@ c #7B563D",
"6A c #7B5640",
"6B c #7B5738",
"6C c #7B5739",
"6D c #7B573A",
"6E c #7B573B",
"6F c #7B5740",
"6G c #7B5839",
"6H c #7B583A",
"6I c #7B593B",
"6J c #7B593D",
"6K c #7B593F",
"6L c #7B5942",
"6M c #7B5A3C",
"6N c #7B5A3D",
"6O c #7B5A3E",
"6P c #7B5A3F",
"6Q c #7B5A41",
"6R c #7B5B3E",
"6S c #7B5B3F",
"6T c #7B5B40",
"6U c #7B5B44",
"6V c #7B5B47",
"6W c #7B5C3B",
"6X c #7B5C3F",
"6Y c #7B5C40",
"6Z c #7B5C43",
"6[ c #7B5C44",
"6] c #7B5C45",
"6^ c #7B5C47",
"6_ c #7B5C49",
"6` c #7B5D3F",
"6a c #7B5D43",
"6b c #7B5D45",
"6c c #7B5D47",
"6d c #7B5D4C",
"6e c #7B5E41",
"6f c #7B5E43",
"6g c #7B5F45",
"6h c #7B5F49",
"6i c #7B6047",
"6j c #7B6048",
"6k c #7B604B",
"6l c #7B614D",
"6m c #7B634A",
"6n c #7B634F",
"6o c #7C5739",
"6p c #7C573E",
"6q c #7C5839",
"6r c #7C583A",
"6s c #7C583D",
"6t c #7C583E",
"6u c #7C5938",
"6v c #7C593A",
"6w c #7C593B",
"6x c #7C593D",
"6y c #7C593F",
"6z c #7C5A39",
"6{ c #7C5A3A",
"6| c #7C5A3B",
"6} c #7C5A3C",
"6~ c #7C5A3D",
"7! c #7C5A3E",
"7# c #7C5A3F",
"7$ c #7C5A41",
"7% c #7C5A43",
"7& c #7C5B3B",
"7' c #7C5B3F",
"7( c #7C5B40",
"7) c #7C5B41",
"7* c #7C5B42",
"7+ c #7C5C3C",
"7, c #7C5C3E",
"7- c #7C5C3F",
"7. c #7C5C41",
"7/ c #7C5C42",
"70 c #7C5C43",
"71 c #7C5D40",
"72 c #7C5D41",
"73 c #7C5D43",
"74 c #7C5E40",
"75 c #7C5E42",
"76 c #7C5E43",
"77 c #7C5E44",
"78 c #7C5F43",
"79 c #7C5F44",
"7: c #7C5F48",
"7; c #7C5F49",
"7< c #7C6046",
"7= c #7C6047",
"7> c #7C6048",
"7? c #7C6148",
"7@ c #7C6349",
"7A c #7C634D",
"7B c #7C644A",
"7C c #7C6553",
"7D c #7C664C",
"7E c #7C6655",
"7F c #7D5637",
"7G c #7D583D",
"7H c #7D5A3A",
"7I c #7D5A3B",
"7J c #7D5A3C",
"7K c #7D5A3D",
"7L c #7D5A3F",
"7M c #7D5B3D",
"7N c #7D5B3E",
"7O c #7D5B3F",
"7P c #7D5B41",
"7Q c #7D5B42",
"7R c #7D5B44",
"7S c #7D5C3A",
"7T c #7D5C3D",
"7U c #7D5C3E",
"7V c #7D5C3F",
"7W c #7D5C40",
"7X c #7D5C44",
"7Y c #7D5D3E",
"7Z c #7D5D3F",
"7[ c #7D5D41",
"7] c #7D5D44",
"7^ c #7D5D47",
"7_ c #7D5E3F",
"7` c #7D5E42",
"7a c #7D5F3E",
"7b c #7D5F43",
"7c c #7D5F47",
"7d c #7D603C",
"7e c #7D6040",
"7f c #7D6045",
"7g c #7D6049",
"7h c #7D604A",
"7i c #7D613F",
"7j c #7D6142",
"7k c #7D6247",
"7l c #7D6343",
"7m c #7D6346",
"7n c #7D6349",
"7o c #7D634D",
"7p c #7D664A",
"7q c #7D664B",
"7r c #7E573D",
"7s c #7E593C",
"7t c #7E593D",
"7u c #7E5A3A",
"7v c #7E5A3C",
"7w c #7E5A3D",
"7x c #7E5A3E",
"7y c #7E5A3F",
"7z c #7E5A41",
"7{ c #7E5B37",
"7| c #7E5B3B",
"7} c #7E5B3C",
"7~ c #7E5B3F",
"8! c #7E5B41",
"8# c #7E5B42",
"8$ c #7E5C3D",
"8% c #7E5C3E",
"8& c #7E5C41",
"8' c #7E5C47",
"8( c #7E5C4B",
"8) c #7E5D3E",
"8* c #7E5D41",
"8+ c #7E5D42",
"8, c #7E5D45",
"8- c #7E5D46",
"8. c #7E5E3F",
"8/ c #7E5E40",
"80 c #7E5E41",
"81 c #7E5E43",
"82 c #7E5E44",
"83 c #7E5F40",
"84 c #7E5F42",
"85 c #7E5F43",
"86 c #7E5F44",
"87 c #7E603C",
"88 c #7E6046",
"89 c #7E6047",
"8: c #7E6141",
"8; c #7E6144",
"8< c #7E6240",
"8= c #7E6245",
"8> c #7E6351",
"8? c #7E6449",
"8@ c #7E654C",
"8A c #7E664A",
"8B c #7E664D",
"8C c #7E6653",
"8D c #7E674E",
"8E c #7F5537",
"8F c #7F573B",
"8G c #7F5939",
"8H c #7F593C",
"8I c #7F5A3D",
"8J c #7F5A3E",
"8K c #7F5A3F",
"8L c #7F5A42",
"8M c #7F5B3A",
"8N c #7F5B40",
"8O c #7F5C3C",
"8P c #7F5C3D",
"8Q c #7F5C3E",
"8R c #7F5C3F",
"8S c #7F5C42",
"8T c #7F5C43",
"8U c #7F5D3E",
"8V c #7F5D41",
"8W c #7F5D43",
"8X c #7F5D44",
"8Y c #7F5E3F",
"8Z c #7F5E41",
"8[ c #7F5E43",
"8] c #7F5E4E",
"8^ c #7F5F3F",
"8_ c #7F5F42",
"8` c #7F5F43",
"8a c #7F5F44",
"8b c #7F5F45",
"8c c #7F6041",
"8d c #7F6042",
"8e c #7F6045",
"8f c #7F6046",
"8g c #7F6142",
"8h c #7F6143",
"8i c #7F6144",
"8j c #7F6149",
"8k c #7F6349",
"8l c #7F644A",
"8m c #7F6450",
"8n c #7F6451",
"8o c #7F654A",
"8p c #7F664A",
"8q c #7F6749",
"8r c #7F684C",
"8s c #80583A",
"8t c #805939",
"8u c #805A3D",
"8v c #805A3E",
"8w c #805B3B",
"8x c #805B3E",
"8y c #805B41",
"8z c #805C3A",
"8{ c #805C3E",
"8| c #805C3F",
"8} c #805C41",
"8~ c #805C42",
"9! c #805C43",
"9# c #805C44",
"9$ c #805D3A",
"9% c #805D3D",
"9& c #805D3E",
"9' c #805D3F",
"9( c #805D40",
"9) c #805D42",
"9* c #805D46",
"9+ c #805E40",
"9, c #805E41",
"9- c #805E42",
"9. c #805E43",
"9/ c #805E44",
"90 c #805F3F",
"91 c #805F40",
"92 c #805F41",
"93 c #805F42",
"94 c #805F43",
"95 c #805F45",
"96 c #805F47",
"97 c #806041",
"98 c #806042",
"99 c #806044",
"9: c #806045",
"9; c #806141",
"9< c #806147",
"9= c #80614C",
"9> c #806150",
"9? c #806244",
"9@ c #806246",
"9A c #806247",
"9B c #806248",
"9C c #806344",
"9D c #806345",
"9E c #806346",
"9F c #80634A",
"9G c #80644F",
"9H c #80654A",
"9I c #806552",
"9J c #806648",
"9K c #815938",
"9L c #815939",
"9M c #81593A",
"9N c #81593D",
"9O c #815A3A",
"9P c #815A3B",
"9Q c #815B3A",
"9R c #815B3D",
"9S c #815B3E",
"9T c #815B46",
"9U c #815C3B",
"9V c #815C3D",
"9W c #815C3E",
"9X c #815C3F",
"9Y c #815C40",
"9Z c #815C41",
"9[ c #815D3C",
"9] c #815D3D",
"9^ c #815D3F",
"9_ c #815D40",
"9` c #815D41",
"9a c #815E3B",
"9b c #815E3E",
"9c c #815E3F",
"9d c #815E41",
"9e c #815E43",
"9f c #815E4C",
"9g c #815F3F",
"9h c #815F41",
"9i c #815F43",
"9j c #815F44",
"9k c #815F49",
"9l c #816041",
"9m c #816042",
"9n c #816043",
"9o c #816044",
"9p c #816046",
"9q c #816048",
"9r c #816140",
"9s c #816143",
"9t c #816146",
"9u c #816245",
"9v c #816246",
"9w c #816247",
"9x c #816249",
"9y c #816343",
"9z c #81634A",
"9{ c #816354",
"9| c #816446",
"9} c #816448",
"9~ c #816449",
":! c #81644B",
":# c #816548",
":$ c #816750",
":% c #816751",
":& c #816754",
":' c #81684C",
":( c #816855",
":) c #81694F",
":* c #816A57",
":+ c #816B52",
":, c #816C59",
":- c #825335",
":. c #82583B",
":/ c #82593B",
":0 c #825B36",
":1 c #825B3C",
":2 c #825B3E",
":3 c #825C3A",
":4 c #825C3C",
":5 c #825C3E",
":6 c #825C3F",
":7 c #825C41",
":8 c #825D3B",
":9 c #825D3D",
":: c #825D3E",
":; c #825E3A",
":< c #825E3B",
":= c #825E3E",
":> c #825E3F",
":? c #825E43",
":@ c #825E46",
":A c #825F41",
":B c #825F43",
":C c #825F44",
":D c #826040",
":E c #826042",
":F c #826045",
":G c #826141",
":H c #826142",
":I c #826143",
":J c #826144",
":K c #826145",
":L c #826146",
":M c #826243",
":N c #826245",
":O c #826246",
":P c #826343",
":Q c #826348",
":R c #82634C",
":S c #826445",
":T c #826446",
":U c #826447",
":V c #82644A",
":W c #826546",
":X c #82654A",
":Y c #82664B",
":Z c #826749",
":[ c #82674B",
":] c #82694D",
":^ c #82694E",
":_ c #826A4F",
":` c #826A53",
":a c #826B50",
":b c #826B53",
":c c #826C50",
":d c #826C57",
":e c #82705D",
":f c #835A3E",
":g c #835A3F",
":h c #835A41",
":i c #835B3A",
":j c #835B3B",
":k c #835C3A",
":l c #835C3B",
":m c #835C3C",
":n c #835C3D",
":o c #835C3E",
":p c #835C46",
":q c #835D3D",
":r c #835E3C",
":s c #835E3D",
":t c #835E42",
":u c #835F3D",
":v c #835F41",
":w c #835F42",
":x c #83603F",
":y c #836040",
":z c #836043",
":{ c #836044",
":| c #836049",
":} c #836053",
":~ c #836141",
";! c #836142",
";# c #836143",
";$ c #836240",
";% c #836241",
";& c #836242",
";' c #836243",
";( c #836245",
";) c #836246",
";* c #83624A",
";+ c #836343",
";, c #836344",
";- c #836349",
";. c #83634D",
";/ c #836351",
";0 c #836447",
";1 c #83644A",
";2 c #836452",
";3 c #836553",
";4 c #836649",
";5 c #83664E",
";6 c #836850",
";7 c #83694E",
";8 c #836A4F",
";9 c #836B56",
";: c #836B59",
";; c #836E53",
";< c #837056",
";= c #845A39",
";> c #845B3D",
";? c #845C3A",
";@ c #845C3C",
";A c #845D39",
";B c #845D3D",
";C c #845E40",
";D c #845E41",
";E c #845E44",
";F c #845F3E",
";G c #845F3F",
";H c #845F40",
";I c #845F41",
";J c #845F42",
";K c #845F44",
";L c #84603F",
";M c #846041",
";N c #846044",
";O c #846049",
";P c #84613F",
";Q c #846141",
";R c #846142",
";S c #846143",
";T c #846147",
";U c #846148",
";V c #846240",
";W c #846241",
";X c #846244",
";Y c #846245",
";Z c #846341",
";[ c #846343",
";] c #846346",
";^ c #846349",
";_ c #84634C",
";` c #846443",
";a c #846445",
";b c #846448",
";c c #846544",
";d c #846546",
";e c #84654B",
";f c #846643",
";g c #846648",
";h c #84664B",
";i c #84664F",
";j c #846749",
";k c #84674C",
";l c #84684B",
";m c #846850",
";n c #84694A",
";o c #846A4E",
";p c #846A5F",
";q c #846B4F",
";r c #846B51",
";s c #855B3E",
";t c #855E3B",
";u c #855E3F",
";v c #855E40",
";w c #855F41",
";x c #855F42",
";y c #855F49",
";z c #85603F",
";{ c #856041",
";| c #856042",
";} c #856044",
";~ c #85613D",
"<! c #85613E",
"<# c #856140",
"<$ c #856142",
"<% c #856143",
"<& c #856144",
"<' c #85614D",
"<( c #85623F",
"<) c #856240",
"<* c #856243",
"<+ c #856245",
"<, c #856246",
"<- c #856249",
"<. c #856344",
"</ c #856345",
"<0 c #856346",
"<1 c #856347",
"<2 c #856446",
"<3 c #856448",
"<4 c #856548",
"<5 c #85654C",
"<6 c #85654D",
"<7 c #85664A",
"<8 c #85664B",
"<9 c #85664E",
"<: c #856749",
"<; c #85674A",
"<< c #85674D",
"<= c #856846",
"<> c #85694E",
"<? c #856A4C",
"<@ c #856B4B",
"<A c #856C4D",
"<B c #856C50",
"<C c #856C55",
"<D c #856D4A",
"<E c #856F51",
"<F c #865C3B",
"<G c #865E3F",
"<H c #865E40",
"<I c #865E41",
"<J c #865E43",
"<K c #865F3F",
"<L c #865F42",
"<M c #865F48",
"<N c #86603F",
"<O c #866046",
"<P c #866047",
"<Q c #86613E",
"<R c #86613F",
"<S c #866142",
"<T c #866143",
"<U c #866149",
"<V c #86614E",
"<W c #86623F",
"<X c #866241",
"<Y c #866242",
"<Z c #866243",
"<[ c #866244",
"<] c #866245",
"<^ c #866246",
"<_ c #866340",
"<` c #866345",
"<a c #866346",
"<b c #866442",
"<c c #866444",
"<d c #866446",
"<e c #866447",
"<f c #866448",
"<g c #866544",
"<h c #866545",
"<i c #866546",
"<j c #866547",
"<k c #866548",
"<l c #86654B",
"<m c #866644",
"<n c #866645",
"<o c #866646",
"<p c #866647",
"<q c #866648",
"<r c #866652",
"<s c #866747",
"<t c #86674D",
"<u c #86674E",
"<v c #866759",
"<w c #866848",
"<x c #866A4B",
"<y c #866A4C",
"<z c #866B48",
"<{ c #866B4F",
"<| c #866C40",
"<} c #866C4C",
"<~ c #866D4E",
"=! c #866D54",
"=# c #866E55",
"=$ c #866F55",
"=% c #875C3B",
"=& c #875D3B",
"=' c #875D40",
"=( c #875D41",
"=) c #875E3E",
"=* c #875F3A",
"=+ c #875F3B",
"=, c #875F3E",
"=- c #87603C",
"=. c #876041",
"=/ c #876042",
"=0 c #87613D",
"=1 c #876140",
"=2 c #876142",
"=3 c #876143",
"=4 c #876144",
"=5 c #876148",
"=6 c #876240",
"=7 c #876242",
"=8 c #876243",
"=9 c #876247",
"=: c #87624B",
"=; c #87633E",
"=< c #87633F",
"== c #876341",
"=> c #876343",
"=? c #876344",
"=@ c #876445",
"=A c #876446",
"=B c #876448",
"=C c #876449",
"=D c #87644C",
"=E c #876450",
"=F c #876545",
"=G c #876546",
"=H c #876547",
"=I c #876548",
"=J c #876643",
"=K c #876645",
"=L c #876646",
"=M c #876648",
"=N c #876649",
"=O c #87664B",
"=P c #87664C",
"=Q c #87674B",
"=R c #876753",
"=S c #876847",
"=T c #87684A",
"=U c #87684B",
"=V c #87684D",
"=W c #876949",
"=X c #87694D",
"=Y c #87694F",
"=Z c #876B4F",
"=[ c #876D4D",
"=] c #876D50",
"=^ c #876D51",
"=_ c #876E53",
"=` c #876E55",
"=a c #876F51",
"=b c #876F54",
"=c c #877154",
"=d c #877157",
"=e c #885C39",
"=f c #885D3E",
"=g c #885F3F",
"=h c #88603E",
"=i c #886041",
"=j c #886044",
"=k c #88613E",
"=l c #886141",
"=m c #886143",
"=n c #886144",
"=o c #886241",
"=p c #886242",
"=q c #886247",
"=r c #886248",
"=s c #886341",
"=t c #886342",
"=u c #886343",
"=v c #886345",
"=w c #886346",
"=x c #886347",
"=y c #88634F",
"=z c #886442",
"={ c #886443",
"=| c #886448",
"=} c #88653F",
"=~ c #886545",
">! c #886546",
"># c #88654B",
">$ c #886644",
">% c #886646",
">& c #886647",
">' c #886648",
">( c #88664A",
">) c #88664B",
">* c #886746",
">+ c #886751",
">, c #886753",
">- c #886949",
">. c #886A48",
">/ c #886A49",
">0 c #886A4C",
">1 c #886B4A",
">2 c #886B50",
">3 c #886C49",
">4 c #886C4C",
">5 c #886D51",
">6 c #886E4E",
">7 c #886E53",
">8 c #886E56",
">9 c #886F56",
">: c #88704C",
">; c #88725A",
">< c #887353",
">= c #895C3F",
">> c #895E42",
">? c #895F41",
">@ c #896040",
">A c #896041",
">B c #89613E",
">C c #896141",
">D c #89623E",
">E c #896240",
">F c #896242",
">G c #896244",
">H c #896246",
">I c #896344",
">J c #896345",
">K c #896348",
">L c #89634A",
">M c #89634C",
">N c #896447",
">O c #896448",
">P c #896546",
">Q c #896547",
">R c #896548",
">S c #89664C",
">T c #89664D",
">U c #89664E",
">V c #896746",
">W c #896749",
">X c #89674B",
">Y c #896849",
">Z c #89684A",
">[ c #89684F",
">] c #89694A",
">^ c #89694F",
">_ c #896A4A",
">` c #896A4B",
">a c #896B4C",
">b c #896B4D",
">c c #896B4F",
">d c #896C50",
">e c #896D48",
">f c #896D4D",
">g c #897055",
">h c #897058",
">i c #89714E",
">j c #89715D",
">k c #897255",
">l c #89725B",
">m c #89725E",
">n c #8A5F40",
">o c #8A603B",
">p c #8A603F",
">q c #8A6143",
">r c #8A6242",
">s c #8A6248",
">t c #8A6342",
">u c #8A6343",
">v c #8A6344",
">w c #8A6345",
">x c #8A6346",
">y c #8A643F",
">z c #8A6443",
">{ c #8A644C",
">| c #8A6543",
">} c #8A6545",
">~ c #8A6547",
"?! c #8A6551",
"?# c #8A6642",
"?$ c #8A6646",
"?% c #8A6647",
"?& c #8A664C",
"?' c #8A664D",
"?( c #8A6650",
"?) c #8A6742",
"?* c #8A6744",
"?+ c #8A6746",
"?, c #8A6747",
"?- c #8A6749",
"?. c #8A6843",
"?/ c #8A6845",
"?0 c #8A684A",
"?1 c #8A694A",
"?2 c #8A6B50",
"?3 c #8A6B51",
"?4 c #8A6C4B",
"?5 c #8A6C4E",
"?6 c #8A6D54",
"?7 c #8A6E4B",
"?8 c #8A6E4E",
"?9 c #8A6E51",
"?: c #8A6E56",
"?; c #8A6F58",
"?< c #8A704D",
"?= c #8A7051",
"?> c #8A715E",
"?? c #8A744D",
"?@ c #8A7455",
"?A c #8B5C38",
"?B c #8B5E3B",
"?C c #8B5F41",
"?D c #8B613E",
"?E c #8B6240",
"?F c #8B6242",
"?G c #8B6342",
"?H c #8B6348",
"?I c #8B6441",
"?J c #8B6443",
"?K c #8B6445",
"?L c #8B6446",
"?M c #8B6447",
"?N c #8B6545",
"?O c #8B6547",
"?P c #8B6645",
"?Q c #8B6647",
"?R c #8B664D",
"?S c #8B6744",
"?T c #8B6745",
"?U c #8B6748",
"?V c #8B6749",
"?W c #8B6847",
"?X c #8B6848",
"?Y c #8B6849",
"?Z c #8B684C",
"?[ c #8B684D",
"?] c #8B6949",
"?^ c #8B694A",
"?_ c #8B694D",
"?` c #8B6A47",
"?a c #8B6B44",
"?b c #8B6B47",
"?c c #8B6B4B",
"?d c #8B6B4E",
"?e c #8B6C4A",
"?f c #8B6D4B",
"?g c #8B6D4D",
"?h c #8B6D52",
"?i c #8B6E50",
"?j c #8B6F50",
"?k c #8B6F51",
"?l c #8B6F53",
"?m c #8B7050",
"?n c #8B7251",
"?o c #8B7252",
"?p c #8B7255",
"?q c #8B7256",
"?r c #8B7257",
"?s c #8B7356",
"?t c #8B7450",
"?u c #8B765F",
"?v c #8B7756",
"?w c #8B785D",
"?x c #8C6044",
"?y c #8C613E",
"?z c #8C623F",
"?{ c #8C6241",
"?| c #8C6342",
"?} c #8C6443",
"?~ c #8C6540",
"@! c #8C6541",
"@# c #8C6543",
"@$ c #8C6544",
"@% c #8C6545",
"@& c #8C6549",
"@' c #8C6647",
"@( c #8C6649",
"@) c #8C6742",
"@* c #8C6744",
"@+ c #8C6749",
"@, c #8C674A",
"@- c #8C6844",
"@. c #8C6846",
"@/ c #8C6847",
"@0 c #8C6849",
"@1 c #8C684B",
"@2 c #8C684C",
"@3 c #8C6943",
"@4 c #8C6945",
"@5 c #8C6946",
"@6 c #8C694A",
"@7 c #8C6A44",
"@8 c #8C6A4B",
"@9 c #8C6C4E",
"@: c #8C6F4A",
"@; c #8C6F4E",
"@< c #8C6F50",
"@= c #8C7250",
"@> c #8C7357",
"@? c #8C7659",
"@@ c #8C785F",
"@A c #8C7865",
"@B c #8D5F40",
"@C c #8D624A",
"@D c #8D633F",
"@E c #8D6440",
"@F c #8D6546",
"@G c #8D6641",
"@H c #8D6642",
"@I c #8D6645",
"@J c #8D664A",
"@K c #8D6741",
"@L c #8D6742",
"@M c #8D6743",
"@N c #8D6744",
"@O c #8D6745",
"@P c #8D6747",
"@Q c #8D6748",
"@R c #8D674B",
"@S c #8D674F",
"@T c #8D6844",
"@U c #8D6845",
"@V c #8D6847",
"@W c #8D6941",
"@X c #8D6947",
"@Y c #8D6948",
"@Z c #8D6949",
"@[ c #8D694B",
"@] c #8D6A47",
"@^ c #8D6A48",
"@_ c #8D6A49",
"@` c #8D6A4A",
"@a c #8D6A4C",
"@b c #8D6B48",
"@c c #8D6B4C",
"@d c #8D6B4D",
"@e c #8D6B58",
"@f c #8D6C49",
"@g c #8D6C4F",
"@h c #8D6C50",
"@i c #8D6D4D",
"@j c #8D6D50",
"@k c #8D6D52",
"@l c #8D6E4C",
"@m c #8D6E50",
"@n c #8D6F4C",
"@o c #8D7351",
"@p c #8D7454",
"@q c #8D755B",
"@r c #8D7659",
"@s c #8D785B",
"@t c #8D7966",
"@u c #8E633E",
"@v c #8E6445",
"@w c #8E6541",
"@x c #8E6545",
"@y c #8E6641",
"@z c #8E6643",
"@{ c #8E6644",
"@| c #8E6740",
"@} c #8E6742",
"@~ c #8E6746",
"A! c #8E6748",
"A# c #8E6842",
"A$ c #8E6844",
"A% c #8E6847",
"A& c #8E684A",
"A' c #8E684B",
"A( c #8E6945",
"A) c #8E6949",
"A* c #8E694A",
"A+ c #8E6A46",
"A, c #8E6A48",
"A- c #8E6A49",
"A. c #8E6B4B",
"A/ c #8E6B4C",
"A0 c #8E6B4D",
"A1 c #8E6C47",
"A2 c #8E6C48",
"A3 c #8E6C4A",
"A4 c #8E6C4F",
"A5 c #8E6C57",
"A6 c #8E6D4A",
"A7 c #8E6E53",
"A8 c #8E6F47",
"A9 c #8E6F4E",
"A: c #8E724F",
"A; c #8E7252",
"A< c #8E7254",
"A= c #8E7351",
"A> c #8E7352",
"A? c #8E7357",
"A@ c #8E7453",
"AA c #8E7455",
"AB c #8E7456",
"AC c #8E7759",
"AD c #8E795B",
"AE c #8F634A",
"AF c #8F6641",
"AG c #8F673E",
"AH c #8F6743",
"AI c #8F6745",
"AJ c #8F6749",
"AK c #8F674A",
"AL c #8F674C",
"AM c #8F674F",
"AN c #8F6845",
"AO c #8F6846",
"AP c #8F6848",
"AQ c #8F6943",
"AR c #8F6A47",
"AS c #8F6A4C",
"AT c #8F6A4D",
"AU c #8F6B45",
"AV c #8F6B49",
"AW c #8F6B54",
"AX c #8F6C4D",
"AY c #8F6C4F",
"AZ c #8F6D52",
"A[ c #8F6E47",
"A] c #8F6E4C",
"A^ c #8F6F4D",
"A_ c #8F7049",
"A` c #8F704B",
"Aa c #8F7051",
"Ab c #8F7052",
"Ac c #8F714F",
"Ad c #8F725C",
"Ae c #8F735C",
"Af c #8F7450",
"Ag c #8F7452",
"Ah c #8F745A",
"Ai c #8F7662",
"Aj c #8F775D",
"Ak c #8F7853",
"Al c #8F785C",
"Am c #8F795C",
"An c #906246",
"Ao c #906449",
"Ap c #90644C",
"Aq c #906547",
"Ar c #90664B",
"As c #906744",
"At c #906746",
"Au c #906750",
"Av c #906844",
"Aw c #90684B",
"Ax c #90684C",
"Ay c #906944",
"Az c #906945",
"A{ c #906949",
"A| c #906A4B",
"A} c #906B4C",
"A~ c #906B54",
"B! c #906C46",
"B# c #906C48",
"B$ c #906C53",
"B% c #906D43",
"B& c #906D49",
"B' c #906F4D",
"B( c #907047",
"B) c #907053",
"B* c #907056",
"B+ c #907154",
"B, c #907252",
"B- c #907354",
"B. c #907655",
"B/ c #90765D",
"B0 c #90775A",
"B1 c #907855",
"B2 c #907863",
"B3 c #907A64",
"B4 c #916642",
"B5 c #916645",
"B6 c #916742",
"B7 c #916745",
"B8 c #916748",
"B9 c #91684B",
"B: c #91684C",
"B; c #916A46",
"B< c #916B45",
"B= c #916B47",
"B> c #916B49",
"B? c #916B54",
"B@ c #916C48",
"BA c #916C4B",
"BB c #916C4D",
"BC c #916D45",
"BD c #916E4B",
"BE c #916E4E",
"BF c #916E4F",
"BG c #916E54",
"BH c #916F4B",
"BI c #916F4D",
"BJ c #91704C",
"BK c #91704E",
"BL c #917050",
"BM c #917052",
"BN c #917055",
"BO c #917150",
"BP c #91724E",
"BQ c #917253",
"BR c #917254",
"BS c #917255",
"BT c #91734E",
"BU c #917550",
"BV c #917559",
"BW c #917650",
"BX c #917655",
"BY c #917659",
"BZ c #91765C",
"B[ c #91775D",
"B] c #917854",
"B^ c #917858",
"B_ c #91795B",
"B` c #917B5F",
"Ba c #917C59",
"Bb c #926748",
"Bc c #926842",
"Bd c #926846",
"Be c #926849",
"Bf c #926944",
"Bg c #926945",
"Bh c #926946",
"Bi c #926948",
"Bj c #92694A",
"Bk c #926A41",
"Bl c #926A46",
"Bm c #926A47",
"Bn c #926B43",
"Bo c #926B4B",
"Bp c #926C4C",
"Bq c #926D4A",
"Br c #926D4C",
"Bs c #926E4C",
"Bt c #926E4E",
"Bu c #92724C",
"Bv c #927250",
"Bw c #927253",
"Bx c #927352",
"By c #92735D",
"Bz c #927452",
"B{ c #927455",
"B| c #92754F",
"B} c #92775B",
"B~ c #92775C",
"C! c #927961",
"C# c #927D5B",
"C$ c #928069",
"C% c #936843",
"C& c #936846",
"C' c #936847",
"C( c #93694C",
"C) c #936B45",
"C* c #936B46",
"C+ c #936B48",
"C, c #936B4A",
"C- c #936C47",
"C. c #936C48",
"C/ c #936C49",
"C0 c #936D42",
"C1 c #936D4B",
"C2 c #936E4A",
"C3 c #936E4E",
"C4 c #936E4F",
"C5 c #936F4A",
"C6 c #936F4F",
"C7 c #93704F",
"C8 c #937148",
"C9 c #937250",
"C: c #937257",
"C; c #937355",
"C< c #937363",
"C= c #93744D",
"C> c #937450",
"C? c #937853",
"C@ c #937856",
"CA c #937858",
"CB c #937859",
"CC c #937956",
"CD c #937A53",
"CE c #937A59",
"CF c #937C61",
"CG c #937F67",
"CH c #946744",
"CI c #946B47",
"CJ c #946B49",
"CK c #946B4B",
"CL c #946C47",
"CM c #946C51",
"CN c #946D48",
"CO c #946D4B",
"CP c #946D4E",
"CQ c #946D50",
"CR c #946D55",
"CS c #946E49",
"CT c #946E4B",
"CU c #946E4E",
"CV c #946E50",
"CW c #946F48",
"CX c #946F4A",
"CY c #946F4D",
"CZ c #94704D",
"C[ c #94704E",
"C] c #947051",
"C^ c #94714A",
"C_ c #94714C",
"C` c #947152",
"Ca c #94724E",
"Cb c #947250",
"Cc c #947253",
"Cd c #94744B",
"Ce c #947458",
"Cf c #947657",
"Cg c #94765D",
"Ch c #947759",
"Ci c #947A57",
"Cj c #947C66",
"Ck c #947D5B",
"Cl c #956B46",
"Cm c #956B4B",
"Cn c #956C49",
"Co c #956D4D",
"Cp c #956E46",
"Cq c #956E4C",
"Cr c #956E4D",
"Cs c #95704A",
"Ct c #95704C",
"Cu c #957052",
"Cv c #95714D",
"Cw c #95724E",
"Cx c #957251",
"Cy c #95734E",
"Cz c #957453",
"C{ c #957650",
"C| c #957B65",
"C} c #957C5D",
"C~ c #957C62",
"D! c #957E5C",
"D# c #957E60",
"D$ c #95805C",
"D% c #96694E",
"D& c #966B4C",
"D' c #966D4F",
"D( c #966E49",
"D) c #966E4B",
"D* c #966E4D",
"D+ c #96704B",
"D, c #96704C",
"D- c #96704E",
"D. c #96714D",
"D/ c #96724A",
"D0 c #967250",
"D1 c #967252",
"D2 c #96734D",
"D3 c #967452",
"D4 c #967555",
"D5 c #96765F",
"D6 c #967B59",
"D7 c #967C5E",
"D8 c #967E5D",
"D9 c #967E60",
"D: c #967F5D",
"D; c #968061",
"D< c #976A45",
"D= c #976B4C",
"D> c #976D4E",
"D? c #976F48",
"D@ c #97704A",
"DA c #97704D",
"DB c #97704E",
"DC c #977150",
"DD c #977153",
"DE c #97724E",
"DF c #977253",
"DG c #97734C",
"DH c #977351",
"DI c #977356",
"DJ c #97745D",
"DK c #97754D",
"DL c #977658",
"DM c #97795C",
"DN c #977A5C",
"DO c #977A60",
"DP c #977D50",
"DQ c #97805E",
"DR c #986C4A",
"DS c #986D49",
"DT c #986F47",
"DU c #98704B",
"DV c #987249",
"DW c #98724C",
"DX c #987251",
"DY c #98734D",
"DZ c #987352",
"D[ c #987552",
"D] c #98755D",
"D^ c #987658",
"D_ c #987A4D",
"D` c #987A50",
"Da c #987B4F",
"Db c #987D5D",
"Dc c #987F5A",
"Dd c #98805D",
"De c #98805E",
"Df c #988067",
"Dg c #99704E",
"Dh c #997350",
"Di c #997652",
"Dj c #997855",
"Dk c #997954",
"Dl c #997956",
"Dm c #997C51",
"Dn c #997D54",
"Do c #997E65",
"Dp c #997F63",
"Dq c #997F64",
"Dr c #99835E",
"Ds c #998570",
"Dt c #9A6F4B",
"Du c #9A734C",
"Dv c #9A7357",
"Dw c #9A7550",
"Dx c #9A7652",
"Dy c #9A7653",
"Dz c #9A7654",
"D{ c #9A7756",
"D| c #9A7758",
"D} c #9A7851",
"D~ c #9A795A",
"E! c #9A7C5C",
"E# c #9A7C5F",
"E$ c #9A7E62",
"E% c #9B744B",
"E& c #9B744E",
"E' c #9B754C",
"E( c #9B754D",
"E) c #9B774D",
"E* c #9B784D",
"E+ c #9B7853",
"E, c #9B7855",
"E- c #9B7859",
"E. c #9B7A4F",
"E/ c #9B7A53",
"E0 c #9B7C57",
"E1 c #9B7C5E",
"E2 c #9B7E61",
"E3 c #9B845B",
"E4 c #9C7653",
"E5 c #9C7A52",
"E6 c #9C7A53",
"E7 c #9C7A54",
"E8 c #9C7B5E",
"E9 c #9C7C54",
"E: c #9C805D",
"E; c #9C845B",
"E< c #9C865E",
"E= c #9D7450",
"E> c #9D774F",
"E? c #9D7755",
"E@ c #9D7856",
"EA c #9D7C54",
"EB c #9D7D55",
"EC c #9D7F51",
"ED c #9D8560",
"EE c #9D8762",
"EF c #9E764E",
"EG c #9E7652",
"EH c #9E7750",
"EI c #9E7850",
"EJ c #9E7859",
"EK c #9E7B4F",
"EL c #9E7E4D",
"EM c #9E7F5D",
"EN c #9E835D",
"EO c #9E8A70",
"EP c #9F7554",
"EQ c #9F7951",
"ER c #9F7A53",
"ES c #9F7B52",
"ET c #9F7D56",
"EU c #9F846F",
"EV c #A0714B",
"EW c #A0754D",
"EX c #A0754E",
"EY c #A07953",
"EZ c #A07C59",
"E[ c #A07D57",
"E] c #A07E62",
"E^ c #A08056",
"E_ c #A08454",
"E` c #A17958",
"Ea c #A17D55",
"Eb c #A17E53",
"Ec c #A1896E",
"Ed c #A18A75",
"Ee c #A18B6B",
"Ef c #A27D58",
"Eg c #A2825D",
"Eh c #A2825F",
"Ei c #A2845E",
"Ej c #A2886B",
"Ek c #A28D5F",
"El c #A37F53",
"Em c #A38764",
"En c #A47857",
"Eo c #A4865E",
"Ep c #A57D54",
"Eq c #A58B55",
"Er c #A5906A",
"Es c #A5926E",
"Et c #A68559",
"Eu c #A77F55",
"Ev c #A7885E",
"Ew c #A88A68",
"Ex c #A88E64",
"Ey c #A98D69",
"Ez c #A98E6C",
"E{ c #AA8D62",
"E| c #AF9162",
"E} c #B6976A",
/* pixels */
"/B+/*v-6-a?I=<6$</B;CX=k:H<TCL<o3v<g7+=@<I@/;C8I=8?^=U2*7}08-l4[81E'@M9|5o@R>x6+E%ElC'Ay@(5$EI@I(N%k1]5e;L:N4;4$0c3|6E(O+w.^+}:u",
"@5*j0S)b(T3!:=+T+V-f097u?U8`:83$2c<=7{*5.!-49]4R<F1C714/1,@]3E352*2%@K0s(e).(b.`11(|6M176J2,26-,#z$j+G:<.y+))N/(+k45<b-F6M4>+l3b",
"3a4H0&1M.K;l8l-q:V/C:?4*2*:T?S?]7A;gB{3z9Y?.B#CS>@;{;K@YBm7y:YE07K7P=F4h/k4d1</1//.I?*5729-w5<)u%V${*|2a04+?1R/j.o7N3:5-7T6453<c",
"3,1o>070:B@14-333l4{+;2a1:1A:02*5s6v6.8!4o5*8S1|:g6]4O7x:~9gA24q-_/k9d;z5|=pCO=&3b>V>o=LCy;SEp4W&k#~-<AIA'D)DBEB7V0a4S5j4j0L?A8W",
"@!/B5#/|,77#-e'd'w)Z0{+r,k+#(q.|'m)p-I,!0u)B(R*F(P)T.%+[)z/-2L(`+L''-M.5/w=i9M2p2q<G<!B&?f<k779j&C%g)]._8e.^4E@3;@3N5>?B0n41-^0a",
"7[4m/G,)3c,X9e4=3d<U5D9q0*>[:p9>9=:p<rBV@e;E<'By>+E2E]DvEJEMC]?!D]B:<^=D@Q;3@e<v;iCMDIEN@jB??'43$u%B.H1>+<0]3nCO;u;I>^Ap>L<6Ce<O",
"+z,i,5+4(f+f4n0|1W-}0i/++p)y,o+_,,)A)^):(Z*:)r)U2F-#*0(z*'*+,u+o1S0r)I(F*[+d0^,C1`+Q,L+,*!-%(r(3&-!C*@0Q/=,Y,w,C.U0I-8+Z0@1@1?8(",
"$?%F%h%#')%h'=$%&@%C%)$~%B'($h%a$.&P%r%*%^%Z$r%r&A#1$,$=&c&.%C'<&J%+%E$'&F$Z&s$s&Z$s&J&F%/%2%{'U%i!9&#(/&M%a&O%K&,&v&2&y%a%^%r()",
"!`!j!X#O!.#4$d#d#E!?#T%X$O&@&%%T$a%Q&q!j$e&=!L!?$T$L!v$%'8'i#d#d$|!}&)$T#/$<%e!y#p$*&N&V$R%5!Z#G#j#~$m#u!k#K$b#`#i!J&?#C![%:%$!v",
"Cg:%#:&<?7DMC|EwEUB3CGA??6?>;5E8Cj>fDpC~AbErEE;h<?A`AA8p?@B17lDd>7CkC?A:D9AD?=:]?;@AEdD;Ah?l=!DsB^DfC!A;CiDb>j?uD7EcCFB_@:BOBQEj",
"7&(p#T&n2X9~6X.b*u2J607*;,4~>X4x2$8Q@0BK1T7}0T8~,q7,1.7U;n.X-a7_6e3V4J5m406R9C7L8`3D7b0%.55<2e5M@%<;<n6Y8|;D3o2j.{120)/W,4+@2S1P",
")/'J$5#Y)N)**$'l(;,~+B)D)_*n3X.~0e01<N9;+q317K0h4w:Q798=?4;R0`,;12.a<s;[6C9P>*0x)-0F0-4k,A388V4?+V/s/|/q<Q+F39(y2w)[*;5Q0f(s+h.x",
"B92N&V'D:o:69m?~3[;uB54#436|373h-p+(3{:k/_0C6w8R3S8A5$61,Z4:.8,:1'-i,T0}1m.R7&2M07+$*B,'+$0%5JE/?CB7ER?yC2?YB>C+EQB6>=?{C%BdD<>C",
"6N5g$0$H/g<1D4BrA}D.;(BoEtB<BlAx9QClE)E_EVDSDRCTE.D?>!@ECV7;9/DhBn;}AZ896U=3>uD=CJ9d<]9(7v2+7YCZBSASD@>|2};X={>~8{6S5S5p,E@{8E8x",
";W+>%S$F)}2B74/C4g2<47:yAQ9VC&6A>w8,C1@*CrC//t/65?,f+b.:2P?_7o<lC;:E0u2Q1s2h>D2H:!<#CW>ZDU?WD38+3&?,C^5V.i885L6s4e,O9[?56i9E<+A1",
"9s1~%?#H*.;N147g/L7/2f49806N.B*E.#,J?b+x1h;a-V/Z0E3I,~0y?-7!<*5B2?,x)9)>6;5u192c0z7`291/1%;M=B5o3R9lC5Cu9.CwBR=V<>6)+W5%=Y>1:zCa",
"DH*J!]#h-C?I9u7n>WA+A*?X@b=xA4<z?LC(E{C3DxC9DlEhDWEaEyCw@_<`A%<m>4C46-9p@k>]Bl<9D,EZE@C8>C@BDwB<9p=GESEo=vELDYC_Eb@#<t=:8%Bx6m:U",
"4^/!!%!+*y--)F-G/xAOBz@W:9/;=T3V/l<%1q:>:P(#)t,b7J3*:R?K:x0ZA0<q=?BiE>C)AV4|-6>E3T?/E7@y=%ANDG463ZD[C2>-?9;v9-7t>p;s>t6>C*=u4e9)",
",n'`!]$U*8's)=-J)k5X95;1+K)4*G3p,*.&0+3o<<2>/,4Y0A,Q)H.95z+c,V+&+6/Y5]1N8m6c0N<O829q/T(G.m+X2I/E.//N,s-|+6*Q(2)()!1*/b0t0V,[-q.4",
"-Y&U&a'#(+(k+9(K+2,D-o/,'^(&(^(j0O-=.]0w)R(x(m0B/I.,3O54(S(n(@'p)G*a*C(1-S-!*e/A);+,5^*t-~)s4L+P.+*T*0+|.>3j+`)5'O'C(5*1-&*D/z/h",
"!h!)!W##%+#_&F$m%D$:$T%o$Z%!%!&g%r&/%6%H#X!n%!%D$=$N')$'#m#3$($S%r'_%,$)%x&l$o%L&!%t$x$r%r$r$s%r%m%J$%%H'.%s&x&p%y%+$]&f&h%t$n&I",
"#0$4$4$z#w$I#<!V!d']'h$M%7'0%j'?%}'6'3$C&F$3$K#6%g%p%d!2!^%F%>#>#J#-#L!i$Q#?!_&9$_#|!D#'$##b$p#}$6$c$/#B!=!e$E$t%8!g!Q$!$f%j!,!L",
"<@>.>5?3BWD6=ZAe>bDNBGC>?vEsA_8:;9BXDe@qC}EzE#?lB}Dq?w;:C$?o2Q#P#F9GC:6g?sCC>:D$:b>8:^BU86A<E3@tB2B0E<BXB|Cd?h>9<D;78d:=<|;j7>:_",
"3(*U)01r6q)E*Y*h*).$-G,=.E0W)7+b)#*~../o.j3a+T.L1w(W2Y5p,y7e'S!L&Q0:+x)&5W280D68,3-I+R3#+11n5120._7=67/x+s.1/94A?eB;.W://c)2(C2u",
"9-0?3s2_8)6T2C/p/{5K<u9S>R4G8.BZ.p83@82W7!?`5|987N=F@$:f>?@~)9#T'g/f8Z14;e9h>J=Q6nAYA[,|6t;H<e9K6+2p9A.A/e)|0t/9;';S0[<i.5*l216$",
"D2DVDABH@-DE>V=/AGE&:7:-4e,z/$2)8&3-<h/>:m7f;R;V8;@8@27wA^78'R!z$1,K:R9X>vEvE,?#<&;J@QC,>n?Z=?B!@T?}?MEPDaEqDTB4D_E}Cm;A=};=@G>H",
"8U={8t5>0=6R,(,h)?*W(d/d2@,=6B2o9B1Y.S8z/./K3=1p2/8'>(;BB-:[.Q#h(-($+n.k2s4x4`*9,q.)-L8N4c1C3<973>2U**)8@n>a504!/77<363845.w.W)f",
"'v,U(B/8*U(I/**S*Y,G5}:T;`.e4r2x1K446WBC-:0b0`+!.z+y-B-`3g0L0,$X$Y(>-x7j0<3_,H)M8$.:*L-v242`-^*>+*'Y([*f/R,]-W+S.P))(%(=(9(t(4%R",
"BEBNBtB%=e;#?|EFCnEuEXCH<$7}>r=pBk>QBD6(0d8K7s3#21Di@U5{5M-((c#A#R(04}34;'9S1)2)3V;c5T6S;xBf=26F=j=fBh<HCz@[C6C.@FAv8}@,EK>cArDg",
"CtB&ECC-?QA!C6CsCpAz3A@xDuB@8X:tEfEWDyCI=IE`EGD&D>Cq=w76<85&-/#@#f(]4M1e2L?E=)2[4b<422<YAR2:156{At:2>I2]4v9_;|9F@z?aD*E5DPCQD{A`",
"*6,_1-+H(a734A.M=4.;2E1v-U5!*s3@7%2R9*4lAs?[:&5~:|6@CR8n6hAd7h#x!|1?B$9k>W+y3n/y3C<`-)3w6,.r/I4**</+-c+7*?*#6/0b6Q*k,t1j.q+%)g4C",
"/55P1l+'.,0.2K;p6d,v.t0#-R*q+3,R)q(V,u,W/423.[/O0',-1@,M+-5')1!T#g&R)S0X+81{*()'.D,*)X-+.N)V,{0U/U-y*0,$(**M*31H.n-m*@+=*2(:)h1X",
"'$&8&1%,$t$x&d'c&^%r%#%+$`';%_%t&F%L%F%s'`&0&W'b'/&B%F&J%m%D%a!Y!>%,$a%4&7%-&h%{%s'N%|&_%J%J%~&8'2$v'a')%n%y'B&#&p&E$]%L$i%z%u&_",
"!<$R!F!#!!!&!1!$!r!s#7!G!'!6!I!|#~#a#5!q!s!0!*#9#>#d%v#e!@#c!7#<#{#+#:#9#>$=!K#o%W!v!t$I%&$$!M!;!{#w!K#v!B!4#,!/#'%9!@!a!3!:!H!S",
"6/3r8q;19i87;[4f>/<{8g<:8r<{8@Ba><;q;mE$Dc;`:*6<:#7q?p>h=#?j@?=]B.D5?r<}AaAf?<:'Aj@s<9:`B/A>66:)3KA=<A?8D:3q=d>k<w&;#^3t?:;r7:8D",
"85:WC{A{7/5o3.2V7z<75a4~4F:A-5*;0z7x;I=q>NA(D~E-CoDDE[@VE=5t,!+~0K2(2M,?.V2O6?2:7`8a4F58787^7P>zA,9?3W,k4A1F,r-k)3$D'[(U,11z,&5y",
"6'0Y?)8H733?/u4i3`9:-X+:(}-u6}@62t4B3%1^2^6J@D:n5t52<T2Y?D?z-{+U0m<_480M5L.^/'.v5R+]1d7]D+<f<.5(5C?I;]Bq;V5=1f77*m#2#g0P4O*Q,/@O",
"BAA2BI?J=C?YAH9'BLD0CN=2<0CxBF7gD|7#324++M4h1#*7937T/B/65lA);k2X9+>B6L1o/)5=:l4%=1/`4(133/8uAF<S700p:z>G>>ARDnD'/'#S$:.CD-@J5_?M",
"7)6520)x(J1;92-Z1+22,>,g+A4)3~4':s=02n5G4<3_7u3-9vAU?N<0;z9^@P3):;:35w0?3}>$2l,>2.8[C05h/X3+;~8*:{-;1Q-;-k412m,d'Z#8%3'x-A0:2D-g",
"'W*&.s,a'y(o,},.)Y)W(<0~)~*d9$286.@`>_0=/F205A/~5O<W:OEY4y0%-Q2P9&;)-'*r,^5`/u1]2=+a8/0=-r.@.3'f)K-T92<d-O*-*{'|(-#y!P&3(M'n(G(b",
"/p7a2r*P-C623,.E5b2z1=:$6j5W6M=H<e/}1x,U-N/n(|'q){+0'V-f2`0)*o0q5f1u0R.E2y/M.0-l368J<)7Q7$D}5@4H-@5I849,-D3C/@/G.*$W$Q*`/(:x-$6k",
"8v<-2{5Y2>=N=n8L;>820H-O.c,`/r3Y,I;O6^6^6l>SCU<P=r;y03.G/U6y>O@~5;7R6b5:=(Au0!0N9!9Z:C6_/?Aq@i:@B)Ak6%;U:h6[>#9T-d$V!v)+<5?H=R6V",
"+{(6(_(!),*H1630)<+O.?00/#)e(Q+v6&,i,j+,*i1L9{:}-*;28]+O2G*Z++/U.d*N-?)n-K,S1!>,*/0J-7-0(w/3,+)o*b9f-E)$.-'~*=)a',#V!c#;)w(i'%(E",
"'H'9%e'F%q&J$s&}'H%t'`&](.(D'>(Y'M'}&o'L'B%x&}%L&7&}%P%t&y&y&K'2'G&/$`&J%e&.&|'Q'!&`&_%E$s'K'A'k'B'j&u&#&b%K%,'X'r%%&>%7&!'B&~'F",
"$+$'!l#[#0#.$6'P#q#s#$#&$g#M$J$4%A'1#j#y#W#*$>#*!m%.%.!p#n#D#!!J!~!o#>#=&C&w$P!R!(#k&4':#N#J#Z%<%E%U&Y&m%I%m'+&(%[#P$:$@$S!Q$2'E",
"/]:ZCE9I@p>dBZE;D!5d2|0_6a;6:d/[!O#c7b;Z@;@<@@@rAl:+C#<~0v;[;$847mAm=^:J=a;<8C7E7BAgD86=CAB`?q@=A@=c??<y7p>5=_>m:,5c7CAC<B<E?t1O",
"0k;!4x/C.}59;%,p3N056o/m/m177?+^'-$l036~EH=hDZ265J4r4p4D6R7I3^6y:46{>Y0;7P7v9l6*=sDT<q=z@|?W9a:wAnCSA8,0-t*X029n9z+N,A5k6K/Q8)2q",
"6:8k*O/:.7)T4O3H1o<a81+51k;YCB:(&h'o/aAK?,?G=.@a<p@'B+;4=|B'BB@h:B@7D1AL<KA-7k1G4yBPBv?XAX1t3G2d2k99=~1J8>1o0$<x5E8T6e8Y7.4y,#4I",
"5Q.a1C2&;R1c3m<p3^-p/n(B-b+E)c(X&i$4'@,P;b<L9L;?<F<R/D63,%,O(h*J597-0g5xCPE!;_9<4a21@Z@^9e>25G5l9h0G>R;-6p>ABb?V/0/)0<3e2'.a1U0G",
"5t1c3G/&1n///J*R*x3L/&-s8^7M;P26$;!N(,,9)/&X0/56)v.T3U+J)`2d*%*_0>)j)?1}*c3`4g5r7i>e5<A6@f7~,X-H0y7c8-6Z3u9w4@0n4X>R/&55;C9U5D8i",
">P9@?c>`E*=O8o2h3U>F9N4%E6E4DF9.$w&TCYE^E?@vB=D`1(86D(6E@TDKCcDX:N>%@wB8?{:j8#:.:GE9D0>Q?$4Z4,2b3Q0E-j5s7|7!3B.g7,AJ='=;8F?F;Q=M",
";w6xBj=2<XA.;d95.F7O7G;+:v4P/>)O$b&D4;E|E+D/DmE(<V=P=95,@{<[<,<30n={@#=|9D4_4b>q@+@m3i;e:S806P4sC`;T?142.(6O5Z1b6r8_/%2:/S-x+I-G",
"6H-_0&8O1[-96SD06`91,A1B=t5):O.O#*$/*}7P3';G=W5#.D4u2A.f2`*K3$,8+U.h/l/x=X18*g(l*4;%5$=S>z1g/n/P,24J@45R*m(8)i/n7W1$2*/Q3x-M4V5i",
"DzBMAE?x>)>{A|>T9#BeAo@C@&=G;_/r'(!|(~;.4K8j3J1y7XATAW:F<M>M>U2;9#C<DJD^B*?ODL;/2v0k;*=5AMD%Dt?2?(AwExEnA~@SETEiA7>K@gE1A5=yDC=E",
"/i*/)%+''I't)d'u1_10-[)C+Y)P)m&{%'!{$a*,-n)l,i,<.2+.->)L,N)6(g(v/V(H(A({(L-1,i'7,B-h2-(7'z*]+e+j*I,e-3*w+C+i.Z(?/<.Y0(*p)R)@+D1V",
"$A&#%F&r%K$h&/%-&N&J$h%M%r&*%+&]!x$='2$q&S%G&6&z'C%z&s&p%z&t&H%`'&&j'5%`$s%1&x$[%^&5&L&G'<&+%K$o%F((%N$s%O%0%6$-%y&3$+%M%F$&%y%~",
"!b!-$G#U#%!f#b!1!x!g!u%Y%l%;#t('%w%*'{#]$n'4!Q$8(4%b%@&e%1'T$l%c&'%s'e&a$=#r$B#.&&#U$<%]$k'*#i$9!E!U!w%B$^#h&$!8%f!5#K!M!z#Q#)#F",
";o=b@>=`<CC~D8Ch7D>l=$;fC@8<:cCD>i9}>39H@lEkCf>6Dr;8A94N8B9J;;D#B]=[@o69?mEe:e>;ED>gB_DoB[B~BY7@$7#l1rB{EmEOAiDOE:AcAADQ?k?g?nAB",
",l269`A&Bv=GCv?T:G8yBs7~DjAPBuA]2X.l6+/p=-2!<J@L9r9:CK8Y5/5.=l<(===6;F2#4U:r<1<j28BJ=J1E8*8c3m,r%(%W.)=*Eg:B?%Ay@u=7Bg4]<Z8s:>:i",
"5V=A=g3M5D3F,c8G4$?0:K:X?&CbC7Dk>R85;j6f3y-]5u8eA3>v:IC=?/9^/}7.9R@{4h/06q;tA#37?dBT94>s4;:M9y;0&:&[.u:qC[2i4T1'@N=m@H=G6G9OA$A/",
"=V5B:J;04B2.3b2T5+7}06::4$9^2Z4&.040/26D4Q-29'/k4..w7H7d9c3^/t.05t6#7Z1a:D9%B(@X6#7S6z7r@.4y3;0l#I%]+u,F9s4)8hBc9)06=o9W-P*^+s2g",
"48:L13/H+t6I:U901Z5p-.4)579h:54k)Q8R=t0y:12&/98Q8U2@3P45._+m6u4G/eAO@)?+.{8P:a0S248w2~=+2V._;&/w#($},60g,z4z3f5q8M2)5U8a,@.63S6!",
"Bw,y12595u.<5K.J./)J)f.;1Z/85H4i;^753k8?B,-z7}:490191:.'9b7|>y5F9p6I3U271&1D0g*V5v)?--*A(R-q0o(u%=!A/^7F5n721b2Z6R*z7X6c0j7'7293",
"8f7.201i7V6D5L?i96>K259o@d=>=,>'1I428b9x>26N3]>}3b<2<0::</:MD2@9?R?PEA@c6S4t5[8_@}:m389t5:5NBp.=$y#0+g1z,m/v2a@b7(6p6O7c5|=K4d>&"
};
